app/src/main/assets/cube/Anime03.cube
# LUT by SparkleStock. Enhanced with VOXCOLOR algorithms.
LUT_3D_SIZE 8
DOMAIN_MIN 0.000000 0.000000 0.000000
DOMAIN_MAX 0.903226 0.903226 0.903226
0.093842 0.101662 0.105572
0.193990 0.098508 0.068868
0.400214 0.128654 0.017028
0.610097 0.189071 0.000000
0.782518 0.238640 0.000000
0.840539 0.255416 0.000000
0.872576 0.267398 0.000000
0.902469 0.283291 0.000000
0.098004 0.143790 0.118059
0.217247 0.132312 0.073974
0.429953 0.159776 0.017060
0.653380 0.221360 0.003910
0.799733 0.256234 0.003910
0.854116 0.274173 0.003910
0.892000 0.290635 0.003910
0.918890 0.302487 0.000000
0.100653 0.248100 0.125627
0.209187 0.248133 0.102895
0.463915 0.262662 0.023135
0.667950 0.305885 0.003812
0.815821 0.329837 0.000879
0.876217 0.349294 0.003568
0.913544 0.357305 0.003910
0.937985 0.366082 0.000277
0.065210 0.408413 0.131303
0.234771 0.408246 0.076330
0.470067 0.409788 0.042807
0.689283 0.421807 0.000000
0.829142 0.430348 0.000000
0.887610 0.431898 0.000000
0.916051 0.430319 0.000000
0.938380 0.435080 0.000000
0.038722 0.567591 0.124365
0.252332 0.573144 0.051783
0.516764 0.573022 0.000000
0.698743 0.555653 0.004850
0.835896 0.533519 0.000000
0.896215 0.517138 0.000000
0.920241 0.512976 0.000000
0.943812 0.508203 0.000000
0.051966 0.682496 0.175449
0.275300 0.680946 0.101462
0.561703 0.682622 0.006774
0.718997 0.673643 0.030617
0.838626 0.625936 0.037986
0.899596 0.592198 0.035008
0.921531 0.576672 0.014493
0.943401 0.566203 0.010408
0.139627 0.758932 0.234982
0.327241 0.760095 0.191829
0.593517 0.749631 0.114836
0.755742 0.728660 0.117009
0.840262 0.702588 0.174098
0.890153 0.668764 0.156358
0.922434 0.635962 0.120122
0.936524 0.626189 0.086559
0.254407 0.810015 0.276101
0.390677 0.804087 0.232496
0.623922 0.789606 0.188290
0.800250 0.763761 0.212010
0.853453 0.745212 0.241492
0.882219 0.723180 0.231772
0.910541 0.691199 0.199666
0.930425 0.677072 0.180742
0.053732 0.138870 0.136222
0.107460 0.119019 0.129887
0.323689 0.120264 0.048556
0.536835 0.171917 0.003751
0.695939 0.218146 0.003528
0.813485 0.250570 0.002559
0.849465 0.261092 0.000000
0.872336 0.271308 0.000000
0.048072 0.182040 0.154100
0.128723 0.143689 0.139676
0.361303 0.154572 0.050434
0.559519 0.199586 0.008973
0.725897 0.245036 0.005306
0.836527 0.275145 0.006624
0.858755 0.279715 0.003920
0.885225 0.290161 0.002152
0.003186 0.306373 0.210615
0.094827 0.270456 0.191134
0.381433 0.251961 0.095372
0.600309 0.298092 0.015959
0.751937 0.326932 0.008455
0.847759 0.344648 0.006261
0.889205 0.359319 0.005863
0.911467 0.361281 0.002515
0.000000 0.479164 0.248365
0.008242 0.448192 0.221769
0.364671 0.439549 0.118166
0.599461 0.411174 0.033436
0.762158 0.426315 0.008441
0.862325 0.434899 0.004955
0.899832 0.436637 0.003479
0.922730 0.441319 0.002600
0.000000 0.606874 0.290501
0.002938 0.607785 0.271800
0.260366 0.609481 0.126890
0.582950 0.563376 0.075595
0.752040 0.534033 0.034392
0.864350 0.525136 0.020437
0.905822 0.524834 0.029655
0.925058 0.517827 0.024896
0.001058 0.716804 0.344367
0.009863 0.711375 0.352186
0.232290 0.719716 0.222074
0.518674 0.700945 0.154192
0.735050 0.650416 0.178490
0.853335 0.610778 0.156494
0.904032 0.592527 0.127732
0.925722 0.585558 0.113607
0.014713 0.779267 0.399710
0.107413 0.780199 0.432227
0.265851 0.784834 0.315206
0.493389 0.785302 0.277595
0.699786 0.743134 0.279726
0.828957 0.703217 0.307670
0.892200 0.664551 0.286583
0.915583 0.646407 0.229107
0.086286 0.824129 0.430840
0.185747 0.826819 0.461120
0.315135 0.830681 0.396027
0.519559 0.821167 0.356508
0.689351 0.797704 0.360583
0.810513 0.770019 0.378646
0.875679 0.728604 0.368423
0.915787 0.702327 0.312141
0.010217 0.187809 0.234352
0.013622 0.183647 0.237033
0.090444 0.156659 0.216824
0.361020 0.154275 0.155646
0.545509 0.195251 0.096885
0.677561 0.243974 0.061121
0.772806 0.266906 0.030113
0.825305 0.285260 0.017105
0.006372 0.224920 0.249650
0.010348 0.210920 0.244595
0.136088 0.190934 0.227732
0.406987 0.200981 0.175823
0.576456 0.238741 0.116658
0.702637 0.270032 0.069942
0.778955 0.292446 0.041040
0.835050 0.312941 0.024278
0.000000 0.359588 0.312724
0.000826 0.341673 0.314909
0.251051 0.274097 0.266955
0.468979 0.292170 0.218837
0.617977 0.330797 0.176756
0.730541 0.355470 0.146209
0.799098 0.370493 0.110231
0.853692 0.386445 0.100930
0.000000 0.506275 0.405089
0.000026 0.491632 0.414296
0.131684 0.443112 0.356215
0.486797 0.416788 0.293445
0.644972 0.428819 0.248636
0.748339 0.448854 0.230318
0.814029 0.468231 0.230896
0.851738 0.474358 0.233135
0.000000 0.610968 0.468443
0.000000 0.629562 0.485973
0.024468 0.604046 0.457920
0.396889 0.569565 0.373099
0.622664 0.537206 0.352769
0.743533 0.540041 0.316414
0.821939 0.549171 0.310639
0.865386 0.554578 0.307052
0.003296 0.709456 0.526598
0.014430 0.712586 0.541996
0.049755 0.729485 0.563186
0.321092 0.688449 0.478915
0.553467 0.654434 0.440243
0.721797 0.629073 0.448363
0.815211 0.621988 0.411241
0.862485 0.617489 0.388745
0.065914 0.762406 0.575708
0.095551 0.774475 0.595985
0.200035 0.807387 0.640835
0.313817 0.773658 0.595483
0.509194 0.730907 0.527344
0.712072 0.707584 0.520289
0.807271 0.686115 0.497762
0.855761 0.675295 0.463219
0.205574 0.809185 0.619662
0.229264 0.824746 0.651895
0.282313 0.850953 0.692934
0.341152 0.812767 0.641849
0.533622 0.772721 0.575697
0.715495 0.748165 0.545132
0.811431 0.727897 0.539915
0.853185 0.720187 0.524461
0.000000 0.241415 0.352285
0.000000 0.239572 0.350393
0.000000 0.240125 0.345669
0.049989 0.247030 0.340599
0.330675 0.274909 0.312614
0.517972 0.323250 0.287547
0.599498 0.362998 0.292616
0.641666 0.385022 0.294948
0.000000 0.265087 0.368283
0.000207 0.260790 0.362471
0.004749 0.260157 0.366258
0.094454 0.271631 0.360837
0.399028 0.316691 0.342372
0.543814 0.364320 0.314318
0.627702 0.397569 0.314562
0.663121 0.414818 0.326706
0.000000 0.319759 0.406887
0.000252 0.329792 0.417035
0.023932 0.314743 0.401561
0.309425 0.359098 0.402981
0.508147 0.417470 0.391160
0.607277 0.443606 0.375297
0.659597 0.474161 0.390369
0.695484 0.493141 0.400480
0.000000 0.394018 0.463703
0.000252 0.391469 0.462101
0.100304 0.406344 0.435377
0.461435 0.465840 0.437111
0.566501 0.500563 0.441394
0.631355 0.525899 0.450246
0.689767 0.552299 0.464394
0.730611 0.565411 0.476160
0.000000 0.466498 0.491920
0.000323 0.478170 0.501696
0.165850 0.513805 0.496165
0.435062 0.555254 0.503211
0.591373 0.578153 0.515836
0.659849 0.594383 0.517392
0.710847 0.609802 0.530214
0.744317 0.622539 0.540093
0.000732 0.548805 0.550225
0.017658 0.558358 0.541810
0.175578 0.592133 0.549564
0.436416 0.623124 0.565502
0.580891 0.639931 0.568756
0.692632 0.648245 0.576034
0.728955 0.662964 0.588596
0.755526 0.670868 0.594832
0.016723 0.602151 0.569023
0.057245 0.613420 0.573604
0.148057 0.649804 0.596527
0.451304 0.672181 0.610215
0.604910 0.681175 0.612595
0.702298 0.694589 0.627368
0.752650 0.701683 0.628940
0.773449 0.709744 0.636033
0.047116 0.655520 0.605845
0.076353 0.670772 0.619106
0.166178 0.690402 0.636060
0.458874 0.699321 0.646251
0.621869 0.712540 0.648454
0.716250 0.728041 0.659783
0.764319 0.734187 0.664734
0.795045 0.741981 0.672004
0.000000 0.297417 0.478542
0.000000 0.308635 0.480173
0.000000 0.320634 0.470217
0.000000 0.336595 0.483827
0.027606 0.338671 0.449902
0.327819 0.395202 0.450004
0.500399 0.472992 0.467809
0.559042 0.511784 0.482387
0.000000 0.317224 0.489080
0.000000 0.323567 0.481039
0.002909 0.341284 0.492601
0.004689 0.351020 0.500584
0.066593 0.363055 0.481235
0.393321 0.430481 0.473119
0.533701 0.498680 0.485106
0.588750 0.542714 0.503063
0.000000 0.347365 0.506287
0.000000 0.355681 0.505452
0.003386 0.361589 0.511767
0.042647 0.384827 0.512452
0.339560 0.454488 0.518590
0.535132 0.521691 0.511717
0.605444 0.570695 0.531273
0.647406 0.594526 0.549027
0.000000 0.374634 0.519156
0.000000 0.380402 0.532981
0.012569 0.401574 0.529147
0.302313 0.475078 0.534925
0.528060 0.550008 0.541504
0.621993 0.598094 0.560250
0.668207 0.616222 0.567615
0.690002 0.644033 0.593404
0.000000 0.385551 0.537909
0.000000 0.401156 0.539393
0.093054 0.461614 0.543873
0.467361 0.557147 0.551264
0.610708 0.622815 0.583046
0.676468 0.645561 0.598787
0.702387 0.666501 0.618289
0.719407 0.682674 0.635871
0.000000 0.418621 0.551299
0.014465 0.444299 0.548737
0.285501 0.531799 0.562884
0.548894 0.613439 0.589194
0.666284 0.669900 0.621230
0.713662 0.687355 0.642077
0.726561 0.701534 0.658242
0.740011 0.715670 0.674236
0.012353 0.461982 0.556605
0.117921 0.493468 0.554507
0.443453 0.587548 0.588677
0.592703 0.656676 0.617824
0.697368 0.699165 0.655014
0.737993 0.715461 0.673992
0.751557 0.732742 0.691922
0.761932 0.744876 0.704384
0.103501 0.493621 0.562334
0.229447 0.539793 0.571984
0.511278 0.622893 0.605361
0.641548 0.680977 0.640438
0.720220 0.721009 0.679360
0.757666 0.739208 0.697548
0.773929 0.754857 0.712702
0.786647 0.770214 0.727629
0.000000 0.346483 0.608079
0.000000 0.348138 0.590310
0.000000 0.367331 0.578202
0.000000 0.385717 0.570146
0.000000 0.399214 0.561312
0.022215 0.410826 0.546136
0.272858 0.457592 0.545282
0.483872 0.536758 0.558127
0.000000 0.357204 0.594924
0.000000 0.361010 0.588334
0.000000 0.377738 0.582738
0.000513 0.398313 0.573828
0.002649 0.414033 0.566624
0.079945 0.433296 0.554673
0.329308 0.501489 0.563642
0.524705 0.571232 0.579097
0.000000 0.391873 0.609413
0.000000 0.404085 0.604626
0.000000 0.415136 0.589885
0.000000 0.447761 0.599525
0.030818 0.483559 0.599601
0.257226 0.545451 0.600311
0.469662 0.591755 0.602051
0.604183 0.640453 0.616627
0.000000 0.418007 0.615504
0.000000 0.437002 0.617877
0.000000 0.454553 0.611265
0.005788 0.510309 0.619254
0.172226 0.567545 0.627673
0.508147 0.628490 0.623737
0.617143 0.660189 0.636537
0.689441 0.682525 0.647600
0.000000 0.451326 0.627617
0.000000 0.471983 0.632316
0.000000 0.512723 0.638610
0.090035 0.578539 0.641475
0.405595 0.641724 0.649044
0.667481 0.690432 0.658287
0.721320 0.707369 0.671731
0.741167 0.719603 0.681934
0.000000 0.486138 0.640258
0.000000 0.491314 0.638353
0.011775 0.554664 0.645577
0.323773 0.631251 0.647981
0.606191 0.692006 0.672156
0.724741 0.722580 0.686925
0.753981 0.735203 0.698299
0.764953 0.752938 0.710803
0.000000 0.504256 0.642936
0.000198 0.537080 0.648031
0.102082 0.600535 0.656729
0.426082 0.667162 0.672421
0.670327 0.719262 0.690638
0.754192 0.749048 0.707858
0.774854 0.762684 0.720437
0.788846 0.777309 0.737012
0.000000 0.545770 0.658967
0.006411 0.566846 0.653168
0.263037 0.638464 0.655301
0.550650 0.694147 0.683441
0.700790 0.741092 0.710002
0.777133 0.772745 0.732531
0.796409 0.785100 0.746349
0.814802 0.803451 0.764920
0.000000 0.374736 0.704191
0.000000 0.378658 0.688437
0.000000 0.381547 0.655769
0.000000 0.418927 0.657355
0.000000 0.461461 0.651378
0.000000 0.495903 0.655065
0.000000 0.545050 0.670416
0.036798 0.570020 0.662169
0.000000 0.381490 0.688579
0.000000 0.382065 0.678379
0.000000 0.406752 0.662803
0.000000 0.448229 0.669111
0.000000 0.491639 0.668226
0.000000 0.518883 0.665928
0.000060 0.569322 0.675927
0.066655 0.596409 0.672590
0.000000 0.410728 0.686772
0.000000 0.419896 0.676802
0.000000 0.466310 0.682159
0.000000 0.520981 0.694554
0.000000 0.560416 0.703640
0.000299 0.592117 0.698289
0.030484 0.624432 0.696640
0.194288 0.644496 0.692744
0.000000 0.452091 0.699011
0.000000 0.473927 0.695962
0.000000 0.529013 0.709198
0.000000 0.578392 0.718825
0.000000 0.615494 0.723744
0.047911 0.653752 0.717620
0.311237 0.677947 0.702683
0.493830 0.696112 0.702645
0.000000 0.506279 0.721345
0.000000 0.521305 0.718413
0.000000 0.571560 0.726934
0.000000 0.623103 0.731755
0.024558 0.660174 0.727018
0.300823 0.691277 0.720246
0.609103 0.727467 0.713717
0.672135 0.734055 0.713547
0.000000 0.540122 0.731228
0.000000 0.560745 0.733747
0.000000 0.612288 0.738769
0.004489 0.655666 0.737693
0.207139 0.693050 0.728790
0.511828 0.726849 0.728378
0.729541 0.765122 0.730187
0.772087 0.781364 0.744641
0.000000 0.570032 0.744760
0.000000 0.589453 0.745337
0.000000 0.635987 0.744140
0.061447 0.683788 0.735892
0.448672 0.723730 0.728674
0.687131 0.764899 0.739139
0.786032 0.794548 0.758667
0.819600 0.810125 0.772937
0.000000 0.596454 0.758016
0.000000 0.615301 0.735721
0.000838 0.663994 0.741791
0.201975 0.698417 0.735307
0.543733 0.748927 0.743706
0.718050 0.785718 0.757706
0.814459 0.817456 0.781822
0.839969 0.828614 0.794890
0.000000 0.388106 0.778356
0.000000 0.393102 0.760258
0.000000 0.408185 0.731988
0.000000 0.454540 0.742266
0.000000 0.504419 0.748027
0.000000 0.548602 0.746058
0.000000 0.582515 0.754432
0.000000 0.626905 0.766243
0.000000 0.398172 0.763485
0.000000 0.408276 0.766682
0.000000 0.434959 0.742506
0.000000 0.484650 0.749741
0.000000 0.529378 0.751550
0.000000 0.568608 0.758017
0.000000 0.609674 0.761622
0.000000 0.638664 0.766424
0.000000 0.448828 0.761226
0.000000 0.462787 0.760879
0.000000 0.508811 0.765962
0.000000 0.552416 0.769004
0.000000 0.590196 0.772766
0.000000 0.627769 0.774073
0.000000 0.654854 0.776282
0.000000 0.677517 0.778246
0.000000 0.496090 0.772139
0.000000 0.513037 0.771465
0.000000 0.561692 0.778360
0.000000 0.607171 0.787489
0.000000 0.650491 0.790690
0.000000 0.676888 0.796850
0.005887 0.702465 0.777699
0.074158 0.711303 0.766964
0.000000 0.544199 0.787087
0.000000 0.553737 0.782981
0.000000 0.598563 0.791188
0.000000 0.653999 0.798644
0.000000 0.689919 0.803437
0.006462 0.716698 0.798220
0.194626 0.729287 0.774740
0.495630 0.753916 0.760123
0.000000 0.571627 0.795062
0.000000 0.585932 0.795495
0.000000 0.634858 0.801121
0.000000 0.677984 0.806610
0.001071 0.720718 0.812950
0.131975 0.743989 0.790255
0.530702 0.768669 0.769473
0.721083 0.794395 0.769987
0.000000 0.598672 0.801837
0.000000 0.612381 0.805820
0.000000 0.668516 0.807976
0.000000 0.709763 0.812999
0.045319 0.736457 0.801719
0.419333 0.768646 0.785687
0.632979 0.801732 0.791067
0.801725 0.827684 0.796196
0.000000 0.622881 0.813542
0.000000 0.640121 0.810134
0.000000 0.688507 0.818601
0.001312 0.729661 0.813742
0.175579 0.756009 0.796349
0.604425 0.795268 0.787403
0.743122 0.825623 0.803180
0.845811 0.849990 0.821615
