app/src/main/assets/cube/Anime01.cube
# LUT by SparkleStock. Enhanced with VOXCOLOR algorithms.
LUT_3D_SIZE 32
0.156403 0.117302 0.027370
0.156403 0.119320 0.029389
0.160187 0.120329 0.030524
0.220730 0.106203 0.018415
0.283039 0.093085 0.007316
0.357708 0.087031 0.003279
0.430864 0.081355 0.000000
0.497462 0.077318 0.000000
0.560023 0.074796 0.000000
0.610475 0.076814 0.000000
0.658405 0.076940 0.000000
0.700785 0.072904 0.000000
0.743165 0.071895 0.000000
0.785545 0.075931 0.000000
0.820862 0.079084 0.000000
0.847097 0.081102 0.000000
0.871315 0.081102 0.000000
0.893514 0.079084 0.000000
0.906631 0.079337 0.000000
0.912686 0.081355 0.000000
0.917479 0.088418 0.000000
0.921515 0.098508 0.000000
0.926938 0.101662 0.000000
0.932993 0.101662 0.000000
0.937534 0.104689 0.000000
0.941570 0.108725 0.000000
0.952165 0.116041 0.000000
0.964273 0.124113 0.000000
0.969319 0.126888 0.000000
0.973355 0.128906 0.000000
0.975499 0.134708 0.000000
0.977517 0.140762 0.000000
0.156403 0.119320 0.029389
0.156403 0.120297 0.030365
0.160187 0.120394 0.030524
0.220730 0.107309 0.018415
0.282908 0.095103 0.007316
0.356536 0.089049 0.003279
0.429042 0.083177 0.000000
0.496680 0.078100 0.000000
0.560023 0.074796 0.000000
0.610475 0.076814 0.000000
0.658731 0.076940 0.000000
0.702152 0.072904 0.000000
0.744012 0.071895 0.000000
0.783267 0.075931 0.000000
0.817737 0.079084 0.000000
0.846056 0.081102 0.000000
0.872356 0.081102 0.000000
0.896639 0.079084 0.000000
0.909496 0.079922 0.000000
0.913467 0.082982 0.000000
0.917479 0.089785 0.000000
0.921515 0.098834 0.000000
0.926938 0.101662 0.000000
0.932993 0.101662 0.000000
0.939096 0.107033 0.000000
0.945215 0.114194 0.000000
0.954508 0.119556 0.000000
0.964534 0.124504 0.000000
0.970230 0.128711 0.000000
0.975308 0.132812 0.000000
0.975564 0.136791 0.000000
0.975499 0.140762 0.000000
0.156403 0.122852 0.030902
0.156403 0.122852 0.030902
0.160199 0.122083 0.030149
0.220937 0.109779 0.018106
0.283222 0.098281 0.007080
0.356329 0.092422 0.003174
0.428521 0.086538 0.000000
0.496746 0.080549 0.000000
0.560495 0.076562 0.000000
0.610817 0.078580 0.000000
0.659329 0.078767 0.000000
0.703857 0.074926 0.000000
0.745285 0.073966 0.000000
0.781546 0.077807 0.000000
0.815158 0.080736 0.000000
0.845364 0.082494 0.000000
0.873520 0.082299 0.000000
0.899625 0.080150 0.000000
0.912218 0.081517 0.000037
0.914301 0.085619 0.000102
0.917686 0.092283 0.000126
0.921853 0.100486 0.000126
0.927272 0.103139 0.000126
0.933261 0.103269 0.000126
0.940911 0.110674 0.000126
0.949113 0.120504 0.000126
0.957051 0.124040 0.000073
0.964928 0.126123 0.000008
0.971154 0.131624 0.000000
0.977143 0.137613 0.000000
0.975686 0.139757 0.000000
0.973733 0.141645 0.000000
0.156403 0.149087 0.024848
0.156403 0.149087 0.024848
0.160394 0.148123 0.024160
0.224257 0.132694 0.013158
0.290187 0.118852 0.003304
0.370586 0.116118 0.001481
0.447530 0.112969 0.000000
0.509505 0.108021 0.000000
0.568046 0.104815 0.000000
0.616285 0.106833 0.000000
0.664016 0.107997 0.000000
0.710627 0.107281 0.000000
0.752967 0.107102 0.000000
0.788186 0.107818 0.000000
0.820756 0.107167 0.000000
0.849921 0.104758 0.000000
0.876514 0.101438 0.000000
0.900536 0.097206 0.000000
0.912804 0.098248 0.000623
0.915928 0.103391 0.001729
0.921006 0.111748 0.002144
0.927256 0.122034 0.002144
0.932610 0.126770 0.002144
0.937558 0.128983 0.002144
0.946509 0.133785 0.002144
0.956795 0.139448 0.002144
0.962585 0.143049 0.001245
0.967337 0.146174 0.000138
0.972260 0.150894 0.000000
0.977208 0.155841 0.000000
0.976663 0.155967 0.000000
0.975751 0.155772 0.000000
0.155646 0.176836 0.018794
0.155516 0.176836 0.018794
0.159540 0.175693 0.018187
0.225877 0.157400 0.008487
0.294736 0.141328 0.000000
0.381254 0.140807 0.000000
0.462365 0.139725 0.000000
0.520043 0.136210 0.000000
0.575036 0.134143 0.000033
0.621973 0.136421 0.000163
0.669216 0.138618 0.000252
0.717129 0.140636 0.000252
0.759990 0.141190 0.000252
0.794427 0.139302 0.000252
0.826046 0.135534 0.000252
0.854039 0.129350 0.000252
0.879005 0.123426 0.000252
0.900943 0.117762 0.000252
0.913105 0.118763 0.001387
0.917662 0.124947 0.003406
0.924334 0.134183 0.004081
0.932277 0.145250 0.003951
0.937802 0.151573 0.003910
0.942229 0.155740 0.003910
0.952124 0.158295 0.003910
0.963842 0.160313 0.003910
0.967679 0.163865 0.002270
0.969697 0.167771 0.000252
0.973367 0.171563 0.000000
0.977273 0.175339 0.000000
0.977761 0.174293 0.000000
0.978022 0.172926 0.000000
0.149592 0.215180 0.012739
0.148420 0.215180 0.012739
0.151337 0.213971 0.012328
0.215591 0.194637 0.005753
0.282367 0.177133 0.000000
0.366802 0.172446 0.000000
0.447977 0.168760 0.000000
0.515030 0.169411 0.000000
0.578096 0.170989 0.000293
0.629200 0.175351 0.001465
0.678004 0.178980 0.002270
0.721751 0.180998 0.002270
0.762398 0.181942 0.002270
0.797878 0.181096 0.002270
0.829170 0.177459 0.002270
0.855080 0.170232 0.002270
0.877963 0.165350 0.002270
0.897818 0.162811 0.002270
0.911412 0.165765 0.003406
0.920136 0.172991 0.005424
0.927720 0.177410 0.005448
0.934620 0.180144 0.004276
0.941968 0.184579 0.003910
0.949520 0.189787 0.003910
0.957853 0.192602 0.003910
0.966446 0.194621 0.003910
0.969697 0.197326 0.002270
0.971715 0.200191 0.000252
0.974474 0.202030 0.000000
0.977338 0.203722 0.000000
0.979714 0.207429 0.000000
0.982058 0.211270 0.000000
0.138618 0.254281 0.007063
0.136991 0.254476 0.007063
0.139558 0.253471 0.006835
0.205049 0.234462 0.003190
0.272403 0.216478 0.000000
0.352801 0.205671 0.000000
0.432382 0.197831 0.000000
0.508419 0.202843 0.000000
0.579215 0.208117 0.000505
0.634290 0.214171 0.002523
0.684644 0.218903 0.003910
0.724616 0.220726 0.003910
0.763147 0.221865 0.003910
0.799277 0.221865 0.003910
0.830452 0.218504 0.003910
0.855255 0.210822 0.003910
0.877129 0.206981 0.004008
0.896073 0.206981 0.004203
0.910952 0.211412 0.005314
0.922670 0.219289 0.007137
0.930971 0.219721 0.006681
0.937220 0.215684 0.004858
0.945976 0.218048 0.004154
0.955871 0.223321 0.003959
0.963032 0.226300 0.003910
0.969282 0.228513 0.003910
0.972093 0.230568 0.002429
0.974112 0.232586 0.000606
0.975959 0.233009 0.000208
0.977782 0.233204 0.000012
0.981496 0.240052 0.000000
0.985337 0.247343 0.000000
0.106329 0.296661 0.003027
0.106784 0.297898 0.003027
0.112281 0.298260 0.002929
0.193396 0.285500 0.001367
0.272858 0.271162 0.000000
0.340758 0.245773 0.000000
0.411550 0.227061 0.000000
0.494878 0.237281 0.000000
0.571924 0.246460 0.000505
0.630123 0.252515 0.002523
0.681975 0.256921 0.003910
0.719864 0.257702 0.003910
0.756702 0.258191 0.003910
0.791791 0.258191 0.003910
0.823747 0.255741 0.003910
0.851675 0.250143 0.003910
0.877194 0.247343 0.004529
0.900304 0.247343 0.005765
0.915835 0.251188 0.006746
0.925470 0.258024 0.007527
0.933640 0.258065 0.007332
0.940931 0.254028 0.006551
0.949296 0.253528 0.005456
0.958150 0.254635 0.004219
0.965832 0.257352 0.003910
0.973123 0.260607 0.003910
0.976130 0.262858 0.003275
0.978148 0.264876 0.002494
0.979084 0.266210 0.001314
0.979865 0.267447 0.000077
0.982538 0.270454 0.000000
0.985337 0.273579 0.000000
0.072021 0.341059 0.000000
0.073779 0.342817 0.000000
0.081473 0.344041 0.000000
0.178211 0.337271 0.000000
0.270596 0.327066 0.000000
0.332506 0.292824 0.000000
0.398628 0.266674 0.000049
0.482997 0.275593 0.000309
0.561605 0.283860 0.000944
0.622930 0.290175 0.002702
0.676767 0.294679 0.003829
0.714135 0.295200 0.003568
0.750452 0.295428 0.003503
0.785020 0.295167 0.003764
0.817709 0.293255 0.003910
0.847980 0.289219 0.003910
0.876234 0.287331 0.004789
0.902469 0.287591 0.006547
0.918341 0.290671 0.007316
0.926153 0.295945 0.007316
0.934291 0.295562 0.007316
0.942624 0.291786 0.007316
0.951135 0.289398 0.006107
0.959729 0.287640 0.004349
0.967345 0.289642 0.003910
0.974636 0.292897 0.003910
0.978066 0.295570 0.003910
0.980605 0.298109 0.003910
0.980923 0.299509 0.002144
0.980923 0.300746 0.000126
0.983303 0.300823 0.000000
0.985842 0.300823 0.000000
0.031659 0.391511 0.000000
0.032375 0.392227 0.000000
0.040069 0.392801 0.000000
0.152432 0.391239 0.000000
0.260180 0.386633 0.000000
0.335631 0.360723 0.000000
0.409434 0.337438 0.000244
0.476097 0.325524 0.001546
0.542206 0.318428 0.002702
0.606655 0.325785 0.003418
0.663943 0.331656 0.003503
0.705476 0.334260 0.002201
0.744789 0.335399 0.001876
0.780398 0.334097 0.003178
0.813673 0.331599 0.003910
0.843944 0.327563 0.003910
0.872198 0.326196 0.004268
0.898433 0.327498 0.004984
0.913719 0.329276 0.005298
0.920490 0.331424 0.005298
0.928887 0.330521 0.005298
0.938262 0.327787 0.005298
0.948531 0.326440 0.004805
0.959208 0.325724 0.004089
0.965002 0.325642 0.003910
0.969168 0.325773 0.003910
0.973705 0.329552 0.003910
0.978327 0.334175 0.003910
0.978905 0.333100 0.002144
0.978905 0.331212 0.000126
0.983238 0.331095 0.000000
0.987860 0.331095 0.000000
0.003279 0.440703 0.000000
0.003279 0.441679 0.000000
0.010221 0.442639 0.000000
0.121281 0.443355 0.000000
0.230600 0.441703 0.000000
0.327730 0.423475 0.000000
0.416986 0.403685 0.000317
0.472126 0.377124 0.002010
0.529072 0.358164 0.003279
0.591438 0.362005 0.003279
0.648799 0.365907 0.002750
0.695150 0.369943 0.001058
0.737864 0.371831 0.000635
0.774515 0.370138 0.002327
0.808375 0.367563 0.003279
0.838647 0.363852 0.003279
0.867063 0.362843 0.003279
0.893624 0.364536 0.003279
0.908833 0.365093 0.003279
0.915212 0.364767 0.003279
0.924115 0.363994 0.003483
0.934531 0.362953 0.003808
0.945663 0.362180 0.003910
0.957120 0.361529 0.003910
0.961743 0.359852 0.003666
0.964086 0.357834 0.003340
0.969445 0.361846 0.003279
0.975499 0.367249 0.003279
0.976541 0.364963 0.001798
0.976866 0.361578 0.000106
0.982562 0.361366 0.000000
0.988617 0.361366 0.000000
0.001261 0.487119 0.000000
0.001261 0.491220 0.000000
0.005794 0.494849 0.000000
0.078315 0.491399 0.000000
0.158860 0.486883 0.000000
0.295570 0.474904 0.000000
0.417376 0.459997 0.000122
0.474599 0.432394 0.000773
0.529723 0.409267 0.001261
0.578548 0.399567 0.001261
0.628553 0.394160 0.001058
0.681153 0.398196 0.000407
0.728164 0.400475 0.000244
0.765857 0.399824 0.000895
0.800303 0.398290 0.001261
0.830574 0.395621 0.001261
0.859511 0.394612 0.001261
0.887114 0.395263 0.001261
0.903364 0.394779 0.001261
0.910786 0.393411 0.001261
0.920730 0.394201 0.002116
0.932187 0.396284 0.003483
0.942213 0.395055 0.003910
0.951587 0.392321 0.003910
0.956469 0.390124 0.002885
0.959855 0.388106 0.001518
0.965409 0.390425 0.001261
0.971463 0.393745 0.001261
0.973416 0.393021 0.000692
0.974783 0.391719 0.000041
0.980544 0.391637 0.000000
0.986599 0.391637 0.000000
0.000000 0.528994 0.000000
0.000000 0.533877 0.000000
0.002685 0.538247 0.000000
0.045651 0.534927 0.000000
0.103818 0.531013 0.000000
0.268391 0.522940 0.000000
0.413446 0.511743 0.000000
0.473924 0.487005 0.000000
0.529373 0.463422 0.000000
0.569735 0.443307 0.000000
0.613921 0.429395 0.000244
0.666522 0.429135 0.001025
0.714509 0.428826 0.001221
0.754806 0.428435 0.000439
0.790888 0.427504 0.000000
0.821550 0.425876 0.000000
0.851398 0.425062 0.000000
0.880433 0.425062 0.000000
0.897896 0.423927 0.000000
0.906359 0.421909 0.000000
0.916612 0.422454 0.001017
0.927939 0.424537 0.002645
0.936760 0.422951 0.003153
0.944442 0.419696 0.003153
0.950269 0.417661 0.001933
0.955477 0.416034 0.000305
0.961372 0.416734 0.000000
0.967427 0.417970 0.000000
0.970633 0.418467 0.000000
0.973432 0.418857 0.000000
0.978551 0.418516 0.000000
0.983824 0.418125 0.000000
0.000000 0.563302 0.000000
0.000000 0.565060 0.000000
0.001774 0.566956 0.000000
0.030158 0.570927 0.000000
0.076606 0.573393 0.000000
0.249512 0.565320 0.000000
0.402314 0.555881 0.000000
0.468000 0.540517 0.000000
0.527355 0.522663 0.000000
0.567717 0.497340 0.000000
0.608648 0.476267 0.000895
0.650833 0.464549 0.003760
0.694263 0.456689 0.004476
0.739768 0.455256 0.001611
0.779235 0.454195 0.000000
0.810938 0.453609 0.000000
0.842349 0.453316 0.000000
0.873467 0.453316 0.000000
0.892427 0.452180 0.000000
0.901932 0.450162 0.000000
0.911274 0.447453 0.000366
0.920518 0.444328 0.000952
0.927972 0.442546 0.001135
0.934612 0.441374 0.001135
0.942522 0.440642 0.000696
0.950855 0.440056 0.000110
0.957336 0.439258 0.000000
0.963390 0.438412 0.000000
0.968419 0.439559 0.000000
0.973302 0.440991 0.000000
0.976598 0.439738 0.000000
0.979787 0.438306 0.000000
0.000000 0.595844 0.000000
0.000000 0.595844 0.000000
0.000976 0.596292 0.000000
0.016600 0.603453 0.000000
0.051331 0.608880 0.000000
0.219810 0.602175 0.000000
0.371615 0.594835 0.000000
0.451167 0.584744 0.000000
0.521492 0.570911 0.000000
0.564132 0.545847 0.000000
0.604799 0.521658 0.001119
0.641125 0.499394 0.004699
0.681479 0.484722 0.006962
0.728546 0.482704 0.007027
0.769547 0.481569 0.005867
0.802748 0.481569 0.003133
0.835493 0.481797 0.001538
0.867783 0.482253 0.001082
0.887329 0.480804 0.000883
0.896964 0.477875 0.000883
0.905907 0.473562 0.001168
0.914435 0.468419 0.001623
0.921576 0.466498 0.001766
0.928086 0.466043 0.001766
0.936939 0.465929 0.002449
0.946574 0.465929 0.003361
0.953670 0.464659 0.004642
0.960180 0.463097 0.006010
0.966291 0.463870 0.004984
0.972346 0.464977 0.003617
0.974189 0.462299 0.002677
0.975751 0.459370 0.001766
0.000000 0.626115 0.000000
0.000000 0.626115 0.000000
0.000325 0.626433 0.000000
0.005533 0.631511 0.000000
0.028546 0.635506 0.000000
0.176193 0.631926 0.000000
0.315759 0.627125 0.000000
0.420310 0.617034 0.000000
0.510685 0.605023 0.000000
0.558534 0.587251 0.000000
0.602781 0.565145 0.000793
0.639107 0.533507 0.003332
0.678289 0.512976 0.008459
0.722232 0.510958 0.017898
0.762386 0.509822 0.019278
0.797670 0.509822 0.010294
0.831457 0.510571 0.005053
0.863747 0.512068 0.003556
0.882707 0.509904 0.002901
0.891300 0.504891 0.002901
0.900504 0.501099 0.003837
0.910074 0.498039 0.005334
0.918256 0.496054 0.005802
0.925807 0.494557 0.005802
0.934140 0.494182 0.008048
0.942733 0.494182 0.011043
0.950480 0.493759 0.015254
0.958032 0.493238 0.019746
0.964273 0.492319 0.016377
0.970328 0.491342 0.011885
0.971194 0.486582 0.008797
0.971715 0.481569 0.005802
0.000000 0.657396 0.000000
0.000000 0.657396 0.000000
0.000000 0.657551 0.000000
0.000000 0.660024 0.000000
0.015461 0.662132 0.000000
0.139151 0.661676 0.000000
0.263159 0.659512 0.000000
0.388541 0.649942 0.000000
0.496233 0.639494 0.000000
0.550852 0.626408 0.000000
0.600893 0.607688 0.000468
0.640865 0.576570 0.001965
0.679982 0.553240 0.010152
0.717675 0.542889 0.029486
0.754314 0.536383 0.038027
0.789598 0.534821 0.032688
0.824687 0.534788 0.027969
0.859580 0.536286 0.023867
0.879387 0.534121 0.020315
0.887459 0.529108 0.017190
0.896142 0.526293 0.016629
0.905191 0.524795 0.017605
0.914643 0.523298 0.017553
0.924278 0.521801 0.017032
0.932350 0.521427 0.019538
0.939902 0.521427 0.023054
0.947453 0.521003 0.027362
0.955005 0.520483 0.031854
0.960790 0.517285 0.028485
0.966324 0.513704 0.023993
0.968623 0.510246 0.021393
0.970706 0.506795 0.018920
0.000000 0.689686 0.000000
0.000000 0.689686 0.000000
0.000000 0.689645 0.000000
0.000000 0.688994 0.000000
0.012076 0.688758 0.000000
0.108684 0.691427 0.000000
0.213813 0.691997 0.000000
0.355861 0.683469 0.000000
0.478135 0.674322 0.000000
0.541087 0.663320 0.000000
0.599136 0.649287 0.000142
0.646398 0.628585 0.000598
0.686557 0.605515 0.012039
0.714875 0.578499 0.041790
0.745330 0.561251 0.062114
0.778531 0.556564 0.070316
0.815182 0.554449 0.070284
0.855284 0.554904 0.062016
0.877369 0.553456 0.053126
0.885441 0.550526 0.043751
0.892822 0.549143 0.039544
0.899788 0.548687 0.038437
0.910737 0.548231 0.037017
0.923496 0.547776 0.035455
0.931569 0.547662 0.036920
0.938079 0.547662 0.039394
0.944589 0.546392 0.040968
0.951099 0.544830 0.042335
0.955843 0.538768 0.041310
0.960335 0.532062 0.039943
0.966475 0.533291 0.040468
0.972724 0.535049 0.041119
0.000000 0.714029 0.000000
0.000000 0.714615 0.000000
0.000000 0.715111 0.000000
0.000000 0.714265 0.000000
0.008837 0.713882 0.000000
0.079536 0.716747 0.000000
0.166737 0.718000 0.000000
0.325451 0.712271 0.000000
0.461575 0.705745 0.000000
0.529930 0.696826 0.000000
0.592508 0.686382 0.000000
0.642374 0.672581 0.000000
0.684380 0.651309 0.011327
0.713284 0.617587 0.041534
0.742132 0.593150 0.071370
0.770906 0.580651 0.100730
0.805311 0.574402 0.112415
0.845348 0.574402 0.106426
0.869052 0.572937 0.097324
0.880054 0.570333 0.085802
0.888696 0.568624 0.078389
0.895922 0.567452 0.073441
0.907087 0.566683 0.068493
0.920042 0.566097 0.063546
0.928261 0.565511 0.063383
0.934901 0.564926 0.064815
0.941541 0.563652 0.064132
0.948181 0.562220 0.062960
0.952543 0.556515 0.062301
0.956579 0.550201 0.061715
0.963301 0.551942 0.061922
0.970201 0.554221 0.062183
0.000000 0.732192 0.000000
0.000000 0.733819 0.000000
0.000000 0.735422 0.000000
0.000000 0.736659 0.000000
0.005713 0.737839 0.000000
0.051413 0.738620 0.000000
0.121428 0.738962 0.000000
0.296807 0.737400 0.000000
0.446212 0.734519 0.000000
0.517691 0.727684 0.000000
0.582092 0.719973 0.000000
0.630917 0.710339 0.000000
0.675396 0.692062 0.008593
0.712633 0.659382 0.031508
0.743434 0.630518 0.069091
0.765958 0.606561 0.125533
0.795156 0.594583 0.154405
0.831026 0.594583 0.155707
0.855837 0.592532 0.150381
0.872047 0.588886 0.139900
0.883944 0.585485 0.129622
0.893253 0.582230 0.119467
0.903637 0.580094 0.109311
0.914508 0.578466 0.099155
0.922988 0.576839 0.096909
0.930670 0.575211 0.097300
0.938351 0.574589 0.094729
0.946033 0.574198 0.091474
0.950525 0.571358 0.089643
0.954561 0.568168 0.088015
0.959330 0.567176 0.085228
0.964147 0.566329 0.082364
0.000000 0.754139 0.000000
0.000000 0.755506 0.000000
0.000000 0.756954 0.000000
0.000000 0.759623 0.000000
0.003076 0.761959 0.000000
0.027684 0.761959 0.000000
0.081977 0.761593 0.000000
0.264908 0.759640 0.000000
0.422711 0.756499 0.000000
0.505127 0.749793 0.000000
0.577941 0.742254 0.000000
0.629631 0.732879 0.000000
0.676584 0.717353 0.006347
0.715644 0.691574 0.023273
0.747014 0.664142 0.064209
0.768497 0.634587 0.136014
0.794440 0.618181 0.178166
0.824841 0.614926 0.190666
0.847993 0.611598 0.191191
0.865504 0.608213 0.182402
0.879192 0.604421 0.172352
0.890584 0.600385 0.161546
0.901082 0.597736 0.151187
0.911172 0.595718 0.141031
0.918772 0.593700 0.137516
0.925543 0.591682 0.136214
0.932842 0.590245 0.131632
0.940264 0.588943 0.126294
0.944723 0.587584 0.124431
0.948759 0.586217 0.123063
0.953406 0.584850 0.119804
0.958093 0.583483 0.116419
0.000000 0.778356 0.000000
0.000000 0.778681 0.000000
0.000000 0.779218 0.000000
0.000000 0.782929 0.000000
0.000732 0.786176 0.000000
0.006591 0.786176 0.000000
0.046042 0.785224 0.000000
0.231056 0.780146 0.000000
0.394327 0.774401 0.000000
0.492368 0.766654 0.000000
0.577551 0.757748 0.000000
0.634448 0.746290 0.000000
0.683875 0.733368 0.004394
0.720852 0.718004 0.016112
0.751962 0.695520 0.057764
0.775528 0.663882 0.137902
0.799387 0.643831 0.190991
0.823539 0.635368 0.217031
0.843370 0.630347 0.224652
0.859841 0.628003 0.217947
0.874439 0.624602 0.209980
0.887915 0.620566 0.201257
0.899063 0.617917 0.193697
0.909154 0.615899 0.186666
0.915192 0.613881 0.182369
0.919879 0.611863 0.178984
0.925942 0.608734 0.172320
0.932321 0.605349 0.164898
0.936651 0.604641 0.163686
0.940687 0.604315 0.163360
0.946310 0.603990 0.161143
0.952039 0.603664 0.158799
0.000000 0.797023 0.000000
0.000000 0.797023 0.000000
0.000000 0.797231 0.000000
0.000000 0.800551 0.000000
0.000269 0.803546 0.000000
0.002417 0.804262 0.000000
0.038572 0.803977 0.000000
0.222089 0.799355 0.000000
0.384741 0.793870 0.000000
0.484800 0.785798 0.000000
0.572550 0.776240 0.000000
0.633224 0.763415 0.000000
0.685572 0.750859 0.005127
0.724046 0.738751 0.018798
0.756596 0.720633 0.058301
0.781530 0.694788 0.131018
0.803664 0.674314 0.186450
0.822998 0.659211 0.224599
0.838927 0.649857 0.242717
0.852208 0.644974 0.245256
0.866465 0.640621 0.241163
0.881307 0.636584 0.233091
0.893868 0.633936 0.226406
0.905390 0.631918 0.220351
0.911298 0.629899 0.215273
0.915334 0.627881 0.210521
0.921010 0.625387 0.204817
0.927065 0.622783 0.198893
0.931353 0.622458 0.198152
0.935389 0.622458 0.198152
0.941989 0.621115 0.194246
0.948759 0.619683 0.190080
0.000000 0.813168 0.000000
0.000000 0.813168 0.000000
0.000000 0.813311 0.000000
0.000000 0.815589 0.000000
0.000659 0.817802 0.000000
0.005932 0.819560 0.000000
0.044040 0.820512 0.000000
0.224432 0.817973 0.000000
0.383699 0.814051 0.000000
0.479592 0.805979 0.000000
0.565454 0.796096 0.000000
0.629252 0.782229 0.000000
0.684726 0.769022 0.007080
0.726325 0.756914 0.025959
0.761088 0.742897 0.062012
0.787063 0.726426 0.120146
0.807635 0.706994 0.174016
0.822803 0.684600 0.223623
0.834566 0.669712 0.253784
0.843680 0.660663 0.268822
0.857025 0.654747 0.269416
0.872910 0.650711 0.261344
0.887227 0.648062 0.254659
0.900833 0.646044 0.248605
0.907262 0.644026 0.242746
0.911298 0.642008 0.236952
0.916974 0.641206 0.233591
0.923028 0.640686 0.230792
0.927317 0.640621 0.230442
0.931353 0.640621 0.230442
0.938929 0.637325 0.223606
0.946741 0.633809 0.216315
0.000000 0.829313 0.000000
0.000000 0.829313 0.000000
0.000000 0.829439 0.000000
0.000000 0.831457 0.000000
0.000854 0.833378 0.000000
0.007690 0.834614 0.000000
0.045749 0.835095 0.000000
0.219110 0.832295 0.000000
0.374406 0.827787 0.000000
0.475507 0.818152 0.000000
0.567391 0.807358 0.000000
0.639001 0.794012 0.000000
0.699064 0.781131 0.011962
0.739882 0.769022 0.043861
0.772953 0.757398 0.083592
0.796063 0.746396 0.133394
0.813900 0.729958 0.181015
0.826465 0.708085 0.226454
0.835184 0.692839 0.254354
0.840913 0.682748 0.268611
0.852663 0.673512 0.276236
0.868027 0.664789 0.279881
0.881466 0.660675 0.277932
0.894030 0.658657 0.273440
0.901370 0.656053 0.266605
0.906969 0.653254 0.258988
0.912303 0.652729 0.255920
0.917576 0.652729 0.253902
0.921084 0.652729 0.253650
0.924339 0.652729 0.253650
0.931377 0.649678 0.245350
0.938669 0.646423 0.236496
0.000000 0.845458 0.000000
0.000000 0.845458 0.000000
0.000000 0.845584 0.000000
0.000000 0.847602 0.000000
0.000985 0.849392 0.000000
0.008862 0.849587 0.000000
0.046205 0.849026 0.000000
0.211233 0.845185 0.000000
0.362363 0.839375 0.000000
0.471796 0.827657 0.000000
0.572339 0.815756 0.000000
0.653323 0.803452 0.000000
0.718464 0.791221 0.017821
0.757198 0.779113 0.065344
0.787275 0.769311 0.111130
0.806219 0.762476 0.154682
0.820931 0.749683 0.194490
0.831412 0.730935 0.230556
0.837463 0.717056 0.251424
0.840067 0.706966 0.260473
0.849994 0.693824 0.275910
0.864316 0.678851 0.295180
0.875998 0.672784 0.299545
0.886479 0.670766 0.297137
0.894860 0.667381 0.289260
0.902542 0.663540 0.279560
0.907421 0.662820 0.276101
0.911652 0.662820 0.274083
0.914118 0.662820 0.273831
0.916331 0.662820 0.273831
0.922329 0.660745 0.264554
0.928578 0.658531 0.254659
0.000000 0.855044 0.000000
0.000000 0.855044 0.000000
0.000000 0.855117 0.000000
0.000000 0.856289 0.000000
0.001326 0.857314 0.000000
0.011938 0.857314 0.000000
0.050416 0.856716 0.000000
0.209650 0.853526 0.000000
0.358095 0.848530 0.000000
0.474168 0.838114 0.000000
0.580090 0.826640 0.002909
0.663678 0.812839 0.012218
0.729983 0.800624 0.038226
0.767480 0.791054 0.092064
0.796149 0.783023 0.139408
0.813465 0.776968 0.178402
0.826746 0.765283 0.211669
0.835990 0.747966 0.239206
0.842121 0.734714 0.257698
0.845832 0.724624 0.269156
0.853408 0.712336 0.284682
0.863303 0.698730 0.302650
0.871587 0.689018 0.309205
0.879139 0.681076 0.310572
0.887716 0.677333 0.306519
0.896634 0.674989 0.300660
0.902274 0.674550 0.297922
0.907156 0.674550 0.295904
0.910273 0.675290 0.295652
0.913137 0.676137 0.295652
0.919786 0.671917 0.283812
0.926686 0.667360 0.271182
0.000000 0.863116 0.000000
0.000000 0.863116 0.000000
0.000000 0.863124 0.000000
0.000000 0.863254 0.000000
0.001717 0.863368 0.000000
0.015453 0.863368 0.000000
0.055494 0.862966 0.000000
0.209520 0.860817 0.000000
0.355621 0.857123 0.000000
0.477944 0.848790 0.000000
0.588488 0.838097 0.006490
0.673118 0.822213 0.027257
0.739682 0.809868 0.061987
0.776138 0.803423 0.119991
0.803765 0.797149 0.167856
0.820040 0.791095 0.202685
0.832279 0.779930 0.229701
0.840482 0.763655 0.248906
0.847329 0.750859 0.266096
0.853123 0.740769 0.281720
0.858225 0.730434 0.295554
0.862913 0.719953 0.308314
