app/src/main/assets/cube/Anime03.cube
# LUT by SparkleStock. Enhanced with VOXCOLOR algorithms.
LUT_3D_SIZE 32
0.093842 0.101662 0.105572
0.095860 0.103680 0.105572
0.100653 0.105320 0.104437
0.147069 0.101283 0.086274
0.193990 0.098508 0.068868
0.244442 0.104563 0.056759
0.295273 0.110995 0.044272
0.347744 0.119068 0.030145
0.400214 0.128654 0.017028
0.452685 0.142781 0.006937
0.505156 0.157538 0.000000
0.557626 0.173683 0.000000
0.610097 0.189071 0.000000
0.662567 0.203197 0.000000
0.708858 0.216441 0.000000
0.747201 0.228550 0.000000
0.782518 0.238640 0.000000
0.814808 0.246713 0.000000
0.831205 0.251380 0.000000
0.835241 0.253398 0.000000
0.840539 0.255416 0.000000
0.846593 0.257434 0.000000
0.855422 0.260839 0.000000
0.865513 0.264876 0.000000
0.872576 0.267398 0.000000
0.878630 0.269416 0.000000
0.886324 0.274714 0.000000
0.894397 0.280768 0.000000
0.902469 0.283291 0.000000
0.910541 0.285309 0.000000
0.916722 0.289219 0.000000
0.922776 0.293255 0.000000
0.095860 0.103680 0.105572
0.096836 0.104656 0.105572
0.100653 0.105385 0.104437
0.147069 0.102390 0.086274
0.194120 0.100527 0.069128
0.245614 0.106581 0.059103
0.297096 0.112818 0.048113
0.348525 0.119849 0.032945
0.399954 0.128654 0.018785
0.451383 0.142781 0.007653
0.503463 0.157538 0.000000
0.556975 0.173683 0.000000
0.609706 0.189071 0.000000
0.661135 0.203197 0.000000
0.707751 0.216897 0.000456
0.748178 0.230047 0.001497
0.785057 0.240658 0.002018
0.818388 0.248731 0.002018
0.835241 0.253398 0.002018
0.839277 0.255416 0.002018
0.843924 0.258085 0.002018
0.848936 0.261145 0.002018
0.856724 0.263443 0.001302
0.865773 0.265396 0.000260
0.873357 0.268179 0.000000
0.880453 0.271239 0.000000
0.888342 0.275886 0.000000
0.896415 0.280898 0.000000
0.904487 0.284202 0.000000
0.912560 0.287262 0.000000
0.917763 0.289284 0.000000
0.922776 0.291237 0.000000
0.097752 0.106707 0.105950
0.097752 0.106707 0.105950
0.100677 0.106573 0.104807
0.147484 0.104424 0.086514
0.195023 0.103301 0.069474
0.247689 0.109356 0.061206
0.299916 0.115410 0.051474
0.350238 0.121464 0.035394
0.400609 0.129553 0.020323
0.451127 0.143745 0.008280
0.502967 0.158547 0.000020
0.557716 0.174692 0.000085
0.610732 0.190031 0.000126
0.660859 0.204027 0.000126
0.707511 0.217995 0.000981
0.749696 0.231927 0.002934
0.787812 0.242929 0.003910
0.821859 0.251001 0.003910
0.839062 0.255668 0.003910
0.843163 0.257686 0.003910
0.847305 0.260966 0.003910
0.851471 0.265002 0.003910
0.858368 0.266353 0.002567
0.866505 0.266483 0.000614
0.874643 0.269542 0.000126
0.882780 0.273579 0.000126
0.890759 0.277562 0.000073
0.898701 0.281533 0.000008
0.906757 0.285561 0.000000
0.914830 0.289597 0.000000
0.919118 0.289850 0.000000
0.923155 0.289850 0.000000
0.097752 0.124870 0.112005
0.097752 0.124870 0.112005
0.101068 0.124605 0.110731
0.154124 0.120374 0.090355
0.207523 0.117428 0.071101
0.263313 0.123482 0.059709
0.317688 0.129537 0.047633
0.365927 0.135591 0.032595
0.414996 0.143940 0.018566
0.466555 0.159174 0.007564
0.520413 0.174692 0.000346
0.579329 0.190837 0.001453
0.632996 0.205395 0.002144
0.677915 0.217308 0.002144
0.720270 0.228737 0.002543
0.759330 0.239544 0.003454
0.793801 0.248983 0.003910
0.823682 0.257055 0.003910
0.839648 0.261722 0.003910
0.844790 0.263740 0.003910
0.850625 0.267020 0.003910
0.856875 0.271056 0.003910
0.865138 0.273839 0.003283
0.874317 0.276052 0.002372
0.883496 0.279633 0.002144
0.892676 0.283669 0.002144
0.899157 0.286806 0.001245
0.905016 0.289736 0.000138
0.912812 0.293634 0.000000
0.920884 0.297670 0.000000
0.925173 0.297922 0.000000
0.929209 0.297922 0.000000
0.098004 0.143790 0.118059
0.097874 0.143790 0.118059
0.101369 0.143395 0.116696
0.159243 0.137080 0.094887
0.217247 0.132312 0.073974
0.276162 0.138366 0.059326
0.333003 0.144494 0.044728
0.380851 0.150938 0.030341
0.429953 0.159776 0.017060
0.482814 0.175790 0.007100
0.538340 0.191764 0.000842
0.599730 0.207649 0.002730
0.653380 0.221360 0.003910
0.694133 0.231451 0.003910
0.732778 0.240544 0.003910
0.768713 0.248356 0.003910
0.799733 0.256234 0.003910
0.825838 0.264176 0.003910
0.840665 0.268859 0.003910
0.846719 0.271007 0.003910
0.854116 0.274173 0.003910
0.862319 0.277948 0.003910
0.871819 0.282172 0.003910
0.881910 0.286599 0.003910
0.892000 0.290635 0.003910
0.902091 0.294541 0.003910
0.907368 0.296913 0.002270
0.911534 0.298931 0.000252
0.918890 0.302487 0.000000
0.926702 0.306263 0.000000
0.931341 0.306865 0.000000
0.935768 0.307256 0.000000
0.100022 0.168007 0.124113
0.098850 0.168007 0.124113
0.101043 0.167482 0.122945
0.153709 0.159084 0.104262
0.207547 0.152493 0.085562
0.269587 0.158547 0.066748
0.331115 0.165260 0.048373
0.390421 0.174830 0.031903
0.448897 0.185751 0.017321
0.504883 0.200724 0.008402
0.559628 0.215330 0.002535
0.611643 0.229132 0.003381
0.660606 0.241541 0.003910
0.704484 0.251632 0.003910
0.743519 0.259814 0.003910
0.776330 0.265543 0.003910
0.805267 0.271858 0.003910
0.830330 0.278758 0.003910
0.844701 0.283572 0.003910
0.850755 0.286761 0.003910
0.858803 0.289015 0.003910
0.868047 0.290708 0.003910
0.877873 0.296429 0.003910
0.887964 0.303980 0.003910
0.898054 0.308017 0.003910
0.908145 0.310881 0.003910
0.914268 0.313058 0.002270
0.919476 0.315076 0.000252
0.925140 0.316809 0.000000
0.930869 0.318502 0.000000
0.938307 0.321903 0.000000
0.945858 0.325419 0.000000
0.101662 0.192602 0.128654
0.100034 0.192602 0.128654
0.101536 0.192033 0.127681
0.149970 0.182919 0.112123
0.200300 0.175579 0.095782
0.263903 0.180657 0.073974
0.328556 0.187016 0.052739
0.397757 0.198929 0.033990
0.464387 0.211396 0.017862
0.523302 0.225523 0.009594
0.577559 0.238897 0.003910
0.621567 0.250615 0.003910
0.666404 0.261796 0.003910
0.712625 0.272081 0.003910
0.752039 0.279548 0.003825
0.782701 0.283388 0.003629
0.810239 0.288336 0.003629
0.834651 0.294390 0.003825
0.848957 0.299419 0.003910
0.855402 0.303651 0.003910
0.863881 0.305238 0.003910
0.873581 0.305238 0.003910
0.883549 0.311638 0.003910
0.893640 0.320947 0.003910
0.903877 0.325081 0.003910
0.914163 0.327490 0.003910
0.920693 0.329422 0.002270
0.926357 0.331245 0.000252
0.930938 0.331644 0.000000
0.935365 0.331839 0.000000
0.944369 0.336978 0.000000
0.953678 0.342446 0.000000
0.101662 0.218838 0.126636
0.102117 0.218838 0.126636
0.105572 0.218594 0.125859
0.154006 0.214688 0.113425
0.203686 0.211254 0.100079
0.262080 0.211123 0.080354
0.323087 0.213056 0.060226
0.395413 0.223928 0.038352
0.464908 0.235613 0.019620
0.525906 0.249740 0.010310
0.580944 0.262463 0.003910
0.622869 0.272098 0.003910
0.666014 0.282367 0.003910
0.711193 0.293695 0.003910
0.750933 0.301291 0.003369
0.783678 0.304090 0.002132
0.812778 0.308517 0.002132
0.838232 0.314571 0.003369
0.854165 0.320186 0.003910
0.862693 0.325459 0.003910
0.870651 0.327437 0.003910
0.878268 0.327437 0.003910
0.887586 0.330972 0.003910
0.897676 0.336115 0.003910
0.908694 0.340770 0.003910
0.920022 0.345262 0.003910
0.925055 0.346739 0.002270
0.928635 0.347520 0.000252
0.934779 0.348700 0.000000
0.941289 0.349937 0.000000
0.946517 0.352211 0.000000
0.951660 0.354555 0.000000
0.100653 0.248100 0.125627
0.102410 0.248100 0.125627
0.107232 0.248116 0.124964
0.158010 0.248377 0.114352
0.209187 0.248133 0.102895
0.263155 0.244357 0.085513
0.320662 0.243035 0.066996
0.393509 0.252344 0.043560
0.463915 0.262662 0.023135
0.526997 0.276008 0.011742
0.583467 0.287868 0.003910
0.625391 0.296461 0.003910
0.667950 0.305885 0.003812
0.711567 0.316691 0.003552
0.751112 0.323653 0.002637
0.785419 0.325671 0.000879
0.815821 0.329837 0.000879
0.842317 0.336152 0.002637
0.859145 0.341881 0.003406
0.868454 0.347154 0.003406
0.876217 0.349294 0.003568
0.883053 0.349554 0.003829
0.892305 0.351023 0.003910
0.902656 0.353041 0.003910
0.913544 0.357305 0.003910
0.924611 0.362318 0.003910
0.928749 0.363893 0.002482
0.931288 0.364674 0.000724
0.937985 0.366082 0.000277
0.945276 0.367579 0.000016
0.948356 0.367917 0.000000
0.951156 0.368177 0.000000
0.096617 0.286444 0.127645
0.097333 0.286444 0.127645
0.101763 0.286525 0.126851
0.161916 0.287827 0.114157
0.221035 0.288625 0.101267
0.272920 0.285891 0.087010
0.327368 0.284829 0.071618
0.392923 0.291013 0.051307
0.458381 0.298207 0.031923
0.523546 0.308427 0.015323
0.583402 0.318791 0.003910
0.631576 0.329467 0.003910
0.676869 0.338239 0.003422
0.717361 0.343838 0.002120
0.755148 0.347870 0.001074
0.789455 0.349888 0.000358
0.820378 0.354575 0.000358
0.847915 0.361932 0.001074
0.863442 0.366358 0.001387
0.869626 0.368507 0.001387
0.878170 0.370126 0.002201
0.888131 0.371428 0.003503
0.899076 0.373222 0.003910
0.910468 0.375240 0.003910
0.918492 0.376380 0.003910
0.925392 0.377226 0.003910
0.930442 0.380558 0.003328
0.935064 0.384464 0.002612
0.939287 0.384440 0.001383
0.943454 0.383854 0.000081
0.949268 0.385038 0.000000
0.955192 0.386340 0.000000
0.090688 0.325419 0.129032
0.090688 0.326721 0.129358
0.094952 0.327945 0.128678
0.163177 0.328010 0.112924
0.229547 0.328019 0.097504
0.282929 0.327628 0.084418
0.337287 0.327762 0.071053
0.395877 0.330171 0.056470
0.456225 0.333833 0.040325
0.521846 0.341254 0.019493
0.583560 0.349733 0.004866
0.636682 0.360540 0.003890
0.684140 0.368173 0.002645
0.722158 0.370517 0.000952
0.758696 0.372718 0.000000
0.793329 0.374736 0.000000
0.824447 0.379293 0.000000
0.852049 0.386389 0.000000
0.866762 0.389493 0.000000
0.871449 0.389493 0.000000
0.880571 0.390755 0.001058
0.892354 0.392773 0.002750
0.903690 0.394343 0.003279
0.914822 0.395710 0.003279
0.920876 0.394783 0.003279
0.925238 0.393090 0.003279
0.930975 0.397427 0.003279
0.937029 0.403156 0.003279
0.939836 0.402106 0.001798
0.942180 0.400088 0.000106
0.949589 0.401854 0.000000
0.957336 0.403872 0.000000
0.080598 0.365781 0.129032
0.080598 0.371249 0.130399
0.085187 0.375989 0.130371
0.158620 0.369805 0.109409
0.230718 0.364995 0.089041
0.293475 0.369813 0.072831
0.354278 0.373202 0.059074
0.406619 0.370403 0.055949
0.461498 0.369638 0.047877
0.523994 0.374976 0.024962
0.584211 0.380721 0.007926
0.639416 0.387361 0.003825
0.687786 0.392781 0.001017
0.724762 0.396166 0.000366
0.761169 0.398953 0.000000
0.796844 0.400971 0.000000
0.827441 0.403966 0.000000
0.852960 0.407937 0.000000
0.867933 0.409674 0.000000
0.874704 0.409674 0.000000
0.883956 0.410936 0.000407
0.894698 0.412954 0.001058
0.903559 0.413092 0.001261
0.911567 0.412376 0.001261
0.917621 0.411709 0.001261
0.923024 0.411058 0.001261
0.928957 0.414744 0.001261
0.935011 0.419431 0.001261
0.938730 0.418251 0.000692
0.942115 0.416233 0.000041
0.948613 0.417999 0.000000
0.955318 0.420017 0.000000
0.065210 0.408413 0.131303
0.066382 0.414923 0.132930
0.072591 0.420591 0.132649
0.154356 0.413625 0.103745
0.234771 0.408246 0.076330
0.305730 0.413975 0.059339
0.372319 0.417714 0.045704
0.419972 0.412832 0.046616
0.470067 0.409788 0.042807
0.527485 0.412262 0.024840
0.584374 0.415102 0.010473
0.640100 0.418748 0.004028
0.689283 0.421807 0.000000
0.727562 0.423890 0.000000
0.764302 0.426116 0.000000
0.799066 0.428525 0.000000
0.829142 0.430348 0.000000
0.854531 0.431584 0.000000
0.870399 0.431906 0.000000
0.878862 0.431515 0.000000
0.887610 0.431898 0.000000
0.896529 0.432744 0.000000
0.903747 0.432158 0.000000
0.910192 0.430921 0.000000
0.916051 0.430319 0.000000
0.921714 0.429929 0.000000
0.927695 0.432500 0.000000
0.933750 0.435755 0.000000
0.938380 0.435080 0.000000
0.942807 0.433843 0.000000
0.948393 0.435291 0.000000
0.954057 0.436919 0.000000
0.040993 0.454829 0.137357
0.045289 0.457173 0.137943
0.055274 0.459455 0.135904
0.150580 0.460823 0.094501
0.243625 0.461954 0.056539
0.320833 0.461433 0.042673
0.392109 0.460680 0.030015
0.437679 0.458922 0.022594
0.484128 0.457181 0.016702
0.533214 0.455488 0.015400
0.583723 0.455138 0.012166
0.637366 0.457742 0.004679
0.687200 0.458198 0.000000
0.730686 0.455073 0.000000
0.768534 0.454825 0.000000
0.799131 0.458275 0.000000
0.828686 0.459577 0.000000
0.857200 0.458731 0.000000
0.875021 0.457555 0.000000
0.884526 0.456123 0.000000
0.891711 0.454162 0.000000
0.897505 0.451883 0.000000
0.904463 0.451753 0.000000
0.911949 0.452600 0.000000
0.917287 0.451737 0.000000
0.921910 0.450305 0.000000
0.927695 0.450988 0.000000
0.933750 0.452160 0.000000
0.939291 0.453047 0.000000
0.944760 0.453893 0.000000
0.949435 0.454496 0.000000
0.954057 0.455082 0.000000
0.032668 0.495948 0.135465
0.037355 0.495948 0.136376
0.048097 0.496326 0.134346
0.149653 0.502381 0.088190
0.248491 0.507231 0.045891
0.328303 0.503650 0.030593
0.402074 0.500826 0.016405
0.449662 0.501282 0.007031
0.496225 0.500729 0.001562
0.539712 0.497148 0.007812
0.586006 0.494605 0.010156
0.638476 0.494345 0.003906
0.688164 0.492083 0.000000
0.733213 0.486484 0.000000
0.771512 0.484303 0.000000
0.801133 0.486517 0.000000
0.830395 0.486614 0.000000
0.859300 0.484596 0.000000
0.877621 0.482065 0.000000
0.887712 0.479136 0.000000
0.894588 0.475800 0.000000
0.899535 0.472219 0.000000
0.905691 0.472174 0.000000
0.912397 0.473737 0.000000
0.918126 0.472614 0.000000
0.923529 0.470596 0.000000
0.929091 0.470217 0.000000
0.934689 0.470217 0.000000
0.940687 0.471584 0.000000
0.946741 0.473147 0.000000
0.950049 0.472390 0.000000
0.953174 0.471479 0.000000
0.044777 0.530256 0.123356
0.046339 0.530256 0.126351
0.053956 0.530634 0.126599
0.152387 0.536688 0.085651
0.248230 0.541669 0.046998
0.325960 0.539130 0.024408
0.399405 0.537348 0.005468
0.454284 0.538845 0.002344
0.505794 0.539333 0.000521
0.547198 0.536794 0.002604
0.592060 0.533340 0.003385
0.644531 0.527871 0.001302
0.693046 0.522745 0.000000
0.734971 0.518188 0.000000
0.772879 0.514770 0.000000
0.805625 0.512817 0.000000
0.834887 0.510832 0.000000
0.860667 0.508813 0.000000
0.877621 0.505111 0.000000
0.887712 0.500098 0.000000
0.895890 0.496632 0.000000
0.902921 0.494093 0.000000
0.907579 0.493657 0.000000
0.911160 0.494178 0.000000
0.918451 0.492795 0.000000
0.926979 0.490777 0.000000
0.932281 0.490398 0.000000
0.936838 0.490398 0.000000
0.942705 0.490854 0.000000
0.948759 0.491375 0.000000
0.950114 0.488600 0.000000
0.951156 0.485605 0.000000
0.038722 0.567591 0.124365
0.039243 0.567070 0.127360
0.046274 0.566797 0.127738
0.150955 0.570247 0.088874
0.252332 0.573144 0.051783
0.330582 0.572168 0.027110
0.405036 0.571558 0.006380
0.463040 0.572534 0.002734
0.516764 0.573022 0.000000
0.557647 0.572046 0.000000
0.601662 0.569177 0.000814
0.652570 0.562147 0.003418
0.698743 0.555653 0.004850
0.737021 0.550054 0.004329
0.773107 0.544228 0.003125
0.806373 0.538108 0.001042
0.835896 0.533519 0.000000
0.861676 0.530459 0.000000
0.878337 0.526008 0.000000
0.887907 0.520474 0.000000
0.896215 0.517138 0.000000
0.903767 0.515120 0.000000
0.908588 0.514489 0.000000
0.912169 0.514489 0.000000
0.920241 0.512976 0.000000
0.929811 0.510958 0.000000
0.934885 0.510156 0.000000
0.938921 0.509635 0.000000
0.943812 0.508203 0.000000
0.948824 0.506641 0.000000
0.950602 0.504224 0.000000
0.952165 0.501750 0.000000
0.014505 0.607953 0.138492
0.016067 0.606390 0.139404
0.025051 0.604816 0.137764
0.145356 0.603058 0.097857
0.260795 0.601658 0.060246
0.342170 0.602765 0.038698
0.418967 0.603457 0.019139
0.475930 0.602350 0.008203
0.529133 0.601797 0.000000
0.571057 0.602903 0.000000
0.614812 0.602118 0.002441
0.662596 0.597170 0.010253
0.705253 0.590807 0.014550
0.739365 0.582083 0.012987
0.772196 0.572677 0.009374
0.803379 0.562391 0.003125
0.833422 0.554676 0.000000
0.862327 0.549533 0.000000
0.879769 0.544757 0.000000
0.888298 0.540265 0.000000
0.895564 0.537319 0.000000
0.902074 0.535301 0.000000
0.908719 0.534670 0.000000
0.915424 0.534670 0.000000
0.923496 0.533157 0.000000
0.932024 0.531139 0.000000
0.936903 0.529491 0.000000
0.940939 0.527928 0.000000
0.944007 0.523632 0.000000
0.946936 0.518945 0.000000
0.951514 0.519262 0.000000
0.956201 0.519913 0.000000
0.016397 0.638098 0.149213
0.019001 0.636666 0.152143
0.029059 0.635107 0.152183
0.150926 0.631657 0.108892
0.267976 0.628817 0.067977
0.351304 0.630249 0.043694
0.429933 0.631364 0.021756
0.488197 0.631104 0.009973
0.542051 0.631267 0.001282
0.582673 0.632699 0.001868
0.624374 0.632605 0.005057
0.668447 0.629155 0.013976
0.708760 0.622995 0.021210
0.742807 0.612318 0.025637
0.774690 0.600759 0.022801
0.803790 0.588065 0.010628
0.832889 0.577811 0.004248
0.861989 0.569999 0.003662
0.879920 0.563652 0.003735
0.889164 0.558444 0.004321
0.896415 0.555596 0.004175
0.902469 0.554164 0.003589
0.909105 0.552911 0.002197
0.916006 0.551739 0.000439
0.923346 0.549493 0.000439
0.930832 0.546889 0.001025
0.936467 0.544761 0.001611
0.941675 0.542743 0.002197
0.944092 0.538218 0.001758
0.946110 0.533336 0.001172
0.951363 0.533824 0.000586
0.956832 0.534670 0.000000
0.038596 0.660297 0.157286
0.042242 0.659906 0.165423
0.052690 0.659390 0.170021
0.165183 0.656981 0.121521
0.274160 0.654922 0.075138
0.358530 0.655313 0.043564
0.438591 0.656167 0.016483
0.499980 0.659032 0.008866
0.555397 0.661278 0.003560
0.592894 0.661668 0.005188
0.631144 0.661184 0.008443
0.671051 0.658775 0.015278
0.709932 0.652876 0.025507
0.747104 0.641158 0.041391
0.779833 0.628557 0.041810
0.806849 0.614821 0.022346
0.833866 0.602484 0.011799
0.860882 0.591547 0.010172
0.879074 0.582661 0.010375
0.890401 0.575370 0.012003
0.898433 0.572392 0.011596
0.904487 0.572001 0.009968
0.909691 0.569641 0.006103
0.914508 0.566386 0.001221
0.920546 0.562838 0.001221
0.926991 0.559193 0.002848
0.934124 0.556869 0.004476
0.941415 0.554851 0.006103
0.944092 0.552150 0.004882
0.946110 0.549350 0.003255
0.950387 0.548016 0.001627
0.954813 0.546779 0.000000
0.051966 0.682496 0.175449
0.054700 0.682496 0.182284
0.063953 0.682451 0.186027
0.170977 0.681735 0.143387
0.275300 0.680946 0.101462
0.360711 0.679644 0.064551
0.441838 0.678977 0.031838
0.504399 0.681060 0.017321
0.561703 0.682622 0.006774
0.603237 0.682622 0.008142
0.643774 0.681788 0.011177
0.682118 0.679119 0.017882
0.718997 0.673643 0.030617
0.753435 0.663487 0.053402
0.784854 0.651879 0.059925
0.812391 0.638403 0.045537
0.838626 0.625936 0.037986
0.863560 0.614479 0.037270
0.880547 0.604925 0.036993
0.891353 0.596853 0.037058
0.899596 0.592198 0.035008
0.906302 0.589594 0.031687
0.911620 0.585558 0.025592
0.916307 0.580871 0.018236
0.921531 0.576672 0.014493
0.926934 0.572636 0.011954
0.933448 0.570239 0.011531
0.940219 0.568221 0.011596
0.943401 0.566203 0.010408
0.946070 0.564185 0.009041
0.950020 0.562167 0.007063
0.954057 0.560149 0.005045
0.060038 0.704695 0.199666
0.060689 0.704695 0.201293
0.067794 0.704781 0.200935
0.171693 0.706148 0.170794
0.273412 0.706921 0.139286
0.359865 0.703536 0.098207
0.441838 0.700590 0.059571
0.504399 0.699548 0.031512
0.563786 0.698767 0.010550
0.613653 0.698767 0.010876
0.659919 0.697607 0.013520
0.698263 0.693897 0.021267
0.732798 0.688941 0.036216
0.760986 0.681910 0.063167
0.789801 0.672515 0.077502
0.819422 0.660081 0.075614
0.845657 0.648656 0.075353
0.868507 0.638240 0.076720
0.883411 0.629143 0.075597
0.892134 0.621070 0.072538
0.900247 0.613812 0.068013
0.907994 0.607041 0.062610
0.914354 0.600987 0.054432
0.920083 0.595258 0.044992
0.924786 0.590799 0.035260
0.929148 0.586763 0.025430
0.933774 0.584366 0.021101
0.938461 0.582348 0.018041
0.942294 0.580330 0.017374
0.946005 0.578312 0.017048
0.950020 0.576294 0.015136
0.954057 0.574276 0.013118
0.086148 0.724119 0.212783
0.086864 0.724119 0.212783
0.093654 0.724201 0.211278
0.191565 0.725503 0.187191
0.287905 0.726227 0.161086
0.373251 0.722907 0.120854
0.454056 0.719831 0.083588
0.515185 0.717813 0.059176
0.573075 0.716120 0.040329
0.621249 0.715404 0.038181
0.666351 0.713427 0.039003
0.704695 0.708674 0.046359
0.739304 0.703434 0.060209
0.767688 0.697380 0.084882
0.795017 0.689616 0.101837
0.820992 0.679656 0.108868
0.844363 0.669273 0.111602
0.865130 0.658466 0.110039
0.879965 0.649600 0.107891
0.890185 0.642244 0.105287
0.898616 0.633545 0.100974
0.905972 0.624040 0.095636
0.913418 0.616416 0.085554
0.920905 0.609645 0.073315
0.925266 0.606000 0.062785
0.928586 0.603396 0.052825
0.932488 0.600686 0.046514
0.936524 0.597952 0.041046
0.940561 0.596471 0.037229
0.944597 0.595169 0.033649
0.948633 0.591853 0.030190
0.952669 0.588402 0.026740
0.120455 0.742282 0.220856
0.122213 0.742282 0.220856
0.129525 0.742299 0.219546
0.220144 0.742559 0.198583
0.309843 0.742502 0.175603
0.393106 0.740224 0.138496
0.471828 0.737994 0.105918
0.530874 0.735976 0.092963
0.585640 0.734023 0.081928
0.627564 0.732265 0.076655
0.668369 0.729246 0.075003
0.706713 0.723452 0.081318
0.742494 0.717561 0.092564
0.774002 0.711506 0.112029
0.800356 0.705110 0.129244
0.820081 0.698275 0.143566
0.839285 0.688933 0.147342
0.857969 0.677085 0.140571
0.873650 0.668349 0.137316
0.886996 0.662034 0.136795
0.895947 0.652424 0.133915
0.902262 0.640836 0.129618
0.910814 0.631844 0.117713
0.920384 0.624032 0.102349
0.924485 0.621689 0.093382
0.926764 0.621168 0.086546
0.930470 0.618002 0.079129
0.934506 0.614227 0.071577
0.938543 0.613527 0.062944
0.942579 0.613266 0.054155
0.946615 0.608062 0.048418
0.950651 0.602529 0.042885
0.139627 0.758932 0.234982
0.143208 0.759713 0.236545
0.152065 0.760445 0.236651
0.240081 0.760445 0.214907
0.327241 0.760095 0.191829
0.408421 0.757296 0.159410
0.484914 0.754643 0.131469
0.541095 0.752625 0.122941
0.593517 0.749631 0.114836
0.634660 0.743706 0.108001
0.676149 0.738230 0.104461
0.718399 0.733738 0.108172
0.755742 0.728660 0.117009
0.784907 0.722606 0.134391
0.808233 0.716552 0.151573
0.824052 0.710497 0.168499
0.840262 0.702588 0.174098
0.856862 0.692823 0.168369
0.869874 0.685145 0.164544
0.880095 0.679091 0.162201
0.890153 0.668764 0.156358
0.900113 0.655874 0.148416
0.909089 0.646834 0.138594
0.917617 0.639542 0.127917
0.922434 0.635962 0.120122
0.926015 0.633618 0.113286
0.929331 0.630534 0.104176
0.932586 0.627279 0.094541
0.936524 0.626189 0.086559
0.940561 0.625408 0.078812
0.944597 0.621148 0.068257
0.948633 0.616656 0.057516
0.153754 0.775076 0.251127
0.159418 0.776899 0.254773
0.170163 0.778608 0.256701
0.257137 0.778608 0.232875
0.343126 0.778128 0.208625
0.422222 0.774287 0.181413
0.496436 0.770788 0.158095
0.549493 0.768770 0.151650
0.599831 0.764473 0.144847
0.642016 0.753341 0.136970
0.685849 0.744935 0.131738
0.733307 0.742526 0.132324
0.772342 0.738751 0.138818
0.797341 0.732696 0.155158
0.816956 0.726642 0.172210
0.829651 0.720588 0.190177
0.843257 0.714241 0.197859
0.857774 0.707600 0.195255
0.866945 0.701290 0.191040
0.871957 0.695235 0.185572
0.883317 0.684258 0.175302
0.898486 0.670327 0.162152
0.907657 0.661676 0.155715
0.914102 0.655427 0.152330
0.919961 0.649763 0.145576
0.925624 0.644295 0.137699
0.928485 0.641471 0.126701
0.930698 0.639258 0.114983
0.934506 0.637386 0.109474
0.938543 0.635563 0.104852
0.942579 0.633191 0.088634
0.946615 0.630782 0.071643
0.190837 0.786302 0.257434
0.195198 0.787474 0.261470
0.204182 0.788520 0.263688
0.282497 0.787673 0.238624
0.360544 0.786534 0.213943
0.436711 0.783344 0.191939
0.508118 0.780215 0.172926
0.558896 0.777351 0.166872
0.608209 0.773022 0.161794
0.653128 0.764298 0.159646
0.698352 0.756877 0.158433
0.744248 0.752320 0.159279
0.781696 0.747519 0.164910
0.805067 0.742311 0.178516
0.823141 0.737473 0.192635
0.834403 0.733111 0.207413
0.845828 0.726634 0.213369
0.857416 0.718041 0.210505
0.865708 0.711828 0.207750
0.871437 0.707466 0.205081
0.882089 0.698588 0.197367
0.895695 0.687000 0.186625
0.904691 0.677471 0.177808
0.911591 0.668878 0.169866
0.917222 0.663458 0.164365
0.922430 0.659097 0.159678
0.926422 0.655264 0.149649
0.930132 0.651553 0.138386
0.933387 0.650064 0.132706
0.936577 0.648892 0.127824
0.940561 0.645340 0.105731
0.944597 0.641630 0.082490
0.233217 0.796393 0.261470
0.235495 0.796523 0.265506
0.241875 0.796527 0.267659
0.309774 0.794639 0.241554
0.378316 0.792719 0.216612
0.451359 0.790570 0.199816
0.519836 0.788092 0.185035
0.568530 0.784186 0.178980
0.617063 0.780118 0.175725
0.665106 0.775561 0.180868
0.711502 0.770027 0.184994
0.754273 0.762345 0.186882
0.789378 0.755982 0.191992
0.811707 0.751815 0.202473
0.828739 0.748475 0.213011
0.838960 0.746196 0.223623
0.848302 0.739198 0.226975
0.856765 0.727480 0.223069
0.864862 0.721072 0.222203
0.872674 0.718793 0.223700
0.882154 0.712650 0.220152
0.892635 0.704187 0.213577
