app/src/main/assets/cube/Anime03.cube
# LUT by SparkleStock. Enhanced with VOXCOLOR algorithms.
LUT_3D_SIZE 5
DOMAIN_MIN 0.000000 0.000000 0.000000
DOMAIN_MAX 0.903226 0.903226 0.903226
0.093842 0.101662 0.105572
0.347744 0.119068 0.030145
0.708858 0.216441 0.000000
0.846593 0.257434 0.000000
0.902469 0.283291 0.000000
0.101662 0.218838 0.126636
0.395413 0.223928 0.038352
0.750933 0.301291 0.003369
0.878268 0.327437 0.003910
0.934779 0.348700 0.000000
0.032668 0.495948 0.135465
0.449662 0.501282 0.007031
0.771512 0.484303 0.000000
0.899535 0.472219 0.000000
0.940687 0.471584 0.000000
0.060038 0.704695 0.199666
0.504399 0.699548 0.031512
0.789801 0.672515 0.077502
0.907994 0.607041 0.062610
0.942294 0.580330 0.017374
0.254407 0.810015 0.276101
0.574349 0.794554 0.191089
0.836104 0.754749 0.227919
0.889575 0.717841 0.228452
0.930425 0.677072 0.180742
0.022325 0.177719 0.210135
0.102325 0.146780 0.188342
0.505066 0.177088 0.077046
0.735614 0.247864 0.022761
0.842345 0.277236 0.000000
0.001758 0.321293 0.271776
0.189317 0.243184 0.228920
0.574890 0.279639 0.123501
0.774526 0.329998 0.058653
0.868198 0.357456 0.034648
0.000000 0.577929 0.412018
0.010773 0.552080 0.381826
0.583716 0.477598 0.251302
0.796299 0.488638 0.180027
0.881499 0.507039 0.187756
0.022533 0.728172 0.513741
0.088527 0.759117 0.543224
0.434431 0.705403 0.423962
0.769669 0.643892 0.419653
0.884172 0.626458 0.345435
0.239849 0.816248 0.596129
0.315556 0.850731 0.661787
0.436353 0.805888 0.562651
0.762243 0.751754 0.512325
0.871414 0.717020 0.474663
0.000000 0.274209 0.415981
0.000000 0.289760 0.416412
0.018948 0.303158 0.406480
0.454992 0.410696 0.400137
0.551360 0.481903 0.430209
0.000000 0.304969 0.439641
0.003568 0.326197 0.448755
0.240386 0.392728 0.462577
0.544567 0.493919 0.460102
0.621027 0.560678 0.504633
0.000000 0.359055 0.486740
0.056913 0.406851 0.487535
0.543977 0.548254 0.514627
0.645204 0.609992 0.561294
0.698177 0.649237 0.598165
0.007617 0.421356 0.509570
0.359151 0.518011 0.522548
0.617767 0.636607 0.587546
0.709066 0.678259 0.626222
0.734912 0.709567 0.663676
0.219965 0.494369 0.526659
0.495926 0.592893 0.566268
0.677335 0.689224 0.638105
0.751841 0.726657 0.684201
0.773192 0.756337 0.715697
0.000000 0.356573 0.636332
0.000000 0.366924 0.601377
0.000000 0.407546 0.583154
0.013752 0.444743 0.569637
0.427821 0.537474 0.576485
0.000000 0.386096 0.622726
0.000000 0.409771 0.607412
0.000331 0.471492 0.618301
0.118053 0.542922 0.613419
0.541332 0.628325 0.625209
0.000000 0.450382 0.647668
0.000000 0.492760 0.653568
0.048503 0.590032 0.654139
0.603788 0.683373 0.663167
0.709885 0.709156 0.677509
0.000000 0.508663 0.672157
0.000000 0.567611 0.681931
0.490573 0.681494 0.679794
0.750626 0.739846 0.702059
0.780317 0.769539 0.729569
0.000000 0.565951 0.688522
0.084475 0.626026 0.670857
0.599098 0.721861 0.705460
0.785741 0.784037 0.744703
0.821856 0.811112 0.773492
0.000000 0.388106 0.778356
0.000000 0.400666 0.734462
0.000000 0.480495 0.747767
0.000000 0.557976 0.744431
0.000000 0.626905 0.766243
0.000000 0.435922 0.764123
0.000000 0.477382 0.760266
0.000000 0.552717 0.763709
0.000000 0.622595 0.769113
0.000000 0.667413 0.777488
0.000000 0.524181 0.785948
0.000000 0.570312 0.783262
0.000000 0.658916 0.793487
0.000000 0.701703 0.793732
0.300112 0.730732 0.760114
0.000000 0.579699 0.798382
0.000000 0.631028 0.800327
0.000000 0.708908 0.813035
0.294221 0.760640 0.789879
0.752719 0.805397 0.778862
0.000000 0.622881 0.813542
0.000000 0.678840 0.816858
0.028539 0.740726 0.807008
0.645894 0.803233 0.791527
0.845811 0.849990 0.821615
