app/src/main/assets/cube/Anime01.cube
# LUT by SparkleStock. Enhanced with VOXCOLOR algorithms.
LUT_3D_SIZE 8
DOMAIN_MIN 0.000000 0.000000 0.000000
DOMAIN_MAX 0.903226 0.903226 0.903226
0.156403 0.117302 0.027370
0.283039 0.093085 0.007316
0.560023 0.074796 0.000000
0.743165 0.071895 0.000000
0.871315 0.081102 0.000000
0.917479 0.088418 0.000000
0.937534 0.104689 0.000000
0.969319 0.126888 0.000000
0.155646 0.176836 0.018794
0.294736 0.141328 0.000000
0.575036 0.134143 0.000033
0.759990 0.141190 0.000252
0.879005 0.123426 0.000252
0.924334 0.134183 0.004081
0.952124 0.158295 0.003910
0.973367 0.171563 0.000000
0.072021 0.341059 0.000000
0.270596 0.327066 0.000000
0.561605 0.283860 0.000944
0.750452 0.295428 0.003503
0.876234 0.287331 0.004789
0.934291 0.295562 0.007316
0.967345 0.289642 0.003910
0.980923 0.299509 0.002144
0.000000 0.528994 0.000000
0.103818 0.531013 0.000000
0.529373 0.463422 0.000000
0.714509 0.428826 0.001221
0.851398 0.425062 0.000000
0.916612 0.422454 0.001017
0.950269 0.417661 0.001933
0.970633 0.418467 0.000000
0.000000 0.657396 0.000000
0.015461 0.662132 0.000000
0.496233 0.639494 0.000000
0.679982 0.553240 0.010152
0.824687 0.534788 0.027969
0.896142 0.526293 0.016629
0.932350 0.521427 0.019538
0.960790 0.517285 0.028485
0.000000 0.754139 0.000000
0.003076 0.761959 0.000000
0.422711 0.756499 0.000000
0.676584 0.717353 0.006347
0.794440 0.618181 0.178166
0.879192 0.604421 0.172352
0.918772 0.593700 0.137516
0.944723 0.587584 0.124431
0.000000 0.829313 0.000000
0.000854 0.833378 0.000000
0.374406 0.827787 0.000000
0.699064 0.781131 0.011962
0.813900 0.729958 0.181015
0.852663 0.673512 0.276236
0.901370 0.656053 0.266605
0.921084 0.652729 0.253650
0.000000 0.874720 0.000000
0.001766 0.871302 0.000000
0.345742 0.864805 0.000000
0.752572 0.816321 0.102097
0.838724 0.787970 0.249158
0.862929 0.746766 0.304603
0.880311 0.704463 0.331884
0.903226 0.699735 0.336518
0.134960 0.174313 0.037713
0.186772 0.134659 0.042872
0.458243 0.088162 0.002197
0.673590 0.096063 0.000000
0.802451 0.094529 0.000000
0.891109 0.096193 0.000000
0.919847 0.113156 0.000000
0.939161 0.131303 0.000000
0.133398 0.231247 0.034039
0.215073 0.169101 0.039040
0.505515 0.145460 0.005233
0.684789 0.145801 0.001167
0.823178 0.154059 0.003975
0.906583 0.157536 0.006480
0.923633 0.155969 0.004071
0.949094 0.178444 0.002258
0.087775 0.408507 0.024038
0.148835 0.353708 0.021406
0.478852 0.284656 0.009222
0.684874 0.305623 0.007063
0.815536 0.296836 0.004952
0.901137 0.303948 0.008260
0.941978 0.312241 0.007617
0.960916 0.311835 0.003910
0.027200 0.572579 0.034361
0.047137 0.551747 0.027678
0.377136 0.525846 0.003330
0.636911 0.418279 0.006107
0.783905 0.431645 0.004164
0.884345 0.427493 0.003202
0.926237 0.427356 0.003636
0.951591 0.433247 0.001928
0.011856 0.676181 0.015469
0.016898 0.673780 0.026424
0.045671 0.687580 0.004983
0.578022 0.600467 0.004201
0.736483 0.526713 0.068646
0.860288 0.534122 0.069713
0.914320 0.534960 0.069594
0.936825 0.532555 0.066235
0.015111 0.779788 0.081005
0.030385 0.769768 0.118791
0.009174 0.793010 0.016461
0.314792 0.773210 0.004686
0.708332 0.671418 0.069403
0.824217 0.614086 0.231409
0.890461 0.611043 0.215028
0.919740 0.607521 0.204527
0.020262 0.834920 0.186772
0.042599 0.834809 0.256259
0.019763 0.851207 0.043480
0.132894 0.855951 0.019820
0.620541 0.803476 0.075092
0.810333 0.720766 0.297650
0.873927 0.678927 0.346281
0.900483 0.668811 0.319183
0.023843 0.878366 0.244918
0.105348 0.877505 0.301116
0.062793 0.888026 0.191570
0.254256 0.882116 0.130068
0.575627 0.860383 0.176074
0.793009 0.812680 0.324427
0.866362 0.751927 0.388690
0.896310 0.721545 0.399259
0.200044 0.218585 0.112635
0.202725 0.214016 0.114812
0.231748 0.176669 0.098248
0.511743 0.130310 0.045855
0.675425 0.151878 0.008174
0.773815 0.196606 0.003495
0.841365 0.202005 0.000309
0.888468 0.220404 0.000000
0.190499 0.275182 0.131152
0.193397 0.249867 0.125354
0.268053 0.212295 0.106639
0.546689 0.188149 0.047323
0.688983 0.218796 0.011129
0.784631 0.240234 0.006175
0.843556 0.252201 0.005015
0.892657 0.260371 0.005132
0.161993 0.449524 0.185205
0.168131 0.428881 0.190963
0.384334 0.314612 0.140932
0.572617 0.319397 0.066060
0.693106 0.340375 0.031918
0.782288 0.352226 0.023861
0.842933 0.361435 0.025469
0.892469 0.372929 0.027148
0.216734 0.571696 0.276520
0.222703 0.561204 0.289171
0.305493 0.521416 0.219336
0.560179 0.443858 0.176369
0.686783 0.449342 0.142801
0.770456 0.465069 0.135153
0.834325 0.480322 0.161963
0.875168 0.482124 0.172783
0.267394 0.660924 0.334492
0.275851 0.671588 0.349773
0.306874 0.654359 0.328889
0.448499 0.613779 0.210884
0.652840 0.540270 0.274428
0.749646 0.547764 0.267387
0.828614 0.564947 0.278430
0.879611 0.574930 0.286109
0.297039 0.747779 0.389583
0.300507 0.750505 0.399127
0.325153 0.769301 0.428336
0.398499 0.727253 0.333225
0.569270 0.682873 0.304391
0.729820 0.625837 0.371126
0.811201 0.627263 0.372006
0.868718 0.636625 0.368742
0.322575 0.807309 0.438546
0.340650 0.820712 0.458880
0.387926 0.850064 0.505096
0.429297 0.817630 0.461739
0.519155 0.775842 0.381062
0.721711 0.728115 0.401813
0.808906 0.679169 0.439671
0.862064 0.686587 0.437247
0.377080 0.851134 0.485886
0.409358 0.866582 0.518038
0.455169 0.882320 0.553188
0.460985 0.854997 0.509136
0.548844 0.819756 0.436450
0.717774 0.787583 0.421332
0.825861 0.738542 0.458955
0.864095 0.726698 0.481147
0.255542 0.260209 0.202188
0.255542 0.261771 0.199995
0.256356 0.263334 0.201879
0.276573 0.271247 0.197566
0.486362 0.292108 0.197115
0.628622 0.354437 0.169883
0.680730 0.386629 0.180783
0.706534 0.403815 0.189486
0.263565 0.287994 0.223736
0.260176 0.280966 0.212773
0.273590 0.284052 0.221859
0.310913 0.301988 0.223673
0.534267 0.335518 0.222540
0.634791 0.392472 0.193484
0.694214 0.420596 0.209224
0.715677 0.435047 0.225532
0.272443 0.348419 0.265144
0.280189 0.354702 0.274609
0.313567 0.346897 0.261921
0.464084 0.386032 0.276805
0.601020 0.440527 0.275128
0.671181 0.467709 0.276307
0.709455 0.489035 0.296678
0.736415 0.507710 0.310210
0.287433 0.426600 0.320186
0.286003 0.421530 0.318621
0.349756 0.444657 0.310666
0.565602 0.484881 0.319792
0.635060 0.512154 0.334545
0.682146 0.535332 0.350660
0.728149 0.560119 0.373527
0.765035 0.575470 0.389391
0.287453 0.496530 0.353680
0.295393 0.506034 0.361675
0.381080 0.546682 0.361066
0.544706 0.568203 0.367844
0.653456 0.576846 0.394555
0.702319 0.587640 0.410230
0.744391 0.605256 0.425957
0.780054 0.620898 0.439733
0.315068 0.572375 0.408059
0.317120 0.584211 0.404359
0.407838 0.618024 0.414177
0.549303 0.634061 0.430408
0.642543 0.640303 0.431891
0.730421 0.635332 0.452203
0.764976 0.648426 0.471559
0.797652 0.662404 0.484250
0.320833 0.625147 0.430441
0.351055 0.638683 0.434872
0.424365 0.667448 0.457541
0.557341 0.681337 0.472142
0.661252 0.678186 0.469635
0.750199 0.684606 0.493681
0.800516 0.692254 0.507777
0.818272 0.702964 0.520861
0.343634 0.678025 0.461172
0.371699 0.690833 0.477261
0.433255 0.704035 0.491607
0.565010 0.711412 0.501341
0.675764 0.714363 0.505169
0.765212 0.725041 0.518130
0.816838 0.727012 0.532048
0.844684 0.734141 0.551998
0.300318 0.307130 0.301454
0.307187 0.318160 0.297535
0.306755 0.327559 0.296535
0.315487 0.342707 0.303573
0.329508 0.353436 0.289597
0.487359 0.419891 0.321517
0.598920 0.486488 0.347365
0.638049 0.522505 0.365541
0.309152 0.320247 0.309148
0.309245 0.330253 0.301510
0.319742 0.344519 0.316463
0.330154 0.358571 0.322512
0.369524 0.374729 0.316306
0.530685 0.450240 0.340040
0.622749 0.505834 0.364374
0.658839 0.547074 0.388680
0.319869 0.350401 0.319995
0.321028 0.356946 0.322874
0.335774 0.363662 0.330411
0.371670 0.392996 0.338413
0.509756 0.458242 0.362934
0.623682 0.526571 0.387360
0.673805 0.567389 0.413216
0.701091 0.586348 0.429949
0.327184 0.369886 0.334065
0.333417 0.374678 0.340822
0.359936 0.403839 0.348162
0.488840 0.472208 0.372487
0.620962 0.548632 0.407696
0.687909 0.593130 0.434866
0.718402 0.605167 0.444781
0.739004 0.629868 0.468670
0.336486 0.380766 0.346584
0.341694 0.398146 0.349032
0.406829 0.457792 0.370462
0.579707 0.554075 0.413939
0.677031 0.613667 0.446942
0.728309 0.629346 0.463887
0.754465 0.650644 0.488293
0.774038 0.664882 0.504191
0.354408 0.413902 0.361777
0.369692 0.441425 0.369990
0.486551 0.533903 0.412290
0.632001 0.610410 0.449867
0.720607 0.650853 0.482674
0.765241 0.665461 0.504741
0.788378 0.687993 0.522481
0.806471 0.702461 0.538509
0.382267 0.452294 0.377511
0.411574 0.488360 0.389462
0.568442 0.581081 0.443553
0.662286 0.647776 0.475865
0.748370 0.679231 0.510801
0.797780 0.699442 0.533181
0.816836 0.717607 0.552217
0.830684 0.735753 0.568076
0.411530 0.485276 0.392667
0.458848 0.536503 0.417394
0.607692 0.614139 0.461386
0.700487 0.665260 0.499630
0.778367 0.704071 0.534394
0.819883 0.722519 0.554993
0.838736 0.741771 0.573049
0.857832 0.761127 0.596186
0.337401 0.341311 0.401097
0.335013 0.340355 0.381934
0.340392 0.354177 0.362823
0.345734 0.373845 0.357851
0.348899 0.391772 0.357517
0.369984 0.404967 0.354136
0.486301 0.453934 0.377324
0.595539 0.533722 0.418760
0.336311 0.344212 0.386385
0.339133 0.347623 0.376680
0.345695 0.366351 0.361770
0.350602 0.386360 0.363548
0.359863 0.404059 0.366337
0.402796 0.425217 0.363874
0.518820 0.492096 0.399860
0.626168 0.562159 0.437585
0.353330 0.372160 0.382808
0.354279 0.383056 0.380184
0.353417 0.401248 0.377065
0.368974 0.429390 0.394109
0.403513 0.462856 0.404881
0.491458 0.525828 0.428397
0.593059 0.575840 0.452179
0.676913 0.619597 0.473334
0.359340 0.393814 0.387491
0.360772 0.411830 0.397606
0.365943 0.430972 0.398230
0.406175 0.487411 0.425229
0.465343 0.544880 0.451332
0.618438 0.610807 0.479707
0.684908 0.639034 0.491465
0.745313 0.661038 0.505428
0.367388 0.425396 0.407266
0.368822 0.440934 0.414021
0.389294 0.484942 0.432878
0.438294 0.557374 0.461484
0.562425 0.626110 0.491161
0.726519 0.667108 0.511278
0.784744 0.691045 0.529874
0.804762 0.704055 0.541652
0.376054 0.453723 0.424110
0.377025 0.461513 0.424373
0.408628 0.526948 0.452688
0.529415 0.613964 0.487795
0.681710 0.676074 0.520810
0.787927 0.707519 0.543684
0.821211 0.723880 0.557890
0.836474 0.742632 0.575253
0.383549 0.475926 0.431446
0.392744 0.507489 0.444423
0.438438 0.579644 0.477537
0.576215 0.649448 0.513015
0.732078 0.708618 0.540342
0.819427 0.733736 0.566035
0.846362 0.752680 0.584215
0.861681 0.768401 0.603941
0.390624 0.511710 0.454508
0.410215 0.540204 0.461493
0.496405 0.623841 0.493885
0.645383 0.685798 0.530040
0.763843 0.731284 0.560565
0.847961 0.758856 0.590723
0.868375 0.776308 0.611095
0.885153 0.794508 0.636998
0.355816 0.358213 0.477407
0.354526 0.362249 0.463280
0.352228 0.364084 0.427540
0.365024 0.392732 0.420314
0.370700 0.425994 0.417140
0.378520 0.461136 0.432158
0.395889 0.508301 0.459569
0.423211 0.539622 0.465457
0.355031 0.363103 0.461502
0.355293 0.362558 0.452803
0.363249 0.383882 0.425928
0.373647 0.416371 0.427634
0.381435 0.450856 0.435257
0.388140 0.485092 0.446042
0.402466 0.536229 0.473028
0.434819 0.564967 0.481631
0.363876 0.386763 0.444222
0.364644 0.392935 0.433362
0.380233 0.428317 0.437188
0.394169 0.480014 0.462330
0.399033 0.519340 0.479915
0.408002 0.559240 0.493997
0.429263 0.594596 0.508201
0.487686 0.623394 0.514421
0.378052 0.418076 0.447424
0.382407 0.434004 0.446026
0.395184 0.484213 0.470328
0.402554 0.534762 0.497684
0.407951 0.577588 0.516012
0.437076 0.628912 0.531325
0.535793 0.656804 0.532231
0.620367 0.681538 0.541998
0.396166 0.458967 0.468427
0.395443 0.474102 0.470968
0.402110 0.525434 0.498880
0.406279 0.586991 0.525600
0.428808 0.637424 0.541833
0.533849 0.676076 0.547979
0.696687 0.721536 0.558542
0.749248 0.728952 0.563429
0.400056 0.493202 0.487400
0.402613 0.513955 0.498588
0.407355 0.571588 0.525784
0.415195 0.628067 0.544246
0.496141 0.679431 0.555323
0.636752 0.729420 0.572323
0.806274 0.756098 0.587271
0.851086 0.774967 0.610058
0.405178 0.526679 0.508101
0.405704 0.545605 0.515919
0.409453 0.601251 0.539086
0.442623 0.663872 0.555273
0.605746 0.723139 0.570049
0.768588 0.769086 0.596071
0.862531 0.788085 0.625752
0.888700 0.800758 0.644885
0.410557 0.551678 0.527229
0.404053 0.576705 0.526281
0.413656 0.636840 0.550043
0.493021 0.688103 0.563510
0.660993 0.757045 0.591781
0.804081 0.792968 0.620224
0.887887 0.807407 0.651134
0.899378 0.816778 0.667590
0.374610 0.379907 0.555860
0.372693 0.380868 0.531216
0.369715 0.388358 0.498975
0.386503 0.421026 0.491859
0.400768 0.458536 0.488449
0.405699 0.499032 0.499284
0.407929 0.538190 0.518945
0.410557 0.586628 0.546311
0.375240 0.387349 0.535919
0.375144 0.395192 0.536524
0.380667 0.412741 0.499513
0.395998 0.442145 0.488904
0.404414 0.482628 0.497819
0.408079 0.523571 0.516174
0.410793 0.566354 0.535859
0.409457 0.600789 0.551633
0.384651 0.420347 0.513606
0.393074 0.431768 0.508834
0.404310 0.462258 0.504978
0.409632 0.504012 0.513749
0.411542 0.543419 0.533880
0.409731 0.586752 0.550032
0.411173 0.620985 0.564788
0.411927 0.652987 0.577333
0.404214 0.454125 0.511552
0.406198 0.466759 0.507241
0.410102 0.511265 0.523586
0.415120 0.562544 0.551349
0.410860 0.617062 0.571822
0.410707 0.651386 0.588698
0.418070 0.691976 0.592497
0.460826 0.711527 0.590152
0.412779 0.497734 0.527432
0.411352 0.506608 0.526670
0.414734 0.553174 0.549418
0.411360 0.619656 0.577070
0.408624 0.673047 0.601048
0.419315 0.716337 0.614409
0.511578 0.733093 0.603501
0.642894 0.767376 0.607847
0.414903 0.525276 0.542739
0.415700 0.541705 0.550099
0.413385 0.595855 0.569897
0.409683 0.653591 0.594745
0.414662 0.718622 0.624367
0.499308 0.755078 0.623332
0.670034 0.788799 0.626395
0.815954 0.804506 0.636904
0.416233 0.555628 0.558330
0.416180 0.570814 0.565552
0.410236 0.639801 0.591916
0.411472 0.699239 0.619162
0.450625 0.743256 0.626905
0.621864 0.787054 0.634736
0.755682 0.817599 0.653751
0.878830 0.819556 0.665441
0.418377 0.580668 0.574821
0.415037 0.599760 0.579280
0.410888 0.667547 0.609867
0.416290 0.731037 0.631475
0.524455 0.774398 0.635655
0.730542 0.814869 0.648397
0.842791 0.829008 0.670255
0.904405 0.836759 0.695447
