app/src/main/assets/cube/Anime01.cube
# LUT by SparkleStock. Enhanced with VOXCOLOR algorithms.
LUT_3D_SIZE 5
DOMAIN_MIN 0.000000 0.000000 0.000000
DOMAIN_MAX 0.903226 0.903226 0.903226
0.156403 0.117302 0.027370
0.497462 0.077318 0.000000
0.820862 0.079084 0.000000
0.921515 0.098508 0.000000
0.969319 0.126888 0.000000
0.106329 0.296661 0.003027
0.494878 0.237281 0.000000
0.823747 0.255741 0.003910
0.940931 0.254028 0.006551
0.979084 0.266210 0.001314
0.000000 0.595844 0.000000
0.451167 0.584744 0.000000
0.769547 0.481569 0.005867
0.914435 0.468419 0.001623
0.966291 0.463870 0.004984
0.000000 0.778356 0.000000
0.231056 0.780146 0.000000
0.751962 0.695520 0.057764
0.887915 0.620566 0.201257
0.936651 0.604641 0.163686
0.000000 0.874720 0.000000
0.200846 0.869476 0.000000
0.812749 0.804213 0.198640
0.867877 0.739410 0.314889
0.903226 0.699735 0.336518
0.183395 0.212027 0.093463
0.232920 0.160720 0.078067
0.642549 0.123771 0.000541
0.821485 0.164626 0.000387
0.906420 0.183069 0.000000
0.145653 0.409324 0.135860
0.322228 0.284240 0.104399
0.670338 0.282090 0.012481
0.831332 0.307760 0.005424
0.914337 0.322623 0.003910
0.233656 0.633842 0.273021
0.208563 0.612491 0.219281
0.615745 0.485861 0.155505
0.799987 0.498434 0.129437
0.897106 0.520479 0.155826
0.283466 0.775447 0.373373
0.289787 0.805940 0.402342
0.413267 0.756470 0.246350
0.761388 0.638693 0.366883
0.882197 0.645887 0.352848
0.376754 0.860541 0.462955
0.454752 0.887207 0.527054
0.462279 0.852012 0.429521
0.773066 0.785424 0.409812
0.873916 0.728446 0.461335
0.281147 0.288967 0.256046
0.283254 0.306662 0.256677
0.304021 0.328080 0.254671
0.565121 0.441472 0.286460
0.625062 0.496660 0.323649
0.292787 0.320015 0.273741
0.310370 0.342147 0.289968
0.439468 0.415118 0.318282
0.625078 0.503723 0.344982
0.675383 0.559735 0.390280
0.313994 0.368136 0.315759
0.359751 0.425587 0.335742
0.629222 0.552880 0.391786
0.700725 0.600539 0.434894
0.741786 0.635725 0.469601
0.352032 0.432976 0.347097
0.512163 0.529676 0.387109
0.681236 0.624258 0.453358
0.758066 0.659983 0.495943
0.796734 0.695792 0.527923
0.435128 0.500509 0.377173
0.594793 0.597669 0.428048
0.729205 0.665893 0.497209
0.810972 0.710684 0.543628
0.842530 0.747368 0.578107
0.345473 0.349384 0.417242
0.344835 0.353428 0.388081
0.353326 0.393562 0.370732
0.375061 0.426124 0.375293
0.561752 0.526757 0.420583
0.350401 0.368303 0.399702
0.355829 0.388794 0.382655
0.376111 0.446722 0.411821
0.441576 0.519903 0.431499
0.635686 0.608941 0.477801
0.370447 0.417226 0.413678
0.379095 0.458192 0.430389
0.431905 0.564078 0.470874
0.680306 0.665804 0.511326
0.773504 0.693438 0.533297
0.386796 0.468175 0.442924
0.401180 0.537675 0.477440
0.603088 0.669362 0.521484
0.816535 0.724291 0.558754
0.853660 0.759819 0.594409
0.396874 0.528050 0.475991
0.439636 0.606081 0.495417
0.683238 0.718544 0.553598
0.859139 0.774478 0.606345
0.890277 0.802866 0.646070
0.374610 0.379907 0.555860
0.367420 0.381116 0.502686
0.395820 0.438453 0.488612
0.404788 0.510425 0.502605
0.410557 0.586628 0.546311
0.381527 0.412030 0.520670
0.396369 0.440116 0.504398
0.407433 0.503917 0.511785
0.409418 0.580325 0.544612
0.411151 0.638744 0.571797
0.412030 0.479994 0.523005
0.412815 0.523835 0.532966
0.409647 0.627456 0.577000
0.412487 0.689441 0.600433
0.548084 0.735546 0.594763
0.416205 0.534259 0.548988
0.414049 0.590349 0.569411
0.409894 0.698219 0.617024
0.560089 0.778533 0.631795
0.844856 0.810755 0.647101
0.418377 0.580668 0.574821
0.411012 0.654673 0.603110
0.451541 0.750749 0.632383
0.766063 0.819816 0.655058
0.904405 0.836759 0.695447
