app/src/main/assets/cube/Arcade03.cube
# LUT by SparkleStock. Enhanced with VOXCOLOR algorithms.
LUT_3D_SIZE 8
DOMAIN_MIN 0.000000 0.000000 0.000000
DOMAIN_MAX 0.903226 0.903226 0.903226
0.125122 0.121212 0.105572
0.165736 0.120960 0.109482
0.237253 0.112887 0.109482
0.364645 0.088544 0.108725
0.517516 0.037083 0.101662
0.631413 0.014505 0.097752
0.738498 0.002396 0.097752
0.818844 0.000000 0.101662
0.186170 0.126384 0.126636
0.336620 0.101125 0.110442
0.428118 0.077412 0.109767
0.530374 0.060970 0.112985
0.646866 0.026496 0.111691
0.767175 0.010664 0.107085
0.861224 0.006726 0.108599
0.924302 0.002246 0.129927
0.140132 0.177593 0.190837
0.359954 0.126571 0.139530
0.542820 0.072383 0.128084
0.648188 0.045228 0.133894
0.769266 0.048080 0.132059
0.880738 0.038926 0.138655
0.948287 0.044040 0.156472
0.986900 0.052532 0.196789
0.062939 0.257812 0.303850
0.321838 0.193835 0.211599
0.622958 0.125460 0.170936
0.762297 0.089325 0.174061
0.865374 0.116590 0.190849
0.956738 0.113437 0.215298
0.992753 0.146320 0.257186
1.000000 0.239596 0.313851
0.000000 0.350266 0.423675
0.293963 0.295904 0.330586
0.625867 0.249235 0.281655
0.845629 0.223850 0.274519
0.921136 0.256628 0.313041
0.981228 0.307435 0.355279
0.998918 0.365431 0.403433
1.000000 0.438656 0.471100
0.000000 0.433513 0.525967
0.204565 0.415045 0.478786
0.600242 0.404019 0.441659
0.839790 0.407160 0.435137
0.908125 0.449174 0.477248
0.958907 0.501750 0.522688
0.983807 0.559441 0.574955
0.990008 0.620696 0.631600
0.000000 0.524958 0.632044
0.125370 0.532400 0.612522
0.595132 0.557386 0.598493
0.816785 0.585762 0.599380
0.876360 0.631527 0.637215
0.914183 0.667771 0.675954
0.958211 0.695532 0.703938
0.975772 0.720588 0.728408
0.005298 0.606313 0.714029
0.249711 0.619166 0.700179
0.652900 0.660651 0.692058
0.820052 0.694047 0.701416
0.870684 0.723013 0.723566
0.904170 0.746758 0.748902
0.952490 0.761076 0.766353
0.966963 0.788739 0.791852
0.125374 0.125374 0.113392
0.186377 0.120960 0.110190
0.271308 0.108408 0.109482
0.413515 0.076106 0.108977
0.528486 0.035886 0.105572
0.650019 0.010766 0.101662
0.765686 0.000000 0.103428
0.855512 0.000000 0.105572
0.129016 0.154494 0.158877
0.353203 0.098487 0.116273
0.436430 0.093166 0.118549
0.511486 0.073361 0.121707
0.636109 0.030414 0.117563
0.771332 0.016395 0.114922
0.874741 0.009292 0.119275
0.936600 0.001387 0.146998
0.117868 0.200801 0.225401
0.264631 0.161863 0.171588
0.505653 0.112802 0.143639
0.624062 0.096699 0.153009
0.743495 0.069075 0.159666
0.871326 0.055653 0.165954
0.955196 0.060971 0.193816
0.986415 0.068418 0.235709
0.036822 0.281020 0.331977
0.186496 0.257139 0.290309
0.517300 0.200747 0.224680
0.713897 0.176509 0.215747
0.838716 0.186593 0.243102
0.938049 0.192042 0.268305
0.988706 0.244654 0.316364
0.997883 0.318307 0.374920
0.000000 0.366664 0.447892
0.031741 0.379269 0.445772
0.476687 0.331882 0.358380
0.768306 0.303106 0.329316
0.872885 0.339871 0.376294
0.949332 0.376508 0.411563
0.985279 0.432940 0.466097
0.993129 0.503703 0.529570
0.000000 0.460298 0.557166
0.013148 0.479060 0.565009
0.477990 0.465563 0.505950
0.770965 0.471479 0.490275
0.863433 0.508856 0.526055
0.908003 0.567700 0.584386
0.948498 0.610472 0.623781
0.962337 0.660012 0.672711
0.000000 0.549961 0.659793
0.013764 0.567474 0.663712
0.500358 0.586503 0.629737
0.769783 0.628344 0.640724
0.840213 0.660624 0.660015
0.878071 0.697862 0.699599
0.932275 0.715802 0.722308
0.954982 0.735932 0.743866
0.014355 0.626722 0.736228
0.204809 0.640911 0.724513
0.567360 0.677946 0.711151
0.765517 0.714480 0.720362
0.831932 0.746590 0.738417
0.867909 0.766691 0.761491
0.913832 0.783811 0.783558
0.958644 0.792885 0.802676
0.125627 0.129537 0.117807
0.162827 0.132470 0.132975
0.307341 0.103863 0.113766
0.439287 0.073856 0.116334
0.534666 0.026854 0.110361
0.664569 0.006921 0.113897
0.790741 0.000000 0.109986
0.873386 0.000000 0.111980
0.131494 0.165517 0.162111
0.147632 0.170171 0.182453
0.403658 0.109531 0.131591
0.509595 0.094377 0.137360
0.630326 0.045410 0.137194
0.767035 0.012792 0.135653
0.876379 0.008221 0.148021
0.942968 0.011295 0.168746
0.104681 0.220604 0.240215
0.160262 0.216168 0.238839
0.461565 0.155486 0.168143
0.589940 0.140526 0.173796
0.706364 0.123441 0.183424
0.841305 0.104532 0.199074
0.938056 0.091005 0.225892
0.984755 0.138866 0.282700
0.008646 0.301620 0.365443
0.102054 0.300126 0.350852
0.397564 0.265888 0.286575
0.665989 0.232238 0.245688
0.795088 0.247011 0.287894
0.905969 0.266681 0.319188
0.973644 0.305564 0.371905
0.987574 0.374502 0.432832
0.000000 0.391255 0.474371
0.003519 0.405134 0.482665
0.309094 0.401486 0.443255
0.678231 0.373888 0.391726
0.818075 0.401504 0.421530
0.901313 0.437250 0.469773
0.951144 0.486573 0.517711
0.956382 0.561098 0.580557
0.000000 0.479209 0.584997
0.000510 0.502225 0.594862
0.263597 0.519202 0.574341
0.668711 0.528413 0.541744
0.802705 0.566015 0.569994
0.851406 0.609320 0.614555
0.908824 0.644673 0.654471
0.929994 0.680995 0.691528
0.000000 0.567509 0.683493
0.004243 0.584225 0.687827
0.332643 0.619761 0.674849
0.698732 0.658721 0.668617
0.802180 0.689017 0.685856
0.847697 0.719005 0.714560
0.897176 0.729170 0.734235
0.930653 0.744481 0.753240
0.032371 0.642285 0.754367
0.197254 0.661505 0.750742
0.522243 0.688745 0.730066
0.737552 0.733278 0.734934
0.814263 0.761141 0.750400
0.850670 0.781509 0.770723
0.892578 0.794506 0.790770
0.943283 0.795617 0.806775
0.129032 0.136852 0.121969
0.131010 0.148933 0.161082
0.234478 0.129187 0.134008
0.432158 0.081989 0.120647
0.541412 0.029698 0.121603
0.671230 0.002649 0.124593
0.794037 0.000000 0.122600
0.884900 0.000000 0.128402
0.128479 0.167502 0.168104
0.120021 0.195504 0.213448
0.226578 0.180453 0.187832
0.473542 0.127386 0.151991
0.601981 0.084983 0.156960
0.743896 0.019634 0.160541
0.867910 0.012461 0.176859
0.938787 0.019696 0.199448
0.092385 0.230442 0.255290
0.054241 0.266217 0.315520
0.203263 0.258907 0.288784
0.539673 0.193551 0.204946
0.680074 0.175800 0.223612
0.824397 0.155748 0.239728
0.928567 0.157555 0.278680
0.971847 0.203775 0.324904
0.000000 0.324621 0.399816
0.002503 0.341821 0.409193
0.221161 0.336079 0.376456
0.588657 0.288449 0.298507
0.736521 0.306197 0.326598
0.860092 0.323715 0.363938
0.940194 0.363925 0.421225
0.965108 0.424632 0.473467
0.000000 0.410671 0.503939
0.000000 0.432349 0.521593
0.155205 0.439082 0.500859
0.545178 0.441208 0.460105
0.753968 0.457983 0.463871
0.850332 0.489814 0.513366
0.904512 0.541894 0.563668
0.918347 0.593418 0.612660
0.000000 0.510437 0.618177
0.000000 0.526110 0.635731
0.111027 0.547988 0.621086
0.550175 0.579474 0.602247
0.749095 0.609226 0.607873
0.809201 0.643481 0.642217
0.871038 0.664367 0.673306
0.901892 0.694552 0.703543
0.000000 0.584028 0.706461
0.010387 0.606573 0.712300
0.249786 0.630633 0.699010
0.603687 0.679176 0.695203
0.760330 0.710350 0.701654
0.811512 0.733823 0.725357
0.865243 0.740931 0.743157
0.911683 0.752672 0.759984
0.065348 0.652151 0.772428
0.224415 0.677682 0.770493
0.460437 0.704251 0.754777
0.690819 0.745567 0.751633
0.788552 0.771457 0.759280
0.830683 0.792563 0.779344
0.873449 0.803413 0.798452
0.928635 0.810026 0.818318
0.129032 0.141772 0.131050
0.128967 0.157916 0.158860
0.159528 0.156024 0.168764
0.330773 0.120708 0.141116
0.533356 0.039036 0.130790
0.665940 0.005590 0.143684
0.783564 0.000000 0.148318
0.875701 0.000000 0.151785
0.123291 0.178793 0.188387
0.105495 0.210496 0.242005
0.149987 0.218137 0.246358
0.336816 0.188229 0.202559
0.552698 0.134639 0.176099
0.727793 0.054753 0.186050
0.847712 0.041352 0.210832
0.922867 0.063664 0.238242
0.069254 0.251375 0.297426
0.012215 0.292059 0.367070
0.080592 0.298834 0.355185
0.334099 0.279889 0.301447
0.613111 0.231397 0.258844
0.779871 0.212496 0.286843
0.896354 0.215000 0.319770
0.945289 0.285663 0.373554
0.000000 0.349957 0.444360
0.000000 0.370022 0.462664
0.036881 0.386342 0.458828
0.298958 0.395779 0.440665
0.668591 0.358737 0.377450
0.808477 0.379777 0.413338
0.898910 0.416215 0.463022
0.928645 0.483023 0.524524
0.000000 0.433513 0.538910
0.000000 0.454960 0.560316
0.013137 0.478937 0.563474
0.336930 0.492524 0.539338
0.673131 0.512082 0.516652
0.790474 0.548612 0.557179
0.860051 0.579875 0.598895
0.885894 0.626225 0.643762
0.000000 0.522257 0.645719
0.000000 0.545880 0.664052
0.035824 0.567936 0.661202
0.410762 0.600322 0.649828
0.695199 0.646558 0.645427
0.772521 0.672100 0.667628
0.840900 0.685975 0.691016
0.882043 0.710955 0.717947
0.000000 0.601141 0.730792
0.025146 0.621969 0.733611
0.241711 0.647735 0.729490
0.533133 0.686188 0.720897
0.723517 0.728891 0.723581
0.783686 0.746050 0.735117
0.838805 0.754393 0.751882
0.894543 0.768574 0.771854
0.118079 0.662616 0.790737
0.266873 0.685604 0.787985
0.443314 0.714507 0.776177
0.646554 0.749312 0.768573
0.764698 0.785802 0.777641
0.808980 0.803293 0.790546
0.857055 0.816248 0.807902
0.913326 0.824752 0.826973
0.129032 0.147195 0.142024
0.126302 0.167421 0.170790
0.118165 0.190621 0.234120
0.222198 0.165720 0.182939
0.457791 0.099770 0.157558
0.641943 0.022797 0.157131
0.756629 0.009350 0.170338
0.846341 0.009081 0.177780
0.119202 0.188566 0.212315
0.088051 0.225428 0.280659
0.071237 0.249146 0.315164
0.215464 0.227606 0.261514
0.445629 0.192283 0.224297
0.649285 0.147771 0.215181
0.801868 0.112154 0.238228
0.887724 0.138961 0.272765
0.036582 0.267724 0.344611
0.002158 0.312855 0.433943
0.009255 0.327593 0.425972
0.199085 0.321493 0.377043
0.464696 0.301559 0.336015
0.707482 0.283063 0.322390
0.854765 0.288800 0.359543
0.910206 0.348703 0.415602
0.000000 0.369194 0.520393
0.000000 0.393512 0.524001
0.000551 0.406967 0.515890
0.132385 0.427803 0.506758
0.487930 0.428407 0.468468
0.733893 0.434609 0.465940
0.856272 0.467588 0.506307
0.896492 0.525202 0.558748
0.000000 0.459622 0.611537
0.000000 0.481320 0.613317
0.001579 0.502464 0.616215
0.162058 0.521433 0.606577
0.514517 0.557447 0.601218
0.736630 0.592433 0.603540
0.833293 0.622666 0.635678
0.867834 0.657141 0.668793
0.000000 0.540472 0.682004
0.000026 0.564297 0.688719
0.021265 0.586533 0.692067
0.295158 0.617918 0.688357
0.604399 0.667379 0.682456
0.737927 0.696590 0.689883
0.817966 0.709845 0.709078
0.865575 0.728510 0.732355
0.004443 0.612872 0.748984
0.059005 0.633802 0.749390
0.244157 0.659660 0.748029
0.479333 0.692615 0.741738
0.680824 0.734800 0.742116
0.765815 0.758628 0.747214
0.812929 0.770855 0.761310
0.878031 0.783610 0.782948
0.169398 0.673541 0.797276
0.319629 0.701839 0.802602
0.449886 0.723944 0.791664
0.629569 0.755001 0.787421
0.745522 0.789815 0.792736
0.805351 0.815089 0.803348
0.842754 0.827056 0.816448
0.896010 0.845345 0.841854
0.131429 0.156403 0.157916
0.127014 0.176653 0.194466
0.104241 0.204963 0.252250
0.135758 0.209842 0.266898
0.312216 0.168536 0.201179
0.556015 0.102561 0.176759
0.709525 0.046217 0.185673
0.793764 0.069751 0.209451
0.104241 0.204459 0.250021
0.060519 0.241798 0.326220
0.010494 0.284685 0.401387
0.088884 0.279720 0.361918
0.294493 0.250827 0.298794
0.543874 0.217597 0.271425
0.762206 0.185827 0.269996
0.851214 0.222049 0.313811
0.008349 0.290297 0.411074
0.000000 0.329995 0.502737
0.000539 0.355211 0.501853
0.044362 0.362333 0.468589
0.313374 0.351538 0.421561
0.572752 0.351402 0.406224
0.802506 0.346710 0.398200
0.878751 0.406412 0.454954
0.000000 0.394323 0.598826
0.000000 0.415422 0.600182
0.000000 0.432539 0.588305
0.021889 0.450248 0.574125
0.326204 0.462867 0.553207
0.602228 0.496434 0.548391
0.808382 0.515733 0.549478
0.868196 0.573858 0.601091
0.000000 0.477407 0.689031
0.000000 0.499849 0.668270
0.000570 0.517981 0.663093
0.075771 0.542417 0.659798
0.384412 0.571510 0.657787
0.632882 0.615301 0.660493
0.794843 0.652261 0.667198
0.847621 0.682257 0.691267
0.000000 0.552044 0.734177
0.001975 0.578861 0.724645
0.032876 0.600694 0.719058
0.253405 0.627110 0.719179
0.529502 0.667653 0.716205
0.690348 0.707218 0.725255
0.784980 0.731046 0.732708
0.851580 0.747717 0.748699
0.022850 0.620269 0.768652
0.093711 0.645367 0.766373
0.292076 0.675027 0.765049
0.464407 0.703921 0.761364
0.651462 0.740280 0.762370
0.750267 0.770160 0.769681
0.813086 0.790125 0.778073
0.866887 0.804567 0.797971
0.226487 0.686227 0.808827
0.357725 0.715123 0.810719
0.477149 0.737761 0.805013
0.626584 0.764758 0.803452
0.732496 0.796289 0.808819
0.798661 0.822808 0.818204
0.849738 0.842117 0.828605
0.885955 0.859646 0.847290
0.129032 0.162079 0.168133
0.120341 0.184404 0.214411
0.089150 0.220652 0.283767
0.046514 0.249646 0.358262
0.176913 0.228851 0.288560
0.375411 0.198413 0.243120
0.620366 0.148318 0.217491
0.772338 0.135721 0.229730
0.092340 0.219204 0.276317
0.033392 0.259984 0.362740
0.000000 0.306011 0.462649
0.005173 0.318541 0.449349
0.158027 0.307456 0.394930
0.379725 0.296620 0.363918
0.649961 0.271577 0.336421
0.798725 0.290837 0.352180
0.000000 0.304180 0.460607
0.000000 0.357600 0.571051
0.000000 0.376934 0.565600
0.003863 0.390616 0.535010
0.137216 0.399454 0.507027
0.417288 0.406781 0.486797
0.693620 0.414242 0.481094
0.843689 0.452478 0.496164
0.000000 0.407603 0.655866
0.000000 0.436252 0.664709
0.000000 0.454289 0.643079
0.007854 0.475491 0.628040
0.176089 0.497840 0.615310
0.483760 0.530654 0.613725
0.717575 0.567983 0.617079
0.846967 0.611212 0.634063
0.000000 0.495696 0.739381
0.000000 0.513567 0.718048
0.000397 0.534440 0.700570
0.061511 0.559802 0.694733
0.313214 0.585946 0.693275
0.560609 0.632939 0.698653
0.732566 0.677819 0.706927
0.838296 0.707362 0.715404
0.000000 0.565511 0.777221
0.007335 0.585839 0.751596
0.063589 0.612937 0.740797
0.278598 0.640072 0.736310
0.504967 0.672059 0.740165
0.662224 0.714116 0.747699
0.754150 0.743344 0.757491
0.838370 0.771969 0.769542
0.046302 0.632117 0.804034
0.152281 0.656551 0.786532
0.316538 0.682150 0.775892
0.486773 0.713699 0.776098
0.641463 0.745262 0.779488
0.740770 0.776593 0.790071
0.806626 0.804921 0.802964
0.860669 0.824580 0.813691
0.280312 0.701123 0.821289
0.392787 0.727903 0.823254
0.514397 0.751629 0.815996
0.638248 0.774324 0.815613
0.726618 0.800318 0.822754
0.793891 0.828573 0.832885
0.854969 0.855037 0.845482
0.891351 0.873166 0.857412
