app/src/main/assets/cube/Arcade04.cube
# LUT by SparkleStock. Enhanced with VOXCOLOR algorithms.
LUT_3D_SIZE 32
0.109482 0.078201 0.066471
0.139753 0.078201 0.072525
0.170277 0.077949 0.078580
0.204585 0.073913 0.084634
0.237884 0.069372 0.090184
0.264119 0.061300 0.092202
0.291868 0.053984 0.094220
0.326175 0.049948 0.096238
0.360483 0.044398 0.099265
0.394791 0.034308 0.105320
0.428468 0.022956 0.110113
0.460757 0.008829 0.112131
0.493804 0.000000 0.114906
0.528112 0.000000 0.118942
0.557122 0.000000 0.122095
0.579321 0.000000 0.124113
0.595466 0.000000 0.127140
0.605556 0.000000 0.131176
0.616782 0.000000 0.136348
0.628890 0.000000 0.142402
0.642260 0.000000 0.148456
0.656387 0.000000 0.154511
0.667739 0.000000 0.159178
0.677829 0.000000 0.163214
0.684893 0.000000 0.167250
0.690947 0.000000 0.171286
0.698641 0.003279 0.176962
0.706713 0.007316 0.183016
0.716552 0.014883 0.189071
0.726642 0.022956 0.195125
0.732949 0.032920 0.199287
0.739003 0.043011 0.203324
0.165989 0.076183 0.082616
0.198343 0.073058 0.084504
0.230690 0.069747 0.086587
0.262914 0.063627 0.091600
0.295041 0.057133 0.096368
0.326485 0.048019 0.099428
0.358465 0.038881 0.102292
0.392773 0.029637 0.104311
0.426039 0.021483 0.106817
0.456180 0.016600 0.110788
0.484389 0.011108 0.114800
0.508346 0.004272 0.118901
0.531887 0.000000 0.122978
0.554737 0.000000 0.127014
0.575480 0.000000 0.130623
0.593513 0.000000 0.133683
0.608095 0.000000 0.137752
0.619227 0.000000 0.142829
0.630323 0.000000 0.147871
0.641390 0.000000 0.152883
0.653718 0.000000 0.158547
0.666803 0.000000 0.164601
0.677829 0.002148 0.169268
0.687920 0.005273 0.173304
0.697327 0.009179 0.178122
0.706506 0.013345 0.183200
0.714786 0.019099 0.188224
0.722858 0.025218 0.193237
0.730874 0.029401 0.199161
0.738881 0.033307 0.205216
0.745057 0.038128 0.209378
0.751112 0.043011 0.213414
0.220982 0.074670 0.099139
0.256006 0.068095 0.096926
0.290753 0.061402 0.095087
0.321350 0.052939 0.098862
0.352614 0.044305 0.102671
0.388549 0.034475 0.106707
0.424033 0.023924 0.110365
0.457559 0.010253 0.112383
0.489149 0.000065 0.114450
0.514929 0.000325 0.116663
0.537697 0.000464 0.120057
0.553842 0.000334 0.126046
0.568449 0.000277 0.131278
0.580493 0.000342 0.135249
0.593447 0.000378 0.139277
0.607574 0.000378 0.143379
0.620659 0.000313 0.148424
0.632703 0.000183 0.154413
0.643721 0.000309 0.159340
0.653942 0.000635 0.163442
0.665342 0.000879 0.168723
0.677451 0.001074 0.174712
0.688172 0.005298 0.179314
0.698263 0.011352 0.183285
0.709818 0.018724 0.188818
0.721861 0.026536 0.194873
0.730678 0.034401 0.199393
0.738751 0.042278 0.203560
0.745114 0.043662 0.209321
0.751234 0.044117 0.215310
0.757292 0.044329 0.219468
0.763346 0.044524 0.223505
0.253272 0.080724 0.121338
0.299753 0.065816 0.116000
0.345567 0.050920 0.110971
0.381372 0.036208 0.110580
0.416412 0.022626 0.110743
0.446098 0.016963 0.114779
0.474160 0.011165 0.118437
0.495187 0.004785 0.120455
0.515580 0.001107 0.123303
0.534068 0.005533 0.128642
0.551824 0.007885 0.133858
0.567969 0.005672 0.138805
0.582185 0.004703 0.142996
0.593187 0.005810 0.145926
0.605556 0.006433 0.149824
0.619683 0.006433 0.154966
0.632247 0.005326 0.160012
0.643249 0.003113 0.164959
0.654983 0.005257 0.170017
0.667287 0.010790 0.175160
0.679469 0.014940 0.180181
0.691578 0.018261 0.185128
0.702299 0.023460 0.188688
0.712389 0.029515 0.191618
0.723163 0.033762 0.196891
0.734165 0.037408 0.202945
0.742787 0.041953 0.209158
0.750859 0.046705 0.215408
0.758134 0.054078 0.220518
0.765295 0.061825 0.225466
0.771419 0.065421 0.229559
0.777473 0.068742 0.233595
0.277489 0.089805 0.144294
0.334777 0.067606 0.135571
0.391080 0.045493 0.127140
0.432614 0.024661 0.123104
0.472146 0.006099 0.120012
0.497665 0.003430 0.123527
0.520267 0.001310 0.126811
0.530227 0.001571 0.129089
0.540660 0.003654 0.132751
0.552508 0.011205 0.140563
0.565658 0.015176 0.147195
0.581673 0.011270 0.151231
0.595563 0.009684 0.154608
0.605914 0.011962 0.156887
0.617803 0.013358 0.160703
0.631669 0.013618 0.166497
0.643843 0.011991 0.171412
0.654324 0.008475 0.175449
0.666783 0.012540 0.180547
0.680779 0.022500 0.186471
0.693433 0.029856 0.191296
0.705281 0.035650 0.195463
0.716010 0.041534 0.198331
0.726231 0.047458 0.200610
0.736354 0.049427 0.205720
0.746445 0.050078 0.211774
0.755107 0.051946 0.219363
0.763440 0.054094 0.227305
0.771545 0.066837 0.231943
0.779617 0.081094 0.236110
0.786164 0.087905 0.240398
0.792609 0.094220 0.244695
0.245199 0.120077 0.172548
0.308737 0.097878 0.158616
0.371485 0.075439 0.145303
0.422393 0.049399 0.141267
0.471430 0.025629 0.137654
0.507365 0.017752 0.137003
0.538235 0.011791 0.137292
0.547153 0.014135 0.141654
0.556284 0.016739 0.146357
0.566049 0.020124 0.152086
0.577441 0.021556 0.157286
0.592414 0.018692 0.161322
0.606435 0.018537 0.165480
0.618869 0.022899 0.169842
0.631018 0.026378 0.173919
0.642801 0.028721 0.177629
0.655496 0.030219 0.181503
0.669102 0.030870 0.185539
0.682342 0.036171 0.190051
0.695296 0.045090 0.194934
0.706258 0.050754 0.200020
0.716023 0.054464 0.205228
0.726817 0.058981 0.209854
0.738079 0.063863 0.214216
0.748463 0.069478 0.219847
0.758553 0.075337 0.225901
0.768908 0.079027 0.232643
0.779324 0.082217 0.239544
0.787690 0.096002 0.244963
0.795762 0.111301 0.250171
0.805238 0.120130 0.256478
0.814808 0.128528 0.262858
0.213288 0.149970 0.200801
0.284247 0.127576 0.182247
0.354490 0.104701 0.164540
0.413991 0.074625 0.159528
0.471580 0.046673 0.154637
0.515783 0.033588 0.150601
0.553395 0.023566 0.148383
0.562444 0.026821 0.154047
0.571346 0.029409 0.159304
0.579809 0.029995 0.163340
0.589859 0.030072 0.167498
0.603400 0.029031 0.171925
0.617014 0.030577 0.176816
0.630750 0.036436 0.182479
0.643147 0.041583 0.186719
0.653824 0.045814 0.189128
0.667039 0.049850 0.192252
0.682793 0.053691 0.196093
0.696716 0.059912 0.200264
0.709216 0.067985 0.204691
0.719192 0.072395 0.210013
0.727655 0.074609 0.215872
0.738490 0.078344 0.221596
0.750404 0.082771 0.227260
0.761243 0.091299 0.233510
0.771724 0.101194 0.239955
0.783527 0.106963 0.246241
0.795636 0.111781 0.252490
0.804384 0.125484 0.258398
0.812651 0.140457 0.264257
0.823971 0.150853 0.272008
0.835493 0.160943 0.279885
0.183016 0.178223 0.229054
0.266475 0.154787 0.208418
0.348761 0.131002 0.188432
0.413470 0.101967 0.178211
0.475486 0.074275 0.168764
0.518648 0.055982 0.164727
0.556389 0.040948 0.162119
0.570646 0.040036 0.165700
0.583975 0.040281 0.169394
0.594522 0.043991 0.173430
0.605027 0.047844 0.178240
0.615443 0.052011 0.184750
0.626323 0.056421 0.190161
0.637976 0.061239 0.193742
0.650569 0.066256 0.197721
0.664370 0.071529 0.202213
0.678106 0.075565 0.205858
0.691777 0.078364 0.208658
0.705961 0.084130 0.213544
0.720543 0.092202 0.220054
0.732603 0.097263 0.225506
0.743149 0.100518 0.230324
0.753919 0.106011 0.234291
0.764791 0.112521 0.237871
0.776932 0.120789 0.245163
0.789496 0.129643 0.253691
0.801690 0.138602 0.261214
0.813799 0.147586 0.268505
0.823458 0.156342 0.273632
0.832767 0.165065 0.278449
0.841222 0.175070 0.285158
0.849620 0.185161 0.291994
0.154259 0.205972 0.257812
0.245529 0.182276 0.235092
0.335643 0.158295 0.212861
0.408425 0.130041 0.197953
0.477602 0.102480 0.184306
0.521545 0.079760 0.179489
0.560507 0.060543 0.175953
0.577889 0.056507 0.177971
0.594147 0.054863 0.180494
0.607037 0.060397 0.184530
0.618747 0.066886 0.189746
0.627861 0.075479 0.197558
0.637341 0.082559 0.203393
0.647432 0.087116 0.205932
0.659829 0.092328 0.209781
0.675193 0.098382 0.215314
0.689059 0.102288 0.219220
0.701428 0.104046 0.221499
0.715774 0.109063 0.226743
0.731659 0.116614 0.234295
0.745509 0.122294 0.239975
0.758138 0.126851 0.244532
0.769380 0.133288 0.247522
0.779992 0.140579 0.249801
0.793044 0.148261 0.257548
0.806910 0.156073 0.267117
0.819349 0.167376 0.275471
0.831457 0.179485 0.283543
0.841572 0.184530 0.288084
0.851402 0.188566 0.292120
0.858425 0.198522 0.298536
0.865260 0.208873 0.305111
0.130041 0.232208 0.288084
0.215062 0.210594 0.263281
0.300359 0.188566 0.238901
0.389807 0.160313 0.220868
0.474347 0.132491 0.204097
0.524539 0.107688 0.196154
0.567993 0.086778 0.190080
0.582250 0.082742 0.192098
0.596947 0.080578 0.194621
0.612961 0.084028 0.198657
0.628121 0.089736 0.203547
0.641402 0.100413 0.210318
0.653486 0.109575 0.216283
0.663576 0.116216 0.220905
0.674607 0.122600 0.225014
0.686846 0.128654 0.228464
0.699670 0.132039 0.231850
0.713081 0.132755 0.235170
0.727297 0.136144 0.239698
0.742140 0.141613 0.245167
0.756901 0.147814 0.251367
0.771614 0.154454 0.258008
0.784939 0.159393 0.262365
0.797634 0.163560 0.265685
0.810426 0.169679 0.272130
0.823250 0.176449 0.279617
0.835493 0.187557 0.287579
0.847602 0.199666 0.295652
0.856805 0.204711 0.300192
0.865594 0.208747 0.304229
0.875481 0.219680 0.312598
0.885441 0.231072 0.321256
0.112131 0.256551 0.315833
0.189925 0.237672 0.290574
0.269164 0.218227 0.265592
0.370069 0.190299 0.244760
0.465579 0.162624 0.225108
0.523323 0.136714 0.213715
0.572998 0.114845 0.204837
0.587711 0.110483 0.206855
0.603123 0.107716 0.209378
0.620635 0.109734 0.213414
0.637516 0.114499 0.217877
0.653010 0.125305 0.223281
0.666600 0.134964 0.228928
0.677016 0.142711 0.234982
0.687289 0.149718 0.239413
0.697380 0.155772 0.241757
0.709651 0.159287 0.244947
0.724103 0.160264 0.248983
0.738738 0.162962 0.253385
0.753516 0.166998 0.258073
0.769352 0.173353 0.264469
0.785822 0.181100 0.271890
0.800010 0.184908 0.276760
0.813160 0.186926 0.280471
0.826017 0.192216 0.286184
0.838777 0.198596 0.292563
0.851536 0.208837 0.300318
0.864296 0.219969 0.308391
0.873239 0.225746 0.313501
0.881637 0.230759 0.318188
0.892903 0.241509 0.327026
0.904361 0.252641 0.336140
0.108094 0.276732 0.338032
0.176515 0.262019 0.315898
0.246965 0.246546 0.293715
0.347870 0.219660 0.270800
0.444682 0.193026 0.248804
0.512841 0.168157 0.233245
0.572542 0.146939 0.220982
0.595588 0.141536 0.223000
0.616729 0.137988 0.225523
0.632158 0.140006 0.229559
0.646956 0.143468 0.233371
0.660366 0.150108 0.236691
0.673044 0.156773 0.241037
0.684502 0.163478 0.247091
0.695362 0.169899 0.251978
0.705452 0.175953 0.255363
0.718244 0.181031 0.259074
0.733738 0.185132 0.263110
0.750001 0.189197 0.268684
0.766862 0.193233 0.275454
0.784129 0.198937 0.281330
0.801641 0.205643 0.286668
0.814006 0.209126 0.290171
0.824032 0.211144 0.292840
0.837670 0.217214 0.299073
0.852513 0.224636 0.306495
0.867356 0.232533 0.314445
0.882199 0.240540 0.322518
0.892313 0.248662 0.329451
0.901753 0.256799 0.336221
0.911131 0.264815 0.342259
0.920506 0.272822 0.348248
0.107085 0.296156 0.359474
0.169256 0.284048 0.339293
0.233676 0.271178 0.318884
0.331847 0.246896 0.295058
0.427129 0.222670 0.271988
0.502189 0.198844 0.254215
0.568620 0.178276 0.239861
0.597655 0.171831 0.240317
0.623450 0.167405 0.241570
0.639530 0.169032 0.245215
0.654613 0.171412 0.248474
0.667503 0.175449 0.250883
0.680100 0.180534 0.254659
0.692208 0.187370 0.260713
0.703434 0.193522 0.265714
0.713524 0.198795 0.269359
0.726837 0.204263 0.273396
0.743373 0.209927 0.277822
0.761043 0.214456 0.284080
0.779597 0.218101 0.291762
0.797418 0.223496 0.297165
0.814800 0.229941 0.301201
0.826855 0.233074 0.304387
0.836490 0.234702 0.307187
0.851007 0.240284 0.313355
0.867152 0.247185 0.320646
0.882980 0.254350 0.328572
0.898734 0.261576 0.336644
0.909874 0.270625 0.344717
0.920355 0.279934 0.352789
0.928578 0.286558 0.357810
0.936651 0.293003 0.362627
0.111122 0.314319 0.379655
0.172251 0.302210 0.359474
0.235239 0.289666 0.339130
0.326118 0.270592 0.316345
0.415151 0.251054 0.294317
0.491253 0.228269 0.277586
0.558920 0.208353 0.263297
0.590038 0.200866 0.259586
0.618698 0.195398 0.257454
0.639986 0.195984 0.260058
0.659300 0.197648 0.262927
0.674273 0.201684 0.266377
0.688172 0.207551 0.270804
0.700281 0.216470 0.276858
0.711506 0.222882 0.281403
0.721597 0.226072 0.284007
0.735431 0.229978 0.288043
0.753008 0.234600 0.293511
0.771720 0.238087 0.299639
0.791315 0.240691 0.306279
0.808225 0.246347 0.311292
0.823523 0.253833 0.315328
0.837792 0.256575 0.319946
0.851593 0.257161 0.324829
0.867152 0.260140 0.329955
0.883297 0.263915 0.335163
0.898278 0.273033 0.342699
0.912991 0.283384 0.350771
0.924912 0.291001 0.358843
0.936435 0.298227 0.366916
0.944723 0.305697 0.373890
0.952795 0.313184 0.380790
0.118689 0.332482 0.399836
0.177865 0.320373 0.379199
0.238653 0.308069 0.358522
0.323608 0.292836 0.337234
0.407131 0.277074 0.316646
0.480629 0.257609 0.300957
0.546657 0.240195 0.286989
0.580314 0.231666 0.280479
0.612294 0.225156 0.275873
0.639245 0.224701 0.276980
0.663104 0.225222 0.278717
0.680161 0.227891 0.281842
0.695362 0.233172 0.286407
0.707470 0.242807 0.293373
0.718895 0.249109 0.298174
0.729441 0.251127 0.300192
0.744252 0.254838 0.304229
0.763326 0.260241 0.310283
0.782510 0.262971 0.315824
0.801780 0.263622 0.320967
0.818689 0.268342 0.325419
0.834183 0.275503 0.329455
0.850125 0.278368 0.334878
0.866269 0.279279 0.340933
0.883439 0.281704 0.346499
0.900951 0.284633 0.351902
0.914972 0.293540 0.359104
0.928188 0.303826 0.366720
0.940435 0.310808 0.375135
0.952543 0.317318 0.383663
0.959586 0.324865 0.391336
0.966291 0.332482 0.398953
0.130798 0.350645 0.420017
0.186849 0.338536 0.398339
0.244446 0.326363 0.376815
0.325236 0.313212 0.357611
0.404202 0.300054 0.338976
0.470408 0.286839 0.324328
0.531098 0.274307 0.311011
0.567879 0.264737 0.303460
0.603766 0.257186 0.297552
0.636967 0.255688 0.296575
0.665774 0.254517 0.296229
0.684913 0.254061 0.297271
0.701416 0.256999 0.301315
0.713524 0.265592 0.310364
0.725405 0.271308 0.316337
0.736993 0.273326 0.318355
0.753366 0.278599 0.322391
0.774523 0.287128 0.328446
0.793447 0.289467 0.332816
0.810633 0.286993 0.335875
0.828715 0.289239 0.339545
0.847333 0.294317 0.343581
0.864251 0.297963 0.349005
0.880396 0.300957 0.355059
0.899910 0.305465 0.362969
0.920546 0.310478 0.371497
0.933461 0.316390 0.378438
0.944593 0.322509 0.385014
0.956579 0.329882 0.394209
0.968688 0.337434 0.403779
0.972801 0.344070 0.410541
0.976382 0.350645 0.417116
0.143916 0.365781 0.437171
0.195280 0.356276 0.418617
0.248190 0.346641 0.400056
0.324292 0.335053 0.381372
0.398831 0.323718 0.363128
0.462434 0.314148 0.347959
0.521398 0.304676 0.334122
0.560263 0.295627 0.326049
0.598363 0.288206 0.319490
0.634168 0.285667 0.317472
0.665741 0.283291 0.316248
0.688005 0.281273 0.316768
0.706656 0.283039 0.320292
0.719286 0.291111 0.328820
0.731459 0.296307 0.334272
0.743047 0.297804 0.335769
0.760201 0.302296 0.339806
0.782921 0.309782 0.346381
0.802528 0.311666 0.350686
0.819715 0.309192 0.353224
0.838773 0.310787 0.356699
0.858954 0.314824 0.360735
0.877076 0.319218 0.366875
0.894262 0.323775 0.373971
0.913646 0.328674 0.381750
0.933762 0.333686 0.389758
0.946578 0.337906 0.397025
0.957710 0.341942 0.404120
0.968330 0.349965 0.414292
0.978876 0.358559 0.424904
0.981915 0.366236 0.432219
0.984454 0.373853 0.439315
0.158042 0.377889 0.451298
0.203157 0.373593 0.440035
0.249882 0.368905 0.428244
0.320776 0.358359 0.408519
0.391019 0.348065 0.389103
0.456705 0.339537 0.371851
0.517557 0.331302 0.356321
0.557463 0.324336 0.348248
0.596084 0.318217 0.341690
0.630847 0.314636 0.339671
0.663007 0.311544 0.338772
0.689437 0.309526 0.340335
0.711083 0.311292 0.343337
0.724754 0.319364 0.348741
0.737058 0.324104 0.351979
0.747604 0.324560 0.352435
0.764758 0.325927 0.356471
0.788520 0.328206 0.364088
0.809754 0.329569 0.369434
0.829024 0.330220 0.373015
0.848863 0.332986 0.376880
0.869044 0.337023 0.380916
0.888599 0.342133 0.388488
0.907868 0.347732 0.397667
0.924648 0.351328 0.402843
0.940597 0.354258 0.406684
0.954325 0.358087 0.414862
0.967541 0.362123 0.424041
0.975686 0.371058 0.435385
0.983108 0.380693 0.447038
0.986928 0.391365 0.456371
0.990509 0.402106 0.465550
0.171034 0.391133 0.466559
0.215172 0.389701 0.457901
0.260327 0.387837 0.448706
0.320740 0.379504 0.431454
0.381779 0.371277 0.414162
0.447204 0.363791 0.396585
0.508480 0.356793 0.380900
0.551771 0.351910 0.373414
0.592963 0.346800 0.366708
0.627857 0.341006 0.362347
0.660492 0.336758 0.359979
0.688160 0.335912 0.361997
0.710969 0.337751 0.364332
0.725682 0.344066 0.367197
0.739141 0.347874 0.369833
0.750989 0.348460 0.372177
0.769022 0.348460 0.376506
0.793239 0.347874 0.382821
0.815845 0.349082 0.388183
0.837198 0.351686 0.392805
0.857819 0.354819 0.397427
0.878000 0.358270 0.402049
0.897778 0.363107 0.409625
0.917373 0.368576 0.418544
0.934185 0.372335 0.423606
0.950069 0.375525 0.427381
0.963574 0.380355 0.437240
0.976528 0.385563 0.448502
0.982420 0.395043 0.458967
0.987302 0.405134 0.469318
0.991254 0.416567 0.479974
0.995144 0.428089 0.490651
0.183143 0.405260 0.482704
0.230405 0.404869 0.473004
0.277578 0.404177 0.463158
0.323409 0.398969 0.451114
0.371428 0.393607 0.438509
0.434770 0.387162 0.421974
0.495330 0.381401 0.407331
0.543829 0.378601 0.400886
0.589188 0.374272 0.393920
0.625123 0.365353 0.385392
0.658149 0.359608 0.380160
0.684775 0.360845 0.382178
0.707324 0.362814 0.383732
0.723078 0.366004 0.384513
0.738490 0.368511 0.387801
0.753463 0.370138 0.394311
0.773058 0.370138 0.399161
0.797276 0.368511 0.402351
0.821053 0.369849 0.406932
0.844489 0.373495 0.412596
0.865891 0.376367 0.418259
0.886072 0.378776 0.423923
0.905134 0.382572 0.430392
0.923688 0.386999 0.437228
0.942583 0.392061 0.444112
0.961592 0.397334 0.451013
0.973990 0.404247 0.463150
0.984861 0.411538 0.476495
0.988670 0.421278 0.484486
0.991469 0.431369 0.491712
0.995046 0.441826 0.503150
0.998676 0.452307 0.514868
0.196512 0.421909 0.501372
0.241692 0.420607 0.491932
0.286692 0.419215 0.482411
0.329007 0.416481 0.471670
0.373202 0.413495 0.460497
0.430555 0.408743 0.446305
0.486370 0.404381 0.433517
0.535521 0.401712 0.426812
0.582116 0.397676 0.419260
0.621046 0.389538 0.409170
0.656212 0.384371 0.402456
0.683098 0.385738 0.403172
0.706445 0.386861 0.404108
0.723892 0.387577 0.405410
0.741623 0.389147 0.409105
0.759721 0.391817 0.415875
0.780879 0.393444 0.421246
0.805096 0.394030 0.425217
0.829313 0.395824 0.430360
0.853530 0.398558 0.436414
0.875632 0.401252 0.442468
0.896464 0.403921 0.448523
0.915908 0.407530 0.454577
0.934722 0.411566 0.460631
0.953096 0.417116 0.468199
0.971324 0.423170 0.476272
0.980825 0.430335 0.487147
0.988311 0.437757 0.498670
0.992010 0.446944 0.507117
0.995167 0.456384 0.515124
0.997608 0.467654 0.527587
1.000000 0.479046 0.540346
0.210639 0.440072 0.521553
0.250611 0.436687 0.513155
0.290924 0.433472 0.504545
0.336364 0.432821 0.492762
0.382251 0.431918 0.481069
0.431271 0.429249 0.470002
0.479925 0.426385 0.459557
0.526993 0.422674 0.451810
0.573067 0.418638 0.443477
0.616163 0.413625 0.433387
0.654519 0.410281 0.426023
0.682447 0.410606 0.424655
0.707226 0.410297 0.425070
0.726756 0.408930 0.428456
0.747027 0.409784 0.432410
0.768249 0.413495 0.437098
0.790969 0.417726 0.442989
0.815186 0.422479 0.450085
0.839403 0.424924 0.456595
0.863621 0.425575 0.462649
0.886373 0.428138 0.468704
0.908247 0.431849 0.474758
0.928733 0.435783 0.480812
0.948588 0.439820 0.486867
0.964880 0.445369 0.494434
0.979983 0.451424 0.502507
0.985512 0.457742 0.509997
0.988832 0.464122 0.517354
0.993605 0.472268 0.528014
0.998585 0.480666 0.539146
0.999430 0.493824 0.552780
1.000000 0.507300 0.566582
0.219216 0.456847 0.541734
0.257560 0.454959 0.535810
0.296319 0.453145 0.529499
0.341303 0.452429 0.517390
0.386466 0.451729 0.505713
0.432882 0.451143 0.497055
0.479433 0.449910 0.488103
0.526565 0.445874 0.477883
0.573372 0.441838 0.467695
0.619203 0.437802 0.457604
0.659540 0.434803 0.450260
0.687794 0.434087 0.448958
0.713288 0.433957 0.449658
0.734186 0.434803 0.453694
0.755966 0.436418 0.457730
0.778881 0.439022 0.461766
0.801373 0.442993 0.468179
0.823442 0.448331 0.476967
0.846316 0.451473 0.484218
0.869817 0.452905 0.490272
0.892952 0.455517 0.496326
0.915867 0.458837 0.502381
0.937887 0.462649 0.508435
0.959501 0.466686 0.514489
0.973351 0.471161 0.521520
0.984613 0.475783 0.528876
0.988364 0.482151 0.535757
0.990382 0.488921 0.542527
0.994864 0.499337 0.553968
0.999698 0.510274 0.566077
1.000000 0.524873 0.579406
1.000000 0.539716 0.592817
0.225270 0.472992 0.561915
0.263614 0.474229 0.559115
0.302243 0.475279 0.555734
0.345144 0.473521 0.543626
0.388484 0.472170 0.532209
0.434901 0.473668 0.525634
0.481646 0.474127 0.517789
0.529820 0.470091 0.504444
0.577929 0.466055 0.491912
0.625843 0.462019 0.481821
0.667613 0.458695 0.474803
0.695866 0.456937 0.474542
0.721751 0.457718 0.475893
0.743690 0.462731 0.479929
0.766512 0.465778 0.483966
0.790469 0.466299 0.488002
0.811919 0.468708 0.494935
0.830863 0.473004 0.504765
0.851785 0.476862 0.512471
0.874244 0.480377 0.518526
0.897639 0.483119 0.524580
0.921596 0.485398 0.530634
0.945374 0.488885 0.536688
0.969070 0.492921 0.542743
0.980316 0.495834 0.548992
0.987412 0.498373 0.555307
0.990382 0.505196 0.562838
0.992401 0.513008 0.570650
0.995971 0.527200 0.582222
0.999763 0.542303 0.594330
1.000000 0.558139 0.606683
1.000000 0.574023 0.619052
0.228298 0.492164 0.583609
0.266641 0.494182 0.582372
0.305140 0.495997 0.580602
0.345958 0.494760 0.570837
0.387378 0.493735 0.561341
0.433013 0.494190 0.553724
0.479758 0.494243 0.545180
0.531318 0.492551 0.532616
0.582291 0.490272 0.520474
0.631507 0.486236 0.509603
0.674416 0.483319 0.502128
0.703450 0.482863 0.502128
0.729629 0.484263 0.503056
0.751046 0.488754 0.505530
0.773005 0.491965 0.509371
0.795660 0.493527 0.514969
0.816850 0.495936 0.522033
0.836576 0.499191 0.530561
0.856814 0.502885 0.538576
0.877450 0.506921 0.546193
0.899837 0.510673 0.552345
0.923273 0.514253 0.557618
0.947783 0.518147 0.564502
0.972781 0.522183 0.572119
0.982986 0.524706 0.578564
0.988259 0.526724 0.584618
0.991998 0.534296 0.591678
0.995383 0.543150 0.598969
0.997700 0.559067 0.611842
0.999865 0.575993 0.625513
1.000000 0.592186 0.636255
1.000000 0.608331 0.646801
0.230316 0.512345 0.605808
0.268660 0.514363 0.605613
0.307028 0.516243 0.605015
0.345762 0.516048 0.598375
0.385229 0.515673 0.591352
0.429823 0.514046 0.581652
0.476503 0.512992 0.571806
0.532229 0.514424 0.561325
0.586588 0.514489 0.550486
0.636845 0.510453 0.538572
0.680795 0.508187 0.530382
0.710872 0.509814 0.530382
0.737310 0.511735 0.530528
0.757687 0.514143 0.530919
0.778148 0.517093 0.534499
0.798720 0.520739 0.542181
0.819910 0.523668 0.549245
0.841719 0.525882 0.555689
0.861696 0.529121 0.563965
0.880250 0.533157 0.573665
0.901204 0.538210 0.579947
0.923598 0.543874 0.584179
0.948499 0.548419 0.592170
0.974539 0.552455 0.601870
0.984222 0.554977 0.608835
0.988454 0.556996 0.614890
0.993479 0.565414 0.621103
0.998687 0.575309 0.627352
0.999637 0.592268 0.641918
0.999979 0.610235 0.657673
1.000000 0.626494 0.666591
1.000000 0.642639 0.675054
0.225775 0.529247 0.628007
0.266658 0.531265 0.626315
0.307541 0.533210 0.624350
0.348423 0.534056 0.618295
0.389640 0.534650 0.612054
0.433192 0.533478 0.604502
0.479173 0.532428 0.596316
0.535679 0.531908 0.585379
0.591519 0.530720 0.574361
0.645357 0.527530 0.563099
0.692094 0.526496 0.555356
0.723212 0.530207 0.555356
0.750546 0.533600 0.555673
0.771573 0.536465 0.556520
0.792230 0.539842 0.559787
0.812411 0.543878 0.566167
0.831486 0.546905 0.572384
0.849453 0.548923 0.578438
0.868483 0.553505 0.587239
0.888338 0.560080 0.598175
0.909130 0.566329 0.605857
0.930482 0.572384 0.611586
0.952283 0.577050 0.618568
0.974287 0.581087 0.626120
0.984084 0.584879 0.632548
0.989813 0.588589 0.638602
0.994709 0.597484 0.646032
0.999412 0.607574 0.653779
1.000000 0.626209 0.668133
1.000000 0.646065 0.683432
1.000000 0.660854 0.692749
1.000000 0.675307 0.701668
0.219721 0.545391 0.650207
0.263728 0.547410 0.646431
0.307736 0.549420 0.642513
0.351743 0.551307 0.636458
0.395564 0.552943 0.630607
0.438074 0.552813 0.626181
0.483209 0.552024 0.620338
0.539716 0.548378 0.608359
0.596597 0.545107 0.596820
0.654601 0.542958 0.586600
0.704528 0.543292 0.579573
0.736688 0.549086 0.579573
0.765063 0.554172 0.580281
0.787132 0.558078 0.582169
0.808375 0.562041 0.585111
0.828556 0.566077 0.589407
0.845026 0.569104 0.594583
0.857786 0.571122 0.600637
0.875709 0.577461 0.610024
0.897648 0.587161 0.622002
0.918569 0.594583 0.631376
0.938880 0.600637 0.639188
