app/src/main/assets/cube/Arcade04.cube
# LUT by SparkleStock. Enhanced with VOXCOLOR algorithms.
LUT_3D_SIZE 8
DOMAIN_MIN 0.000000 0.000000 0.000000
DOMAIN_MAX 0.903226 0.903226 0.903226
0.109482 0.078201 0.066471
0.237884 0.069372 0.090184
0.360483 0.044398 0.099265
0.493804 0.000000 0.114906
0.595466 0.000000 0.127140
0.642260 0.000000 0.148456
0.684893 0.000000 0.167250
0.716552 0.014883 0.189071
0.277489 0.089805 0.144294
0.472146 0.006099 0.120012
0.540660 0.003654 0.132751
0.595563 0.009684 0.154608
0.643843 0.011991 0.171412
0.693433 0.029856 0.191296
0.736354 0.049427 0.205720
0.771545 0.066837 0.231943
0.154259 0.205972 0.257812
0.477602 0.102480 0.184306
0.594147 0.054863 0.180494
0.637341 0.082559 0.203393
0.689059 0.102288 0.219220
0.745509 0.122294 0.239975
0.793044 0.148261 0.257548
0.841572 0.184530 0.288084
0.107085 0.296156 0.359474
0.427129 0.222670 0.271988
0.623450 0.167405 0.241570
0.680100 0.180534 0.254659
0.726837 0.204263 0.273396
0.797418 0.223496 0.297165
0.851007 0.240284 0.313355
0.909874 0.270625 0.344717
0.143916 0.365781 0.437171
0.398831 0.323718 0.363128
0.598363 0.288206 0.319490
0.706656 0.283039 0.320292
0.760201 0.302296 0.339806
0.838773 0.310787 0.356699
0.913646 0.328674 0.381750
0.968330 0.349965 0.414292
0.196512 0.421909 0.501372
0.373202 0.413495 0.460497
0.582116 0.397676 0.419260
0.706445 0.386861 0.404108
0.780879 0.393444 0.421246
0.875632 0.401252 0.442468
0.953096 0.417116 0.468199
0.992010 0.446944 0.507117
0.228298 0.492164 0.583609
0.387378 0.493735 0.561341
0.582291 0.490272 0.520474
0.729629 0.484263 0.503056
0.816850 0.495936 0.522033
0.899837 0.510673 0.552345
0.982986 0.524706 0.578564
0.997700 0.559067 0.611842
0.206603 0.566834 0.674171
0.396646 0.569470 0.654003
0.610048 0.566329 0.616204
0.780321 0.573319 0.601357
0.859080 0.591816 0.617693
0.925103 0.620501 0.651655
0.985850 0.640295 0.676548
1.000000 0.698307 0.721345
0.113392 0.094346 0.097752
0.281513 0.062496 0.099436
0.404251 0.027969 0.106833
0.529885 0.000000 0.126636
0.598428 0.001074 0.140132
0.645027 0.000000 0.159007
0.693693 0.003222 0.178756
0.734804 0.027016 0.203059
0.109986 0.164300 0.213886
0.479791 0.013135 0.128332
0.536023 0.019735 0.146817
0.581762 0.029469 0.163939
0.640356 0.037356 0.186617
0.696909 0.049242 0.200462
0.738444 0.063927 0.220547
0.779690 0.093702 0.245958
0.108627 0.236716 0.294960
0.370524 0.172869 0.227494
0.574943 0.100493 0.199490
0.626287 0.124560 0.219843
0.677973 0.155899 0.243658
0.733874 0.162186 0.257553
0.795171 0.189932 0.280299
0.836957 0.210988 0.306072
0.103456 0.315405 0.379529
0.274042 0.296649 0.341929
0.562551 0.237189 0.282208
0.653236 0.230702 0.280420
0.708679 0.261295 0.305551
0.775891 0.269644 0.321456
0.841090 0.283457 0.344692
0.888277 0.305546 0.370767
0.154637 0.378015 0.450602
0.258297 0.386547 0.445406
0.522716 0.349555 0.374378
0.661465 0.329504 0.350626
0.725338 0.350654 0.376119
0.808756 0.354463 0.392039
0.890789 0.364640 0.413490
0.939977 0.392411 0.446732
0.195296 0.443351 0.526805
0.286857 0.453228 0.527484
0.521002 0.437965 0.466611
0.670477 0.425401 0.434636
0.753783 0.432002 0.454311
0.837363 0.450194 0.483442
0.927571 0.458745 0.504142
0.981122 0.493088 0.547991
0.189323 0.514615 0.614133
0.311384 0.527230 0.614283
0.526821 0.515388 0.560455
0.701915 0.519958 0.536336
0.789122 0.529838 0.546142
0.863061 0.555595 0.585427
0.958075 0.560956 0.606662
0.987056 0.593057 0.643446
0.113758 0.593549 0.704443
0.340695 0.595599 0.688929
0.541239 0.599653 0.655234
0.721669 0.613385 0.633647
0.811434 0.639420 0.648627
0.870546 0.671169 0.681739
0.947294 0.695695 0.714867
0.993973 0.724183 0.751090
0.113897 0.110995 0.107085
0.215054 0.109547 0.157631
0.439274 0.026915 0.116598
0.544887 0.000098 0.133992
0.599506 0.006302 0.152114
0.654857 0.004956 0.176673
0.701245 0.010160 0.193038
0.738979 0.029690 0.211221
0.128056 0.186361 0.211237
0.166091 0.197188 0.245111
0.507830 0.049717 0.160378
0.577744 0.062986 0.181589
0.633040 0.069990 0.204361
0.693109 0.089023 0.223960
0.740829 0.106128 0.241650
0.783027 0.135260 0.263076
0.107024 0.259704 0.305172
0.211051 0.247977 0.299695
0.537102 0.155322 0.224611
0.605902 0.172865 0.241887
0.658317 0.194629 0.261756
0.719229 0.209942 0.280679
0.778368 0.223017 0.299875
0.831091 0.247264 0.328779
0.101829 0.333279 0.401573
0.218395 0.330000 0.388533
0.482747 0.301879 0.332483
0.630077 0.272982 0.303342
0.681227 0.297806 0.327945
0.747924 0.310598 0.347178
0.823167 0.321025 0.369653
0.874834 0.338050 0.397007
0.154376 0.392138 0.468691
0.240776 0.402034 0.471281
0.427178 0.401262 0.433860
0.616470 0.377923 0.390716
0.693327 0.387815 0.399318
0.772124 0.394434 0.420223
0.858498 0.399597 0.445080
0.921628 0.427186 0.481111
0.185413 0.458613 0.545013
0.266614 0.472151 0.552652
0.423194 0.479063 0.528021
0.621416 0.467087 0.476139
0.719630 0.473711 0.482851
0.790237 0.489464 0.510347
0.899991 0.497529 0.541715
0.956681 0.523440 0.576017
0.145291 0.531196 0.637777
0.278112 0.544835 0.638070
0.438771 0.557507 0.615994
0.650676 0.555337 0.577238
0.754629 0.568077 0.577835
0.829083 0.591490 0.609370
0.917245 0.598412 0.635027
0.970931 0.623845 0.666882
0.047779 0.615268 0.736659
0.264193 0.625488 0.725712
0.500586 0.625918 0.688891
0.689890 0.642086 0.662058
0.793855 0.674577 0.675971
0.851004 0.708259 0.706717
0.920514 0.731742 0.737129
0.978852 0.743398 0.766991
0.116545 0.122726 0.129789
0.110833 0.162848 0.213642
0.346397 0.094037 0.159894
0.535020 0.007153 0.145767
0.598240 0.012935 0.168764
0.651191 0.008679 0.191451
0.701457 0.020812 0.208157
0.744894 0.042470 0.223252
0.124618 0.198579 0.228171
0.110899 0.234369 0.282613
0.316900 0.196835 0.248999
0.552501 0.111816 0.203603
0.616074 0.125974 0.223896
0.680197 0.128398 0.243758
0.733100 0.149072 0.262438
0.776062 0.172850 0.279572
0.102390 0.272541 0.319897
0.105330 0.303102 0.367764
0.284965 0.294102 0.341275
0.575878 0.216696 0.266164
0.640096 0.235846 0.286264
0.703400 0.250490 0.306602
0.764878 0.262659 0.326361
0.812991 0.279179 0.347264
0.091319 0.350751 0.425799
0.170822 0.360103 0.425854
0.345716 0.355224 0.400250
0.583627 0.317121 0.333970
0.650548 0.336024 0.354288
0.713505 0.341158 0.369108
0.792123 0.352007 0.393467
0.854663 0.368978 0.422510
0.146792 0.407644 0.487050
0.225140 0.421371 0.501086
0.366231 0.430169 0.484365
0.558218 0.422440 0.432710
0.660254 0.419795 0.424958
0.742294 0.429255 0.449135
0.830997 0.437505 0.473720
0.893992 0.458583 0.511092
0.162315 0.477146 0.572131
0.245791 0.495794 0.588668
0.382317 0.501551 0.567846
0.556030 0.506673 0.529627
0.684103 0.509643 0.513968
0.756451 0.525002 0.536972
0.859666 0.527647 0.566441
0.928315 0.550892 0.599164
0.098513 0.549887 0.663198
0.235806 0.566877 0.672252
0.397335 0.576391 0.651095
0.571095 0.588838 0.622548
0.712170 0.604007 0.609601
0.791201 0.629523 0.636254
0.876056 0.635531 0.660915
0.949302 0.652148 0.687580
0.005188 0.632564 0.762732
0.169462 0.648709 0.762158
0.446746 0.658209 0.732233
0.632918 0.678550 0.702531
0.765881 0.707294 0.702249
0.832600 0.746192 0.733758
0.896885 0.762003 0.758681
0.967809 0.774791 0.787948
0.114401 0.138870 0.151610
0.116675 0.178036 0.211579
0.194214 0.172430 0.226027
0.450313 0.095917 0.182178
0.591983 0.026935 0.182496
0.648388 0.030166 0.208768
0.694226 0.051828 0.226796
0.735296 0.080297 0.240154
0.113770 0.211522 0.253210
0.095050 0.249756 0.308846
0.188619 0.253467 0.310446
0.439272 0.212238 0.261328
0.586922 0.168714 0.243001
0.664372 0.170520 0.264609
0.716067 0.189561 0.281371
0.761430 0.215383 0.302504
0.086404 0.288588 0.352789
0.072676 0.322640 0.403877
0.191417 0.333751 0.397565
0.428952 0.304772 0.344534
0.600555 0.276783 0.309813
0.674173 0.285815 0.328861
0.740640 0.291271 0.346472
0.790064 0.317763 0.372989
0.074657 0.363132 0.453190
0.148695 0.378673 0.463633
0.264142 0.391584 0.456715
0.422481 0.398983 0.435527
0.613715 0.370320 0.383597
0.690501 0.379692 0.397301
0.767249 0.381548 0.419298
0.826130 0.402710 0.447602
0.123885 0.423154 0.514709
0.203197 0.440289 0.527803
0.314672 0.457662 0.529182
0.453167 0.460179 0.496963
0.620740 0.459354 0.459187
0.707479 0.464252 0.475619
0.795825 0.469377 0.500269
0.866435 0.490446 0.537566
0.125216 0.491985 0.599481
0.211402 0.513192 0.615985
0.332737 0.525630 0.609648
0.480155 0.535234 0.585587
0.648194 0.544475 0.553030
0.724057 0.556489 0.565752
0.827694 0.558098 0.590054
0.900794 0.580737 0.623691
0.040045 0.571765 0.699259
0.157979 0.588911 0.701068
0.355553 0.602932 0.692645
0.511285 0.613533 0.669986
0.675121 0.637649 0.648221
0.757788 0.662929 0.659170
0.843997 0.670963 0.684165
0.926605 0.688423 0.714050
0.000000 0.646695 0.792776
0.070193 0.666065 0.791536
0.394972 0.681772 0.771120
0.583807 0.703226 0.745929
0.737091 0.736326 0.737969
0.806601 0.774447 0.759284
0.876557 0.798574 0.784684
0.951028 0.806417 0.807439
0.114653 0.153754 0.179737
0.114238 0.190340 0.231459
0.083202 0.229795 0.304159
0.307374 0.179957 0.244979
0.541742 0.101735 0.212279
0.632088 0.078677 0.220099
0.677150 0.108868 0.246428
0.714151 0.141202 0.258252
0.098309 0.225441 0.281065
0.059333 0.265442 0.345438
0.082923 0.286595 0.370376
0.298545 0.262918 0.316566
0.517309 0.227575 0.281937
0.621724 0.214575 0.278297
0.686472 0.227253 0.297065
0.729140 0.253829 0.318811
0.045733 0.304391 0.395279
0.030097 0.338261 0.451097
0.145310 0.351775 0.441756
0.321076 0.342967 0.402224
0.519811 0.328717 0.361750
0.632680 0.322983 0.350199
0.709645 0.327779 0.365498
0.762294 0.347916 0.390080
0.013057 0.380033 0.507267
0.101462 0.393194 0.507535
0.215876 0.404299 0.498901
0.349529 0.419722 0.486975
0.527841 0.415206 0.445687
0.646961 0.409886 0.424242
0.738615 0.413082 0.442135
0.806628 0.433183 0.474481
0.029307 0.447156 0.574349
0.155714 0.461314 0.571842
0.268461 0.473893 0.570821
0.391141 0.487037 0.557856
0.537491 0.497585 0.534688
0.672717 0.500421 0.518436
0.778894 0.503146 0.533532
0.847102 0.521349 0.562823
0.059457 0.512162 0.637199
0.168541 0.530915 0.644376
0.284943 0.545666 0.645188
0.419428 0.562790 0.635976
0.574275 0.576268 0.608728
0.690519 0.593112 0.599423
0.799346 0.593714 0.616181
0.878097 0.609837 0.644278
0.004870 0.587788 0.724482
0.109955 0.605698 0.726703
0.306865 0.620912 0.722541
0.466868 0.640037 0.712868
0.622958 0.659129 0.689068
0.735115 0.688518 0.688590
0.812038 0.713126 0.710011
0.904676 0.727986 0.737220
0.001766 0.658592 0.808058
0.044056 0.685869 0.816964
0.362499 0.701672 0.800710
0.555094 0.727866 0.788319
0.705898 0.761015 0.775855
0.804032 0.796869 0.782966
0.860624 0.824011 0.804276
0.929353 0.844206 0.828046
0.114275 0.167250 0.203954
0.109201 0.205944 0.259045
0.064282 0.245578 0.325646
0.148416 0.247258 0.331855
0.417519 0.191390 0.264473
0.585090 0.148237 0.241179
0.650585 0.158636 0.255713
0.685902 0.191899 0.276606
0.067383 0.244975 0.321985
0.024916 0.283830 0.382810
0.018398 0.315575 0.434143
0.176818 0.313098 0.400163
0.393328 0.284983 0.348333
0.564630 0.267471 0.316788
0.663340 0.264679 0.316058
0.707870 0.293930 0.343410
0.011144 0.319869 0.439510
0.006725 0.350286 0.499513
0.090686 0.369472 0.494626
0.241585 0.374539 0.466764
0.420062 0.366830 0.425837
0.570390 0.368877 0.401109
0.682530 0.358951 0.386297
0.740373 0.379041 0.412678
0.000000 0.397476 0.567208
0.025942 0.415543 0.568033
0.161421 0.427540 0.554961
0.295606 0.438416 0.541148
0.442497 0.443380 0.509462
0.585307 0.453030 0.491226
0.711133 0.447616 0.471935
0.794106 0.467477 0.502916
0.000000 0.469473 0.645414
0.059239 0.480191 0.622543
0.216964 0.494966 0.616713
0.335652 0.506681 0.612278
0.463718 0.520957 0.599770
0.601142 0.533377 0.584073
0.745686 0.539237 0.570933
0.826768 0.550465 0.589080
0.000000 0.536497 0.702140
0.069558 0.550881 0.688499
0.237759 0.565865 0.683420
0.373855 0.580818 0.679426
0.510603 0.598956 0.669215
0.636533 0.619550 0.663738
0.753757 0.637565 0.656437
0.855346 0.653940 0.674593
0.000000 0.603546 0.757597
0.071884 0.622613 0.751680
0.276439 0.641659 0.753950
0.434451 0.660036 0.748730
0.582802 0.687018 0.738603
0.709555 0.718285 0.730292
0.810218 0.751001 0.739815
0.890136 0.772574 0.764253
0.008829 0.674497 0.825456
0.048716 0.697441 0.831441
0.363768 0.719725 0.824867
0.545034 0.747916 0.820628
0.687570 0.779186 0.814568
0.790472 0.812348 0.812891
0.870436 0.848916 0.824483
0.917498 0.875706 0.842631
0.113392 0.183773 0.226784
0.092731 0.221499 0.286444
0.042657 0.263386 0.350340
0.023326 0.288063 0.407148
0.245899 0.263488 0.344717
0.465746 0.234865 0.301771
0.608005 0.210122 0.276972
0.671014 0.229144 0.290525
0.048182 0.261824 0.347329
0.004812 0.294647 0.408798
0.011253 0.332674 0.476250
0.101181 0.340071 0.460373
0.285832 0.333394 0.415694
0.460464 0.327071 0.385119
0.607599 0.320099 0.358126
0.674133 0.328626 0.362653
0.010546 0.333113 0.473623
0.000000 0.370115 0.547426
0.036763 0.388338 0.544855
0.197239 0.393228 0.516874
0.341584 0.401577 0.488806
0.486045 0.402647 0.461962
0.631557 0.405139 0.439671
0.721926 0.408571 0.437441
0.000000 0.416017 0.617775
0.000134 0.438025 0.625560
0.091122 0.444570 0.601516
0.256601 0.458753 0.585929
0.390173 0.471489 0.568102
0.521641 0.483321 0.552210
0.659674 0.493238 0.535987
0.777990 0.493374 0.529228
0.000000 0.494406 0.710391
0.001705 0.505591 0.684461
0.142278 0.514641 0.661128
0.301679 0.527677 0.649775
0.417294 0.541892 0.644666
0.541541 0.557455 0.639088
0.685796 0.577080 0.628290
0.818166 0.587068 0.621089
0.000000 0.562228 0.770597
0.003845 0.570866 0.731423
0.166081 0.583735 0.712614
0.351096 0.596764 0.708626
0.485810 0.617520 0.706403
0.602030 0.643846 0.710426
0.717260 0.670519 0.707965
0.836948 0.696780 0.707698
0.000000 0.628691 0.815101
0.022697 0.640287 0.787810
0.252089 0.656295 0.772113
0.433167 0.679939 0.771868
0.570392 0.706605 0.773495
0.696243 0.741930 0.777202
0.800963 0.780126 0.781017
0.878682 0.812044 0.793044
0.006266 0.688388 0.845930
0.068030 0.713737 0.849435
0.390358 0.736705 0.841460
0.557004 0.768400 0.843098
0.681046 0.796532 0.841013
0.789532 0.832573 0.840654
0.874668 0.866909 0.844919
0.923358 0.897507 0.860205
