app/src/main/assets/cube/Arcade04.cube
# LUT by SparkleStock. Enhanced with VOXCOLOR algorithms.
LUT_3D_SIZE 5
DOMAIN_MIN 0.000000 0.000000 0.000000
DOMAIN_MAX 0.903226 0.903226 0.903226
0.109482 0.078201 0.066471
0.326175 0.049948 0.096238
0.557122 0.000000 0.122095
0.656387 0.000000 0.154511
0.716552 0.014883 0.189071
0.183016 0.178223 0.229054
0.570646 0.040036 0.165700
0.650569 0.066256 0.197721
0.743149 0.100518 0.230324
0.823458 0.156342 0.273632
0.118689 0.332482 0.399836
0.580314 0.231666 0.280479
0.718895 0.249109 0.298174
0.834183 0.275503 0.329455
0.940435 0.310808 0.375135
0.210639 0.440072 0.521553
0.526993 0.422674 0.451810
0.747027 0.409784 0.432410
0.908247 0.431849 0.474758
0.993605 0.472268 0.528014
0.206603 0.566834 0.674171
0.549847 0.568494 0.628492
0.821387 0.583841 0.607700
0.942550 0.625643 0.658816
1.000000 0.698307 0.721345
0.113392 0.106455 0.102545
0.400280 0.036794 0.113148
0.571627 0.000541 0.137646
0.662197 0.000773 0.175827
0.737416 0.028453 0.208422
0.112509 0.236577 0.279344
0.510837 0.124252 0.204345
0.630365 0.146151 0.231361
0.728606 0.169977 0.261058
0.821057 0.210391 0.305360
0.130420 0.356284 0.430575
0.411294 0.350217 0.385076
0.666579 0.325187 0.345734
0.785671 0.342780 0.378568
0.899340 0.372751 0.427572
0.189726 0.471210 0.561890
0.391378 0.493407 0.554310
0.692900 0.483905 0.493003
0.834248 0.505122 0.536245
0.970300 0.538490 0.592443
0.064966 0.610044 0.727399
0.451844 0.619545 0.692953
0.752214 0.647757 0.657018
0.869727 0.705623 0.708012
0.983458 0.738353 0.762195
0.113392 0.130798 0.136474
0.212686 0.153485 0.205830
0.566105 0.020132 0.166579
0.663231 0.014379 0.206619
0.739528 0.059953 0.229054
0.105950 0.261507 0.310734
0.165787 0.303545 0.363929
0.582104 0.224379 0.271679
0.698309 0.243374 0.307121
0.793235 0.275320 0.342695
0.118775 0.384680 0.464647
0.278351 0.410639 0.475418
0.592810 0.394389 0.398512
0.729083 0.404546 0.425673
0.863217 0.431841 0.479578
0.141035 0.504256 0.610190
0.321315 0.530209 0.617092
0.607169 0.544323 0.559760
0.768725 0.569998 0.581626
0.921477 0.587427 0.633609
0.000000 0.638688 0.777640
0.354895 0.668219 0.761726
0.684075 0.704312 0.714237
0.835001 0.765574 0.751370
0.962135 0.789674 0.798213
0.116671 0.155772 0.185791
0.084634 0.230039 0.298528
0.406106 0.164524 0.236561
0.640096 0.096515 0.228171
0.710310 0.158453 0.265413
0.045912 0.290102 0.376384
0.078494 0.337110 0.441132
0.396567 0.327500 0.381179
0.639552 0.308974 0.341249
0.749533 0.335134 0.378283
0.005676 0.417242 0.562468
0.207532 0.440483 0.548460
0.422942 0.459195 0.523868
0.677524 0.465807 0.484956
0.828410 0.486058 0.526342
0.036086 0.533710 0.659788
0.248791 0.566142 0.674475
0.493575 0.597613 0.657676
0.710498 0.628753 0.631295
0.881808 0.646310 0.672532
0.001766 0.663735 0.815219
0.285214 0.701542 0.811284
0.627919 0.751273 0.790508
0.817865 0.806634 0.790387
0.923192 0.853778 0.833081
0.113392 0.183773 0.226784
0.056295 0.252515 0.332535
0.121883 0.280284 0.380391
0.518932 0.222365 0.290574
0.671014 0.229144 0.290525
0.009081 0.313615 0.439494
0.013793 0.370809 0.531647
0.253243 0.382983 0.487473
0.521616 0.385383 0.435547
0.710275 0.389096 0.417581
0.000000 0.457624 0.672699
0.070850 0.476524 0.637236
0.340826 0.499772 0.612871
0.566631 0.522306 0.590565
0.801776 0.539712 0.576128
0.000000 0.577461 0.779776
0.123456 0.597784 0.732436
0.436844 0.627493 0.722297
0.655120 0.672166 0.723952
0.843109 0.729589 0.733952
0.006266 0.688388 0.845930
0.315501 0.731252 0.844353
0.620883 0.783228 0.845132
0.815160 0.840145 0.840566
0.923358 0.897507 0.860205
