app/src/main/assets/cube/Arcade09.cube
# LUT by SparkleStock. Enhanced with VOXCOLOR algorithms.
LUT_3D_SIZE 5
DOMAIN_MIN 0.000000 0.000000 0.000000
DOMAIN_MAX 0.903226 0.903226 0.903226
0.031281 0.023460 0.023460
0.330085 0.098887 0.099518
0.528868 0.167755 0.146438
0.622458 0.220351 0.181881
0.687037 0.257308 0.216441
0.244190 0.191467 0.235992
0.544745 0.213162 0.191215
0.625737 0.265559 0.230316
0.722724 0.302707 0.259696
0.807187 0.350519 0.300518
0.288084 0.281147 0.358970
0.556564 0.308391 0.298516
0.696423 0.353798 0.314697
0.813799 0.395438 0.349652
0.909532 0.451591 0.411798
0.340933 0.348122 0.456343
0.519844 0.435523 0.462625
0.742234 0.470343 0.456217
0.883297 0.528970 0.508789
0.946489 0.606500 0.579695
0.386718 0.423296 0.584618
0.556817 0.526818 0.597663
0.802215 0.628512 0.628996
0.888342 0.687322 0.678427
0.915713 0.754558 0.740854
0.079967 0.073661 0.094094
0.401297 0.130753 0.127572
0.545770 0.187647 0.168926
0.640360 0.237261 0.207352
0.715669 0.275975 0.239019
0.233343 0.218630 0.268830
0.491491 0.237338 0.228783
0.607413 0.287461 0.258577
0.710547 0.326751 0.285940
0.807020 0.369361 0.331917
0.296787 0.296156 0.386682
0.424296 0.356750 0.385243
0.647933 0.387675 0.359686
0.768650 0.424025 0.395246
0.873083 0.479645 0.454402
0.348745 0.365134 0.490374
0.428615 0.422167 0.505132
0.687147 0.514422 0.514354
0.813541 0.563199 0.563743
0.906799 0.629391 0.621487
0.387801 0.441354 0.631844
0.483116 0.503020 0.624992
0.747421 0.671168 0.677593
0.836816 0.725165 0.721019
0.894388 0.770372 0.767672
0.128654 0.113014 0.145177
0.253410 0.169325 0.215705
0.547239 0.207539 0.194832
0.642940 0.254598 0.241212
0.720775 0.290248 0.261702
0.249866 0.234767 0.291473
0.299989 0.278461 0.337686
0.561605 0.308911 0.289862
0.685183 0.348760 0.326237
0.782554 0.391780 0.365654
0.302947 0.310083 0.414195
0.360565 0.351549 0.428688
0.582207 0.424771 0.412428
0.714050 0.451777 0.439462
0.839186 0.509695 0.503746
0.358575 0.384053 0.531627
0.396865 0.415220 0.541655
0.606963 0.551988 0.575277
0.752069 0.601909 0.604392
0.865057 0.648676 0.647982
0.397208 0.462145 0.683798
0.444283 0.505013 0.678984
0.682200 0.669411 0.701331
0.809654 0.762438 0.758180
0.870997 0.786282 0.786442
0.170151 0.155141 0.189701
0.244056 0.215558 0.281895
0.397688 0.217703 0.254456
0.617266 0.266214 0.256173
0.696403 0.312586 0.294895
0.270686 0.252262 0.334634
0.298685 0.282995 0.384328
0.415339 0.342966 0.377519
0.626844 0.373788 0.355613
0.743978 0.417422 0.403604
0.329093 0.324898 0.472235
0.348458 0.350224 0.472324
0.444595 0.417350 0.482317
0.670417 0.499098 0.504558
0.804090 0.543023 0.546903
0.365126 0.395674 0.573238
0.392868 0.426797 0.587571
0.510507 0.510446 0.604385
0.711832 0.646732 0.650349
0.836527 0.682622 0.679927
0.413930 0.485699 0.726422
0.443929 0.527010 0.728694
0.623988 0.643617 0.736346
0.801931 0.780629 0.780044
0.852574 0.810391 0.809248
0.205089 0.177719 0.230316
0.255290 0.227919 0.302031
0.298239 0.264729 0.343329
0.495696 0.286163 0.305933
0.658108 0.333536 0.314783
0.294044 0.269469 0.378825
0.327127 0.304053 0.445572
0.353631 0.330704 0.426271
0.509594 0.404168 0.440807
0.703138 0.444723 0.438257
0.362774 0.352032 0.562818
0.361887 0.364577 0.538116
0.404250 0.400848 0.530986
0.564721 0.511285 0.572389
0.786323 0.587181 0.600991
0.383943 0.422633 0.676535
0.395500 0.439091 0.635051
0.472975 0.495887 0.641553
0.636423 0.616071 0.682048
0.816481 0.741569 0.742864
0.435580 0.514200 0.761674
0.468438 0.557787 0.762347
0.614550 0.648924 0.773813
0.788543 0.773496 0.799463
0.859782 0.837272 0.832186
