app/src/main/assets/cube/Arcade03.cube
# LUT by SparkleStock. Enhanced with VOXCOLOR algorithms.
LUT_3D_SIZE 32
0.125122 0.121212 0.105572
0.135213 0.123230 0.107590
0.145303 0.124996 0.109482
0.155394 0.122978 0.109482
0.165736 0.120960 0.109482
0.177845 0.118942 0.109482
0.191846 0.116924 0.109482
0.214045 0.114906 0.109482
0.237253 0.112887 0.109482
0.263488 0.110869 0.109482
0.292246 0.106959 0.109482
0.326554 0.098887 0.109482
0.364645 0.088544 0.108725
0.409044 0.074417 0.106707
0.449910 0.060291 0.104689
0.486236 0.046164 0.102671
0.517516 0.037083 0.101662
0.543752 0.033046 0.101662
0.571122 0.027875 0.100527
0.599376 0.021821 0.098508
0.631413 0.014505 0.097752
0.665721 0.006433 0.097752
0.693091 0.003910 0.097752
0.717308 0.003910 0.097752
0.738498 0.002396 0.097752
0.758679 0.000378 0.097752
0.777221 0.000000 0.099391
0.795384 0.000000 0.101410
0.818844 0.000000 0.101662
0.843061 0.000000 0.101662
0.852143 0.000000 0.103554
0.860215 0.000000 0.105572
0.143285 0.123230 0.109608
0.156500 0.122124 0.109543
0.169716 0.121025 0.109482
0.182931 0.120048 0.109482
0.197180 0.118812 0.109612
0.218663 0.115752 0.110654
0.241452 0.112302 0.111305
0.269901 0.107159 0.110263
0.298577 0.101755 0.109222
0.327937 0.095571 0.108180
0.357867 0.088471 0.107464
0.389050 0.079357 0.107464
0.420501 0.069926 0.106707
0.452400 0.059965 0.104689
0.484869 0.051372 0.103582
0.518070 0.044537 0.103647
0.549350 0.039101 0.103680
0.578710 0.035064 0.103680
0.606276 0.026964 0.102545
0.632446 0.015701 0.100527
0.662401 0.009037 0.099770
0.694625 0.005131 0.099770
0.722777 0.003194 0.099770
0.749077 0.002152 0.099770
0.773913 0.001160 0.099770
0.798260 0.000183 0.099770
0.815044 0.000000 0.101410
0.830082 0.000000 0.103428
0.849506 0.000000 0.105503
0.869557 0.000000 0.107586
0.880331 0.000000 0.110585
0.890487 0.000000 0.113644
0.161196 0.125122 0.113770
0.178057 0.121021 0.111687
0.194913 0.117164 0.109726
0.211709 0.116968 0.109596
0.230190 0.116277 0.109726
0.260461 0.112110 0.111679
0.291367 0.107236 0.112900
0.325024 0.099294 0.110947
0.358274 0.090863 0.108994
0.390303 0.080968 0.107041
0.421152 0.071093 0.105718
0.449406 0.061263 0.105783
0.474607 0.052776 0.105067
0.494723 0.046526 0.103049
0.519368 0.042925 0.102797
0.549835 0.042730 0.104815
0.581245 0.040517 0.105759
0.613600 0.036285 0.105629
0.641451 0.025572 0.104473
0.665798 0.009818 0.102520
0.693767 0.004073 0.101829
0.723908 0.004333 0.101894
0.752662 0.002982 0.101869
0.780785 0.000899 0.101804
0.808762 0.000232 0.101837
0.836690 0.000037 0.101902
0.851870 0.000000 0.103660
0.864109 0.000000 0.105808
0.879651 0.000000 0.109722
0.895666 0.000000 0.113888
0.907897 0.000122 0.117933
0.919875 0.000252 0.121969
0.175322 0.125122 0.119825
0.203641 0.119979 0.116700
0.231890 0.114950 0.113632
0.259102 0.111630 0.111419
0.286696 0.107944 0.109596
0.316968 0.101694 0.110507
0.345921 0.095518 0.111077
0.369162 0.089659 0.110165
0.393558 0.083572 0.109254
0.421421 0.076802 0.108343
0.449406 0.070377 0.108062
0.477659 0.064713 0.109169
0.502470 0.057658 0.109104
0.521545 0.048284 0.107085
0.546970 0.041558 0.106833
0.580562 0.038238 0.108851
0.614056 0.032900 0.108754
0.647452 0.025544 0.106540
0.676930 0.016979 0.105059
0.703361 0.007474 0.104148
0.730808 0.006677 0.104498
0.758867 0.011104 0.105604
0.785537 0.010339 0.105189
0.811577 0.007214 0.104083
0.835127 0.003943 0.104636
0.857847 0.000623 0.105743
0.873744 0.000000 0.109388
0.888066 0.000000 0.113620
0.902046 0.000000 0.119617
0.915977 0.000000 0.125867
0.926125 0.002075 0.130041
0.936020 0.004288 0.134078
0.186170 0.126384 0.126636
0.224383 0.120199 0.122339
0.262544 0.114006 0.118059
0.299912 0.107692 0.114023
0.336620 0.101125 0.110442
0.368714 0.092792 0.110052
0.397440 0.085289 0.109734
0.411566 0.081383 0.109734
0.428118 0.077412 0.109767
0.451945 0.073246 0.109897
0.477195 0.069588 0.110576
0.505579 0.067049 0.112464
0.530374 0.060970 0.112985
0.549188 0.048992 0.111227
0.575549 0.039776 0.111008
0.611614 0.034112 0.112765
0.646866 0.026496 0.111691
0.681304 0.016926 0.107785
0.712190 0.010908 0.106003
0.740313 0.007653 0.105873
0.767175 0.010664 0.107085
0.793280 0.017435 0.109104
0.817819 0.016507 0.108794
0.841645 0.012080 0.107427
0.861224 0.006726 0.108599
0.879387 0.001062 0.110617
0.895804 0.000846 0.116020
0.911819 0.001888 0.122205
0.924302 0.002246 0.129927
0.936280 0.002506 0.137870
0.944353 0.005696 0.142516
0.952165 0.009081 0.146943
0.174061 0.136474 0.138744
0.211233 0.129248 0.132365
0.248938 0.121949 0.126131
0.294639 0.113551 0.122095
0.340461 0.104901 0.118124
0.387137 0.094485 0.114609
0.427711 0.085484 0.111752
0.441838 0.082620 0.111752
0.457608 0.079170 0.112045
0.478310 0.073962 0.113217
0.501738 0.068286 0.114287
0.531163 0.061581 0.115133
0.558562 0.053288 0.115784
0.582584 0.042352 0.116110
0.610963 0.035089 0.116151
0.644946 0.032550 0.115825
0.679676 0.028579 0.114230
0.715156 0.023176 0.111366
0.745912 0.022496 0.109453
0.772993 0.025491 0.108282
0.798814 0.024335 0.109104
0.823877 0.020690 0.111122
0.845942 0.014359 0.114393
0.866644 0.006807 0.118234
0.885441 0.003015 0.120708
0.903604 0.000476 0.122726
0.919175 0.007617 0.128975
0.934148 0.016991 0.136201
0.945590 0.020214 0.143143
0.956526 0.022557 0.150043
0.962581 0.020995 0.157554
0.968310 0.019172 0.165106
0.162331 0.147321 0.151988
0.199438 0.138858 0.143330
0.237566 0.130281 0.134924
0.291013 0.119996 0.130302
0.345095 0.109433 0.125501
0.403620 0.096934 0.119446
0.454186 0.086217 0.114527
0.470266 0.083222 0.114527
0.487062 0.079414 0.115032
0.506006 0.073164 0.117050
0.528307 0.065775 0.118498
0.557992 0.055880 0.118694
0.587141 0.046498 0.119426
0.615394 0.037970 0.121053
0.645414 0.033173 0.121171
0.677703 0.033173 0.119349
0.711816 0.031773 0.117526
0.747751 0.028974 0.115703
0.778230 0.032180 0.113990
0.804465 0.040057 0.112363
0.829439 0.035443 0.113136
0.853656 0.023334 0.115349
0.873308 0.013687 0.121188
0.890885 0.005159 0.128674
0.908902 0.003906 0.132499
0.927065 0.005078 0.135103
0.941472 0.016987 0.142309
0.955013 0.031374 0.150576
0.965022 0.035850 0.157420
0.974527 0.038909 0.164060
0.979042 0.034890 0.174118
0.983225 0.030398 0.184404
0.152240 0.161448 0.170151
0.193514 0.150902 0.158368
0.235874 0.140307 0.146837
0.294529 0.128979 0.139090
0.353167 0.117245 0.131555
0.411692 0.102663 0.125501
0.464212 0.089277 0.120581
0.490707 0.081074 0.120581
0.516357 0.073099 0.121086
0.539467 0.065808 0.123104
0.563656 0.058029 0.124878
0.590217 0.049175 0.126115
0.617412 0.043568 0.126717
0.645666 0.043373 0.126261
0.675685 0.043263 0.125663
0.707975 0.043263 0.124882
0.741045 0.039780 0.124101
0.774897 0.032814 0.123320
0.804465 0.033612 0.123234
0.830700 0.040447 0.123690
0.855674 0.035443 0.125895
0.879892 0.023334 0.129150
0.897395 0.019416 0.133166
0.911847 0.019221 0.137528
0.929083 0.024738 0.142915
0.947246 0.032159 0.148644
0.959114 0.037624 0.157282
0.969530 0.042636 0.166591
0.976414 0.041383 0.176299
0.982794 0.039235 0.186064
0.987847 0.042702 0.197294
0.992811 0.046542 0.208621
0.140132 0.177593 0.190837
0.184270 0.164963 0.175668
0.229738 0.152334 0.160769
0.295163 0.139705 0.149897
0.359954 0.126571 0.139530
0.420302 0.109905 0.132694
0.475767 0.094289 0.127189
0.510075 0.083222 0.127450
0.542820 0.072383 0.128084
0.570878 0.062227 0.129842
0.597817 0.053374 0.131600
0.622295 0.047385 0.133357
0.648188 0.045228 0.133894
0.676442 0.049460 0.132397
0.706119 0.051954 0.131669
0.737628 0.052214 0.131929
0.769266 0.048080 0.132059
0.801035 0.039552 0.132059
0.829691 0.038494 0.133195
0.855927 0.043247 0.135213
0.880738 0.038926 0.138655
0.904695 0.029161 0.142951
0.920506 0.029734 0.146398
0.932614 0.035008 0.149457
0.948287 0.044040 0.156472
0.965148 0.054326 0.164805
0.974815 0.055673 0.174777
0.982823 0.054957 0.185128
0.986900 0.052532 0.196789
0.990415 0.049863 0.208637
0.995166 0.062573 0.221462
1.000000 0.076309 0.234352
0.121969 0.199792 0.219090
0.165065 0.185079 0.199755
0.210273 0.170367 0.180754
0.287156 0.155654 0.166758
0.362884 0.140437 0.153266
0.430523 0.121688 0.143305
0.491912 0.105161 0.135457
0.526220 0.098260 0.136759
0.560788 0.088463 0.137914
0.596137 0.069974 0.138630
0.628414 0.057996 0.139347
0.653934 0.060340 0.140063
0.680478 0.060657 0.140730
0.708731 0.057597 0.141316
0.737042 0.056446 0.142215
0.765425 0.057748 0.143517
0.794460 0.057260 0.144168
0.824146 0.054981 0.144168
0.851890 0.053728 0.145303
0.878126 0.053272 0.147321
0.902286 0.052857 0.151414
0.925201 0.052467 0.156753
0.940687 0.053821 0.163389
0.952795 0.055970 0.170615
0.964562 0.058753 0.179452
0.976215 0.061747 0.188827
0.984694 0.065959 0.199841
0.992441 0.070450 0.211233
0.994663 0.080525 0.222113
0.996095 0.091396 0.232920
0.998031 0.118624 0.248609
1.000000 0.146943 0.264623
0.103806 0.220730 0.247343
0.147163 0.205561 0.225470
0.193005 0.190271 0.203852
0.276138 0.173150 0.186080
0.358571 0.155565 0.168894
0.436105 0.134733 0.155809
0.506022 0.116867 0.145433
0.542934 0.111854 0.146800
0.580545 0.102528 0.147826
0.620256 0.080264 0.147826
0.656061 0.066361 0.147826
0.683273 0.070853 0.147826
0.710876 0.071976 0.148583
0.739129 0.067484 0.150601
0.766357 0.065983 0.152904
0.792267 0.068327 0.155573
0.819511 0.070507 0.157396
0.848090 0.072525 0.158372
0.874802 0.070772 0.160118
0.900060 0.066085 0.162461
0.922796 0.068314 0.167327
0.944019 0.074694 0.173707
0.958304 0.076688 0.182638
0.969437 0.076688 0.192729
0.978213 0.077615 0.203307
0.986204 0.078852 0.214049
0.992859 0.088288 0.225901
0.999207 0.099615 0.238010
1.000000 0.119259 0.249492
1.000000 0.140091 0.260884
1.000000 0.174594 0.278014
1.000000 0.210009 0.295525
0.085643 0.238893 0.275597
0.132125 0.226849 0.254765
0.180571 0.214293 0.233798
0.258496 0.194047 0.210818
0.338325 0.173467 0.188684
0.431483 0.150552 0.172474
0.515657 0.130407 0.159169
0.560902 0.122270 0.158453
0.604242 0.112163 0.157916
0.641870 0.096149 0.157916
0.677219 0.082962 0.157916
0.707556 0.075996 0.157916
0.737111 0.074255 0.158673
0.765364 0.081220 0.160691
0.792137 0.086620 0.163906
0.817005 0.090005 0.168658
0.844249 0.092706 0.173085
0.873870 0.094725 0.177186
0.899279 0.091799 0.180884
0.921413 0.085029 0.184270
0.941024 0.087128 0.190177
0.959122 0.094550 0.197599
0.970283 0.096869 0.206855
0.978290 0.096869 0.216946
0.986090 0.105608 0.229087
0.993821 0.117261 0.241912
0.997254 0.137113 0.254154
0.999695 0.158856 0.266263
1.000000 0.181625 0.281391
1.000000 0.204540 0.296950
1.000000 0.230385 0.312386
1.000000 0.256425 0.327815
0.062939 0.257812 0.303850
0.116061 0.246941 0.282888
0.170481 0.235459 0.261645
0.244369 0.214822 0.236191
0.321838 0.193835 0.211599
0.424371 0.170399 0.193046
0.517870 0.149173 0.177300
0.572229 0.137520 0.173719
0.622958 0.125460 0.170936
0.662799 0.112179 0.170546
0.700159 0.100099 0.170765
0.732058 0.090660 0.172328
0.762297 0.089325 0.174061
0.789769 0.101499 0.176079
0.815475 0.110113 0.179521
0.838911 0.114149 0.184794
0.865374 0.116590 0.190849
0.894865 0.117436 0.197684
0.919338 0.114364 0.203385
0.939910 0.108245 0.208202
0.956738 0.113437 0.215298
0.971320 0.125415 0.223761
0.980241 0.131038 0.233880
0.986588 0.133772 0.244752
0.992753 0.146320 0.257186
0.998856 0.162140 0.270141
1.000000 0.187744 0.283360
1.000000 0.215607 0.296640
1.000000 0.239596 0.313851
1.000000 0.263032 0.331623
1.000000 0.283783 0.347443
1.000000 0.304355 0.363132
0.032668 0.277993 0.332104
0.098289 0.265038 0.309058
0.164296 0.251864 0.285992
0.236101 0.235393 0.262622
0.311617 0.218313 0.239723
0.413108 0.196960 0.220127
0.507715 0.176645 0.202754
0.572489 0.160825 0.195007
0.633374 0.144860 0.188839
0.682590 0.128454 0.187407
0.726068 0.118132 0.188212
0.756926 0.121192 0.193941
0.785733 0.125716 0.198278
0.811122 0.132682 0.200296
0.834745 0.138366 0.202827
0.856097 0.142402 0.206017
0.880477 0.143281 0.212071
0.907885 0.141003 0.220990
0.932033 0.139493 0.228774
0.953646 0.138582 0.235674
0.968261 0.152236 0.244202
0.978677 0.174631 0.253707
0.986833 0.188521 0.265584
0.993961 0.198547 0.278538
0.997391 0.208230 0.289150
0.999588 0.217800 0.298980
1.000000 0.241387 0.314152
1.000000 0.268208 0.330557
1.000000 0.290244 0.347247
1.000000 0.311597 0.363978
1.000000 0.333194 0.383638
1.000000 0.354807 0.403494
0.012109 0.300823 0.362123
0.083393 0.285785 0.336538
0.154836 0.270832 0.311194
0.228660 0.257161 0.289451
0.305356 0.242847 0.267960
0.402159 0.224033 0.248234
0.494398 0.205683 0.230487
0.566854 0.189343 0.221307
0.635958 0.172775 0.213691
0.695003 0.155524 0.210761
0.745912 0.145820 0.210558
0.778917 0.152721 0.216352
0.808456 0.158718 0.221755
0.832218 0.163210 0.226507
0.854214 0.167702 0.230462
0.873939 0.172194 0.233392
0.896236 0.175156 0.240357
0.921104 0.176588 0.251359
0.943445 0.178862 0.260713
0.963822 0.181792 0.268786
0.976508 0.198555 0.277550
0.984580 0.223618 0.286729
0.991679 0.240536 0.298996
0.998336 0.253752 0.312667
1.000000 0.265014 0.323848
1.000000 0.275625 0.334199
1.000000 0.296339 0.350527
1.000000 0.319385 0.368234
1.000000 0.340322 0.384973
1.000000 0.360959 0.401573
1.000000 0.382206 0.421714
1.000000 0.403494 0.442090
0.004036 0.327058 0.394412
0.072196 0.309937 0.365703
0.141165 0.293096 0.337495
0.222280 0.280467 0.316793
0.304184 0.267455 0.296343
0.391613 0.251766 0.277660
0.477016 0.236736 0.261149
0.553639 0.224562 0.254053
0.628471 0.211640 0.247478
0.697933 0.196472 0.242465
0.757955 0.185922 0.239202
0.797210 0.185531 0.239788
0.830265 0.187362 0.244280
0.852985 0.192895 0.255281
0.873939 0.198429 0.263663
0.892623 0.203962 0.268676
0.912836 0.213695 0.277725
0.934580 0.227626 0.290810
0.953210 0.236541 0.301075
0.969420 0.241554 0.309148
0.980544 0.254541 0.316610
0.988617 0.272313 0.323706
0.994283 0.285520 0.334606
0.998857 0.296653 0.347235
1.000000 0.315206 0.362062
1.000000 0.336233 0.377621
1.000000 0.352976 0.394079
1.000000 0.368730 0.410744
1.000000 0.389668 0.428264
1.000000 0.411347 0.445906
1.000000 0.430706 0.462206
1.000000 0.449910 0.478416
0.000000 0.350266 0.423675
0.052015 0.335749 0.398091
0.106662 0.321350 0.372779
0.200797 0.308720 0.351556
0.293963 0.295904 0.330586
0.380351 0.281777 0.311381
0.465689 0.268603 0.294545
0.546478 0.259554 0.287970
0.625867 0.249235 0.281655
0.701058 0.235109 0.276122
0.766483 0.224623 0.271849
0.810426 0.222150 0.270352
0.845629 0.223850 0.274519
0.866265 0.232509 0.288124
0.885364 0.239800 0.298199
0.902485 0.245333 0.303732
0.921136 0.256628 0.313041
0.941317 0.273684 0.326127
0.957800 0.286310 0.337271
0.971406 0.295489 0.346906
0.981228 0.307435 0.355279
0.988779 0.321041 0.362896
0.993657 0.333662 0.374675
0.997319 0.345836 0.388346
0.998918 0.365431 0.403433
0.999829 0.387500 0.418992
1.000000 0.403591 0.435873
1.000000 0.418304 0.453059
1.000000 0.438656 0.471100
1.000000 0.459813 0.489263
1.000000 0.478652 0.504130
1.000000 0.497335 0.518778
0.000000 0.370447 0.449910
0.022850 0.363221 0.433700
0.051327 0.355592 0.417047
0.164211 0.341921 0.393741
0.274693 0.328193 0.370688
0.368372 0.314067 0.349400
0.460416 0.301283 0.330675
0.545371 0.294317 0.323059
0.628146 0.285561 0.316223
0.704378 0.271434 0.311731
0.771496 0.261926 0.308501
0.818563 0.262577 0.308045
0.854547 0.268183 0.312472
0.872059 0.282050 0.325036
0.888489 0.291815 0.334069
0.903527 0.296307 0.338561
0.921136 0.303956 0.346308
0.941317 0.314763 0.357309
0.957214 0.328169 0.369300
0.969778 0.343598 0.382060
0.978559 0.357236 0.393558
0.985069 0.369801 0.404299
0.989800 0.384961 0.419203
0.993722 0.401301 0.435999
0.996753 0.415688 0.447961
0.999487 0.429424 0.458312
1.000000 0.448185 0.475909
1.000000 0.468106 0.495179
1.000000 0.487286 0.513480
1.000000 0.506360 0.531643
1.000000 0.526045 0.547487
1.000000 0.545770 0.563176
0.000000 0.390628 0.475010
0.007161 0.386592 0.462902
0.021040 0.382072 0.450256
0.135681 0.370289 0.429554
0.248540 0.358579 0.408958
0.348924 0.347382 0.389103
0.447306 0.337259 0.371457
0.537014 0.331790 0.363384
0.623906 0.324450 0.355588
0.702352 0.311495 0.348623
0.771052 0.303586 0.344566
0.818315 0.306776 0.346910
0.854568 0.313945 0.352036
0.872470 0.327746 0.361801
0.888464 0.338300 0.370598
0.902005 0.344680 0.378150
0.918280 0.352199 0.386678
0.937289 0.360857 0.396182
0.952747 0.374203 0.407957
0.965441 0.391194 0.421498
0.973985 0.405500 0.434144
0.980040 0.418194 0.446252
0.985109 0.434245 0.462120
0.989731 0.451822 0.479697
0.993646 0.464663 0.491025
0.997324 0.475926 0.500269
0.998013 0.496550 0.518399
0.998013 0.519335 0.538580
0.997501 0.536025 0.555970
0.996915 0.551845 0.572961
0.997428 0.570105 0.588060
0.998013 0.588528 0.603033
0.000000 0.410809 0.499227
0.001953 0.406773 0.487119
0.010233 0.402513 0.474864
0.113416 0.394897 0.460412
0.217031 0.387483 0.445805
0.323665 0.381494 0.430116
0.428102 0.375798 0.415855
0.523017 0.371371 0.407782
0.614597 0.365333 0.398685
0.696167 0.354461 0.386511
0.766365 0.348635 0.380176
0.811545 0.353908 0.386686
0.847667 0.360817 0.392854
0.868694 0.370452 0.398453
0.885991 0.380485 0.407640
0.898490 0.391031 0.421441
0.913202 0.401154 0.432573
0.930128 0.410854 0.441036
0.945260 0.423484 0.451770
0.958996 0.438392 0.464269
0.967931 0.452567 0.476524
0.973985 0.466303 0.488632
0.979771 0.481964 0.503784
0.985435 0.498499 0.520320
0.989805 0.512642 0.532949
0.993743 0.525988 0.544277
0.994482 0.547849 0.562798
0.994482 0.571676 0.582979
0.993058 0.584850 0.598546
0.991430 0.596503 0.613454
0.992854 0.611574 0.626469
0.994482 0.626872 0.639359
0.000000 0.433513 0.525967
0.000000 0.428826 0.514510
0.006180 0.424135 0.503011
0.105067 0.419382 0.490903
0.204565 0.415045 0.478786
0.308334 0.413613 0.466612
0.410687 0.411814 0.455574
0.506905 0.408429 0.449454
0.600242 0.404019 0.441659
0.684937 0.396532 0.428834
0.757447 0.393481 0.422133
0.803147 0.400186 0.428903
0.839790 0.407160 0.435137
0.861338 0.414581 0.440475
0.879611 0.424338 0.449971
0.893672 0.437098 0.464814
0.908125 0.449174 0.477248
0.922967 0.460566 0.487273
0.936675 0.473497 0.498471
0.949500 0.487623 0.510579
0.958907 0.501750 0.522688
0.966263 0.515877 0.534796
0.972724 0.530943 0.548785
0.978778 0.546437 0.563628
0.983807 0.559441 0.574955
0.988495 0.571615 0.585111
0.989902 0.589342 0.600767
0.990553 0.608351 0.617693
0.990008 0.620696 0.631600
0.989292 0.632088 0.645076
0.989919 0.645434 0.656660
0.990635 0.658910 0.668117
0.000000 0.457730 0.554221
0.000000 0.452001 0.543805
0.006180 0.446464 0.533283
0.105067 0.443795 0.521174
0.203523 0.441801 0.509448
0.298960 0.444535 0.500399
0.394347 0.446317 0.492486
0.489523 0.443974 0.489491
0.582861 0.441386 0.484560
0.670680 0.438066 0.473818
0.745989 0.438204 0.467898
0.793772 0.445951 0.472585
0.831327 0.453185 0.478298
0.851833 0.459565 0.485719
0.870887 0.469192 0.495476
0.888074 0.482993 0.508236
0.903047 0.496632 0.521191
0.915806 0.510107 0.534341
0.927431 0.523949 0.546905
0.938172 0.538076 0.559014
0.948100 0.552203 0.571122
0.957540 0.566329 0.583231
0.964652 0.580680 0.595787
0.970706 0.595132 0.608547
0.976516 0.605532 0.617010
0.982245 0.614581 0.624040
0.984694 0.624952 0.634880
0.986387 0.635628 0.646598
0.987795 0.648754 0.658942
0.989162 0.662230 0.671376
0.987966 0.674729 0.681918
0.986599 0.687163 0.692334
0.000000 0.480560 0.581087
0.000000 0.478802 0.574577
0.005375 0.476984 0.567717
0.091372 0.474249 0.555608
0.180103 0.472361 0.544183
0.287974 0.476398 0.537543
0.393403 0.479836 0.531635
0.488254 0.480682 0.528901
0.581233 0.480812 0.524507
0.668597 0.478794 0.515132
0.743125 0.480153 0.509949
0.789411 0.488942 0.513985
0.825639 0.498316 0.520072
0.845104 0.508667 0.529576
0.863372 0.520043 0.539907
0.880103 0.532738 0.551299
0.894165 0.546148 0.563701
0.905557 0.560275 0.577111
0.916217 0.572790 0.589387
0.926308 0.584053 0.600779
0.936398 0.596210 0.611277
0.946489 0.608905 0.621237
0.955281 0.621107 0.632182
0.963484 0.633085 0.643574
0.970075 0.641060 0.650963
0.976130 0.647700 0.657018
0.978905 0.655504 0.665188
0.980923 0.663576 0.673846
0.983567 0.675067 0.684270
0.986302 0.687045 0.694947
0.983909 0.698474 0.704402
0.981175 0.709867 0.713777
0.000000 0.502759 0.607322
0.000000 0.507251 0.606020
0.004203 0.511226 0.604043
0.071451 0.507450 0.591934
0.146512 0.504651 0.580769
0.276256 0.508687 0.576212
0.399458 0.512907 0.571802
0.494308 0.517919 0.568026
0.586767 0.521174 0.563111
0.672048 0.519156 0.554778
0.744166 0.520841 0.550311
0.787327 0.530671 0.554347
0.821212 0.543040 0.561215
0.839635 0.559640 0.572803
0.856407 0.573620 0.583849
0.871054 0.584232 0.594200
0.883553 0.596601 0.605560
0.893904 0.610727 0.617929
0.904109 0.620899 0.629163
0.914199 0.627995 0.639514
0.924290 0.637288 0.647668
0.934380 0.647900 0.654503
0.945321 0.657302 0.663755
0.956648 0.666156 0.674106
0.964021 0.671787 0.681235
0.970075 0.676344 0.687289
0.972850 0.683757 0.693767
0.974868 0.691830 0.700342
0.978424 0.700586 0.708683
0.982200 0.709439 0.717276
0.978896 0.719697 0.725625
0.975121 0.730048 0.733958
0.000000 0.524958 0.632044
0.000000 0.530231 0.632044
0.003471 0.535069 0.631433
0.059001 0.533376 0.621668
0.125370 0.532400 0.612522
0.267614 0.536436 0.607704
0.401704 0.541437 0.603473
0.500460 0.550616 0.601780
0.595132 0.557386 0.598493
0.677549 0.556930 0.590420
0.746477 0.560503 0.586620
0.785733 0.572937 0.592219
0.816785 0.585762 0.599380
0.834167 0.599237 0.609145
0.850125 0.610890 0.618369
0.864251 0.620200 0.626897
0.876360 0.631527 0.637215
0.886450 0.644872 0.649324
0.895662 0.654117 0.659858
0.904190 0.660171 0.669167
0.914183 0.667771 0.675954
0.925055 0.676299 0.681227
0.936777 0.683977 0.688738
0.948885 0.691268 0.697266
0.958211 0.695532 0.703938
0.966609 0.698787 0.709993
0.970458 0.705322 0.715412
0.973257 0.712613 0.720685
0.975772 0.720588 0.728408
0.978245 0.728660 0.736480
0.975348 0.737892 0.743820
0.972093 0.747201 0.751112
0.000000 0.547157 0.656261
0.000000 0.551389 0.656261
0.002885 0.555445 0.655846
0.049041 0.556878 0.649206
0.108379 0.558635 0.642663
0.259997 0.562671 0.636804
0.402680 0.568453 0.632312
0.506645 0.581799 0.633744
0.604441 0.592215 0.632800
0.683733 0.593842 0.624728
0.749211 0.599823 0.621579
0.784300 0.615382 0.629261
0.812358 0.627816 0.636552
0.828699 0.635042 0.643192
0.844070 0.642724 0.649747
0.858197 0.650992 0.656192
0.870306 0.661278 0.665468
0.880396 0.673582 0.677577
0.888436 0.682370 0.687525
0.894881 0.688424 0.695793
0.904743 0.694723 0.701538
0.916657 0.701168 0.705769
0.928704 0.707478 0.711523
0.940813 0.713728 0.717967
0.952482 0.716950 0.724119
0.964005 0.719164 0.730174
0.969286 0.724657 0.734747
0.973127 0.730906 0.738979
0.973949 0.738751 0.746571
0.974339 0.746823 0.754643
0.972289 0.755079 0.761007
0.970075 0.763346 0.767256
0.000000 0.567717 0.677199
0.000000 0.570907 0.676352
0.004203 0.574076 0.675181
0.071451 0.576941 0.669126
0.147667 0.580163 0.663495
0.286656 0.585892 0.660826
0.418784 0.593037 0.658401
0.521186 0.606317 0.657034
0.616818 0.617205 0.654625
0.692139 0.620916 0.649092
0.754114 0.627719 0.647546
0.786729 0.641324 0.654772
0.813168 0.653051 0.661876
0.829313 0.661644 0.668776
0.844205 0.669639 0.674936
0.857485 0.676865 0.680144
0.868324 0.684840 0.687533
0.876722 0.693563 0.697103
0.884754 0.701261 0.705830
0.892501 0.708162 0.713903
0.902974 0.714533 0.719982
0.915082 0.720588 0.724864
0.927191 0.726060 0.729970
0.939299 0.731268 0.735178
0.951408 0.734084 0.739752
0.963517 0.736102 0.744113
0.968379 0.742087 0.749586
0.971569 0.748988 0.755315
0.971227 0.756173 0.762353
0.970381 0.763399 0.769580
0.969229 0.770625 0.775707
0.968057 0.777851 0.781761
0.000000 0.587898 0.697380
0.000000 0.590046 0.695492
0.005961 0.592304 0.693343
0.101332 0.596210 0.687289
0.199942 0.600604 0.682179
0.321224 0.608416 0.683676
0.438379 0.617058 0.683855
0.537657 0.629297 0.678322
0.629903 0.639925 0.673569
0.701058 0.645719 0.671161
0.759518 0.652977 0.671437
0.790049 0.663458 0.677622
0.815186 0.674403 0.684465
0.831331 0.686121 0.692408
0.845767 0.695418 0.698698
0.858006 0.701603 0.702864
0.867282 0.706974 0.708170
0.873597 0.711531 0.714615
0.881889 0.717992 0.721975
0.891719 0.725934 0.730048
0.902974 0.732696 0.736777
0.915082 0.738751 0.742701
