app/src/main/assets/cube/Arcade09.cube
# LUT by SparkleStock. Enhanced with VOXCOLOR algorithms.
LUT_3D_SIZE 8
DOMAIN_MIN 0.000000 0.000000 0.000000
DOMAIN_MAX 0.903226 0.903226 0.903226
0.031281 0.023460 0.023460
0.234478 0.063822 0.075300
0.363384 0.112509 0.107590
0.475893 0.154763 0.135213
0.565194 0.183899 0.155520
0.612367 0.212279 0.175827
0.655126 0.237631 0.196134
0.687037 0.257308 0.216441
0.282156 0.101788 0.159682
0.456457 0.151121 0.139831
0.513574 0.180209 0.163120
0.568144 0.211270 0.185889
0.616473 0.235739 0.204528
0.666225 0.263452 0.220441
0.714912 0.286163 0.240658
0.754013 0.308139 0.264762
0.250749 0.213666 0.258695
0.464611 0.208117 0.207295
0.570687 0.233213 0.208304
0.613222 0.264526 0.234421
0.664211 0.287709 0.247974
0.724156 0.311202 0.267524
0.774503 0.337836 0.284918
0.823836 0.364141 0.313815
0.272822 0.258695 0.329833
0.418756 0.269144 0.288238
0.596625 0.290423 0.267020
0.656493 0.313164 0.279759
0.707905 0.337584 0.296718
0.774808 0.364141 0.313554
0.835957 0.389115 0.340554
0.885010 0.419350 0.378447
0.301201 0.298300 0.390250
0.415098 0.342141 0.366798
0.579951 0.350771 0.339041
0.689238 0.374174 0.339476
0.746225 0.396178 0.358607
0.819495 0.420469 0.380737
0.885417 0.450516 0.411806
0.930820 0.493222 0.453820
0.330842 0.336014 0.440198
0.408421 0.380115 0.430315
0.569955 0.427027 0.436162
0.700399 0.442460 0.428081
0.770715 0.464940 0.443392
0.857062 0.496355 0.474156
0.917401 0.538833 0.513008
0.948507 0.586514 0.555869
0.361871 0.384448 0.510201
0.425091 0.420046 0.508211
0.576798 0.499561 0.535256
0.724498 0.524368 0.530720
0.801715 0.554082 0.547548
0.869817 0.591539 0.583971
0.925217 0.631747 0.614638
0.937302 0.669179 0.650459
0.386718 0.423296 0.584618
0.439657 0.453051 0.583105
0.609417 0.556617 0.606516
0.766373 0.610097 0.621322
0.832942 0.640523 0.637166
0.878252 0.678143 0.671462
0.914651 0.714859 0.700606
0.915713 0.754558 0.740854
0.066723 0.059156 0.082111
0.289569 0.080488 0.093081
0.409109 0.128402 0.122758
0.509578 0.164504 0.148359
0.576672 0.195817 0.175070
0.619089 0.225307 0.190458
0.664040 0.245130 0.208523
0.709224 0.269530 0.230568
0.193595 0.163324 0.217072
0.465741 0.162662 0.151603
0.515704 0.194480 0.174867
0.561206 0.221142 0.195407
0.611640 0.252080 0.219619
0.669631 0.275214 0.238827
0.721150 0.294569 0.253428
0.764542 0.316794 0.279561
0.244979 0.222967 0.281496
0.375593 0.219896 0.245981
0.548863 0.249003 0.226828
0.603524 0.277222 0.249187
0.655989 0.303489 0.272351
0.716308 0.325531 0.284636
0.777461 0.352024 0.307300
0.821549 0.373130 0.332230
0.279934 0.270629 0.346483
0.338839 0.296667 0.331552
0.535986 0.305873 0.301034
0.634084 0.331393 0.300343
0.688972 0.359470 0.321347
0.755982 0.379370 0.336318
0.822129 0.405859 0.367013
0.867997 0.431999 0.397806
0.308265 0.309274 0.404312
0.346397 0.334516 0.408633
0.510033 0.381638 0.391211
0.648551 0.391842 0.369102
0.713648 0.417942 0.390194
0.788674 0.435955 0.410546
0.865125 0.468106 0.437002
0.908774 0.510618 0.484264
0.340221 0.350563 0.460424
0.362458 0.369746 0.469096
0.517778 0.444097 0.471783
0.661999 0.460324 0.455739
0.741185 0.484850 0.472601
0.818785 0.520687 0.510878
0.892206 0.554771 0.538814
0.923102 0.600296 0.586604
0.366664 0.393403 0.531432
0.391129 0.412160 0.538183
0.527627 0.489233 0.542363
0.698917 0.552206 0.561898
0.775449 0.573083 0.572324
0.835519 0.612139 0.607710
0.903696 0.645191 0.634374
0.918402 0.684385 0.671380
0.386718 0.433135 0.612721
0.415476 0.454662 0.607330
0.549987 0.538325 0.614505
0.715956 0.634609 0.651750
0.795548 0.670092 0.669284
0.838305 0.701746 0.695992
0.882459 0.734753 0.727469
0.905565 0.767773 0.760045
0.088544 0.080724 0.104184
0.214598 0.107797 0.175514
0.431194 0.143725 0.137597
0.523921 0.178826 0.162526
0.574023 0.203824 0.183899
0.630693 0.235145 0.208279
0.677349 0.257686 0.224318
0.719379 0.279230 0.242729
0.197554 0.178980 0.214675
0.249121 0.205098 0.248141
0.493219 0.202282 0.190116
0.555147 0.235782 0.217792
0.610069 0.259672 0.235511
0.668031 0.288576 0.255263
0.723326 0.305441 0.273045
0.769507 0.330708 0.293760
0.245891 0.231260 0.287514
0.294762 0.254231 0.295635
0.513907 0.263123 0.248732
0.586789 0.291452 0.267964
0.635441 0.315406 0.287499
0.694757 0.338638 0.299448
0.759163 0.358926 0.319521
0.814515 0.387059 0.352630
0.283486 0.280333 0.361716
0.323610 0.301919 0.360239
0.467416 0.333010 0.342287
0.609001 0.350380 0.322173
0.661200 0.372254 0.342225
0.729032 0.394236 0.361235
0.804387 0.421479 0.389569
0.851151 0.446796 0.421664
0.312932 0.318225 0.417116
0.339037 0.336421 0.425498
0.436596 0.393153 0.422508
0.604984 0.415416 0.403452
0.681533 0.434967 0.419360
0.756307 0.454366 0.436966
0.836300 0.483580 0.465230
0.885785 0.527285 0.513979
0.344464 0.356573 0.475857
0.363124 0.376188 0.487476
0.445317 0.427763 0.492441
0.613120 0.488938 0.498355
0.708236 0.510522 0.502473
0.771365 0.536974 0.533239
0.864300 0.574438 0.568337
0.895565 0.610255 0.601978
0.366399 0.400902 0.552569
0.389078 0.419159 0.558392
0.471164 0.470001 0.563784
0.645392 0.576747 0.596245
0.747711 0.603532 0.604965
0.807289 0.633073 0.631592
0.870147 0.657061 0.654127
0.896119 0.694922 0.684379
0.388940 0.444967 0.639412
0.409597 0.463764 0.637705
0.518526 0.526548 0.630370
0.689549 0.648138 0.668220
0.780999 0.693787 0.694200
0.822571 0.726150 0.720934
0.863364 0.750645 0.744816
0.889951 0.771399 0.769690
0.118816 0.106329 0.131303
0.192757 0.159694 0.215416
0.352240 0.149579 0.181938
0.519233 0.187557 0.173748
0.578495 0.216498 0.202062
0.630624 0.242786 0.226642
0.679172 0.266808 0.240907
0.723615 0.285813 0.254875
0.205846 0.190206 0.227618
0.238352 0.221607 0.273925
0.329241 0.233588 0.263889
0.532686 0.248572 0.228910
0.597708 0.274892 0.253117
0.659097 0.293442 0.274624
0.719437 0.318291 0.292216
0.767020 0.340595 0.306295
0.251437 0.239649 0.297572
0.277585 0.266054 0.334773
0.350641 0.299398 0.336123
0.555077 0.305265 0.287094
0.621620 0.330417 0.305587
0.685601 0.353673 0.324248
0.752378 0.376344 0.346378
0.799364 0.398149 0.372160
0.288316 0.289219 0.382031
0.307223 0.301186 0.385443
0.391316 0.346277 0.385479
0.568133 0.368124 0.350649
0.631459 0.389940 0.367423
0.700220 0.410412 0.381440
0.774970 0.430363 0.410205
0.835154 0.461267 0.443631
0.318974 0.324650 0.430095
0.338012 0.342011 0.440328
0.410585 0.389866 0.448498
0.544006 0.436787 0.442979
0.648509 0.453452 0.438591
0.726205 0.475860 0.466158
0.809012 0.503941 0.495718
0.859930 0.538157 0.531798
0.348627 0.369170 0.501364
0.367616 0.385624 0.510971
0.422465 0.420140 0.514142
0.552991 0.504747 0.534493
0.679005 0.537260 0.538737
0.743728 0.559830 0.559743
0.828983 0.585597 0.586922
0.872840 0.622152 0.618486
0.370574 0.407152 0.577258
0.390805 0.425202 0.585183
0.445504 0.461927 0.582915
0.578484 0.556630 0.606704
0.711223 0.629655 0.634776
0.774921 0.655790 0.653967
0.834007 0.674614 0.672466
0.875589 0.703784 0.699026
0.393078 0.458377 0.671738
0.412701 0.476917 0.670676
0.482611 0.519105 0.657421
0.638469 0.628104 0.678057
0.759531 0.718608 0.717813
0.808511 0.748792 0.743710
0.846005 0.762886 0.759806
0.875823 0.781985 0.781244
0.144799 0.128149 0.163340
0.194995 0.171347 0.215050
0.252954 0.189587 0.235495
0.444946 0.192086 0.203047
0.572172 0.223749 0.212767
0.626567 0.252482 0.243295
0.669643 0.274954 0.259200
0.719375 0.295098 0.271434
0.222243 0.202945 0.251192
0.245565 0.226104 0.289617
0.292144 0.255626 0.297926
0.426795 0.263654 0.281259
0.566377 0.280034 0.267105
0.645280 0.305588 0.291023
0.704356 0.327143 0.308422
0.752157 0.354393 0.328014
0.265132 0.252897 0.324414
0.282156 0.270930 0.358717
0.315194 0.297748 0.364853
0.429313 0.335685 0.352969
0.581446 0.343947 0.327714
0.658904 0.366388 0.347459
0.728520 0.386370 0.367506
0.776796 0.415942 0.394282
0.293829 0.293577 0.399388
0.312761 0.310204 0.410296
0.353758 0.340543 0.418655
0.435675 0.388829 0.423762
0.601038 0.408823 0.398955
0.678049 0.425974 0.416477
0.754536 0.450519 0.438680
0.810620 0.480182 0.473710
0.323518 0.332348 0.448633
0.340872 0.347549 0.461532
0.379074 0.377964 0.470923
0.462155 0.430387 0.476552
0.616568 0.482484 0.480981
0.694275 0.499789 0.495149
0.777873 0.522509 0.525669
0.836264 0.557509 0.560388
0.353399 0.374842 0.520039
0.369105 0.391303 0.532237
0.398542 0.416089 0.538458
0.491766 0.475773 0.548742
0.642624 0.564299 0.578596
0.719015 0.589273 0.591192
0.800730 0.602850 0.609804
0.852720 0.638353 0.640211
0.375997 0.420257 0.604523
0.391181 0.433477 0.610381
0.424412 0.461798 0.612800
0.526818 0.528792 0.619724
0.679959 0.643831 0.659476
0.751250 0.678948 0.680364
0.811390 0.696031 0.695582
0.859424 0.723239 0.721321
0.402155 0.471324 0.699292
0.415315 0.488485 0.701407
0.460859 0.521490 0.690664
0.587584 0.603924 0.693623
0.733084 0.715156 0.732269
0.792840 0.764533 0.761345
0.830788 0.781584 0.778036
0.864586 0.792380 0.791621
0.164097 0.151105 0.183647
0.208458 0.184827 0.230954
0.251054 0.218423 0.287868
0.323901 0.214749 0.262353
0.522191 0.230462 0.237074
0.611277 0.257491 0.250118
0.656228 0.283417 0.273798
0.701351 0.307443 0.288841
0.235910 0.212621 0.271768
0.258915 0.238108 0.310520
0.280214 0.257036 0.332649
0.346666 0.280933 0.316024
0.498071 0.288539 0.297577
0.603577 0.309707 0.296906
0.674546 0.337477 0.318805
0.723636 0.364572 0.344366
0.277147 0.262011 0.349331
0.295237 0.284563 0.392102
0.307631 0.294021 0.389623
0.376470 0.334322 0.382808
0.502434 0.362203 0.377348
0.619806 0.380085 0.365758
0.701416 0.401028 0.385699
0.755462 0.428728 0.416672
0.313688 0.302723 0.431857
0.322103 0.317566 0.433883
0.336501 0.329755 0.433933
0.398369 0.373631 0.441774
0.515814 0.427737 0.452199
0.639304 0.445157 0.444663
0.730096 0.467138 0.463596
0.790565 0.499490 0.498894
0.335961 0.342572 0.489715
0.349436 0.358354 0.491121
0.368469 0.376995 0.497071
0.426580 0.417830 0.506875
0.535689 0.486235 0.530291
0.663825 0.525607 0.539143
0.763253 0.549420 0.557219
0.819271 0.579548 0.585440
0.358746 0.385583 0.550323
0.371806 0.399602 0.555034
0.390603 0.419471 0.562331
0.453714 0.460739 0.572750
0.580488 0.552230 0.598600
0.689520 0.615148 0.620550
0.779621 0.632100 0.634389
0.836852 0.656466 0.657043
0.378882 0.425408 0.627865
0.392865 0.439534 0.632966
0.415295 0.465377 0.635543
0.493113 0.516392 0.642150
0.622750 0.611484 0.664395
0.733035 0.695105 0.700360
0.788656 0.721517 0.720445
0.845637 0.741404 0.740517
0.408983 0.480751 0.717243
0.426499 0.508012 0.728656
0.455398 0.531321 0.721140
0.562517 0.599022 0.722732
0.698276 0.697111 0.744370
0.789350 0.769919 0.774641
0.825170 0.793141 0.791827
0.853681 0.805943 0.804908
0.188314 0.163340 0.207864
0.225144 0.200113 0.253117
0.253007 0.223814 0.297222
0.291074 0.246965 0.309571
0.411554 0.242904 0.282432
0.566138 0.267272 0.266438
0.632548 0.292417 0.281029
0.669179 0.318534 0.298785
0.250371 0.223252 0.294586
0.274604 0.247866 0.338913
0.293409 0.270730 0.373498
0.317088 0.288316 0.361226
0.403267 0.308385 0.350295
0.546383 0.324880 0.331682
0.651790 0.350904 0.334778
0.703556 0.382022 0.366302
0.293072 0.271548 0.377132
0.312305 0.290321 0.421380
0.323033 0.305137 0.422296
0.347978 0.325069 0.413697
0.433333 0.372248 0.416610
0.554129 0.397328 0.415258
0.672346 0.417980 0.409399
0.734016 0.444278 0.436354
0.330126 0.315955 0.473912
0.335775 0.325881 0.473804
0.345707 0.341045 0.471623
0.372530 0.360084 0.469416
0.453732 0.415967 0.477376
0.575220 0.469384 0.503452
0.704775 0.488470 0.495103
0.779223 0.522747 0.527755
0.350254 0.355059 0.545404
0.354867 0.365699 0.531345
0.371189 0.382197 0.527741
0.400439 0.404491 0.530709
0.480031 0.456652 0.546417
0.593831 0.531257 0.580827
0.730590 0.571813 0.591956
0.803315 0.598783 0.609166
0.362989 0.392345 0.599453
0.375931 0.409727 0.591997
0.391721 0.424277 0.590461
0.430805 0.454994 0.598383
0.523038 0.516654 0.613331
0.630848 0.599182 0.646295
0.745509 0.658531 0.670212
0.821317 0.684509 0.685531
0.386259 0.434396 0.658962
0.398054 0.451995 0.656651
0.418759 0.474490 0.661318
0.475034 0.516120 0.668149
0.585599 0.595219 0.684035
0.705527 0.686545 0.718572
0.789374 0.747343 0.744012
0.839411 0.766263 0.762056
0.421152 0.495033 0.737457
0.433681 0.522033 0.747210
0.466361 0.547822 0.743019
0.556237 0.605007 0.748646
0.670926 0.683236 0.761768
0.773343 0.759496 0.783569
0.831990 0.806381 0.805499
0.853290 0.822096 0.818779
0.205089 0.177719 0.230316
0.238779 0.209756 0.274335
0.261621 0.233973 0.313635
0.288031 0.257019 0.355202
0.330008 0.276740 0.330212
0.451298 0.282843 0.313810
0.591051 0.302357 0.297983
0.658108 0.333536 0.314783
0.261320 0.233835 0.311267
0.283425 0.256413 0.356175
0.304667 0.282954 0.404106
0.316575 0.291620 0.398496
0.364979 0.322524 0.385412
0.456486 0.350227 0.392159
0.595841 0.368071 0.376131
0.667333 0.396706 0.383237
0.304054 0.281903 0.402359
0.328362 0.303592 0.452652
0.335437 0.314846 0.457764
0.344101 0.328025 0.442041
0.394875 0.362520 0.437009
0.482299 0.410436 0.455069
0.620326 0.436817 0.459221
0.714557 0.462435 0.457983
0.347150 0.325545 0.508598
0.351276 0.339805 0.518729
0.354547 0.347239 0.504579
0.373926 0.367815 0.500641
0.425656 0.406203 0.502984
0.517234 0.465075 0.528326
0.650332 0.515315 0.555930
0.767688 0.543870 0.556244
0.369186 0.372213 0.599502
0.364448 0.377278 0.579426
0.375180 0.389807 0.564766
0.396779 0.408005 0.560120
0.452137 0.444150 0.570582
0.545074 0.509916 0.590925
0.669508 0.589584 0.633179
0.795282 0.626965 0.639961
0.381925 0.413649 0.663515
0.378914 0.414756 0.628609
0.393814 0.430514 0.618259
0.422484 0.455493 0.619191
0.502474 0.507784 0.633145
0.593831 0.575041 0.657129
0.703162 0.659194 0.697931
0.810819 0.717763 0.719558
0.403693 0.460578 0.721113
0.404849 0.465803 0.692010
0.420812 0.483635 0.682614
0.474770 0.525182 0.689332
0.569994 0.591800 0.705554
0.679051 0.670981 0.734847
0.784293 0.756470 0.768860
0.836900 0.790211 0.788014
0.435580 0.514200 0.761674
0.448701 0.538287 0.762990
0.482134 0.566976 0.761895
0.568364 0.621094 0.767973
0.662811 0.683636 0.778871
0.766668 0.756068 0.793820
0.835441 0.813832 0.817393
0.859782 0.837272 0.832186
