app/src/main/assets/cube/Arcade09.cube
# LUT by SparkleStock. Enhanced with VOXCOLOR algorithms.
LUT_3D_SIZE 32
0.031281 0.023460 0.023460
0.085769 0.033551 0.039605
0.139880 0.043641 0.055372
0.188314 0.053732 0.065462
0.234478 0.063822 0.075300
0.264749 0.073913 0.083373
0.295778 0.084760 0.091445
0.330085 0.098887 0.099518
0.363384 0.112509 0.107590
0.393656 0.124618 0.115662
0.422666 0.136096 0.123104
0.448901 0.146186 0.129158
0.475893 0.154763 0.135213
0.504147 0.160817 0.141267
0.528868 0.167755 0.146438
0.549049 0.175827 0.150475
0.565194 0.183899 0.155520
0.577303 0.191972 0.161574
0.589411 0.198909 0.166493
0.601520 0.204963 0.170529
0.612367 0.212279 0.175827
0.622458 0.220351 0.181881
0.633936 0.227036 0.186548
0.646044 0.233091 0.190584
0.655126 0.237631 0.196134
0.663198 0.241667 0.202188
0.669631 0.245704 0.206603
0.675685 0.249740 0.210639
0.687037 0.257308 0.216441
0.699145 0.265380 0.222496
0.705578 0.271561 0.228550
0.711632 0.277615 0.234604
0.122095 0.043641 0.053732
0.170334 0.054774 0.064669
0.218000 0.065906 0.075488
0.257060 0.077038 0.084536
0.295281 0.088170 0.093463
0.327636 0.099302 0.101536
0.359576 0.110605 0.109413
0.389717 0.122648 0.116444
0.418589 0.133667 0.122954
0.443652 0.141609 0.127901
0.467455 0.150222 0.133520
0.488482 0.160313 0.140616
0.509485 0.168890 0.147321
0.530447 0.174944 0.153376
0.549700 0.182337 0.159003
0.566756 0.191451 0.164080
0.581339 0.199523 0.169126
0.593447 0.206554 0.174138
0.604970 0.213036 0.178602
0.616037 0.219090 0.182638
0.627145 0.225755 0.187936
0.638277 0.232785 0.193990
0.647932 0.238429 0.197941
0.656916 0.243441 0.200935
0.667560 0.248503 0.206225
0.678757 0.253581 0.212279
0.686622 0.258659 0.217540
0.693718 0.263736 0.222618
0.704288 0.270523 0.228550
0.715355 0.277554 0.234604
0.722699 0.282693 0.240658
0.729795 0.287705 0.246713
0.209756 0.063696 0.084508
0.252657 0.076000 0.090107
0.294765 0.088284 0.095839
0.324971 0.100262 0.103586
0.355633 0.112232 0.111366
0.389485 0.124146 0.119373
0.421799 0.135705 0.127014
0.447449 0.145730 0.133068
0.471682 0.154307 0.138146
0.491668 0.158539 0.140295
0.510433 0.164561 0.144274
0.526512 0.174521 0.152281
0.541811 0.183016 0.159507
0.555807 0.189071 0.165431
0.569861 0.196834 0.171441
0.583988 0.206794 0.177560
0.597073 0.214802 0.182573
0.609116 0.220856 0.186479
0.620134 0.226947 0.190495
0.630355 0.233066 0.194596
0.641756 0.239145 0.199918
0.653864 0.245199 0.205972
0.661945 0.249911 0.209296
0.668194 0.254012 0.211380
0.680303 0.259529 0.216441
0.694365 0.265518 0.222496
0.703560 0.271561 0.228550
0.711632 0.277615 0.234604
0.721471 0.283669 0.240658
0.731561 0.289723 0.246713
0.739638 0.293886 0.252645
0.747580 0.297922 0.258569
0.250118 0.081859 0.122852
0.301352 0.097288 0.121159
0.351206 0.112371 0.119731
0.380371 0.122266 0.122270
0.409210 0.132023 0.125362
0.435771 0.140811 0.132328
0.460403 0.149636 0.139123
0.476678 0.158620 0.145177
0.493100 0.167197 0.150776
0.509961 0.174553 0.155007
0.526252 0.182072 0.160093
0.541290 0.189950 0.167059
0.555156 0.197143 0.172853
0.567070 0.203197 0.176694
0.579951 0.210049 0.181987
0.594078 0.217926 0.189148
0.606642 0.224892 0.193640
0.617644 0.230946 0.195463
0.629379 0.237623 0.199153
0.641683 0.244784 0.204296
0.653864 0.251253 0.210009
0.665973 0.257308 0.216063
0.676202 0.262735 0.220103
0.685576 0.267878 0.223228
0.697685 0.272875 0.228550
0.710705 0.277822 0.234604
0.719705 0.283669 0.240658
0.727777 0.289723 0.246713
0.737615 0.295778 0.252767
0.747706 0.301832 0.258821
0.753829 0.305994 0.262801
0.759688 0.310031 0.266641
0.282156 0.101788 0.159682
0.340941 0.118649 0.151219
0.397916 0.134969 0.143151
0.427731 0.143171 0.141003
0.456457 0.151121 0.139831
0.477549 0.157306 0.145494
0.496176 0.163820 0.151207
0.504118 0.171762 0.157131
0.513574 0.180209 0.163120
0.527570 0.190169 0.169305
0.541567 0.198950 0.175408
0.555563 0.205134 0.181332
0.568144 0.211270 0.185889
0.578365 0.217324 0.188167
0.590237 0.223435 0.192810
0.604234 0.229620 0.200492
0.616473 0.235739 0.204528
0.626954 0.241794 0.204919
0.639412 0.248910 0.208495
0.653409 0.256852 0.214549
0.666225 0.263452 0.220441
0.678334 0.269245 0.226235
0.690532 0.275308 0.230910
0.702771 0.281492 0.235076
0.714912 0.286163 0.240658
0.727020 0.290330 0.246713
0.735955 0.296030 0.252767
0.744158 0.302084 0.258821
0.754013 0.308139 0.264762
0.764103 0.314193 0.270686
0.768884 0.318477 0.273314
0.773311 0.322644 0.275723
0.255920 0.134078 0.185917
0.316789 0.140522 0.174330
0.376498 0.147142 0.163267
0.418813 0.156386 0.160077
0.459386 0.165378 0.157603
0.487770 0.172604 0.160142
0.512125 0.179770 0.163120
0.519026 0.186670 0.168003
0.527440 0.194075 0.173471
0.540395 0.202994 0.180697
0.553350 0.211384 0.187191
0.566305 0.218610 0.192073
0.578625 0.225397 0.196761
0.589887 0.231451 0.201122
0.601890 0.238018 0.205570
0.614845 0.245244 0.210127
0.628125 0.251884 0.214163
0.641731 0.257938 0.217678
0.654971 0.264469 0.222622
0.667926 0.271369 0.228676
0.680352 0.276276 0.233265
0.692461 0.279987 0.236976
0.705375 0.286114 0.241716
0.718655 0.293341 0.246924
0.731057 0.299053 0.252767
0.743165 0.304261 0.258821
0.752947 0.310157 0.264876
0.762191 0.316211 0.270930
0.772175 0.322265 0.275959
0.782266 0.328320 0.280841
0.789976 0.333581 0.286334
0.797528 0.338789 0.291868
0.236118 0.165232 0.211774
0.297312 0.162237 0.197452
0.358009 0.160048 0.183737
0.411261 0.169944 0.179114
0.462169 0.179586 0.175021
0.496672 0.187464 0.174631
0.526061 0.194999 0.175070
0.533287 0.201053 0.179106
0.541685 0.207661 0.184103
0.553598 0.215929 0.191980
0.565511 0.224074 0.198779
0.577425 0.231951 0.203206
0.589411 0.239218 0.208169
0.601520 0.245468 0.214028
0.613628 0.252344 0.218207
0.625737 0.260026 0.220225
0.639864 0.266894 0.224164
0.656009 0.272948 0.230023
0.669993 0.279002 0.235992
0.682297 0.285057 0.242046
0.694601 0.288710 0.245700
0.706905 0.290924 0.247913
0.720193 0.297165 0.252498
0.733929 0.305238 0.258162
0.746738 0.311943 0.264412
0.759237 0.318192 0.270857
0.769779 0.324283 0.276984
0.779869 0.330338 0.283039
0.790131 0.336392 0.287498
0.800417 0.342446 0.291729
0.810336 0.348501 0.299562
0.820231 0.354555 0.307634
0.244190 0.191467 0.235992
0.298093 0.183265 0.220628
0.352215 0.176128 0.205740
0.409634 0.184982 0.197993
0.464318 0.193583 0.190906
0.499862 0.200418 0.188432
0.531269 0.207107 0.187179
0.544745 0.213162 0.191215
0.557569 0.220030 0.195951
0.568441 0.229339 0.202786
0.579313 0.237875 0.209520
0.590184 0.244711 0.216030
0.601520 0.251717 0.221906
0.613628 0.259008 0.226723
0.625737 0.265559 0.230316
0.637846 0.271158 0.232334
0.651972 0.276984 0.235751
0.668117 0.283039 0.240569
0.682687 0.289093 0.246082
0.696033 0.295147 0.252136
0.709378 0.299452 0.256441
0.722724 0.302707 0.259696
0.734906 0.309274 0.263175
0.746559 0.317346 0.266755
0.760409 0.324833 0.274047
0.774991 0.332124 0.282575
0.785924 0.338410 0.289093
0.796014 0.344464 0.295147
0.807187 0.350519 0.300518
0.818514 0.356573 0.305791
0.827523 0.362627 0.313688
0.836376 0.368682 0.321761
0.250749 0.213666 0.258695
0.296059 0.203641 0.243332
0.342450 0.194665 0.228249
0.405077 0.201436 0.217377
0.464611 0.208117 0.207295
0.502499 0.214171 0.202738
0.536640 0.220225 0.199792
0.554542 0.226279 0.203828
0.570687 0.233213 0.208304
0.581559 0.242782 0.214098
0.592186 0.251335 0.220441
0.602277 0.257650 0.227992
0.613222 0.264526 0.234421
0.625591 0.272338 0.238978
0.637846 0.278498 0.242538
0.649954 0.282534 0.244817
0.664211 0.287709 0.247974
0.680616 0.294024 0.252010
0.695740 0.300192 0.257035
0.709867 0.306247 0.262829
0.724156 0.311202 0.267524
0.738543 0.315499 0.271561
0.749976 0.322212 0.274567
0.760067 0.330024 0.277106
0.774503 0.337836 0.284918
0.790387 0.345648 0.294488
0.801987 0.352032 0.301413
0.812598 0.358087 0.307728
0.823836 0.364141 0.313815
0.835164 0.370195 0.319869
0.843928 0.376738 0.328303
0.852521 0.383313 0.336897
0.252767 0.223757 0.276858
0.285577 0.222064 0.264619
0.320772 0.220575 0.252271
0.391731 0.222137 0.238274
0.459337 0.224261 0.225197
0.503475 0.230316 0.218557
0.542499 0.236370 0.213919
0.559359 0.242424 0.217955
0.575504 0.248837 0.222170
0.589501 0.256323 0.226922
0.602277 0.263769 0.231898
0.612367 0.271125 0.237367
0.623703 0.278262 0.243275
0.637113 0.285032 0.249915
0.649954 0.290606 0.255102
0.662063 0.294643 0.258423
0.676841 0.300339 0.262101
0.694287 0.307695 0.266137
0.709867 0.314319 0.270576
0.723993 0.320373 0.275328
0.738934 0.325980 0.279633
0.754362 0.331318 0.283669
0.766121 0.337641 0.288108
0.776212 0.344412 0.292730
0.789866 0.351182 0.299501
0.804709 0.357952 0.306987
0.817806 0.364141 0.314368
0.830501 0.370195 0.321724
0.839265 0.376249 0.327941
0.847468 0.382304 0.333996
0.857989 0.390799 0.344383
0.868666 0.399458 0.355059
0.256677 0.234478 0.295021
0.280243 0.239491 0.284930
0.306906 0.244023 0.274502
0.380013 0.241354 0.259008
0.450362 0.239735 0.244361
0.501400 0.245464 0.235638
0.546262 0.251314 0.229246
0.564360 0.257694 0.232956
0.581807 0.263911 0.236667
0.597301 0.269640 0.240378
0.611411 0.276000 0.244190
0.622478 0.283746 0.248226
0.634570 0.290981 0.253532
0.648372 0.297361 0.260953
0.661432 0.302715 0.266894
0.673541 0.306751 0.270930
0.688677 0.312805 0.275129
0.706839 0.320878 0.279491
0.722915 0.327815 0.283486
0.737367 0.333869 0.287197
0.752674 0.339924 0.291314
0.768493 0.345978 0.295676
0.781045 0.352032 0.301201
0.792112 0.358087 0.307256
0.805474 0.364141 0.313554
0.819601 0.370195 0.319934
0.833199 0.376514 0.327953
0.846674 0.382894 0.336351
0.854795 0.389274 0.343268
0.862152 0.395653 0.349974
0.872743 0.405207 0.360524
0.883549 0.414972 0.371330
0.264749 0.246587 0.313184
0.286232 0.254724 0.303093
0.310226 0.262056 0.292795
0.371876 0.257304 0.279385
0.433240 0.253731 0.266300
0.492612 0.258418 0.255493
0.545416 0.263618 0.247213
0.569763 0.271040 0.249882
0.591376 0.277778 0.252551
0.604787 0.282465 0.255220
0.618442 0.287783 0.258317
0.632634 0.294488 0.262353
0.646288 0.301462 0.266877
0.659048 0.308883 0.272216
0.671523 0.314824 0.276984
0.683631 0.318860 0.281020
0.698767 0.324914 0.285740
0.716930 0.332986 0.291143
0.733591 0.339924 0.295009
0.749085 0.345978 0.297678
0.764132 0.352032 0.302056
0.778909 0.358087 0.307459
0.793284 0.364141 0.313310
0.807476 0.370195 0.319364
0.821619 0.376249 0.326444
0.835746 0.382304 0.333865
0.847651 0.389469 0.342926
0.859043 0.396890 0.352366
0.870550 0.404312 0.361236
0.882072 0.411733 0.370024
0.889018 0.420375 0.376799
0.895658 0.429098 0.383439
0.272822 0.258695 0.329833
0.292612 0.268004 0.319743
0.314376 0.276476 0.309624
0.365740 0.272374 0.299078
0.418756 0.269144 0.288238
0.483335 0.272008 0.275349
0.541323 0.275776 0.265034
0.570748 0.283458 0.265881
0.596625 0.290423 0.267020
0.611859 0.295241 0.269038
0.627133 0.300445 0.271687
0.642496 0.306499 0.275723
0.656493 0.313164 0.279759
0.668211 0.320845 0.283795
0.680271 0.327103 0.287831
0.692770 0.331530 0.291868
0.707905 0.337584 0.296718
0.725678 0.345266 0.302381
0.742754 0.352032 0.306214
0.759290 0.358087 0.308623
0.774808 0.364141 0.313554
0.789716 0.370195 0.319999
0.805474 0.376518 0.326444
0.821619 0.382963 0.332889
0.835957 0.389115 0.340554
0.849693 0.395169 0.348627
0.861102 0.402863 0.358021
0.871974 0.410936 0.367721
0.885010 0.419350 0.378447
0.898356 0.427813 0.389318
0.903706 0.435543 0.394148
0.908523 0.443225 0.398575
0.280894 0.270804 0.343960
0.299643 0.278030 0.333869
0.319910 0.284874 0.324011
0.362941 0.285980 0.317631
0.408665 0.286916 0.310177
0.473244 0.286656 0.295204
0.531818 0.287689 0.282611
0.564368 0.294329 0.280333
0.594672 0.301035 0.279128
0.618238 0.307935 0.281147
0.638590 0.314571 0.283795
0.651871 0.320626 0.287831
0.664175 0.326900 0.291868
0.674851 0.333540 0.295904
0.686781 0.339667 0.299940
0.700321 0.345136 0.303976
0.715457 0.351190 0.308305
0.732188 0.357830 0.312928
0.749395 0.364141 0.316890
0.766972 0.370195 0.320341
0.784182 0.376249 0.326314
0.801173 0.382304 0.333800
0.817583 0.389343 0.341287
0.833727 0.396829 0.348773
0.847285 0.403242 0.356699
0.859979 0.409296 0.364772
0.872885 0.416990 0.373320
0.885840 0.425062 0.381978
0.897314 0.434388 0.394396
0.908576 0.443892 0.407351
0.915749 0.450712 0.413287
0.922650 0.457352 0.418756
0.288084 0.281147 0.358970
0.306702 0.287657 0.348879
0.326554 0.294154 0.339195
0.364898 0.300469 0.335615
0.405951 0.305685 0.330635
0.465974 0.303211 0.315857
0.521345 0.302337 0.303008
0.556564 0.308391 0.298516
0.590498 0.314836 0.295424
0.620574 0.322452 0.296530
0.645605 0.329581 0.298268
0.659536 0.335635 0.301393
0.672540 0.341690 0.305201
0.683998 0.347744 0.310149
0.696423 0.353798 0.314697
0.710094 0.359852 0.318734
0.725230 0.365907 0.322998
0.741831 0.371961 0.327490
0.759310 0.378015 0.331725
0.777473 0.384070 0.335761
0.795636 0.389839 0.342035
0.813799 0.395438 0.349652
0.830261 0.402424 0.357269
0.845950 0.410040 0.364885
0.859637 0.417511 0.373527
0.872657 0.424932 0.382511
0.885836 0.432882 0.390755
0.899051 0.440955 0.398827
0.909532 0.451591 0.411798
0.919623 0.462592 0.425469
0.926967 0.469383 0.433281
0.934128 0.475893 0.440703
0.294138 0.289219 0.375114
0.313798 0.296771 0.365024
0.334626 0.304570 0.355405
0.372970 0.316093 0.352866
0.412722 0.325736 0.349188
0.462328 0.322221 0.337535
0.509627 0.320499 0.327030
0.546929 0.326554 0.321496
0.583467 0.332738 0.317102
0.617709 0.339313 0.316126
0.646907 0.345726 0.315780
0.665005 0.351780 0.316821
0.681784 0.357834 0.320109
0.696367 0.363889 0.327140
0.710094 0.369943 0.332860
0.722724 0.375997 0.336897
0.737860 0.382052 0.341681
0.755502 0.388106 0.347215
0.773437 0.394160 0.351906
0.791600 0.400214 0.355942
0.809763 0.405333 0.361565
0.827925 0.409890 0.368140
0.843672 0.415834 0.374716
0.858319 0.422409 0.381291
0.873308 0.431963 0.391235
0.888411 0.442509 0.402302
0.900288 0.451045 0.410936
0.911420 0.459118 0.419008
0.921641 0.471576 0.431068
0.931731 0.484661 0.443697
0.937123 0.492559 0.454374
0.942200 0.500110 0.464920
0.301201 0.298300 0.390250
0.319820 0.306373 0.381722
0.339606 0.314856 0.373536
0.376909 0.329504 0.370476
0.415098 0.342141 0.366798
0.459496 0.340709 0.358790
0.502857 0.340485 0.351052
0.541721 0.345498 0.344477
0.579951 0.350771 0.339041
0.616277 0.356825 0.337023
0.648046 0.362717 0.335798
0.669789 0.368250 0.336319
0.689238 0.374174 0.339476
0.704862 0.380750 0.347028
0.718720 0.386413 0.352130
0.730308 0.390905 0.354083
0.746225 0.396178 0.358607
0.766471 0.402233 0.365703
0.784667 0.408580 0.371078
0.801267 0.415155 0.375114
0.819495 0.420469 0.380737
0.838700 0.425026 0.387312
0.855129 0.432044 0.394246
0.870297 0.440182 0.401341
0.885417 0.450516 0.411806
0.900520 0.461583 0.423394
0.911550 0.471064 0.432972
0.921641 0.480178 0.442086
0.930820 0.493222 0.453820
0.939869 0.506828 0.465929
0.944218 0.516223 0.478037
0.948255 0.525337 0.490146
0.309274 0.308391 0.404377
0.324768 0.316463 0.398973
0.341494 0.325012 0.393586
0.376713 0.340701 0.388444
0.413080 0.354901 0.383463
0.457478 0.358677 0.379622
0.501034 0.362294 0.375074
0.540940 0.365223 0.367457
0.579951 0.368934 0.361240
0.616277 0.374988 0.359222
0.649023 0.380554 0.358323
0.673891 0.385046 0.359885
0.694902 0.390710 0.363303
0.709484 0.398327 0.369813
0.722301 0.403209 0.372506
0.732847 0.404576 0.370293
0.750326 0.408287 0.373776
0.774739 0.414341 0.382955
0.792999 0.421274 0.389241
0.806475 0.428891 0.393277
0.824833 0.435246 0.399551
0.846121 0.440845 0.407168
0.864634 0.451053 0.415859
0.881885 0.463357 0.425038
0.895963 0.473171 0.435242
0.908983 0.482155 0.445788
0.919623 0.492937 0.456864
0.929713 0.504134 0.468061
0.937070 0.516528 0.480055
0.944035 0.529092 0.492164
0.948255 0.540375 0.504273
0.952291 0.551572 0.516381
0.316211 0.317346 0.416233
0.330924 0.326004 0.412197
0.346641 0.335057 0.408108
0.377433 0.350030 0.403225
0.409707 0.364328 0.398921
0.452347 0.373898 0.398660
0.495000 0.382271 0.397265
0.537706 0.385461 0.390950
0.578963 0.388781 0.385123
0.615874 0.392492 0.380762
0.649450 0.396671 0.378760
0.675685 0.401879 0.381950
0.697819 0.407502 0.385774
0.713118 0.413816 0.390657
0.726650 0.418394 0.392663
0.737913 0.420737 0.390970
0.755782 0.424643 0.394290
0.780260 0.430112 0.402623
0.799758 0.437374 0.409528
0.815382 0.446033 0.415322
0.834383 0.453430 0.422173
0.855410 0.460070 0.429660
0.873662 0.471454 0.439340
0.890653 0.484995 0.450016
0.904422 0.494874 0.460253
0.917117 0.503532 0.470343
0.927219 0.515946 0.482550
0.936724 0.529226 0.495244
0.942697 0.540456 0.505888
0.948165 0.551393 0.516239
0.951742 0.563428 0.529336
0.955192 0.575537 0.542617
0.322265 0.325419 0.426324
0.338020 0.335118 0.422287
0.354323 0.345018 0.418328
0.378866 0.357908 0.415529
0.405280 0.371164 0.413438
0.444796 0.386983 0.416302
0.485691 0.400825 0.418031
0.532563 0.406098 0.414842
0.577205 0.409939 0.410317
0.615158 0.409483 0.401789
0.649450 0.411448 0.397574
0.675685 0.418739 0.402847
0.698600 0.424493 0.407192
0.715982 0.427683 0.409992
0.731598 0.432325 0.412649
0.744943 0.438835 0.415122
0.762292 0.444303 0.418963
0.783645 0.448730 0.424171
0.805291 0.456123 0.431466
0.827165 0.465823 0.440385
0.847207 0.474262 0.447758
0.866151 0.481943 0.454203
0.882321 0.492937 0.464273
0.897228 0.505436 0.475991
0.911258 0.515836 0.486488
0.924994 0.525536 0.496579
0.934445 0.539838 0.509631
0.942908 0.555201 0.523367
0.947840 0.564869 0.531407
0.952266 0.573722 0.538633
0.954801 0.585627 0.553488
0.957210 0.597736 0.568852
0.330842 0.336014 0.440198
0.345034 0.344802 0.436162
0.359808 0.353839 0.432292
0.383309 0.366598 0.430925
0.408421 0.380115 0.430315
0.444812 0.398929 0.435002
0.482607 0.415472 0.438798
0.526484 0.422178 0.438733
0.569955 0.427027 0.436162
0.612204 0.426311 0.426071
0.649653 0.428342 0.420416
0.676539 0.436414 0.424517
0.700399 0.442460 0.428081
0.719213 0.445129 0.430750
0.736830 0.450162 0.434018
0.752910 0.458235 0.438054
0.770715 0.464940 0.443392
0.790245 0.470278 0.450032
0.812411 0.477923 0.457881
0.836629 0.487363 0.466669
0.857062 0.496355 0.474156
0.875225 0.505078 0.480861
0.890613 0.516129 0.491281
0.904739 0.528238 0.503390
0.917401 0.538833 0.513008
0.929575 0.548923 0.521797
0.937359 0.562346 0.533865
0.944129 0.576538 0.546689
0.948507 0.586514 0.555869
0.952543 0.595889 0.564527
0.953467 0.607216 0.578373
0.954183 0.618674 0.592565
0.340933 0.348122 0.456343
0.352000 0.354828 0.452307
0.363974 0.361976 0.448502
0.389558 0.375778 0.448177
0.416103 0.390335 0.448608
0.449369 0.410191 0.454337
0.483258 0.427776 0.459565
0.519844 0.435523 0.462625
0.559408 0.441675 0.462397
0.607908 0.443042 0.452307
0.649979 0.446505 0.445675
0.677907 0.454577 0.446651
0.702807 0.461014 0.448653
0.722663 0.464724 0.452364
0.742234 0.470343 0.456217
0.761438 0.478416 0.460253
0.780284 0.486163 0.467674
0.798773 0.493584 0.478481
0.820484 0.501555 0.486981
0.844701 0.509953 0.493686
0.865134 0.519205 0.501042
0.883297 0.528970 0.508789
0.898685 0.540346 0.519535
0.912812 0.552455 0.531643
0.923130 0.563050 0.539699
0.932179 0.573140 0.546405
0.937684 0.584024 0.556389
0.942371 0.595091 0.567131
0.946489 0.606500 0.579695
0.950525 0.617958 0.592520
0.949496 0.628439 0.603697
0.948129 0.638855 0.614764
0.348248 0.360231 0.473875
0.358339 0.366285 0.471271
0.369349 0.372799 0.468785
0.394152 0.386210 0.468069
0.419801 0.400288 0.468110
0.451375 0.419036 0.473448
0.483998 0.436723 0.478945
0.521170 0.449808 0.485129
0.561304 0.460127 0.487424
0.610325 0.462145 0.478050
0.653303 0.466055 0.471828
0.682988 0.474127 0.472545
0.709378 0.481223 0.474506
0.730275 0.486692 0.478542
0.750546 0.492986 0.482578
0.770011 0.500342 0.486614
0.788467 0.508773 0.494329
0.805914 0.518277 0.505721
0.826363 0.526976 0.514917
0.849148 0.535049 0.522403
0.868597 0.543935 0.529808
0.886043 0.553309 0.537164
0.901700 0.564563 0.546803
0.916543 0.576672 0.557480
0.925771 0.586730 0.565227
0.933127 0.596104 0.571997
0.937204 0.605479 0.580883
0.940524 0.614853 0.590258
0.943844 0.626620 0.603164
0.947164 0.638729 0.616574
0.944808 0.648945 0.625530
0.942074 0.659036 0.634188
0.354303 0.372339 0.492038
0.364393 0.378394 0.491517
0.375273 0.384843 0.490919
0.397993 0.397212 0.489161
0.421689 0.410118 0.488160
0.452221 0.426783 0.492457
0.484779 0.444145 0.497694
0.526118 0.464521 0.507003
0.568856 0.480308 0.511902
0.615793 0.482326 0.503569
0.657990 0.486236 0.498389
0.689759 0.494308 0.500147
0.717841 0.502185 0.502759
0.739780 0.509737 0.506795
0.760181 0.516747 0.510832
0.778604 0.523062 0.514868
0.796018 0.532013 0.522061
0.812424 0.543601 0.532412
0.831246 0.553212 0.542324
0.851947 0.561284 0.551893
0.869964 0.569519 0.559429
0.886369 0.577852 0.565743
0.902416 0.588781 0.573625
0.918301 0.600889 0.582218
0.927008 0.610166 0.590225
0.933322 0.618499 0.598037
0.936358 0.626832 0.606272
0.938636 0.635164 0.614605
0.940915 0.646801 0.626469
0.943193 0.658910 0.638838
0.939796 0.669126 0.645776
0.936020 0.679217 0.652351
0.361871 0.384448 0.510201
0.371180 0.390502 0.510982
0.381246 0.396886 0.511588
0.402664 0.408214 0.509570
0.425091 0.420046 0.508211
0.454581 0.435409 0.511466
0.486928 0.452787 0.516296
0.531651 0.478892 0.527949
0.576798 0.499561 0.535256
0.623214 0.503923 0.529527
0.664972 0.509200 0.526220
0.696480 0.516491 0.528238
0.724498 0.524368 0.530720
0.746697 0.533222 0.533975
0.766788 0.540509 0.537230
0.784170 0.545782 0.540485
0.801715 0.554082 0.547548
0.819422 0.565410 0.558420
0.836763 0.574906 0.567973
0.853819 0.582979 0.576501
0.869817 0.591539 0.583971
0.885181 0.600393 0.590807
0.901082 0.610947 0.598493
0.917226 0.622275 0.606565
0.925217 0.631747 0.614638
0.930490 0.640600 0.622710
0.933754 0.648819 0.630782
0.936553 0.656891 0.638855
0.937302 0.669179 0.650459
0.937757 0.682069 0.662567
0.934002 0.690870 0.669000
0.929966 0.699398 0.675054
0.369943 0.396557 0.528364
0.378211 0.402611 0.530187
0.387235 0.408930 0.531769
0.407611 0.419215 0.529751
0.428997 0.430006 0.528262
0.457445 0.444328 0.530475
0.489532 0.461836 0.534849
0.537380 0.493149 0.548585
0.584871 0.518505 0.558237
0.631287 0.525992 0.555633
0.672719 0.533092 0.554473
0.703186 0.539341 0.556491
0.730552 0.546958 0.558582
0.752751 0.556853 0.560796
0.772387 0.564270 0.563009
0.788727 0.568502 0.565223
0.806792 0.575761 0.572286
0.826583 0.586046 0.584199
0.842492 0.595087 0.593037
0.855381 0.603160 0.599481
0.869166 0.612371 0.606821
0.883488 0.622266 0.614699
0.899063 0.632430 0.622710
0.915208 0.642716 0.630782
0.922418 0.652709 0.638855
0.926650 0.662604 0.646927
0.930564 0.671018 0.655000
0.934405 0.679091 0.663072
0.933461 0.692290 0.674676
0.931833 0.706221 0.686785
0.927948 0.713134 0.693217
0.923911 0.719579 0.699272
0.376376 0.405386 0.546527
0.383602 0.410594 0.547698
0.391637 0.416107 0.548724
0.411818 0.426197 0.547552
0.433009 0.437004 0.546779
0.461262 0.452823 0.548797
0.493458 0.471572 0.552768
0.542739 0.503015 0.565202
0.592150 0.529885 0.574870
0.641951 0.543036 0.576237
0.685649 0.554233 0.577543
0.715921 0.561133 0.578715
0.742531 0.569230 0.580521
0.763037 0.579321 0.583385
0.781635 0.587133 0.586250
0.797780 0.592015 0.589114
0.814250 0.598232 0.595331
0.831046 0.605784 0.604901
0.846158 0.614581 0.613921
0.859959 0.624346 0.622515
0.872905 0.634314 0.630253
0.885340 0.644405 0.637479
0.898579 0.654495 0.644124
0.912185 0.664586 0.650504
0.919883 0.674676 0.658788
0.925612 0.684766 0.667706
0.927903 0.693217 0.676625
0.929400 0.701290 0.685544
0.927821 0.713179 0.697253
0.925803 0.725613 0.709362
0.921893 0.732859 0.715795
0.917857 0.739760 0.721849
0.382430 0.413458 0.564690
0.388614 0.417625 0.564820
0.395674 0.422161 0.564934
0.415855 0.432252 0.564803
0.437045 0.443319 0.564942
0.465298 0.461221 0.566960
0.497689 0.481467 0.570540
0.548012 0.511869 0.580891
0.599245 0.539520 0.590038
0.653213 0.558920 0.595571
0.699776 0.574739 0.599416
0.730048 0.582682 0.599547
0.755876 0.591429 0.601093
0.774299 0.601520 0.604999
0.791726 0.609788 0.608905
0.807871 0.615712 0.612811
0.822258 0.620887 0.617986
0.834887 0.625314 0.624431
0.849347 0.633915 0.633842
0.865232 0.645763 0.645560
0.877658 0.656513 0.653820
0.888009 0.666604 0.660004
