app/src/main/assets/cube/Arcade03.cube
# LUT by SparkleStock. Enhanced with VOXCOLOR algorithms.
LUT_3D_SIZE 5
DOMAIN_MIN 0.000000 0.000000 0.000000
DOMAIN_MAX 0.903226 0.903226 0.903226
0.125122 0.121212 0.105572
0.214045 0.114906 0.109482
0.449910 0.060291 0.104689
0.665721 0.006433 0.097752
0.818844 0.000000 0.101662
0.152240 0.161448 0.170151
0.490707 0.081074 0.120581
0.675685 0.043263 0.125663
0.879892 0.023334 0.129150
0.976414 0.041383 0.176299
0.012109 0.300823 0.362123
0.566854 0.189343 0.221307
0.854214 0.167702 0.230462
0.984580 0.223618 0.286729
1.000000 0.340322 0.384973
0.000000 0.457730 0.554221
0.489523 0.443974 0.489491
0.870887 0.469192 0.495476
0.957540 0.566329 0.583231
0.987795 0.648754 0.658942
0.005298 0.606313 0.714029
0.565406 0.649828 0.695508
0.848127 0.712369 0.715396
0.915367 0.751901 0.754045
0.966963 0.788739 0.791852
0.126636 0.129032 0.115788
0.271878 0.111040 0.112806
0.484686 0.049785 0.110995
0.690837 0.002380 0.108851
0.867657 0.000000 0.109051
0.115536 0.200504 0.213459
0.421958 0.137417 0.153538
0.636962 0.103363 0.159625
0.858648 0.060663 0.172613
0.977732 0.072212 0.237094
0.000000 0.337238 0.407530
0.301393 0.328598 0.360814
0.769694 0.291469 0.314966
0.940231 0.345555 0.390825
0.982412 0.456086 0.493103
0.000000 0.496689 0.606919
0.175266 0.534728 0.603745
0.771529 0.570825 0.580870
0.874178 0.641834 0.649420
0.937977 0.696607 0.707589
0.025698 0.638476 0.749419
0.439582 0.677655 0.731252
0.786855 0.742819 0.736032
0.863295 0.781737 0.774116
0.948035 0.794292 0.805153
0.129032 0.137735 0.126005
0.164166 0.147952 0.156313
0.484792 0.063416 0.126689
0.696310 0.000773 0.134472
0.879932 0.000000 0.137756
0.100958 0.220551 0.246859
0.102172 0.265504 0.310104
0.552439 0.191756 0.212616
0.821002 0.136961 0.249678
0.957352 0.192220 0.313352
0.000000 0.379708 0.467202
0.023291 0.411632 0.486704
0.628567 0.399326 0.403509
0.855566 0.442802 0.472216
0.924537 0.541442 0.570757
0.000000 0.540127 0.659650
0.022893 0.573030 0.667721
0.637698 0.644110 0.646970
0.801435 0.687378 0.682636
0.893047 0.716445 0.723931
0.087450 0.656367 0.781298
0.389944 0.701379 0.769400
0.730740 0.763883 0.760969
0.829668 0.800331 0.786226
0.922999 0.815484 0.822250
0.129032 0.151231 0.144042
0.116309 0.190442 0.226878
0.298329 0.151720 0.176633
0.661668 0.023578 0.162860
0.836250 0.015136 0.190995
0.049602 0.251498 0.322005
0.006535 0.310727 0.418717
0.293433 0.303396 0.348756
0.720833 0.259675 0.309285
0.901060 0.312501 0.387192
0.000000 0.422776 0.591714
0.000000 0.454474 0.582132
0.280600 0.486650 0.566354
0.756472 0.537558 0.560007
0.874151 0.613459 0.631857
0.000000 0.560653 0.702901
0.026935 0.605983 0.715019
0.491352 0.669512 0.711195
0.750978 0.721479 0.709814
0.867135 0.748170 0.749085
0.187366 0.677577 0.801312
0.420522 0.721833 0.797016
0.690902 0.775385 0.793042
0.814431 0.821468 0.808506
0.891867 0.848667 0.843353
0.129032 0.162079 0.168133
0.098362 0.211018 0.264318
0.098696 0.244800 0.324495
0.443897 0.183895 0.231923
0.772338 0.135721 0.229730
0.015282 0.280369 0.409601
0.000000 0.356272 0.547967
0.040156 0.377071 0.498254
0.476131 0.378446 0.450531
0.837339 0.411705 0.459807
0.000000 0.454976 0.711779
0.000000 0.490854 0.679660
0.094057 0.527529 0.660502
0.584906 0.595638 0.661940
0.843785 0.665679 0.681033
0.000000 0.582568 0.783275
0.080505 0.626933 0.752317
0.431786 0.675689 0.746653
0.710643 0.740124 0.760362
0.841495 0.786507 0.783080
0.280312 0.701123 0.821289
0.482157 0.745705 0.818470
0.684672 0.787980 0.819203
0.811554 0.836341 0.836921
0.891351 0.873166 0.857412
