app/src/main/assets/cube/Capsule04.cube
# LUT by SparkleStock. Enhanced with VOXCOLOR algorithms.
LUT_3D_SIZE 32
0.093773 0.101587 0.125031
0.145717 0.104045 0.128103
0.197660 0.106503 0.131175
0.249604 0.108961 0.134247
0.301548 0.111418 0.137319
0.353492 0.113876 0.140392
0.420127 0.121454 0.145315
0.489700 0.130056 0.150609
0.559274 0.138658 0.155902
0.628847 0.147261 0.161196
0.698421 0.155863 0.166489
0.741494 0.163835 0.171184
0.771318 0.171492 0.175580
0.801142 0.179148 0.179976
0.830966 0.186805 0.184371
0.860790 0.194462 0.188767
0.878916 0.199992 0.191934
0.885344 0.203395 0.193871
0.891772 0.206798 0.195809
0.898200 0.210201 0.197747
0.904628 0.213604 0.199685
0.909244 0.216094 0.201119
0.910237 0.216755 0.201544
0.911229 0.217417 0.201969
0.912222 0.218079 0.202395
0.913214 0.218740 0.202820
0.914073 0.219284 0.203182
0.914262 0.219237 0.203230
0.914451 0.219189 0.203277
0.914640 0.219142 0.203324
0.914829 0.219095 0.203372
0.915018 0.219048 0.203419
0.095805 0.110284 0.133869
0.146404 0.112614 0.135688
0.197003 0.114943 0.137507
0.247602 0.117273 0.139326
0.298201 0.119603 0.141145
0.348800 0.121932 0.142964
0.414815 0.129146 0.147488
0.483913 0.137337 0.152552
0.553010 0.145527 0.157617
0.622108 0.153718 0.162682
0.691206 0.161908 0.167747
0.734883 0.169657 0.172378
0.765851 0.177186 0.176792
0.796818 0.184715 0.181206
0.827786 0.192244 0.185620
0.858753 0.199773 0.190034
0.877638 0.205161 0.193228
0.884441 0.208408 0.195202
0.891244 0.211656 0.197177
0.898048 0.214903 0.199151
0.904851 0.218151 0.201126
0.909708 0.220494 0.202578
0.910673 0.221027 0.202985
0.911638 0.221561 0.203392
0.912603 0.222095 0.203799
0.913568 0.222628 0.204206
0.914383 0.223030 0.204532
0.914444 0.222772 0.204451
0.914505 0.222515 0.204370
0.914565 0.222257 0.204289
0.914626 0.221999 0.204209
0.914687 0.221742 0.204128
0.097838 0.118981 0.142707
0.147092 0.121182 0.143273
0.196346 0.123384 0.143839
0.245600 0.125586 0.144404
0.294855 0.127787 0.144970
0.344109 0.129989 0.145536
0.409503 0.136838 0.149660
0.478125 0.144617 0.154496
0.546747 0.152396 0.159333
0.615369 0.160175 0.164169
0.683991 0.167953 0.169005
0.728272 0.175480 0.173572
0.760383 0.182881 0.178004
0.792494 0.190282 0.182436
0.824605 0.197682 0.186869
0.856716 0.205083 0.191301
0.876361 0.210329 0.194522
0.883539 0.213421 0.196533
0.890717 0.216513 0.198544
0.897895 0.219605 0.200555
0.905073 0.222697 0.202567
0.910171 0.224894 0.204037
0.911109 0.225300 0.204426
0.912046 0.225705 0.204814
0.912984 0.226111 0.205203
0.913922 0.226516 0.205592
0.914692 0.226776 0.205881
0.914625 0.226308 0.205672
0.914558 0.225840 0.205463
0.914491 0.225372 0.205254
0.914424 0.224904 0.205046
0.914357 0.224436 0.204837
0.099870 0.127677 0.151546
0.147780 0.129751 0.150858
0.195689 0.131824 0.150171
0.243599 0.133898 0.149483
0.291508 0.135972 0.148795
0.339418 0.138045 0.148108
0.404191 0.144530 0.151833
0.472337 0.151897 0.156440
0.540484 0.159264 0.161048
0.608630 0.166631 0.165655
0.676776 0.173999 0.170263
0.721662 0.181303 0.174766
0.754916 0.188575 0.179216
0.788170 0.195848 0.183667
0.821425 0.203121 0.188117
0.854679 0.210393 0.192568
0.875083 0.215498 0.195817
0.882636 0.218434 0.197864
0.890189 0.221371 0.199912
0.897743 0.224307 0.201960
0.905296 0.227244 0.204007
0.910635 0.229294 0.205496
0.911545 0.229572 0.205866
0.912455 0.229849 0.206237
0.913365 0.230127 0.206607
0.914276 0.230404 0.206978
0.915002 0.230522 0.207230
0.914806 0.229844 0.206894
0.914611 0.229165 0.206557
0.914416 0.228487 0.206220
0.914221 0.227808 0.205883
0.914026 0.227130 0.205546
0.101902 0.136374 0.160384
0.148467 0.138319 0.158444
0.195032 0.140265 0.156503
0.241597 0.142210 0.154562
0.288161 0.144156 0.152621
0.334726 0.146101 0.150680
0.398879 0.152222 0.154005
0.466550 0.159177 0.158384
0.534220 0.166133 0.162763
0.601891 0.173088 0.167142
0.669562 0.180044 0.171521
0.715051 0.187125 0.175960
0.749449 0.194270 0.180428
0.783846 0.201415 0.184897
0.818244 0.208559 0.189366
0.852642 0.215704 0.193835
0.873805 0.220667 0.197111
0.881734 0.223448 0.199195
0.889662 0.226229 0.201280
0.897590 0.229010 0.203364
0.905518 0.231791 0.205448
0.911098 0.233694 0.206955
0.911981 0.233844 0.207307
0.912864 0.233993 0.207659
0.913746 0.234143 0.208012
0.914629 0.234292 0.208364
0.915311 0.234268 0.208580
0.914988 0.233379 0.208115
0.914665 0.232491 0.207650
0.914341 0.231602 0.207185
0.914018 0.230713 0.206720
0.913695 0.229824 0.206255
0.103935 0.145071 0.169223
0.149155 0.146888 0.166029
0.194375 0.148705 0.162835
0.239595 0.150523 0.159640
0.284815 0.152340 0.156446
0.330035 0.154158 0.153252
0.393567 0.159914 0.156178
0.460762 0.166458 0.160328
0.527957 0.173002 0.164478
0.595152 0.179545 0.168629
0.662347 0.186089 0.172779
0.708440 0.192948 0.177153
0.743981 0.199965 0.181641
0.779523 0.206981 0.186128
0.815064 0.213998 0.190615
0.850605 0.221014 0.195102
0.872528 0.225835 0.198406
0.880831 0.228461 0.200527
0.889134 0.231086 0.202647
0.897438 0.233712 0.204768
0.905741 0.236337 0.206889
0.911562 0.238094 0.208414
0.912417 0.238116 0.208748
0.913272 0.238137 0.209082
0.914128 0.238159 0.209416
0.914983 0.238180 0.209750
0.915621 0.238014 0.209929
0.915169 0.236915 0.209336
0.914718 0.235816 0.208743
0.914267 0.234717 0.208150
0.913815 0.233617 0.207557
0.913364 0.232518 0.206964
0.109866 0.172240 0.191571
0.152705 0.173197 0.187756
0.195543 0.174155 0.183942
0.238382 0.175112 0.180127
0.281220 0.176070 0.176312
0.324059 0.177027 0.172498
0.387846 0.182062 0.173268
0.455823 0.187912 0.174956
0.523800 0.193762 0.176644
0.591777 0.199612 0.178332
0.659755 0.205463 0.180020
0.706149 0.211832 0.183306
0.741751 0.218461 0.187392
0.777353 0.225091 0.191478
0.812956 0.231720 0.195565
0.848558 0.238349 0.199651
0.870691 0.242723 0.202685
0.879354 0.244843 0.204667
0.888017 0.246962 0.206649
0.896680 0.249081 0.208631
0.905344 0.251200 0.210613
0.911428 0.252468 0.212027
0.912355 0.252034 0.212304
0.913282 0.251599 0.212582
0.914209 0.251165 0.212859
0.915136 0.250730 0.213137
0.915831 0.250149 0.213261
0.915366 0.248831 0.212616
0.914901 0.247514 0.211971
0.914436 0.246197 0.211326
0.913971 0.244879 0.210681
0.913506 0.243562 0.210036
0.116578 0.203104 0.216621
0.156828 0.203055 0.212313
0.197077 0.203006 0.208004
0.237327 0.202957 0.203695
0.277576 0.202909 0.199387
0.317826 0.202860 0.195078
0.382043 0.207102 0.193342
0.451054 0.212202 0.192121
0.520065 0.217302 0.190900
0.589076 0.222402 0.189678
0.658087 0.227502 0.188457
0.704722 0.233328 0.190451
0.740168 0.239519 0.194052
0.775615 0.245709 0.197653
0.811062 0.251899 0.201255
0.846509 0.258089 0.204856
0.868742 0.261955 0.207561
0.877762 0.263498 0.209369
0.886782 0.265041 0.211177
0.895802 0.266584 0.212985
0.904822 0.268127 0.214794
0.911175 0.268837 0.216070
0.912193 0.267881 0.216284
0.913212 0.266925 0.216497
0.914230 0.265969 0.216711
0.915249 0.265013 0.216924
0.916022 0.263961 0.216988
0.915566 0.262424 0.216307
0.915110 0.260887 0.215625
0.914654 0.259350 0.214944
0.914198 0.257813 0.214262
0.913742 0.256276 0.213581
0.123290 0.233967 0.241672
0.160950 0.232912 0.236869
0.198611 0.231857 0.232066
0.236272 0.230802 0.227264
0.273932 0.229747 0.222461
0.311593 0.228692 0.217658
0.376240 0.232141 0.213416
0.446285 0.236491 0.209285
0.516330 0.240841 0.205155
0.586374 0.245191 0.201025
0.656419 0.249541 0.196895
0.703294 0.254825 0.197595
0.738586 0.260576 0.200712
0.773877 0.266327 0.203828
0.809169 0.272078 0.206945
0.844460 0.277829 0.210061
0.866794 0.281188 0.212436
0.876171 0.282154 0.214071
0.885547 0.283121 0.215705
0.894924 0.284087 0.217340
0.904301 0.285054 0.218974
0.910922 0.285206 0.220114
0.912032 0.283729 0.220263
0.913142 0.282251 0.220412
0.914252 0.280774 0.220562
0.915362 0.279296 0.220711
0.916212 0.277773 0.220716
0.915765 0.276016 0.219998
0.915319 0.274260 0.219280
0.914872 0.272503 0.218562
0.914425 0.270747 0.217844
0.913978 0.268991 0.217126
0.130001 0.264831 0.266722
0.165073 0.262770 0.261425
0.200145 0.260709 0.256128
0.235217 0.258647 0.250832
0.270289 0.256586 0.245535
0.305360 0.254525 0.240238
0.370438 0.257181 0.233489
0.441516 0.260780 0.226450
0.512594 0.264380 0.219411
0.583672 0.267980 0.212371
0.654751 0.271580 0.205332
0.701867 0.276321 0.204740
0.737003 0.281633 0.207371
0.772139 0.286945 0.210003
0.807275 0.292257 0.212635
0.842411 0.297569 0.215266
0.864845 0.300420 0.217312
0.874579 0.300810 0.218773
0.884312 0.301200 0.220234
0.894046 0.301591 0.221694
0.903779 0.301981 0.223155
0.910669 0.301575 0.224157
0.911870 0.299576 0.224242
0.913072 0.297577 0.224328
0.914273 0.295578 0.224413
0.915474 0.293580 0.224499
0.916403 0.291584 0.224444
0.915965 0.289609 0.223689
0.915528 0.287633 0.222934
0.915090 0.285657 0.222180
0.914652 0.283681 0.221425
0.914215 0.281705 0.220670
0.136713 0.295695 0.291772
0.169196 0.292627 0.285981
0.201679 0.289560 0.280191
0.234162 0.286492 0.274400
0.266645 0.283424 0.268609
0.299128 0.280357 0.262819
0.364635 0.282220 0.253563
0.436747 0.285070 0.243615
0.508859 0.287919 0.233666
0.580971 0.290769 0.223718
0.653083 0.293619 0.213769
0.700440 0.297817 0.211884
0.735421 0.302690 0.214031
0.770401 0.307563 0.216178
0.805381 0.312436 0.218325
0.840362 0.317308 0.220471
0.862897 0.319652 0.222188
0.872987 0.319466 0.223475
0.883077 0.319280 0.224762
0.893168 0.319094 0.226049
0.903258 0.318908 0.227335
0.910416 0.317944 0.228200
0.911709 0.315423 0.228222
0.913001 0.312903 0.228243
0.914294 0.310383 0.228264
0.915587 0.307863 0.228286
0.916593 0.305396 0.228172
0.916165 0.303201 0.227380
0.915736 0.301005 0.226589
0.915308 0.298810 0.225798
0.914880 0.296614 0.225007
0.914451 0.294419 0.224215
0.146229 0.333617 0.318650
0.176056 0.330360 0.313018
0.205883 0.327104 0.307386
0.235710 0.323847 0.301753
0.265537 0.320590 0.296121
0.295364 0.317334 0.290489
0.359226 0.318723 0.280523
0.429896 0.321042 0.269691
0.500566 0.323361 0.258858
0.571235 0.325680 0.248025
0.641905 0.327999 0.237192
0.690097 0.331448 0.233441
0.727050 0.335460 0.233231
0.764003 0.339473 0.233020
0.800957 0.343486 0.232810
0.837910 0.347499 0.232600
0.861479 0.349265 0.232932
0.871664 0.348783 0.233807
0.881849 0.348301 0.234682
0.892033 0.347819 0.235557
0.902218 0.347338 0.236433
0.909486 0.346039 0.236973
0.910919 0.343107 0.236845
0.912352 0.340175 0.236717
0.913785 0.337243 0.236589
0.915218 0.334311 0.236461
0.916352 0.331465 0.236212
0.915987 0.329043 0.235360
0.915623 0.326622 0.234508
0.915259 0.324201 0.233655
0.914894 0.321780 0.232803
0.914530 0.319359 0.231951
0.157147 0.375068 0.346441
0.184284 0.372031 0.341294
0.211422 0.368994 0.336147
0.238559 0.365957 0.331000
0.265697 0.362919 0.325852
0.292834 0.359882 0.320705
0.354015 0.360958 0.310927
0.422004 0.362856 0.300222
0.489994 0.364754 0.289517
0.557983 0.366653 0.278813
0.625972 0.368551 0.268108
0.675295 0.371145 0.262204
0.715286 0.374088 0.258700
0.755276 0.377030 0.255197
0.795267 0.379973 0.251693
0.835257 0.382916 0.248189
0.860326 0.384068 0.246610
0.870475 0.383431 0.246954
0.880623 0.382794 0.247299
0.890771 0.382156 0.247643
0.900919 0.381519 0.247988
0.908217 0.379998 0.248111
0.909815 0.376709 0.247791
0.911413 0.373421 0.247471
0.913011 0.370132 0.247150
0.914608 0.366843 0.246830
0.915894 0.363661 0.246409
0.915622 0.361011 0.245484
0.915349 0.358361 0.244558
0.915076 0.355711 0.243633
0.914803 0.353061 0.242707
0.914530 0.350412 0.241782
0.168065 0.416519 0.374233
0.192513 0.413701 0.369571
0.216961 0.410884 0.364908
0.241409 0.408066 0.360246
0.265857 0.405249 0.355583
0.290305 0.402431 0.350921
0.348804 0.403193 0.341330
0.414113 0.404670 0.330753
0.479421 0.406147 0.320177
0.544730 0.407625 0.309600
0.610039 0.409102 0.299024
0.660494 0.410843 0.290967
0.703522 0.412715 0.284170
0.746549 0.414587 0.277373
0.789577 0.416460 0.270576
0.832604 0.418332 0.263779
0.859174 0.418872 0.260287
0.869285 0.418079 0.260101
0.879397 0.417286 0.259915
0.889508 0.416493 0.259729
0.899620 0.415700 0.259543
0.906949 0.413957 0.259249
0.908711 0.410311 0.258736
0.910474 0.406666 0.258224
0.912236 0.403020 0.257712
0.913999 0.399375 0.257200
0.915437 0.395857 0.256606
0.915256 0.392979 0.255608
0.915074 0.390100 0.254609
0.914893 0.387222 0.253610
0.914711 0.384343 0.252612
0.914530 0.381464 0.251613
0.178983 0.457970 0.402024
0.200741 0.455372 0.397847
0.222500 0.452774 0.393669
0.244258 0.450176 0.389492
0.266017 0.447578 0.385314
0.287775 0.444980 0.381137
0.343592 0.445427 0.371733
0.406221 0.446484 0.361285
0.468849 0.447541 0.350836
0.531478 0.448597 0.340388
0.594107 0.449654 0.329939
0.645693 0.450541 0.319730
0.691757 0.451343 0.309639
0.737822 0.452145 0.299549
0.783887 0.452946 0.289459
0.829951 0.453748 0.279369
0.858021 0.453675 0.273965
0.868096 0.452727 0.273249
0.878171 0.451779 0.272532
0.888246 0.450830 0.271815
0.898321 0.449882 0.271099
0.905680 0.447916 0.270386
0.907607 0.443913 0.269682
0.909534 0.439911 0.268978
0.911462 0.435909 0.268273
0.913389 0.431907 0.267569
0.914980 0.428054 0.266803
0.914890 0.424946 0.265731
0.914800 0.421839 0.264659
0.914710 0.418732 0.263588
0.914620 0.415624 0.262516
0.914530 0.412517 0.261444
0.189901 0.499421 0.429816
0.208970 0.497043 0.426123
0.228039 0.494664 0.422431
0.247108 0.492286 0.418738
0.266177 0.489907 0.415045
0.285246 0.487529 0.411352
0.338381 0.487662 0.402137
0.398329 0.488298 0.391816
0.458277 0.488934 0.381496
0.518226 0.489569 0.371175
0.578174 0.490205 0.360855
0.630891 0.490238 0.348492
0.679993 0.489970 0.335109
0.729095 0.489702 0.321725
0.778197 0.489433 0.308342
0.827298 0.489165 0.294958
0.856868 0.488479 0.287643
0.866907 0.487375 0.286396
0.876945 0.486271 0.285149
0.886984 0.485167 0.283901
0.897022 0.484063 0.282654
0.904411 0.481874 0.281524
0.906503 0.477515 0.280628
0.908595 0.473156 0.279731
0.910687 0.468797 0.278834
0.912779 0.464438 0.277938
0.914522 0.460250 0.277000
0.914524 0.456914 0.275855
0.914525 0.453578 0.274710
0.914527 0.450242 0.273565
0.914528 0.446906 0.272420
0.914530 0.443570 0.271275
0.200039 0.533073 0.451700
0.217059 0.531061 0.448487
0.234079 0.529048 0.445275
0.251099 0.527036 0.442062
0.268119 0.525023 0.438850
0.285138 0.523011 0.435637
0.335668 0.523274 0.426917
0.392899 0.523992 0.417095
0.450130 0.524710 0.407273
0.507362 0.525428 0.397451
0.564593 0.526146 0.387629
0.617326 0.526030 0.374591
0.667809 0.525496 0.359946
0.718292 0.524962 0.345300
0.768775 0.524429 0.330654
0.819258 0.523895 0.316008
0.850143 0.523047 0.307453
0.861430 0.521883 0.304989
0.872717 0.520720 0.302525
0.884004 0.519557 0.300061
0.895291 0.518393 0.297598
0.903532 0.516150 0.295580
0.905678 0.511745 0.294455
0.907825 0.507340 0.293329
0.909972 0.502935 0.292204
0.912119 0.498531 0.291079
0.913925 0.494287 0.289938
0.914027 0.490851 0.288720
0.914129 0.487414 0.287502
0.914231 0.483977 0.286284
0.914333 0.480541 0.285066
0.914435 0.477104 0.283847
0.209398 0.558927 0.467675
0.225009 0.557427 0.464938
0.240620 0.555927 0.462201
0.256231 0.554426 0.459465
0.271842 0.552926 0.456728
0.287453 0.551426 0.453991
0.335453 0.552262 0.446074
0.389931 0.553566 0.437121
0.444408 0.554869 0.428169
0.498886 0.556173 0.419216
0.553364 0.557476 0.410263
0.604996 0.557915 0.398027
0.655204 0.557921 0.384150
0.705413 0.557927 0.370272
0.755622 0.557933 0.356395
0.805830 0.557939 0.342517
0.837845 0.557379 0.333395
0.851666 0.556252 0.329028
0.865487 0.555126 0.324662
0.879308 0.553999 0.320295
0.893129 0.552872 0.315929
0.903041 0.550741 0.312554
0.905133 0.546602 0.311163
0.907224 0.542462 0.309773
0.909316 0.538323 0.308382
0.911408 0.534183 0.306992
0.913187 0.530166 0.305618
0.913399 0.526756 0.304327
0.913611 0.523347 0.303035
0.913822 0.519938 0.301744
0.914034 0.516529 0.300452
0.914246 0.513120 0.299161
0.218756 0.584781 0.483650
0.232958 0.583793 0.481389
0.247161 0.582805 0.479128
0.261363 0.581817 0.476867
0.275565 0.580829 0.474606
0.289767 0.579841 0.472345
0.335238 0.581250 0.465232
0.386962 0.583140 0.457148
0.438686 0.585029 0.449064
0.490411 0.586918 0.440980
0.542135 0.588807 0.432897
0.592666 0.589800 0.421463
0.642600 0.590346 0.408354
0.692534 0.590892 0.395245
0.742468 0.591438 0.382136
0.792403 0.591984 0.369026
0.825547 0.591711 0.359337
0.841902 0.590621 0.353068
0.858257 0.589531 0.346798
0.874612 0.588441 0.340529
0.890968 0.587351 0.334260
0.902550 0.585333 0.329528
0.904587 0.581459 0.327872
0.906624 0.577584 0.326216
0.908661 0.573710 0.324561
0.910698 0.569836 0.322905
0.912449 0.566044 0.321298
0.912770 0.562662 0.319933
0.913092 0.559281 0.318568
0.913414 0.555899 0.317204
0.913736 0.552517 0.315839
0.914057 0.549135 0.314475
0.228115 0.610635 0.499626
0.240908 0.610159 0.497840
0.253701 0.609683 0.496055
0.266495 0.609207 0.494270
0.279288 0.608732 0.492484
0.292082 0.608256 0.490699
0.335023 0.610239 0.484389
0.383994 0.612713 0.477174
0.432964 0.615188 0.469960
0.481935 0.617662 0.462745
0.530906 0.620137 0.455530
0.580336 0.621686 0.444898
0.629995 0.622771 0.432558
0.679655 0.623857 0.420217
0.729315 0.624942 0.407876
0.778975 0.626028 0.395536
0.813249 0.626044 0.385279
0.832138 0.624990 0.377107
0.851027 0.623937 0.368935
0.869916 0.622883 0.360763
0.888806 0.621830 0.352591
0.902059 0.619924 0.346502
0.904041 0.616315 0.344581
0.906023 0.612707 0.342660
0.908005 0.609098 0.340739
0.909987 0.605489 0.338818
0.911711 0.601922 0.336977
0.912142 0.598568 0.335540
0.912574 0.595214 0.334102
0.913005 0.591860 0.332664
0.913437 0.588505 0.331226
0.913868 0.585151 0.329788
0.237473 0.636488 0.515601
0.248858 0.636525 0.514292
0.260242 0.636561 0.512982
0.271627 0.636598 0.511672
0.283012 0.636635 0.510363
0.294396 0.636671 0.509053
0.334808 0.639227 0.503546
0.381025 0.642287 0.497201
0.427242 0.645347 0.490855
0.473459 0.648407 0.484510
0.519676 0.651467 0.478164
0.568006 0.653571 0.468334
0.617391 0.655196 0.456762
0.666776 0.656821 0.445189
0.716162 0.658447 0.433617
0.765547 0.660072 0.422045
0.800951 0.660376 0.411222
0.822374 0.659359 0.401147
0.843797 0.658342 0.391072
0.865221 0.657325 0.380997
0.886644 0.656308 0.370922
0.901568 0.654516 0.363476
0.903495 0.651172 0.361290
0.905422 0.647829 0.359103
0.907350 0.644485 0.356917
0.909277 0.641142 0.354731
0.910973 0.637801 0.352657
0.911514 0.634474 0.351146
0.912055 0.631147 0.349635
0.912597 0.627820 0.348124
0.913138 0.624493 0.346613
0.913679 0.621167 0.345102
0.245445 0.657127 0.528473
0.255726 0.657536 0.527511
0.266006 0.657944 0.526549
0.276287 0.658353 0.525587
0.286568 0.658762 0.524625
0.296849 0.659170 0.523663
0.335107 0.662129 0.518786
0.378961 0.665597 0.513126
0.422815 0.669066 0.507467
0.466669 0.672535 0.501807
0.510523 0.676003 0.496148
0.557739 0.678566 0.487053
0.606637 0.680676 0.476240
0.655534 0.682786 0.465427
0.704432 0.684897 0.454614
0.753329 0.687007 0.443801
0.789483 0.687645 0.432781
0.812895 0.686811 0.421553
0.836306 0.685977 0.410326
0.859717 0.685143 0.399098
0.883128 0.684309 0.387870
0.899485 0.682769 0.379540
0.901732 0.679819 0.377002
0.903979 0.676869 0.374465
0.906227 0.673919 0.371928
0.908474 0.670969 0.369391
0.910447 0.667986 0.367026
0.911050 0.664842 0.365518
0.911652 0.661698 0.364010
0.912254 0.658554 0.362502
0.912856 0.655411 0.360994
0.913459 0.652267 0.359486
0.250644 0.667336 0.535137
0.260431 0.667836 0.534267
0.270218 0.668336 0.533396
0.280004 0.668837 0.532526
0.289791 0.669337 0.531655
0.299578 0.669837 0.530784
0.336435 0.672856 0.526190
0.378707 0.676380 0.520850
0.420978 0.679903 0.515511
0.463249 0.683427 0.510172
0.505520 0.686950 0.504832
0.551599 0.689782 0.496338
0.599582 0.692267 0.486266
0.647565 0.694752 0.476194
0.695547 0.697237 0.466122
0.743530 0.699722 0.456050
0.779675 0.700786 0.445574
0.803983 0.700428 0.434694
0.828291 0.700069 0.423814
0.852598 0.699711 0.412934
0.876906 0.699353 0.402054
0.894217 0.698347 0.393781
0.897535 0.696046 0.390723
0.900852 0.693745 0.387664
0.904170 0.691445 0.384606
0.907488 0.689144 0.381548
0.910347 0.686785 0.378773
0.910912 0.684135 0.377421
0.911478 0.681485 0.376069
0.912044 0.678836 0.374716
0.912609 0.676186 0.373364
0.913175 0.673536 0.372012
0.255843 0.677545 0.541802
0.265136 0.678137 0.541022
0.274429 0.678729 0.540243
0.283722 0.679320 0.539464
0.293014 0.679912 0.538685
0.302307 0.680503 0.537906
0.337763 0.683584 0.533594
0.378452 0.687162 0.528574
0.419141 0.690741 0.523555
0.459829 0.694319 0.518536
0.500518 0.697897 0.513517
0.545459 0.700997 0.505623
0.592527 0.703857 0.496292
0.639595 0.706718 0.486961
0.686663 0.709578 0.477630
0.733731 0.712438 0.468299
0.769867 0.713927 0.458368
0.795071 0.714044 0.447835
0.820275 0.714162 0.437303
0.845480 0.714279 0.426771
0.870684 0.714397 0.416238
0.888949 0.713924 0.408023
0.893337 0.712273 0.404443
0.897725 0.710622 0.400863
0.902113 0.708971 0.397284
0.906501 0.707320 0.393704
0.910246 0.705584 0.390521
0.910775 0.703428 0.389324
0.911304 0.701272 0.388127
0.911833 0.699117 0.386930
0.912362 0.696961 0.385733
0.912891 0.694805 0.384537
0.261042 0.687755 0.548466
0.269841 0.688438 0.547778
0.278640 0.689121 0.547091
0.287439 0.689804 0.546403
0.296238 0.690487 0.545715
0.305036 0.691170 0.545028
0.339091 0.694311 0.540997
0.378197 0.697945 0.536298
0.417303 0.701578 0.531599
0.456409 0.705211 0.526900
0.495516 0.708844 0.522201
0.539320 0.712212 0.514908
0.585473 0.715448 0.506318
0.631626 0.718683 0.497728
0.677779 0.721918 0.489138
0.723932 0.725154 0.480548
0.760059 0.727068 0.471161
0.786160 0.727661 0.460976
0.812260 0.728254 0.450792
0.838361 0.728847 0.440607
0.864462 0.729440 0.430422
0.883682 0.729502 0.422265
0.889140 0.728500 0.418164
0.894598 0.727498 0.414062
0.900057 0.726497 0.409961
0.905515 0.725495 0.405860
0.910145 0.724383 0.402268
0.910638 0.722721 0.401227
0.911130 0.721060 0.400186
0.911623 0.719398 0.399144
0.912115 0.717736 0.398103
0.912608 0.716074 0.397062
0.266241 0.697964 0.555130
0.274546 0.698738 0.554534
0.282851 0.699513 0.553938
0.291156 0.700287 0.553342
0.299461 0.701062 0.552746
0.307765 0.701836 0.552149
0.340419 0.705039 0.548401
0.377943 0.708727 0.544022
0.415466 0.712415 0.539643
0.452990 0.716103 0.535265
0.490513 0.719792 0.530886
0.533180 0.723428 0.524193
0.578418 0.727038 0.516345
0.623656 0.730649 0.508496
0.668895 0.734259 0.500647
0.714133 0.737869 0.492798
0.750251 0.740209 0.483955
0.777248 0.741278 0.474117
0.804245 0.742347 0.464280
0.831242 0.743415 0.454443
0.858240 0.744484 0.444606
0.878414 0.745079 0.436507
0.884943 0.744727 0.431884
0.891471 0.744375 0.427261
0.898000 0.744023 0.422639
0.904528 0.743671 0.418016
0.910045 0.743182 0.414016
0.910501 0.742015 0.413130
0.910957 0.740847 0.412244
0.911412 0.739679 0.411358
0.911868 0.738511 0.410473
0.912324 0.737343 0.409587
0.270928 0.706889 0.561015
0.278765 0.707749 0.560486
0.286602 0.708609 0.559956
0.294439 0.709469 0.559427
0.302275 0.710328 0.558898
0.310112 0.711188 0.558369
0.341457 0.714443 0.554870
0.377503 0.718177 0.550776
0.413549 0.721911 0.546682
0.449595 0.725645 0.542589
0.485641 0.729379 0.538495
0.527259 0.733254 0.532352
0.571664 0.737200 0.525185
0.616068 0.741146 0.518017
0.660472 0.745092 0.510850
0.704877 0.749037 0.503682
0.740975 0.751761 0.495370
0.768768 0.753263 0.485912
0.796561 0.754765 0.476455
0.824354 0.756267 0.466997
0.852148 0.757768 0.457540
0.873192 0.758838 0.449535
0.880739 0.759044 0.444437
0.888286 0.759250 0.439338
0.895833 0.759456 0.434240
0.903380 0.759661 0.429141
0.909751 0.759711 0.424762
0.910237 0.758981 0.423980
0.910723 0.758251 0.423198
0.911210 0.757520 0.422416
0.911696 0.756790 0.421634
0.912182 0.756060 0.420852
0.273055 0.709394 0.563000
0.280554 0.710309 0.562416
0.288052 0.711223 0.561832
0.295550 0.712138 0.561248
0.303048 0.713053 0.560664
0.310547 0.713968 0.560080
0.341042 0.717232 0.556663
0.376137 0.720966 0.552679
0.411231 0.724700 0.548695
0.446326 0.728434 0.544711
0.481421 0.732167 0.540727
0.522435 0.736134 0.534877
0.566410 0.740217 0.528094
0.610384 0.744300 0.521310
0.654358 0.748383 0.514527
0.698333 0.752466 0.507744
0.734363 0.755369 0.499893
0.762449 0.757090 0.490976
0.790534 0.758811 0.482058
0.818620 0.760533 0.473140
0.846706 0.762254 0.464222
0.868199 0.763504 0.456495
