app/src/main/assets/cube/Capsule04.cube
# LUT by SparkleStock. Enhanced with VOXCOLOR algorithms.
LUT_3D_SIZE 5
DOMAIN_MIN 0.000000 0.000000 0.000000
DOMAIN_MAX 0.903226 0.903226 0.903226
0.093773 0.101587 0.125031
0.489700 0.130056 0.150609
0.830966 0.186805 0.184371
0.909244 0.216094 0.201119
0.914451 0.219189 0.203277
0.116578 0.203104 0.216621
0.451054 0.212202 0.192121
0.811062 0.251899 0.201255
0.911175 0.268837 0.216070
0.915110 0.260887 0.215625
0.178983 0.457970 0.402024
0.406221 0.446484 0.361285
0.783887 0.452946 0.289459
0.905680 0.447916 0.270386
0.914800 0.421839 0.264659
0.245445 0.657127 0.528473
0.378961 0.665597 0.513126
0.704432 0.684897 0.454614
0.899485 0.682769 0.379540
0.911652 0.661698 0.364010
0.275182 0.711899 0.564985
0.374771 0.723754 0.554582
0.648244 0.751675 0.518205
0.863205 0.768169 0.463455
0.909662 0.769228 0.434057
0.107810 0.132223 0.351940
0.455613 0.143167 0.302844
0.818304 0.205007 0.282126
0.911638 0.233117 0.270633
0.915305 0.233076 0.261259
0.120578 0.224140 0.358027
0.368873 0.200039 0.303711
0.759548 0.242639 0.280583
0.909680 0.270005 0.267808
0.917689 0.261631 0.252773
0.184735 0.464231 0.459370
0.350694 0.415662 0.406818
0.733443 0.417533 0.343893
0.897941 0.427202 0.304623
0.914516 0.398927 0.281530
0.249920 0.663929 0.552973
0.345851 0.655652 0.528526
0.670787 0.665274 0.472789
0.887182 0.659695 0.394850
0.905954 0.639727 0.365239
0.275008 0.714719 0.573900
0.340321 0.719991 0.563009
0.610791 0.747730 0.530152
0.852125 0.764507 0.473237
0.904997 0.762489 0.436098
0.138469 0.194439 0.638410
0.366101 0.181247 0.562798
0.768233 0.226107 0.449581
0.903156 0.257760 0.390868
0.910870 0.253998 0.364604
0.143720 0.262058 0.631446
0.309286 0.228457 0.555778
0.700285 0.251053 0.468416
0.895677 0.286817 0.408609
0.912652 0.277444 0.368824
0.201084 0.485296 0.649696
0.316468 0.424026 0.588021
0.659458 0.395180 0.520957
0.873777 0.414865 0.459031
0.909036 0.385418 0.395238
0.265712 0.688793 0.669001
0.326220 0.665298 0.637471
0.611835 0.647415 0.588661
0.859082 0.633566 0.522326
0.898442 0.610649 0.444685
0.283751 0.730245 0.649387
0.318533 0.728083 0.628997
0.535831 0.743168 0.593736
0.822003 0.762779 0.548781
0.897215 0.755269 0.489107
0.151924 0.243476 0.768167
0.297393 0.214263 0.699973
0.661768 0.243296 0.595264
0.874894 0.287110 0.497697
0.896455 0.283658 0.460515
0.164484 0.292216 0.778033
0.254023 0.269493 0.742732
0.583730 0.274975 0.653581
0.862653 0.321865 0.547617
0.896438 0.312182 0.493329
0.217385 0.486981 0.812361
0.277466 0.443782 0.781998
0.550874 0.413423 0.722296
0.837200 0.434300 0.634331
0.891948 0.411074 0.562268
0.284598 0.709960 0.826560
0.332382 0.685838 0.805091
0.559059 0.651098 0.762014
0.826240 0.638592 0.713873
0.886714 0.625060 0.645676
0.306105 0.758661 0.800941
0.329742 0.755090 0.783719
0.486213 0.759013 0.752214
0.791083 0.783665 0.716495
0.888627 0.776837 0.666827
0.152381 0.255851 0.785127
0.272769 0.224791 0.724272
0.607333 0.242181 0.624282
0.849786 0.291454 0.538002
0.881441 0.303547 0.509972
0.166227 0.299052 0.797680
0.229460 0.283678 0.778681
0.513877 0.278563 0.694362
0.818862 0.326926 0.602531
0.878609 0.342637 0.559597
0.221418 0.477840 0.837104
0.254892 0.444321 0.825244
0.450777 0.417226 0.786016
0.777246 0.440544 0.705902
0.873191 0.449892 0.650330
0.291102 0.698346 0.869719
0.320929 0.680993 0.863467
0.472192 0.648595 0.842176
0.753190 0.653461 0.808579
0.874569 0.660390 0.756240
0.317599 0.768627 0.872678
0.343033 0.768314 0.868830
0.470528 0.772803 0.856399
0.726858 0.789993 0.834185
0.881724 0.815095 0.809695
