app/src/main/assets/cube/Capsule05.cube
# LUT by SparkleStock. Enhanced with VOXCOLOR algorithms.
LUT_3D_SIZE 32
0.054701 0.082051 0.089866
0.114774 0.085738 0.089109
0.174847 0.089425 0.088353
0.234921 0.093111 0.087597
0.294994 0.096798 0.086841
0.355067 0.100484 0.086085
0.417307 0.104526 0.085919
0.479980 0.108638 0.085872
0.542652 0.112750 0.085825
0.605325 0.116862 0.085777
0.667998 0.120974 0.085730
0.704927 0.124172 0.086376
0.728985 0.126913 0.087369
0.753043 0.129655 0.088361
0.777100 0.132396 0.089354
0.801158 0.135137 0.090346
0.815715 0.137099 0.091244
0.820773 0.138280 0.092048
0.825830 0.139462 0.092851
0.830887 0.140644 0.093655
0.835945 0.141825 0.094458
0.839600 0.142692 0.095151
0.840451 0.142928 0.095624
0.841301 0.143164 0.096097
0.842152 0.143401 0.096569
0.843003 0.143637 0.097042
0.843743 0.143858 0.097444
0.843932 0.143999 0.097491
0.844121 0.144141 0.097538
0.844311 0.144283 0.097586
0.844500 0.144425 0.097633
0.844689 0.144567 0.097680
0.057159 0.091221 0.103667
0.115622 0.094505 0.101063
0.174085 0.097789 0.098459
0.232548 0.101073 0.095855
0.291011 0.104357 0.093250
0.349475 0.107641 0.090646
0.411568 0.111478 0.089845
0.474387 0.115425 0.089404
0.537206 0.119373 0.088964
0.600025 0.123320 0.088523
0.662845 0.127267 0.088083
0.700359 0.130234 0.088506
0.725222 0.132710 0.089361
0.750085 0.135186 0.090217
0.774947 0.137662 0.091072
0.799810 0.140138 0.091927
0.814921 0.141843 0.092752
0.820280 0.142778 0.093546
0.825640 0.143713 0.094341
0.830999 0.144647 0.095135
0.836358 0.145582 0.095930
0.840220 0.146223 0.096604
0.841089 0.146276 0.097041
0.841958 0.146330 0.097477
0.842828 0.146383 0.097913
0.843697 0.146436 0.098349
0.844429 0.146482 0.098697
0.844481 0.146486 0.098607
0.844533 0.146491 0.098517
0.844585 0.146495 0.098427
0.844637 0.146500 0.098337
0.844689 0.146504 0.098247
0.059616 0.100390 0.117468
0.116470 0.103272 0.113016
0.173323 0.106153 0.108564
0.230176 0.109035 0.104112
0.287029 0.111916 0.099660
0.343882 0.114798 0.095208
0.405829 0.118431 0.093771
0.468795 0.122213 0.092937
0.531760 0.125996 0.092103
0.594726 0.129779 0.091269
0.657691 0.133561 0.090435
0.695792 0.136296 0.090636
0.721459 0.138507 0.091354
0.747127 0.140718 0.092072
0.772795 0.142928 0.092790
0.798462 0.145139 0.093508
0.814127 0.146588 0.094260
0.819788 0.147276 0.095045
0.825449 0.147963 0.095830
0.831110 0.148651 0.096616
0.836771 0.149339 0.097401
0.840841 0.149754 0.098057
0.841728 0.149624 0.098457
0.842616 0.149495 0.098856
0.843503 0.149365 0.099256
0.844390 0.149236 0.099655
0.845116 0.149105 0.099950
0.845030 0.148973 0.099723
0.844945 0.148840 0.099496
0.844859 0.148708 0.099269
0.844774 0.148575 0.099042
0.844689 0.148442 0.098814
0.062074 0.109559 0.131269
0.117317 0.112038 0.124970
0.172560 0.114517 0.118670
0.227804 0.116997 0.112370
0.283047 0.119476 0.106070
0.338290 0.121955 0.099770
0.400090 0.125383 0.097697
0.463202 0.129001 0.096470
0.526314 0.132619 0.095242
0.589426 0.136237 0.094015
0.652538 0.139855 0.092788
0.691224 0.142358 0.092766
0.717696 0.144304 0.093347
0.744169 0.146249 0.093928
0.770642 0.148194 0.094509
0.797115 0.150140 0.095089
0.813332 0.151333 0.095768
0.819295 0.151774 0.096544
0.825258 0.152214 0.097320
0.831221 0.152655 0.098096
0.837184 0.153096 0.098872
0.841461 0.153285 0.099510
0.842367 0.152973 0.099873
0.843273 0.152660 0.100236
0.844178 0.152347 0.100599
0.845084 0.152035 0.100962
0.845802 0.151729 0.101204
0.845579 0.151460 0.100839
0.845356 0.151190 0.100475
0.845134 0.150920 0.100110
0.844911 0.150650 0.099746
0.844689 0.150380 0.099382
0.064532 0.118729 0.145071
0.118165 0.120805 0.136923
0.171798 0.122882 0.128775
0.225431 0.124958 0.120627
0.279064 0.127035 0.112479
0.332697 0.129112 0.104332
0.394351 0.132335 0.101623
0.457610 0.135789 0.100002
0.520868 0.139242 0.098382
0.584126 0.142696 0.096761
0.647385 0.146149 0.095140
0.686656 0.148420 0.094896
0.713934 0.150100 0.095339
0.741211 0.151780 0.095783
0.768489 0.153461 0.096227
0.795767 0.155141 0.096671
0.812538 0.156078 0.097276
0.818803 0.156271 0.098043
0.825068 0.156465 0.098810
0.831333 0.156659 0.099577
0.837597 0.156852 0.100343
0.842082 0.156816 0.100963
0.843006 0.156321 0.101290
0.843930 0.155825 0.101616
0.844854 0.155330 0.101942
0.845778 0.154834 0.102269
0.846488 0.154353 0.102457
0.846128 0.153946 0.101955
0.845768 0.153539 0.101454
0.845408 0.153132 0.100952
0.845048 0.152725 0.100450
0.844689 0.152318 0.099949
0.066990 0.127898 0.158872
0.119013 0.129572 0.148876
0.171036 0.131246 0.138881
0.223059 0.132920 0.128885
0.275082 0.134594 0.118889
0.327105 0.136268 0.108893
0.388613 0.139288 0.105549
0.452017 0.142577 0.103535
0.515422 0.145865 0.101521
0.578826 0.149154 0.099507
0.642231 0.152443 0.097493
0.682088 0.154482 0.097026
0.710171 0.155897 0.097332
0.738253 0.157312 0.097639
0.766336 0.158727 0.097945
0.794419 0.160142 0.098252
0.811744 0.160823 0.098784
0.818310 0.160769 0.099541
0.824877 0.160716 0.100299
0.831444 0.160662 0.101057
0.838011 0.160609 0.101815
0.842703 0.160347 0.102416
0.843645 0.159669 0.102706
0.844587 0.158990 0.102996
0.845529 0.158312 0.103286
0.846471 0.157633 0.103575
0.847174 0.156977 0.103710
0.846677 0.156433 0.103071
0.846180 0.155889 0.102432
0.845683 0.155344 0.101794
0.845186 0.154800 0.101155
0.844689 0.154256 0.100516
0.073504 0.155540 0.190358
0.122629 0.156506 0.179833
0.171754 0.157473 0.169309
0.220878 0.158440 0.158784
0.270003 0.159406 0.148259
0.319128 0.160373 0.137734
0.381310 0.162007 0.130639
0.446103 0.163774 0.124229
0.510897 0.165541 0.117819
0.575691 0.167308 0.111410
0.640484 0.169075 0.105000
0.680898 0.170502 0.102793
0.709123 0.171758 0.102688
0.737348 0.173014 0.102583
0.765572 0.174271 0.102478
0.793797 0.175527 0.102373
0.811317 0.175894 0.102607
0.818132 0.175373 0.103180
0.824947 0.174851 0.103753
0.831762 0.174330 0.104326
0.838578 0.173809 0.104900
0.843456 0.173087 0.105353
0.844463 0.171967 0.105568
0.845469 0.170846 0.105783
0.846475 0.169726 0.105998
0.847482 0.168605 0.106213
0.848235 0.167537 0.106275
0.847722 0.166734 0.105567
0.847210 0.165930 0.104860
0.846698 0.165127 0.104152
0.846186 0.164323 0.103445
0.845673 0.163520 0.102737
0.080830 0.186876 0.225381
0.126799 0.187074 0.214591
0.172767 0.187273 0.203801
0.218736 0.187471 0.193011
0.264705 0.187669 0.182221
0.310673 0.187867 0.171431
0.373694 0.187879 0.159961
0.440125 0.187853 0.148355
0.506556 0.187827 0.136750
0.572987 0.187801 0.125144
0.639418 0.187775 0.113538
0.680385 0.188512 0.109288
0.708618 0.189632 0.108717
0.736852 0.190751 0.108145
0.765086 0.191870 0.107573
0.793319 0.192989 0.107001
0.810963 0.193032 0.106892
0.818016 0.191998 0.107246
0.825069 0.190964 0.107600
0.832122 0.189930 0.107954
0.839175 0.188897 0.108307
0.844237 0.187669 0.108587
0.845317 0.186055 0.108720
0.846396 0.184440 0.108853
0.847475 0.182825 0.108985
0.848555 0.181211 0.109118
0.849371 0.179684 0.109101
0.848867 0.178597 0.108339
0.848364 0.177510 0.107577
0.847861 0.176423 0.106814
0.847358 0.175336 0.106052
0.846855 0.174249 0.105290
0.088156 0.218213 0.260404
0.130969 0.217642 0.249349
0.173781 0.217072 0.238293
0.216594 0.216502 0.227238
0.259406 0.215932 0.216183
0.302219 0.215361 0.205127
0.366078 0.213751 0.189283
0.434147 0.211932 0.172482
0.502215 0.210113 0.155680
0.570284 0.208294 0.138878
0.638353 0.206475 0.122076
0.679871 0.206523 0.115783
0.708114 0.207505 0.114745
0.736356 0.208487 0.113707
0.764599 0.209469 0.112669
0.792842 0.210451 0.111630
0.810609 0.210169 0.111178
0.817900 0.208623 0.111312
0.825191 0.207077 0.111447
0.832482 0.205531 0.111581
0.839773 0.203985 0.111715
0.845018 0.202251 0.111821
0.846170 0.200143 0.111871
0.847323 0.198034 0.111922
0.848476 0.195925 0.111972
0.849628 0.193817 0.112022
0.850507 0.191831 0.111928
0.850013 0.190460 0.111111
0.849519 0.189090 0.110294
0.849025 0.187719 0.109476
0.848531 0.186348 0.108659
0.848037 0.184978 0.107842
0.095482 0.249549 0.295427
0.135139 0.248210 0.284107
0.174795 0.246872 0.272786
0.214452 0.245533 0.261465
0.254108 0.244194 0.250145
0.293765 0.242856 0.238824
0.358463 0.239623 0.218606
0.428169 0.236011 0.196608
0.497875 0.232399 0.174610
0.567581 0.228787 0.152612
0.637287 0.225175 0.130614
0.679357 0.224534 0.122279
0.707609 0.225379 0.120774
0.735861 0.226223 0.119269
0.764113 0.227068 0.117764
0.792365 0.227913 0.116259
0.810255 0.227306 0.115464
0.817784 0.225248 0.115379
0.825313 0.223189 0.115293
0.832842 0.221131 0.115208
0.840371 0.219073 0.115123
0.845798 0.216833 0.115055
0.847024 0.214230 0.115023
0.848250 0.211628 0.114991
0.849476 0.209025 0.114959
0.850702 0.206423 0.114927
0.851642 0.203978 0.114755
0.851158 0.202324 0.113883
0.850673 0.200670 0.113011
0.850188 0.199015 0.112138
0.849703 0.197361 0.111266
0.849218 0.195707 0.110394
0.102808 0.280885 0.330450
0.139309 0.278778 0.318864
0.175809 0.276671 0.307278
0.212310 0.274564 0.295692
0.248810 0.272457 0.284107
0.285311 0.270350 0.272521
0.350847 0.265495 0.247928
0.422190 0.260090 0.220734
0.493534 0.254685 0.193540
0.564878 0.249280 0.166346
0.636221 0.243875 0.139152
0.678843 0.242545 0.128774
0.707104 0.243252 0.126802
0.735365 0.243960 0.124831
0.763627 0.244667 0.122859
0.791888 0.245375 0.120888
0.809902 0.244443 0.119750
0.817668 0.241873 0.119445
0.825435 0.239302 0.119140
0.833202 0.236731 0.118835
0.840968 0.234161 0.118530
0.846579 0.231415 0.118289
0.847878 0.228318 0.118174
0.849177 0.225222 0.118060
0.850476 0.222125 0.117946
0.851775 0.219029 0.117831
0.852778 0.216125 0.117582
0.852303 0.214187 0.116655
0.851827 0.212249 0.115728
0.851351 0.210312 0.114801
0.850875 0.208374 0.113874
0.850400 0.206436 0.112947
0.112088 0.317421 0.362574
0.145554 0.315247 0.351626
0.179021 0.313073 0.340677
0.212487 0.310898 0.329729
0.245953 0.308724 0.318780
0.279420 0.306550 0.307831
0.343940 0.301496 0.282486
0.414670 0.295865 0.254261
0.485401 0.290234 0.226037
0.556132 0.284604 0.197812
0.626862 0.278973 0.169588
0.670664 0.276371 0.156034
0.701002 0.275282 0.149814
0.731340 0.274193 0.143595
0.761678 0.273105 0.137376
0.792015 0.272016 0.131157
0.811089 0.270086 0.127697
0.818898 0.267314 0.126996
0.826708 0.264542 0.126294
0.834517 0.261770 0.125593
0.842326 0.258999 0.124892
0.847990 0.255982 0.124320
0.849362 0.252477 0.124007
0.850734 0.248972 0.123695
0.852106 0.245467 0.123382
0.853479 0.241962 0.123070
0.854549 0.238669 0.122646
0.854113 0.236442 0.121671
0.853677 0.234214 0.120695
0.853241 0.231987 0.119719
0.852805 0.229759 0.118743
0.852369 0.227532 0.117768
0.122344 0.356556 0.393249
0.152838 0.354665 0.383389
0.183331 0.352775 0.373529
0.213824 0.350884 0.363669
0.244317 0.348994 0.353809
0.274811 0.347103 0.343949
0.337387 0.342561 0.319662
0.406379 0.337488 0.292489
0.475372 0.332416 0.265317
0.544364 0.327343 0.238144
0.613357 0.322271 0.210972
0.658653 0.318104 0.193676
0.692101 0.314390 0.181319
0.725549 0.310676 0.168961
0.758997 0.306961 0.156604
0.792445 0.303247 0.144246
0.813047 0.299982 0.137475
0.820801 0.297164 0.136288
0.828555 0.294346 0.135102
0.836310 0.291529 0.133916
0.844064 0.288711 0.132730
0.849716 0.285543 0.131749
0.851161 0.281671 0.131181
0.852606 0.277800 0.130612
0.854052 0.273929 0.130043
0.855497 0.270058 0.129475
0.856638 0.266412 0.128830
0.856257 0.263892 0.127809
0.855876 0.261372 0.126787
0.855495 0.258851 0.125766
0.855114 0.256331 0.124744
0.854732 0.253811 0.123723
0.132601 0.395691 0.423924
0.160121 0.394084 0.415152
0.187641 0.392477 0.406381
0.215161 0.390870 0.397610
0.242681 0.389263 0.388838
0.270202 0.387656 0.380067
0.330834 0.383626 0.356838
0.398088 0.379112 0.330717
0.465342 0.374597 0.304597
0.532597 0.370083 0.278476
0.599851 0.365568 0.252356
0.646642 0.359837 0.231318
0.683200 0.353497 0.212823
0.719758 0.347158 0.194327
0.756317 0.340818 0.175831
0.792875 0.334479 0.157336
0.815004 0.329877 0.147252
0.822704 0.327014 0.145581
0.830403 0.324151 0.143910
0.838103 0.321287 0.142239
0.845802 0.318424 0.140568
0.851442 0.315103 0.139179
0.852960 0.310866 0.138354
0.854479 0.306629 0.137529
0.855997 0.302392 0.136705
0.857516 0.298155 0.135880
0.858727 0.294155 0.135015
0.858401 0.291342 0.133947
0.858074 0.288529 0.132880
0.857748 0.285716 0.131813
0.857422 0.282903 0.130745
0.857096 0.280090 0.129678
0.142857 0.434826 0.454598
0.167404 0.433503 0.446916
0.191951 0.432179 0.439233
0.216498 0.430856 0.431550
0.241045 0.429532 0.423867
0.265593 0.428209 0.416185
0.324281 0.424691 0.394014
0.389797 0.420735 0.368945
0.455313 0.416778 0.343877
0.520830 0.412822 0.318808
0.586346 0.408865 0.293740
0.634630 0.401570 0.268961
0.674299 0.392605 0.244327
0.713968 0.383640 0.219693
0.753637 0.374675 0.195059
0.793305 0.365710 0.170425
0.816962 0.359773 0.157030
0.824607 0.356864 0.154874
0.832251 0.353955 0.152718
0.839896 0.351046 0.150562
0.847541 0.348137 0.148406
0.853168 0.344663 0.146609
0.854759 0.340060 0.145528
0.856351 0.335457 0.144447
0.857943 0.330854 0.143366
0.859535 0.326251 0.142285
0.860816 0.321898 0.141199
0.860544 0.318792 0.140086
0.860273 0.315686 0.138973
0.860002 0.312580 0.137860
0.859730 0.309475 0.136747
0.859459 0.306369 0.135634
0.153114 0.473961 0.485273
0.174688 0.472921 0.478679
0.196262 0.471882 0.472085
0.217836 0.470842 0.465491
0.239409 0.469802 0.458896
0.260983 0.468762 0.452302
0.317728 0.465757 0.431190
0.381506 0.462358 0.407173
0.445284 0.458960 0.383157
0.509062 0.455561 0.359140
0.572840 0.452163 0.335124
0.622619 0.443303 0.306603
0.665398 0.431712 0.275831
0.708177 0.420122 0.245059
0.750956 0.408532 0.214286
0.793735 0.396941 0.183514
0.818920 0.389668 0.166808
0.826509 0.386714 0.164167
0.834099 0.383759 0.161526
0.841689 0.380804 0.158885
0.849279 0.377849 0.156245
0.854893 0.374223 0.154039
0.856558 0.369254 0.152701
0.858223 0.364285 0.151364
0.859888 0.359316 0.150027
0.861553 0.354348 0.148690
0.862905 0.349640 0.147383
0.862688 0.346242 0.146224
0.862472 0.342843 0.145065
0.862255 0.339445 0.143906
0.862039 0.336046 0.142748
0.861822 0.332648 0.141589
0.162330 0.504636 0.506991
0.181658 0.503916 0.501271
0.200986 0.503197 0.495550
0.220315 0.502477 0.489830
0.239643 0.501757 0.484109
0.258971 0.501038 0.478389
0.313519 0.498749 0.458588
0.375111 0.496146 0.435971
0.436702 0.493544 0.413354
0.498294 0.490941 0.390737
0.559886 0.488338 0.368120
0.610278 0.479402 0.338511
0.655069 0.467300 0.305406
0.699861 0.455197 0.272301
0.744652 0.443094 0.239196
0.789444 0.430991 0.206091
0.816188 0.423142 0.187066
0.824885 0.419547 0.182120
0.833581 0.415952 0.177174
0.842278 0.412357 0.172228
0.850975 0.408762 0.167282
0.857331 0.404701 0.163452
0.859005 0.399709 0.161854
0.860679 0.394718 0.160256
0.862353 0.389726 0.158658
0.864027 0.384734 0.157060
0.865395 0.379983 0.155523
0.865233 0.376439 0.154286
0.865072 0.372894 0.153050
0.864910 0.369349 0.151813
0.864749 0.365804 0.150577
0.864587 0.362259 0.149340
0.170507 0.526850 0.519753
0.188317 0.526487 0.514691
0.206126 0.526124 0.509629
0.223936 0.525762 0.504567
0.241745 0.525399 0.499505
0.259555 0.525036 0.494443
0.311654 0.523668 0.476208
0.370611 0.522099 0.455339
0.429569 0.520530 0.434469
0.488526 0.518961 0.413599
0.547483 0.517392 0.392730
0.597606 0.509868 0.364685
0.643313 0.499366 0.333053
0.689019 0.488864 0.301421
0.734725 0.478363 0.269789
0.780432 0.467861 0.238156
0.808768 0.460195 0.217805
0.819733 0.455365 0.208733
0.830698 0.450534 0.199661
0.841664 0.445704 0.190589
0.852629 0.440874 0.181518
0.860479 0.436097 0.174849
0.862098 0.431425 0.172986
0.863717 0.426754 0.171122
0.865337 0.422082 0.169259
0.866956 0.417411 0.167396
0.868287 0.412927 0.165619
0.868181 0.409382 0.164273
0.868074 0.405837 0.162927
0.867967 0.402292 0.161580
0.867860 0.398747 0.160234
0.867754 0.395203 0.158888
0.178684 0.549065 0.532514
0.194975 0.549058 0.528111
0.211266 0.549052 0.523708
0.227557 0.549046 0.519304
0.243848 0.549040 0.514901
0.260139 0.549034 0.510498
0.309789 0.548587 0.493829
0.366112 0.548052 0.474706
0.422435 0.547517 0.455584
0.478757 0.546982 0.436462
0.535080 0.546446 0.417339
0.584935 0.540334 0.390859
0.631556 0.531433 0.360700
0.678177 0.522532 0.330540
0.724798 0.513631 0.300381
0.771419 0.504730 0.270222
0.801347 0.497247 0.248543
0.814581 0.491182 0.235346
0.827815 0.485117 0.222148
0.841049 0.479052 0.208951
0.854283 0.472987 0.195753
0.863628 0.467493 0.186246
0.865192 0.463141 0.184117
0.866756 0.458790 0.181989
0.868320 0.454439 0.179860
0.869885 0.450087 0.177732
0.871180 0.445870 0.175715
0.871128 0.442325 0.174259
0.871076 0.438781 0.172803
0.871024 0.435236 0.171347
0.870972 0.431691 0.169891
0.870920 0.428146 0.168435
0.186860 0.571279 0.545276
0.201633 0.571630 0.541531
0.216405 0.571980 0.537786
0.231178 0.572331 0.534042
0.245950 0.572682 0.530297
0.260723 0.573032 0.526553
0.307925 0.573506 0.511449
0.361613 0.574005 0.494074
0.415301 0.574503 0.476699
0.468989 0.575002 0.459324
0.522677 0.575500 0.441949
0.572263 0.570800 0.417033
0.619799 0.563500 0.388346
0.667335 0.556200 0.359660
0.714871 0.548900 0.330973
0.762407 0.541600 0.302287
0.793927 0.534299 0.279282
0.809429 0.526999 0.261959
0.824932 0.519699 0.244636
0.840435 0.512399 0.227312
0.855938 0.505099 0.209989
0.866776 0.498889 0.197642
0.868285 0.494857 0.195249
0.869795 0.490826 0.192855
0.871304 0.486795 0.190461
0.872814 0.482764 0.188067
0.874072 0.478814 0.185812
0.874075 0.475269 0.184246
0.874078 0.471724 0.182680
0.874081 0.468179 0.181114
0.874084 0.464634 0.179548
0.874087 0.461089 0.177983
0.195037 0.593493 0.558037
0.208291 0.594201 0.554951
0.221545 0.594908 0.551865
0.234799 0.595616 0.548779
0.248053 0.596323 0.545693
0.261307 0.597030 0.542607
0.306060 0.598425 0.529070
0.357114 0.599958 0.513442
0.408167 0.601490 0.497814
0.459220 0.603022 0.482186
0.510274 0.604554 0.466559
0.559592 0.601266 0.443207
0.608043 0.595567 0.415993
0.656493 0.589867 0.388779
0.704944 0.584168 0.361566
0.753395 0.578469 0.334352
0.786506 0.571352 0.310021
0.804277 0.562817 0.288572
0.822049 0.554282 0.267123
0.839820 0.545747 0.245674
0.857592 0.537212 0.224225
0.869924 0.530285 0.209039
0.871379 0.526573 0.206380
0.872833 0.522862 0.203721
0.874288 0.519151 0.201062
0.875742 0.515440 0.198403
0.876964 0.511757 0.195908
0.877022 0.508212 0.194232
0.877080 0.504667 0.192557
0.877138 0.501123 0.190881
0.877196 0.497578 0.189206
0.877254 0.494033 0.187530
0.202032 0.610871 0.567616
0.214103 0.611831 0.565009
0.226174 0.612792 0.562402
0.238245 0.613752 0.559794
0.250315 0.614713 0.557187
0.262386 0.615674 0.554580
0.305021 0.617736 0.542306
0.353769 0.620018 0.528100
0.402517 0.622300 0.513893
0.451266 0.624583 0.499686
0.500014 0.626865 0.485479
0.548840 0.624744 0.463557
0.597705 0.620420 0.437776
0.646571 0.616096 0.411996
0.695436 0.611772 0.386215
0.744302 0.607448 0.360434
0.778591 0.600742 0.335496
0.798305 0.591655 0.311401
0.818019 0.582568 0.287305
0.837733 0.573481 0.263209
0.857447 0.564394 0.239113
0.871168 0.557177 0.221926
0.872903 0.553697 0.218557
0.874638 0.550218 0.215187
0.876373 0.546739 0.211818
0.878108 0.543259 0.208448
0.879571 0.539800 0.205356
0.879672 0.536441 0.203650
0.879772 0.533083 0.201944
0.879873 0.529724 0.200238
0.879973 0.526365 0.198531
0.880074 0.523006 0.196825
0.206664 0.618575 0.570830
0.218223 0.619581 0.568342
0.229781 0.620588 0.565853
0.241340 0.621594 0.563365
0.252898 0.622600 0.560877
0.264457 0.623606 0.558389
0.305634 0.625829 0.546775
0.352736 0.628294 0.533337
0.399837 0.630759 0.519899
0.446939 0.633225 0.506460
0.494040 0.635690 0.493022
0.541927 0.634245 0.472258
0.590207 0.630845 0.447831
0.638487 0.627445 0.423405
0.686767 0.624045 0.398978
0.735047 0.620645 0.374551
0.769689 0.614809 0.350446
0.790693 0.606536 0.326661
0.811696 0.598263 0.302876
0.832700 0.589990 0.279091
0.853704 0.581718 0.255307
0.868602 0.575061 0.237793
0.871288 0.571636 0.232823
0.873975 0.568212 0.227853
0.876661 0.564788 0.222882
0.879348 0.561363 0.217912
0.881606 0.558043 0.213507
0.881725 0.555242 0.211929
0.881844 0.552441 0.210351
0.881963 0.549640 0.208773
0.882082 0.546840 0.207195
0.882201 0.544039 0.205617
0.211296 0.626279 0.574044
0.222342 0.627331 0.571675
0.233389 0.628383 0.569305
0.244435 0.629435 0.566936
0.255481 0.630487 0.564567
0.266527 0.631539 0.562197
0.306247 0.633921 0.551244
0.351702 0.636570 0.538574
0.397157 0.639218 0.525904
0.442612 0.641866 0.513234
0.488066 0.644515 0.500564
0.535014 0.643747 0.480959
0.582709 0.641271 0.457886
0.630403 0.638795 0.434814
0.678098 0.636319 0.411741
0.725792 0.633843 0.388668
0.760786 0.628875 0.365395
0.783080 0.621417 0.341921
0.805374 0.613958 0.318448
0.827667 0.606499 0.294974
0.849961 0.599041 0.271500
0.866036 0.592945 0.253661
0.869674 0.589576 0.247089
0.873312 0.586206 0.240518
0.876950 0.582837 0.233947
0.880587 0.579467 0.227375
0.883642 0.576285 0.221658
0.883779 0.574043 0.220208
0.883916 0.571800 0.218758
0.884053 0.569557 0.217308
0.884191 0.567314 0.215858
0.884328 0.565071 0.214408
0.215928 0.633983 0.577258
0.226462 0.635081 0.575007
0.236996 0.636179 0.572757
0.247530 0.637276 0.570507
0.258064 0.638374 0.568256
0.268598 0.639472 0.566006
0.306860 0.642014 0.555713
0.350668 0.644846 0.543811
0.394476 0.647677 0.531910
0.438285 0.650508 0.520008
0.482093 0.653340 0.508107
0.528101 0.653249 0.489660
0.575210 0.651697 0.467942
0.622320 0.650144 0.446223
0.669429 0.648592 0.424504
0.716538 0.647040 0.402785
0.751884 0.642942 0.380344
0.775467 0.636297 0.357182
0.799051 0.629653 0.334019
0.822634 0.623008 0.310856
0.846218 0.616364 0.287694
0.863470 0.610829 0.269528
0.868059 0.607515 0.261356
0.872648 0.604200 0.253183
0.877238 0.600886 0.245011
0.881827 0.597571 0.236839
0.885677 0.594528 0.229808
0.885833 0.592843 0.228487
0.885988 0.591158 0.227165
0.886144 0.589474 0.225843
0.886299 0.587789 0.224521
0.886455 0.586104 0.223199
0.220560 0.641687 0.580472
0.230582 0.642831 0.578340
0.240603 0.643974 0.576209
0.250625 0.645118 0.574077
0.260647 0.646261 0.571946
0.270668 0.647405 0.569814
0.307473 0.650107 0.560182
0.349635 0.653122 0.549049
0.391796 0.656136 0.537915
0.433958 0.659150 0.526782
0.476119 0.662164 0.515649
0.521189 0.662750 0.498362
0.567712 0.662122 0.477997
0.614236 0.661494 0.457632
0.660759 0.660866 0.437267
0.707283 0.660238 0.416902
0.742981 0.657008 0.395294
0.767855 0.651178 0.372442
0.792728 0.645348 0.349590
0.817601 0.639517 0.326739
0.842475 0.633687 0.303887
0.860904 0.628714 0.285395
0.866445 0.625454 0.275622
0.871985 0.622194 0.265849
0.877526 0.618935 0.256076
0.883066 0.615675 0.246303
0.887713 0.612771 0.237959
0.887886 0.611644 0.236765
0.888060 0.610517 0.235572
0.888234 0.609390 0.234378
0.888408 0.608264 0.233184
0.888582 0.607137 0.231990
0.224751 0.648391 0.583260
0.234268 0.649574 0.581237
0.243785 0.650757 0.579214
0.253302 0.651940 0.577191
0.262819 0.653124 0.575168
0.272336 0.654307 0.573144
0.307776 0.657137 0.564100
0.348400 0.660296 0.553652
0.389025 0.663455 0.543203
0.429650 0.666614 0.532754
0.470274 0.669773 0.522306
0.514477 0.670954 0.506066
0.560468 0.671146 0.486930
0.606460 0.671338 0.467794
0.652451 0.671530 0.448658
0.698443 0.671722 0.429522
0.734448 0.669290 0.408716
0.760466 0.664233 0.386241
0.786484 0.659175 0.363766
0.812503 0.654118 0.341291
0.838521 0.649061 0.318816
0.858020 0.644618 0.300098
0.864478 0.641406 0.288897
0.870936 0.638193 0.277695
0.877395 0.634981 0.266493
0.883853 0.631768 0.255292
0.889277 0.628978 0.245762
0.889525 0.628298 0.244594
0.889774 0.627618 0.243426
0.890022 0.626938 0.242259
0.890271 0.626258 0.241091
0.890520 0.625578 0.239923
0.226736 0.650093 0.583922
0.235786 0.651285 0.581954
0.244837 0.652477 0.579985
0.253887 0.653669 0.578017
0.262938 0.654862 0.576049
0.271988 0.656054 0.574080
0.306527 0.658847 0.565266
0.346164 0.661961 0.555083
0.385800 0.665074 0.544900
0.425437 0.668187 0.534717
0.465074 0.671301 0.524533
0.508770 0.672668 0.508784
0.554496 0.673162 0.490252
0.600222 0.673656 0.471720
0.645949 0.674150 0.453187
0.691675 0.674644 0.434655
0.727757 0.672646 0.414504
0.754197 0.668156 0.392733
0.780636 0.663665 0.370962
0.807075 0.659175 0.349192
0.833514 0.654685 0.327421
0.853543 0.650624 0.308984
