app/src/main/assets/cube/Capsule04.cube
# LUT by SparkleStock. Enhanced with VOXCOLOR algorithms.
LUT_3D_SIZE 8
DOMAIN_MIN 0.000000 0.000000 0.000000
DOMAIN_MAX 0.903226 0.903226 0.903226
0.093773 0.101587 0.125031
0.301548 0.111418 0.137319
0.559274 0.138658 0.155902
0.771318 0.171492 0.175580
0.878916 0.199992 0.191934
0.904628 0.213604 0.199685
0.912222 0.218079 0.202395
0.914451 0.219189 0.203277
0.101902 0.136374 0.160384
0.288161 0.144156 0.152621
0.534220 0.166133 0.162763
0.749449 0.194270 0.180428
0.873805 0.220667 0.197111
0.905518 0.231791 0.205448
0.913746 0.234143 0.208012
0.914665 0.232491 0.207650
0.123290 0.233967 0.241672
0.273932 0.229747 0.222461
0.516330 0.240841 0.205155
0.738586 0.260576 0.200712
0.866794 0.281188 0.212436
0.904301 0.285054 0.218974
0.914252 0.280774 0.220562
0.915319 0.274260 0.219280
0.157147 0.375068 0.346441
0.265697 0.362919 0.325852
0.489994 0.364754 0.289517
0.715286 0.374088 0.258700
0.860326 0.384068 0.246610
0.900919 0.381519 0.247988
0.913011 0.370132 0.247150
0.915349 0.358361 0.244558
0.200039 0.533073 0.451700
0.268119 0.525023 0.438850
0.450130 0.524710 0.407273
0.667809 0.525496 0.359946
0.850143 0.523047 0.307453
0.895291 0.518393 0.297598
0.909972 0.502935 0.292204
0.914129 0.487414 0.287502
0.237473 0.636488 0.515601
0.283012 0.636635 0.510363
0.427242 0.645347 0.490855
0.617391 0.655196 0.456762
0.800951 0.660376 0.411222
0.886644 0.656308 0.370922
0.907350 0.644485 0.356917
0.912055 0.631147 0.349635
0.261042 0.687755 0.548466
0.296238 0.690487 0.545715
0.417303 0.701578 0.531599
0.585473 0.715448 0.506318
0.760059 0.727068 0.471161
0.864462 0.729440 0.430422
0.900057 0.726497 0.409961
0.911130 0.721060 0.400186
0.275182 0.711899 0.564985
0.303821 0.715778 0.562430
0.408914 0.727488 0.550707
0.561156 0.743234 0.531003
0.727750 0.758976 0.504417
0.841265 0.766739 0.470905
0.890402 0.769390 0.446678
0.909662 0.769228 0.434057
0.097932 0.113498 0.233550
0.297364 0.115132 0.216126
0.546021 0.144336 0.217852
0.757968 0.181243 0.225906
0.877276 0.210567 0.231044
0.906500 0.222569 0.231038
0.913826 0.225922 0.229650
0.915268 0.226166 0.227958
0.102402 0.149895 0.238167
0.254936 0.143927 0.219274
0.486529 0.162717 0.215332
0.709875 0.192775 0.219333
0.860828 0.222049 0.225282
0.904893 0.235302 0.227335
0.916120 0.238005 0.226140
0.916993 0.236139 0.223195
0.123552 0.241115 0.287991
0.235794 0.219680 0.263634
0.463573 0.226683 0.243563
0.694752 0.249148 0.233483
0.849474 0.274290 0.234774
0.901910 0.281377 0.235056
0.916080 0.277743 0.232784
0.917509 0.271435 0.228973
0.158641 0.376397 0.369110
0.234532 0.345656 0.342562
0.448173 0.343164 0.310075
0.680018 0.355347 0.281548
0.842510 0.369981 0.263848
0.896994 0.371974 0.259160
0.913273 0.360950 0.254265
0.916240 0.349104 0.249177
0.202576 0.534092 0.463098
0.246226 0.508865 0.442023
0.423605 0.502983 0.409921
0.645483 0.504175 0.366234
0.833704 0.504366 0.317581
0.889854 0.506294 0.303174
0.908063 0.490950 0.293823
0.913082 0.474460 0.286648
0.239132 0.638092 0.522901
0.267380 0.630014 0.512724
0.408257 0.635448 0.492044
0.601567 0.644069 0.458523
0.789512 0.648277 0.413578
0.880540 0.644899 0.372126
0.903737 0.634095 0.355486
0.909313 0.620582 0.346147
0.260847 0.688114 0.551668
0.281642 0.687608 0.547265
0.398457 0.697490 0.533135
0.569040 0.711079 0.508418
0.749390 0.722448 0.473481
0.858656 0.723867 0.431496
0.896333 0.720567 0.408982
0.908259 0.714257 0.397478
0.274524 0.712710 0.565912
0.290249 0.714044 0.563824
0.390077 0.725203 0.553138
0.543823 0.741641 0.534290
0.716871 0.758426 0.507755
0.835999 0.765547 0.472694
0.887528 0.767320 0.446930
0.907428 0.766174 0.432958
0.112537 0.140541 0.399252
0.265680 0.135534 0.367874
0.517995 0.154671 0.330094
0.746847 0.188006 0.305426
0.872460 0.223738 0.301694
0.905508 0.234545 0.290198
0.913568 0.236240 0.281152
0.915196 0.235735 0.275496
0.111067 0.170876 0.388890
0.226202 0.156889 0.350147
0.452180 0.165486 0.317510
0.685310 0.192789 0.298883
0.848767 0.229994 0.295400
0.901721 0.244346 0.285269
0.915317 0.246089 0.275325
0.916739 0.243569 0.267165
0.129404 0.255689 0.402962
0.215484 0.227112 0.364759
0.423228 0.222860 0.333279
0.652452 0.240523 0.312875
0.826506 0.271838 0.303524
0.894825 0.282115 0.290108
0.914544 0.278775 0.276805
0.917528 0.271824 0.265785
0.163721 0.385801 0.445207
0.222621 0.348479 0.411942
0.408053 0.333046 0.380057
0.629330 0.337381 0.351565
0.812308 0.355193 0.327662
0.886478 0.361932 0.308214
0.910637 0.351850 0.290668
0.916272 0.339279 0.277058
0.207857 0.540813 0.509833
0.239204 0.508254 0.483757
0.391671 0.488167 0.452791
0.601736 0.479347 0.414333
0.804206 0.479977 0.370471
0.877785 0.486674 0.342489
0.903881 0.471810 0.320832
0.912270 0.454512 0.305280
0.244052 0.646020 0.553615
0.262963 0.632901 0.539315
0.380582 0.628172 0.517740
0.563154 0.628960 0.486484
0.765533 0.631560 0.445215
0.868324 0.626657 0.399367
0.897699 0.616304 0.373241
0.906071 0.602428 0.356191
0.263395 0.693347 0.570939
0.276846 0.689936 0.563359
0.369274 0.693642 0.548697
0.528585 0.703043 0.525782
0.725220 0.714662 0.493780
0.846379 0.714719 0.450475
0.889981 0.710316 0.421458
0.904317 0.702957 0.403813
0.275377 0.715685 0.578109
0.285179 0.715157 0.573506
0.359733 0.722102 0.562820
0.501268 0.736267 0.545638
0.691041 0.754683 0.521288
0.823362 0.762263 0.485863
0.881564 0.763056 0.456209
0.904027 0.760965 0.437985
0.130340 0.175627 0.568175
0.232547 0.164131 0.532260
0.467500 0.172209 0.470996
0.707076 0.198797 0.415103
0.860378 0.236363 0.382838
0.900123 0.248340 0.361060
0.910447 0.248675 0.343907
0.913090 0.247421 0.334120
0.126016 0.197900 0.556338
0.206089 0.180738 0.508836
0.411021 0.180052 0.458092
0.646115 0.201264 0.414623
0.833448 0.240418 0.384384
0.894723 0.257075 0.362384
0.911350 0.257858 0.343006
0.914213 0.254727 0.329456
0.140747 0.274857 0.553123
0.203826 0.246006 0.507646
0.382705 0.232340 0.465797
0.604099 0.241924 0.429244
0.801759 0.273011 0.398614
0.883915 0.288029 0.372185
0.909469 0.285403 0.347152
0.915080 0.278230 0.328731
0.172642 0.399116 0.566169
0.218192 0.362198 0.528625
0.371180 0.335783 0.492828
0.576763 0.329451 0.458270
0.778484 0.344820 0.424685
0.871291 0.357682 0.392810
0.904280 0.349364 0.361342
0.913861 0.336293 0.337682
0.216487 0.551657 0.595965
0.242015 0.517477 0.567221
0.366465 0.484515 0.535119
0.557145 0.463577 0.499796
0.766822 0.460787 0.462039
0.859595 0.472104 0.425258
0.896178 0.458404 0.388553
0.909448 0.439432 0.360108
0.252658 0.659305 0.618451
0.266713 0.643685 0.601606
0.358509 0.628280 0.578000
0.524145 0.618747 0.548588
0.734768 0.616697 0.513530
0.850379 0.610331 0.468599
0.888848 0.600200 0.428864
0.902083 0.584781 0.397942
0.269995 0.704466 0.619927
0.279615 0.698935 0.609389
0.346934 0.695690 0.592694
0.488571 0.698698 0.570425
0.691525 0.707806 0.542323
0.828204 0.707567 0.503183
0.881052 0.701507 0.465173
0.899734 0.692063 0.436207
0.279653 0.723534 0.615866
0.286689 0.721687 0.607847
0.336593 0.723934 0.594917
0.458531 0.733835 0.577248
0.650868 0.750993 0.554582
0.803059 0.760468 0.523548
0.872240 0.760102 0.489400
0.899696 0.756436 0.463624
0.145276 0.211856 0.698436
0.213928 0.193645 0.662393
0.397779 0.195915 0.611848
0.627946 0.215865 0.542256
0.834677 0.246714 0.461576
0.888308 0.263229 0.431436
0.903539 0.263237 0.407568
0.908063 0.261199 0.394230
0.143806 0.227925 0.694430
0.195650 0.211655 0.659293
0.354725 0.206839 0.613521
0.577826 0.220163 0.550849
0.806759 0.250954 0.476650
0.881780 0.272460 0.444447
0.903856 0.273158 0.417280
0.909318 0.269646 0.399642
0.156013 0.295195 0.701546
0.194713 0.270407 0.664584
0.335544 0.254422 0.620674
0.544566 0.256285 0.566109
0.771589 0.278090 0.504304
0.868442 0.300095 0.468208
0.900480 0.298839 0.434542
0.909666 0.292327 0.411350
0.184717 0.411874 0.709755
0.213588 0.378902 0.673986
0.337096 0.350208 0.632694
0.527452 0.336548 0.587434
0.741925 0.343390 0.541041
0.852011 0.363673 0.503329
0.893647 0.357752 0.461760
0.907798 0.344912 0.430285
0.227720 0.562756 0.713109
0.248944 0.530352 0.684885
0.351637 0.492689 0.649436
0.520896 0.464146 0.614008
0.723538 0.454944 0.582252
0.836254 0.470538 0.546833
0.884411 0.458876 0.497894
0.903136 0.437610 0.455830
0.264330 0.675434 0.716677
0.275512 0.659409 0.699827
0.350222 0.637564 0.673655
0.498053 0.618909 0.644799
0.700834 0.608655 0.616535
0.828045 0.602445 0.581083
0.877323 0.593405 0.529333
0.896955 0.575473 0.482204
0.281039 0.720870 0.702955
0.287906 0.714299 0.691239
0.341651 0.706461 0.671699
0.464745 0.702734 0.648300
0.652942 0.705348 0.623530
0.806405 0.706927 0.595399
0.870263 0.699663 0.550477
0.894790 0.687161 0.507725
0.288626 0.737477 0.686333
0.293374 0.734809 0.675925
0.331824 0.734120 0.659175
0.432352 0.738991 0.638343
0.601353 0.750677 0.615588
0.777304 0.763568 0.593764
0.860194 0.762320 0.557694
0.894708 0.756352 0.522745
0.150947 0.238324 0.757233
0.200133 0.216600 0.723240
0.354045 0.211003 0.674433
0.563075 0.225318 0.614012
0.772037 0.256990 0.547896
0.862993 0.280092 0.495948
0.890664 0.281929 0.465152
0.898927 0.279342 0.448338
0.152844 0.249856 0.757471
0.186581 0.238572 0.738662
0.313065 0.228528 0.696705
0.509825 0.235216 0.639835
0.736089 0.264464 0.576276
0.854438 0.292670 0.518638
0.889863 0.294084 0.481767
0.899687 0.289645 0.460256
0.167484 0.308648 0.769973
0.190561 0.291647 0.752539
0.293745 0.276073 0.719650
0.472287 0.274406 0.672223
0.698101 0.292935 0.613332
0.839554 0.322315 0.554275
0.885190 0.321490 0.511553
0.898913 0.314252 0.484981
0.195676 0.414984 0.787634
0.212153 0.390771 0.769043
0.297572 0.366738 0.742346
0.457129 0.353634 0.704605
0.671729 0.358477 0.655222
0.823280 0.382603 0.599866
0.877850 0.377767 0.552732
0.896629 0.365453 0.519724
0.235404 0.558218 0.803832
0.248342 0.535168 0.788593
0.321699 0.502150 0.763305
0.464882 0.476164 0.731986
0.663546 0.468526 0.696494
0.810078 0.480174 0.650357
0.869529 0.471426 0.602071
0.893064 0.452652 0.561712
0.274503 0.684509 0.808718
0.284877 0.670699 0.797487
0.348486 0.649329 0.777241
0.477087 0.627642 0.750917
0.660606 0.611557 0.721084
0.806448 0.607293 0.689871
0.864867 0.605360 0.650049
0.889149 0.588923 0.607921
0.294553 0.736239 0.797899
0.300255 0.729843 0.789157
0.347007 0.721470 0.773689
0.452964 0.714471 0.753055
0.618987 0.711793 0.729155
0.790911 0.717905 0.705868
0.861112 0.715017 0.675068
0.889266 0.702066 0.634223
0.303038 0.755059 0.780771
0.306105 0.752467 0.771945
0.338606 0.751135 0.758150
0.422066 0.753156 0.739798
0.566681 0.760562 0.718073
0.758770 0.777887 0.697355
0.849535 0.779065 0.673800
0.889541 0.772026 0.638952
0.152208 0.250140 0.778376
0.191806 0.228197 0.747042
0.327388 0.218544 0.699460
0.522110 0.228149 0.641849
0.730439 0.257427 0.581057
0.841763 0.285286 0.530718
0.877323 0.294442 0.503707
0.887911 0.295285 0.488947
0.155153 0.260794 0.780420
0.180379 0.253634 0.770237
0.286867 0.240828 0.730698
0.465981 0.242088 0.675359
0.687950 0.267251 0.615502
0.826065 0.299099 0.560380
0.872880 0.309187 0.527005
0.887738 0.309171 0.507284
0.171119 0.314163 0.794312
0.187016 0.302540 0.786951
0.264982 0.288074 0.761678
0.420382 0.283421 0.718138
0.640377 0.296870 0.659715
0.804148 0.329407 0.603827
0.865060 0.340625 0.566008
0.886034 0.339189 0.541630
0.200222 0.413419 0.815165
0.210923 0.394533 0.805791
0.268694 0.374507 0.790096
0.399534 0.361869 0.759581
0.602204 0.363746 0.711238
0.781562 0.390220 0.657844
0.855519 0.399749 0.616737
0.883317 0.394197 0.587008
0.240212 0.550957 0.837498
0.248814 0.532943 0.829927
0.298510 0.503824 0.814195
0.409723 0.480751 0.792272
0.584137 0.475241 0.763769
0.763930 0.488588 0.716936
0.846517 0.493389 0.674468
0.880461 0.481329 0.639074
0.280213 0.679150 0.849799
0.288253 0.668715 0.844159
0.335408 0.650010 0.832114
0.437097 0.629462 0.814200
0.594186 0.613848 0.791126
0.762448 0.617459 0.763599
0.844542 0.624658 0.729665
0.880358 0.613526 0.694440
0.301105 0.738882 0.848287
0.307844 0.734734 0.844476
0.348567 0.728393 0.835820
0.438583 0.721921 0.822209
0.582354 0.718091 0.804176
0.756478 0.725190 0.784202
0.845787 0.730335 0.760273
0.885311 0.724516 0.729565
0.312097 0.764703 0.840817
0.316552 0.763186 0.836543
0.347916 0.763113 0.828740
0.422071 0.765352 0.817013
0.548068 0.771171 0.801602
0.726204 0.785222 0.784624
0.835692 0.795673 0.767997
0.888151 0.796624 0.743385
0.152381 0.255851 0.785127
0.188333 0.234585 0.756891
0.313105 0.222831 0.710973
0.498182 0.229133 0.654641
0.704530 0.255701 0.595531
0.827205 0.285572 0.547681
0.869001 0.299577 0.522660
0.881441 0.303547 0.509972
0.155516 0.265804 0.788250
0.177378 0.260747 0.781912
0.272590 0.246648 0.744404
0.440405 0.244547 0.690140
0.657746 0.266124 0.631479
0.806266 0.299362 0.580475
0.861510 0.315556 0.549318
0.880314 0.319903 0.532193
0.171571 0.315604 0.802328
0.185164 0.307027 0.799259
0.249284 0.293296 0.778185
0.390487 0.286630 0.736872
0.604835 0.296179 0.678528
0.779672 0.329211 0.626644
0.851380 0.348040 0.591934
0.877858 0.352435 0.571009
0.201030 0.410413 0.824050
0.210097 0.394565 0.818887
0.252490 0.376727 0.808901
0.365051 0.364047 0.782607
0.556990 0.363515 0.735642
0.751422 0.389463 0.684348
0.839674 0.407491 0.646789
0.874781 0.409204 0.621589
0.241822 0.544429 0.849075
0.248553 0.528464 0.845110
0.284120 0.501407 0.834651
0.372773 0.479947 0.818973
0.525901 0.475209 0.796239
0.726447 0.487895 0.749064
0.828270 0.500784 0.709484
0.872192 0.496946 0.679721
0.282725 0.672580 0.866524
0.289249 0.663749 0.864206
0.324330 0.646495 0.857088
0.404415 0.626575 0.844856
0.537724 0.611277 0.827364
0.717812 0.620460 0.803787
0.823768 0.633292 0.771520
0.873733 0.629253 0.742401
0.305135 0.738011 0.872308
0.312029 0.735056 0.871268
0.346699 0.729729 0.866814
0.421825 0.723342 0.858244
0.544272 0.718592 0.845339
0.713581 0.726113 0.828627
0.824342 0.738405 0.808251
0.879776 0.742157 0.786763
0.317599 0.768627 0.872678
0.323102 0.767927 0.871341
0.353029 0.768637 0.867672
0.419160 0.770941 0.861076
0.529189 0.775576 0.851183
0.690263 0.786585 0.837510
0.814607 0.804149 0.824768
0.881724 0.815095 0.809695
