app/src/main/assets/cube/Capsule05.cube
# LUT by SparkleStock. Enhanced with VOXCOLOR algorithms.
LUT_3D_SIZE 5
DOMAIN_MIN 0.000000 0.000000 0.000000
DOMAIN_MAX 0.903226 0.903226 0.903226
0.054701 0.082051 0.089866
0.479980 0.108638 0.085872
0.777100 0.132396 0.089354
0.839600 0.142692 0.095151
0.844121 0.144141 0.097538
0.080830 0.186876 0.225381
0.440125 0.187853 0.148355
0.765086 0.191870 0.107573
0.844237 0.187669 0.108587
0.848364 0.177510 0.107577
0.142857 0.434826 0.454598
0.389797 0.420735 0.368945
0.753637 0.374675 0.195059
0.853168 0.344663 0.146609
0.860273 0.315686 0.138973
0.202032 0.610871 0.567616
0.353769 0.620018 0.528100
0.695436 0.611772 0.386215
0.871168 0.557177 0.221926
0.879772 0.533083 0.201944
0.228721 0.651794 0.584584
0.343927 0.663625 0.556515
0.639446 0.676769 0.457717
0.849067 0.656630 0.317870
0.889618 0.639242 0.253614
0.094072 0.197771 0.410642
0.453031 0.185052 0.320296
0.755753 0.162864 0.223249
0.824024 0.150682 0.177656
0.830024 0.147882 0.162926
0.096911 0.269153 0.424267
0.368490 0.233196 0.334268
0.723220 0.213005 0.231446
0.832504 0.190517 0.171482
0.840783 0.176623 0.149513
0.155177 0.469564 0.521149
0.338780 0.424482 0.450118
0.712161 0.376356 0.294346
0.841808 0.335248 0.198202
0.854711 0.298662 0.166044
0.211382 0.625714 0.587783
0.319467 0.619062 0.554160
0.663689 0.608833 0.428386
0.859269 0.548366 0.255323
0.872863 0.517371 0.214548
0.231872 0.658482 0.592660
0.304434 0.662204 0.573040
0.600228 0.680073 0.485903
0.838740 0.659997 0.340821
0.884972 0.635219 0.260863
0.163205 0.382717 0.678522
0.391381 0.346607 0.613190
0.716631 0.281973 0.469293
0.800086 0.204386 0.342991
0.806647 0.180189 0.298461
0.158186 0.426598 0.675040
0.334528 0.378374 0.610759
0.676509 0.328584 0.500003
0.804509 0.249747 0.367007
0.815484 0.208947 0.300896
0.207888 0.570739 0.687357
0.329723 0.518581 0.640843
0.654959 0.466730 0.555851
0.812050 0.390991 0.424016
0.834942 0.317377 0.322855
0.256946 0.687182 0.681352
0.323402 0.671146 0.660184
0.612659 0.656049 0.600615
0.832888 0.592780 0.462947
0.860038 0.524663 0.344085
0.262499 0.698846 0.655441
0.297735 0.693738 0.638170
0.525777 0.703936 0.585605
0.811431 0.694976 0.468456
0.876718 0.652284 0.350145
0.186459 0.479231 0.764110
0.336886 0.435773 0.718562
0.648531 0.394426 0.630628
0.791035 0.332223 0.517546
0.796250 0.273249 0.445154
0.200421 0.516305 0.770730
0.296253 0.492941 0.747826
0.595096 0.455601 0.681967
0.793973 0.393368 0.571722
0.804408 0.317901 0.483303
0.260765 0.641050 0.796246
0.323584 0.612137 0.779133
0.577828 0.579366 0.737541
0.796621 0.526511 0.654584
0.820072 0.431976 0.551995
0.320212 0.755979 0.801202
0.373314 0.743686 0.790626
0.590619 0.726159 0.768257
0.810257 0.697819 0.720659
0.848582 0.626068 0.624878
0.328308 0.769127 0.773994
0.354596 0.766096 0.764769
0.509841 0.770846 0.744847
0.787238 0.784684 0.701997
0.870488 0.746195 0.609821
0.184450 0.495608 0.776179
0.310175 0.452130 0.732835
0.605359 0.412310 0.654907
0.781528 0.370778 0.564597
0.794964 0.345488 0.525994
0.202173 0.528610 0.781434
0.270373 0.516653 0.768701
0.537643 0.480837 0.712876
0.772850 0.442323 0.630065
0.806697 0.408683 0.579065
0.268021 0.643649 0.809298
0.305177 0.627267 0.804603
0.494602 0.608355 0.780961
0.762027 0.578411 0.718398
0.823935 0.537405 0.662513
0.336407 0.760905 0.829116
0.373830 0.755895 0.829660
0.526744 0.747573 0.823751
0.761085 0.743500 0.795691
0.849901 0.715246 0.747256
0.357971 0.793314 0.829424
0.387635 0.796176 0.829738
0.521877 0.807813 0.830648
0.745628 0.823045 0.815379
0.870433 0.828446 0.782586
