app/src/main/assets/cube/Capsule05.cube
# LUT by SparkleStock. Enhanced with VOXCOLOR algorithms.
LUT_3D_SIZE 8
DOMAIN_MIN 0.000000 0.000000 0.000000
DOMAIN_MAX 0.903226 0.903226 0.903226
0.054701 0.082051 0.089866
0.294994 0.096798 0.086841
0.542652 0.112750 0.085825
0.728985 0.126913 0.087369
0.815715 0.137099 0.091244
0.835945 0.141825 0.094458
0.842152 0.143401 0.096569
0.844121 0.144141 0.097538
0.064532 0.118729 0.145071
0.279064 0.127035 0.112479
0.520868 0.139242 0.098382
0.713934 0.150100 0.095339
0.812538 0.156078 0.097276
0.837597 0.156852 0.100343
0.844854 0.155330 0.101942
0.845768 0.153539 0.101454
0.088156 0.218213 0.260404
0.259406 0.215932 0.216183
0.502215 0.210113 0.155680
0.708114 0.207505 0.114745
0.810609 0.210169 0.111178
0.839773 0.203985 0.111715
0.848476 0.195925 0.111972
0.849519 0.189090 0.110294
0.122344 0.356556 0.393249
0.244317 0.348994 0.353809
0.475372 0.332416 0.265317
0.692101 0.314390 0.181319
0.813047 0.299982 0.137475
0.844064 0.288711 0.132730
0.854052 0.273929 0.130043
0.855876 0.261372 0.126787
0.162330 0.504636 0.506991
0.239643 0.501757 0.484109
0.436702 0.493544 0.413354
0.655069 0.467300 0.305406
0.816188 0.423142 0.187066
0.850975 0.408762 0.167282
0.862353 0.389726 0.158658
0.865072 0.372894 0.153050
0.195037 0.593493 0.558037
0.248053 0.596323 0.545693
0.408167 0.601490 0.497814
0.608043 0.595567 0.415993
0.786506 0.571352 0.310021
0.857592 0.537212 0.224225
0.874288 0.519151 0.201062
0.877080 0.504667 0.192557
0.215928 0.633983 0.577258
0.258064 0.638374 0.568256
0.394476 0.647677 0.531910
0.575210 0.651697 0.467942
0.751884 0.642942 0.380344
0.846218 0.616364 0.287694
0.877238 0.600886 0.245011
0.885988 0.591158 0.227165
0.228721 0.651794 0.584584
0.263057 0.656600 0.576930
0.382576 0.666693 0.546597
0.548524 0.675177 0.493574
0.721067 0.676001 0.420291
0.828507 0.660310 0.336026
0.872943 0.647047 0.280862
0.889618 0.639242 0.253614
0.068880 0.130450 0.265690
0.294244 0.133341 0.225195
0.531742 0.136297 0.185775
0.715489 0.139495 0.155301
0.807068 0.142728 0.138027
0.829200 0.144088 0.129824
0.836090 0.144370 0.126008
0.838261 0.144629 0.123573
0.070076 0.160980 0.277424
0.246448 0.156864 0.234218
0.480948 0.157515 0.190754
0.684601 0.158919 0.155505
0.799782 0.158581 0.133700
0.832524 0.157916 0.124444
0.841899 0.156554 0.120058
0.843151 0.154476 0.116648
0.090767 0.245815 0.339229
0.220052 0.228619 0.296401
0.457313 0.217125 0.228749
0.676417 0.210995 0.170877
0.796261 0.208413 0.143203
0.834953 0.201110 0.130911
0.846554 0.192994 0.124859
0.848159 0.185900 0.120470
0.124918 0.370583 0.428371
0.211291 0.345952 0.391731
0.438366 0.327259 0.310420
0.665640 0.310559 0.225106
0.798808 0.293916 0.165929
0.839061 0.282084 0.148677
0.851977 0.266488 0.139711
0.854457 0.253404 0.133885
0.165489 0.512040 0.520103
0.216196 0.492532 0.495913
0.410987 0.480465 0.428382
0.636237 0.456047 0.325074
0.803296 0.414109 0.208918
0.845944 0.400597 0.178553
0.859620 0.380360 0.164479
0.862875 0.362497 0.156526
0.197757 0.598116 0.564123
0.230286 0.591795 0.551718
0.388231 0.594969 0.505581
0.593460 0.589380 0.425604
0.777085 0.564651 0.319975
0.852179 0.530133 0.230284
0.870625 0.511609 0.203540
0.873943 0.496183 0.193106
0.216989 0.636069 0.579734
0.240413 0.635483 0.572862
0.372954 0.644358 0.538588
0.558133 0.649580 0.476116
0.741986 0.641438 0.388768
0.841009 0.613708 0.293053
0.873908 0.597007 0.246739
0.883132 0.585715 0.226553
0.228910 0.653453 0.585480
0.246054 0.654278 0.580985
0.360469 0.664803 0.553721
0.529823 0.675595 0.502858
0.710390 0.678354 0.430010
0.823553 0.661383 0.342647
0.870296 0.646239 0.283520
0.887491 0.636739 0.253551
0.105558 0.226791 0.461735
0.276387 0.219796 0.420265
0.509137 0.202325 0.350589
0.701591 0.182177 0.281894
0.792316 0.165356 0.233659
0.815728 0.155781 0.205227
0.823630 0.151263 0.189262
0.826464 0.149579 0.180250
0.096044 0.246197 0.455710
0.228525 0.226170 0.406760
0.454298 0.212270 0.345873
0.662987 0.198273 0.284508
0.782150 0.181337 0.232109
0.818500 0.169496 0.198989
0.829813 0.162755 0.180070
0.832207 0.158487 0.168708
0.109451 0.312949 0.474204
0.208025 0.282693 0.429551
0.425789 0.263873 0.368616
0.641472 0.248100 0.304165
0.773412 0.229780 0.246425
0.820531 0.209910 0.204418
0.836218 0.195897 0.179467
0.839757 0.186189 0.164437
0.139617 0.416849 0.513759
0.205991 0.383789 0.479511
0.405742 0.361112 0.420819
0.622668 0.338687 0.346963
0.772740 0.311024 0.269770
0.824707 0.286125 0.219178
0.843344 0.263894 0.188232
0.848390 0.247409 0.169796
0.178727 0.539047 0.565053
0.214958 0.513114 0.542709
0.382667 0.494567 0.494971
0.595820 0.466743 0.412488
0.778415 0.424207 0.302986
0.832296 0.399391 0.242382
0.851771 0.371744 0.206792
0.857735 0.349447 0.186152
0.208689 0.616329 0.591058
0.230373 0.605604 0.578775
0.361746 0.602395 0.544851
0.555021 0.593742 0.479065
0.755209 0.570507 0.380827
0.839770 0.528895 0.280345
0.863147 0.504339 0.236751
0.868753 0.484597 0.214456
0.224137 0.647373 0.596388
0.238545 0.643975 0.589260
0.342353 0.647678 0.563684
0.514848 0.651222 0.511188
0.718637 0.646729 0.429158
0.829090 0.616188 0.329757
0.867264 0.594721 0.271546
0.878535 0.579533 0.241707
0.233458 0.660961 0.596434
0.242842 0.659442 0.591442
0.327281 0.665425 0.570796
0.482977 0.675273 0.527453
0.684511 0.682715 0.458481
0.811480 0.665738 0.369376
0.864536 0.647275 0.302094
0.883937 0.634789 0.264861
0.146378 0.334602 0.625302
0.259722 0.318898 0.594833
0.473373 0.291871 0.523373
0.671467 0.256340 0.437047
0.778079 0.216806 0.357250
0.801541 0.186898 0.303435
0.809766 0.172090 0.272608
0.812925 0.165652 0.256030
0.132925 0.345774 0.617472
0.224719 0.317549 0.574292
0.426339 0.295860 0.516202
0.632013 0.269903 0.444788
0.766127 0.234665 0.366014
0.802771 0.202680 0.306104
0.814700 0.184452 0.269893
0.817839 0.174924 0.249072
0.141641 0.398660 0.616527
0.212615 0.363705 0.576346
0.398333 0.339836 0.528327
0.602545 0.315130 0.466273
0.752389 0.282019 0.389938
0.803447 0.243004 0.319554
0.821133 0.216654 0.273212
0.826034 0.200764 0.245491
0.168204 0.483665 0.624696
0.217698 0.448976 0.594344
0.381473 0.422141 0.555268
0.580004 0.394257 0.497784
0.746189 0.359341 0.419578
0.806491 0.317182 0.341508
0.829265 0.281775 0.285340
0.836560 0.257375 0.250235
0.205557 0.584657 0.640084
0.233582 0.557702 0.619866
0.368447 0.532962 0.589906
0.559044 0.503311 0.534664
0.748341 0.465401 0.450096
0.813489 0.426763 0.368725
0.839337 0.385335 0.306176
0.848566 0.352824 0.264993
0.232994 0.651096 0.644463
0.249032 0.638980 0.632965
0.349799 0.629111 0.611111
0.521542 0.617410 0.566333
0.727876 0.597977 0.491924
0.822703 0.551411 0.392971
0.852381 0.515434 0.325984
0.861309 0.485444 0.281898
0.243671 0.673604 0.636563
0.253843 0.668770 0.628817
0.327476 0.666713 0.611428
0.477405 0.667434 0.573971
0.685823 0.666366 0.509945
0.812049 0.636771 0.417700
0.857941 0.607466 0.344256
0.872547 0.584234 0.296923
0.248677 0.681336 0.628058
0.254606 0.678329 0.621552
0.309136 0.678716 0.606092
0.440564 0.685380 0.572995
0.643823 0.695564 0.516639
0.792412 0.682559 0.434182
0.855783 0.659960 0.358248
0.879338 0.642193 0.308716
0.176864 0.424546 0.722785
0.253707 0.401359 0.698464
0.427229 0.382621 0.657088
0.619431 0.350584 0.586147
0.764940 0.297291 0.486853
0.790670 0.243507 0.410004
0.798694 0.213268 0.364771
0.801396 0.198591 0.340896
0.170180 0.434456 0.720224
0.230573 0.411482 0.695204
0.389177 0.392646 0.659353
0.583042 0.364027 0.597875
0.751223 0.318138 0.508143
0.790362 0.263934 0.428074
0.801939 0.229372 0.376485
0.804778 0.211023 0.347146
0.180987 0.481608 0.726765
0.223753 0.453432 0.701534
0.368505 0.429480 0.667025
0.558207 0.401718 0.614870
0.734609 0.363606 0.541889
0.788930 0.307440 0.458606
0.805935 0.264112 0.396351
0.810557 0.238374 0.358470
0.207494 0.555586 0.733559
0.236588 0.524894 0.710174
0.365210 0.496368 0.678590
0.544747 0.468571 0.636766
0.722372 0.437297 0.581533
0.789278 0.383263 0.499694
0.813019 0.330631 0.425992
0.820799 0.294285 0.376455
0.244419 0.641648 0.733708
0.265874 0.616469 0.715298
0.373582 0.588893 0.691330
0.537689 0.562938 0.660767
0.716504 0.537680 0.619396
0.793633 0.491735 0.544572
0.824534 0.433705 0.461752
0.836041 0.386335 0.398979
0.270997 0.699689 0.721584
0.283523 0.688047 0.711866
0.363454 0.674559 0.695955
0.510597 0.661976 0.672725
0.700610 0.647690 0.637253
0.804034 0.605177 0.562821
0.839840 0.556438 0.477449
0.852211 0.511672 0.408471
0.277947 0.715430 0.702457
0.285378 0.710097 0.695198
0.342598 0.704892 0.681747
0.466883 0.703150 0.660523
0.650504 0.703137 0.627074
0.793154 0.681791 0.559231
0.847384 0.644849 0.476324
0.865894 0.610453 0.408710
0.278058 0.717357 0.685136
0.281482 0.713419 0.678158
0.321810 0.710352 0.664371
0.425179 0.713046 0.642047
0.595897 0.721553 0.607596
0.769186 0.717786 0.544450
0.845069 0.692441 0.465951
0.874315 0.667726 0.402310
0.185183 0.470487 0.757572
0.241534 0.444812 0.735300
0.390210 0.422757 0.700949
0.571385 0.398342 0.649695
0.729793 0.367151 0.581669
0.782894 0.326247 0.513163
0.795114 0.284251 0.458221
0.797060 0.258596 0.425783
0.185524 0.479519 0.757206
0.224973 0.466295 0.743867
0.353943 0.446426 0.716406
0.530965 0.422531 0.671867
0.708701 0.394750 0.610131
0.781784 0.352406 0.538405
0.798463 0.305067 0.477390
0.800810 0.275395 0.440565
0.202942 0.522683 0.766979
0.228163 0.507183 0.755356
0.336206 0.488933 0.733698
0.501911 0.467591 0.697794
0.687314 0.441385 0.645353
0.779743 0.400313 0.576273
0.802556 0.347040 0.510066
0.806539 0.311278 0.467832
0.234547 0.591940 0.780360
0.250988 0.572830 0.769053
0.340776 0.554066 0.751827
0.491694 0.534130 0.724082
0.674697 0.510377 0.682257
0.779201 0.472789 0.621099
0.808523 0.415205 0.552094
0.815218 0.371329 0.503049
0.274967 0.675111 0.791158
0.288811 0.659517 0.782317
0.365497 0.639175 0.768425
0.501479 0.619029 0.747074
0.674825 0.600023 0.715645
0.782200 0.567902 0.666388
0.817446 0.510893 0.598630
0.827639 0.459120 0.542184
0.306960 0.737690 0.789426
0.318902 0.729173 0.782705
0.387438 0.718386 0.773508
0.512528 0.706173 0.758631
0.677029 0.691949 0.735212
0.791548 0.668473 0.697678
0.831719 0.627952 0.639550
0.845339 0.581218 0.581208
0.318595 0.757359 0.775080
0.326044 0.753319 0.770007
0.376982 0.749839 0.762458
0.481801 0.747757 0.750426
0.636120 0.746680 0.731719
0.784409 0.741179 0.700208
0.841053 0.713843 0.647582
0.861193 0.677646 0.587499
0.319596 0.760396 0.758406
0.323034 0.757643 0.753462
0.358096 0.756399 0.745132
0.441948 0.758407 0.732183
0.581085 0.764447 0.712907
0.756677 0.772942 0.680938
0.837391 0.756773 0.630440
0.870816 0.730722 0.571050
0.185466 0.489015 0.770775
0.231694 0.463291 0.749210
0.364769 0.439234 0.717087
0.537347 0.415826 0.672082
0.701930 0.391489 0.614939
0.773863 0.361027 0.556483
0.792312 0.334208 0.517020
0.795468 0.315124 0.492161
0.188564 0.497535 0.770409
0.217625 0.490267 0.762121
0.328134 0.469935 0.737914
0.493386 0.446130 0.699087
0.675619 0.423794 0.647795
0.768913 0.393044 0.588292
0.795167 0.361798 0.542693
0.800909 0.338809 0.513314
0.209188 0.537162 0.780527
0.225870 0.528930 0.775209
0.308897 0.514657 0.759811
0.456354 0.495736 0.730507
0.645366 0.473031 0.685986
0.761592 0.445012 0.630537
0.798229 0.411330 0.582265
0.807746 0.383885 0.548938
0.244062 0.602390 0.795951
0.254235 0.589696 0.790607
0.315968 0.577621 0.781311
0.441968 0.563048 0.761356
0.621663 0.543810 0.726800
0.755459 0.518917 0.678536
0.802762 0.483621 0.629785
0.816679 0.450413 0.592365
0.287626 0.683174 0.811390
0.296975 0.672718 0.807682
0.350089 0.657624 0.800416
0.457297 0.644188 0.787396
0.612904 0.634067 0.765860
0.753775 0.612186 0.726758
0.809974 0.576983 0.679660
0.828439 0.538034 0.638320
0.323083 0.747484 0.817245
0.333211 0.742085 0.814561
0.385967 0.734714 0.810962
0.486656 0.726501 0.803178
0.628649 0.717864 0.788433
0.762047 0.706536 0.762283
0.822370 0.683369 0.724217
0.845091 0.649374 0.683896
0.338568 0.774069 0.812193
0.347468 0.772370 0.810943
0.393777 0.771814 0.809146
0.484936 0.772384 0.804651
0.618809 0.773634 0.795188
0.763095 0.773233 0.775170
0.832876 0.760180 0.743908
0.861632 0.737303 0.705582
0.344409 0.783156 0.804388
0.350233 0.782552 0.802790
0.386144 0.784386 0.800365
0.462519 0.789016 0.795924
0.583068 0.796389 0.787723
0.737695 0.805401 0.769630
0.829876 0.803672 0.742285
0.872784 0.790962 0.705648
0.184450 0.495608 0.776179
0.225957 0.470640 0.755132
0.349508 0.446005 0.724020
0.515865 0.422894 0.681387
0.682939 0.401253 0.628444
0.766606 0.376304 0.575624
0.790329 0.358474 0.544586
0.794964 0.345488 0.525994
0.188262 0.503848 0.775374
0.212927 0.499333 0.768803
0.312904 0.479092 0.746044
0.470211 0.455035 0.709439
0.653214 0.434226 0.662083
0.758152 0.410084 0.609839
0.792010 0.389406 0.573750
0.801177 0.373447 0.551159
0.209154 0.540805 0.784867
0.223533 0.536508 0.782212
0.292767 0.524267 0.769595
0.428693 0.506154 0.742874
0.617808 0.484437 0.701207
0.747023 0.462989 0.652946
0.794074 0.441899 0.615511
0.808719 0.423454 0.590283
0.244797 0.603074 0.800342
0.254276 0.594412 0.798094
0.300518 0.585613 0.792503
0.410580 0.573450 0.776122
0.585358 0.556349 0.744896
0.736040 0.537092 0.702001
0.797298 0.515779 0.664838
0.818209 0.494050 0.637392
0.290245 0.682284 0.817278
0.298822 0.674928 0.816538
0.338311 0.662574 0.812776
0.425779 0.652626 0.804615
0.565806 0.647239 0.789071
0.728269 0.630023 0.752764
0.802457 0.608659 0.716840
0.830204 0.583341 0.687498
0.328697 0.747924 0.827383
0.338025 0.744798 0.827607
0.379565 0.739136 0.827062
0.461483 0.733007 0.823367
0.584640 0.727888 0.814043
0.730766 0.724190 0.793085
0.811328 0.711949 0.764236
0.845999 0.690704 0.736653
0.348116 0.779274 0.829556
0.356995 0.779178 0.830392
0.398261 0.779976 0.831552
0.477247 0.781840 0.831200
0.593712 0.784680 0.827075
0.733559 0.787496 0.812669
0.819699 0.784702 0.791589
0.861328 0.775089 0.768947
0.357971 0.793314 0.829424
0.364004 0.793922 0.829208
0.399565 0.797309 0.830062
0.470345 0.803526 0.830740
0.577682 0.812137 0.829247
0.714923 0.820999 0.818598
0.816115 0.828164 0.802380
0.870433 0.828446 0.782586
