app/src/main/assets/cube/Christmas 7.cube
TITLE "Christmas LUT #7"
#LUT size
LUT_3D_SIZE 5
#LUT data points
0.133333 0.129412 0.121569
0.227451 0.125490 0.121569
0.466667 0.121569 0.113725
0.788235 0.101961 0.090196
0.992157 0.054902 0.043137
0.129412 0.227451 0.113725
0.235294 0.231373 0.113725
0.474510 0.258824 0.105882
0.803922 0.282353 0.062745
0.992157 0.274510 0.000000
0.113725 0.501961 0.000000
0.282353 0.517647 0.000000
0.529412 0.517647 0.000000
0.815686 0.533333 0.000000
1.000000 0.525490 0.003922
0.000000 0.807843 0.000000
0.270588 0.811765 0.000000
0.545098 0.811765 0.000000
0.827451 0.800000 0.000000
0.996078 0.784314 0.011765
0.243137 1.000000 0.101961
0.356863 1.000000 0.133333
0.576471 1.000000 0.176471
0.835294 1.000000 0.239216
1.000000 1.000000 0.317647
0.137255 0.133333 0.203922
0.235294 0.125490 0.215686
0.478431 0.082353 0.247059
0.803922 0.000000 0.219608
0.996078 0.000000 0.196078
0.125490 0.227451 0.215686
0.227451 0.223529 0.207843
0.494118 0.219608 0.211765
0.811765 0.207843 0.200000
1.000000 0.207843 0.192157
0.003922 0.509804 0.188235
0.231373 0.513725 0.184314
0.529412 0.509804 0.188235
0.819608 0.517647 0.172549
1.000000 0.509804 0.180392
0.000000 0.807843 0.129412
0.219608 0.811765 0.125490
0.541176 0.800000 0.125490
0.823529 0.807843 0.141176
0.992157 0.792157 0.192157
0.239216 1.000000 0.278431
0.360784 1.000000 0.286275
0.576471 1.000000 0.309804
0.839216 1.000000 0.356863
1.000000 1.000000 0.411765
0.129412 0.113725 0.482353
0.266667 0.105882 0.482353
0.505882 0.003922 0.486275
0.800000 0.000000 0.513725
1.000000 0.003922 0.482353
0.003922 0.215686 0.498039
0.235294 0.211765 0.501961
0.513725 0.180392 0.498039
0.815686 0.129412 0.501961
1.000000 0.094118 0.486275
0.000000 0.505882 0.490196
0.164706 0.501961 0.490196
0.521569 0.505882 0.494118
0.831373 0.505882 0.490196
1.000000 0.501961 0.498039
0.000000 0.815686 0.486275
0.133333 0.811765 0.490196
0.529412 0.811765 0.482353
0.831373 0.803922 0.486275
1.000000 0.788235 0.513725
0.294118 0.996078 0.525490
0.396078 1.000000 0.529412
0.592157 1.000000 0.541176
0.835294 1.000000 0.552941
1.000000 1.000000 0.584314
0.129412 0.058824 0.780392
0.298039 0.007843 0.780392
0.545098 0.003922 0.784314
0.815686 0.000000 0.776471
1.000000 0.000000 0.764706
0.003922 0.188235 0.784314
0.231373 0.176471 0.792157
0.537255 0.141176 0.784314
0.827451 0.043137 0.776471
1.000000 0.027451 0.772549
0.000000 0.490196 0.780392
0.062745 0.486275 0.780392
0.505882 0.478431 0.784314
0.831373 0.474510 0.784314
1.000000 0.498039 0.752941
0.000000 0.807843 0.776471
0.149020 0.796078 0.780392
0.541176 0.803922 0.768627
0.819608 0.800000 0.776471
0.992157 0.800000 0.780392
0.388235 0.996078 0.768627
0.447059 1.000000 0.768627
0.643137 0.996078 0.792157
0.850980 0.996078 0.792157
1.000000 1.000000 0.803922
0.039216 0.000000 0.996078
0.270588 0.000000 1.000000
0.513725 0.000000 0.996078
0.780392 0.000000 1.000000
0.996078 0.000000 0.996078
0.000000 0.164706 1.000000
0.196078 0.152941 1.000000
0.498039 0.121569 1.000000
0.776471 0.086275 0.992157
0.992157 0.101961 1.000000
0.007843 0.450980 0.992157
0.000000 0.450980 0.988235
0.474510 0.458824 0.996078
0.768627 0.470588 1.000000
1.000000 0.494118 0.992157
0.000000 0.764706 0.992157
0.270588 0.756863 1.000000
0.549020 0.780392 1.000000
0.796078 0.784314 1.000000
1.000000 0.796078 1.000000
0.458824 1.000000 1.000000
0.533333 0.996078 1.000000
0.670588 1.000000 1.000000
0.882353 1.000000 0.992157
1.000000 1.000000 0.992157
