app/src/main/assets/cube/Christmas 3.cube
TITLE "Christmas LUT #3"
#LUT size
LUT_3D_SIZE 5
#LUT data points
0.003922 0.000000 0.000000
0.227451 0.023529 0.039216
0.513725 0.007843 0.027451
0.854902 0.058824 0.070588
1.000000 0.149020 0.152941
0.086275 0.207843 0.043137
0.235294 0.200000 0.031373
0.517647 0.243137 0.043137
0.858824 0.290196 0.082353
0.996078 0.321569 0.172549
0.196078 0.509804 0.058824
0.325490 0.498039 0.062745
0.552941 0.517647 0.058824
0.866667 0.556863 0.094118
1.000000 0.552941 0.227451
0.309804 0.827451 0.156863
0.415686 0.815686 0.149020
0.623529 0.815686 0.152941
0.866667 0.815686 0.196078
0.996078 0.800000 0.349020
0.560784 1.000000 0.498039
0.588235 1.000000 0.486275
0.709804 1.000000 0.509804
0.882353 1.000000 0.552941
1.000000 1.000000 0.607843
0.047059 0.023529 0.203922
0.219608 0.035294 0.200000
0.494118 0.047059 0.239216
0.839216 0.086275 0.278431
1.000000 0.219608 0.349020
0.113725 0.211765 0.200000
0.250980 0.219608 0.211765
0.498039 0.247059 0.239216
0.835294 0.298039 0.274510
0.992157 0.349020 0.341176
0.203922 0.505882 0.239216
0.329412 0.494118 0.243137
0.541176 0.505882 0.250980
0.850980 0.556863 0.290196
0.996078 0.580392 0.384314
0.337255 0.819608 0.329412
0.431373 0.819608 0.325490
0.627451 0.819608 0.329412
0.870588 0.827451 0.372549
1.000000 0.811765 0.478431
0.615686 1.000000 0.603922
0.627451 1.000000 0.580392
0.733333 1.000000 0.596078
0.894118 1.000000 0.635294
1.000000 1.000000 0.678431
0.109804 0.043137 0.482353
0.282353 0.050980 0.474510
0.513725 0.062745 0.470588
0.835294 0.090196 0.513725
1.000000 0.309804 0.576471
0.152941 0.254902 0.454902
0.286275 0.250980 0.466667
0.505882 0.254902 0.458824
0.835294 0.305882 0.525490
1.000000 0.458824 0.588235
0.219608 0.505882 0.478431
0.345098 0.505882 0.482353
0.576471 0.537255 0.501961
0.843137 0.572549 0.545098
1.000000 0.643137 0.631373
0.427451 0.811765 0.580392
0.478431 0.807843 0.572549
0.643137 0.815686 0.576471
0.854902 0.811765 0.600000
1.000000 0.831373 0.670588
0.662745 1.000000 0.721569
0.686275 1.000000 0.729412
0.764706 1.000000 0.741176
0.905882 1.000000 0.756863
1.000000 1.000000 0.788235
0.188235 0.121569 0.811765
0.345098 0.125490 0.800000
0.600000 0.133333 0.800000
0.866667 0.156863 0.796078
1.000000 0.368627 0.784314
0.227451 0.321569 0.807843
0.376471 0.325490 0.788235
0.603922 0.333333 0.792157
0.862745 0.349020 0.796078
0.996078 0.490196 0.803922
0.329412 0.588235 0.792157
0.439216 0.588235 0.780392
0.635294 0.600000 0.784314
0.850980 0.611765 0.784314
1.000000 0.709804 0.815686
0.474510 0.827451 0.780392
0.533333 0.819608 0.792157
0.686275 0.823529 0.796078
0.866667 0.835294 0.823529
1.000000 0.866667 0.862745
0.749020 0.996078 0.874510
0.760784 0.992157 0.866667
0.827451 0.996078 0.886275
0.909804 1.000000 0.890196
1.000000 0.996078 0.913725
0.356863 0.333333 1.000000
0.450980 0.345098 1.000000
0.635294 0.384314 1.000000
0.858824 0.458824 1.000000
1.000000 0.541176 1.000000
0.458824 0.494118 1.000000
0.517647 0.498039 1.000000
0.678431 0.521569 1.000000
0.866667 0.580392 1.000000
1.000000 0.623529 1.000000
0.607843 0.717647 1.000000
0.654902 0.729412 0.996078
0.752941 0.733333 0.992157
0.886275 0.752941 0.992157
1.000000 0.768627 0.988235
0.698039 0.882353 0.992157
0.721569 0.874510 0.988235
0.792157 0.886275 0.988235
0.905882 0.898039 0.992157
0.996078 0.901961 0.996078
0.772549 1.000000 1.000000
0.788235 1.000000 0.992157
0.847059 1.000000 0.996078
0.929412 1.000000 0.996078
0.996078 0.996078 0.996078
