app/src/main/assets/cube/Christmas 2.cube
TITLE "Christmas LUT #2"
#LUT size
LUT_3D_SIZE 5
#LUT data points
0.054902 0.164706 0.180392
0.211765 0.164706 0.180392
0.431373 0.172549 0.188235
0.733333 0.164706 0.192157
1.000000 0.133333 0.184314
0.000000 0.278431 0.200000
0.184314 0.266667 0.192157
0.431373 0.282353 0.192157
0.733333 0.298039 0.188235
0.992157 0.282353 0.168627
0.000000 0.490196 0.192157
0.196078 0.486275 0.192157
0.462745 0.490196 0.184314
0.745098 0.509804 0.172549
1.000000 0.509804 0.145098
0.000000 0.760784 0.117647
0.184314 0.756863 0.117647
0.482353 0.768627 0.113725
0.768627 0.756863 0.101961
0.988235 0.768627 0.050980
0.000000 1.000000 0.003922
0.117647 1.000000 0.003922
0.490196 1.000000 0.003922
0.780392 1.000000 0.000000
0.996078 0.996078 0.000000
0.007843 0.156863 0.298039
0.188235 0.176471 0.298039
0.435294 0.172549 0.309804
0.745098 0.090196 0.294118
1.000000 0.000000 0.282353
0.003922 0.270588 0.305882
0.180392 0.278431 0.298039
0.450980 0.274510 0.301961
0.745098 0.258824 0.290196
0.992157 0.243137 0.270588
0.000000 0.498039 0.282353
0.156863 0.498039 0.298039
0.466667 0.494118 0.290196
0.756863 0.501961 0.282353
0.996078 0.509804 0.266667
0.003922 0.764706 0.250980
0.125490 0.764706 0.258824
0.482353 0.768627 0.247059
0.764706 0.764706 0.239216
0.996078 0.764706 0.231373
0.000000 1.000000 0.172549
0.094118 0.992157 0.180392
0.490196 1.000000 0.168627
0.768627 1.000000 0.168627
1.000000 1.000000 0.176471
0.003922 0.168627 0.505882
0.215686 0.168627 0.490196
0.466667 0.152941 0.501961
0.756863 0.062745 0.517647
1.000000 0.000000 0.501961
0.000000 0.274510 0.494118
0.180392 0.266667 0.494118
0.470588 0.258824 0.501961
0.760784 0.235294 0.513725
1.000000 0.168627 0.498039
0.000000 0.501961 0.486275
0.121569 0.494118 0.501961
0.470588 0.490196 0.501961
0.764706 0.490196 0.490196
1.000000 0.486275 0.490196
0.000000 0.764706 0.490196
0.000000 0.764706 0.490196
0.466667 0.764706 0.482353
0.772549 0.760784 0.482353
1.000000 0.756863 0.478431
0.000000 0.992157 0.466667
0.023529 0.996078 0.462745
0.474510 1.000000 0.462745
0.772549 1.000000 0.458824
0.992157 1.000000 0.466667
0.070588 0.152941 0.752941
0.262745 0.145098 0.756863
0.509804 0.109804 0.745098
0.764706 0.000000 0.737255
1.000000 0.000000 0.745098
0.000000 0.266667 0.752941
0.219608 0.266667 0.745098
0.501961 0.247059 0.749020
0.768627 0.211765 0.745098
1.000000 0.156863 0.741176
0.003922 0.494118 0.745098
0.121569 0.494118 0.745098
0.486275 0.490196 0.745098
0.776471 0.482353 0.737255
0.992157 0.478431 0.737255
0.000000 0.768627 0.729412
0.086275 0.764706 0.741176
0.486275 0.764706 0.741176
0.784314 0.768627 0.733333
0.992157 0.760784 0.729412
0.011765 0.996078 0.725490
0.145098 1.000000 0.737255
0.509804 1.000000 0.725490
0.792157 1.000000 0.725490
0.996078 1.000000 0.733333
0.003922 0.117647 1.000000
0.258824 0.105882 1.000000
0.509804 0.047059 1.000000
0.768627 0.000000 0.996078
1.000000 0.000000 1.000000
0.003922 0.247059 1.000000
0.196078 0.235294 0.992157
0.486275 0.227451 0.996078
0.768627 0.188235 0.996078
1.000000 0.149020 0.992157
0.003922 0.486275 0.996078
0.019608 0.478431 0.992157
0.462745 0.478431 1.000000
0.760784 0.474510 1.000000
1.000000 0.462745 1.000000
0.000000 0.752941 0.996078
0.058824 0.756863 0.992157
0.498039 0.752941 1.000000
0.772549 0.752941 1.000000
0.992157 0.756863 0.992157
0.003922 1.000000 1.000000
0.219608 1.000000 0.996078
0.529412 1.000000 0.996078
0.835294 1.000000 0.992157
1.000000 1.000000 0.992157
