app/src/main/assets/cube/Christmas 5.cube
TITLE "Christmas LUT #5"
#LUT size
LUT_3D_SIZE 25
#LUT data points
0.101961 0.086275 0.074510
0.125490 0.086275 0.078431
0.152941 0.094118 0.082353
0.188235 0.090196 0.074510
0.223529 0.086275 0.070588
0.258824 0.086275 0.074510
0.282353 0.090196 0.070588
0.313725 0.086275 0.070588
0.345098 0.090196 0.074510
0.380392 0.086275 0.074510
0.415686 0.090196 0.074510
0.443137 0.086275 0.074510
0.486275 0.086275 0.078431
0.521569 0.094118 0.082353
0.556863 0.094118 0.078431
0.588235 0.086275 0.074510
0.631373 0.090196 0.082353
0.670588 0.090196 0.082353
0.713725 0.094118 0.082353
0.752941 0.086275 0.086275
0.800000 0.086275 0.082353
0.839216 0.078431 0.078431
0.890196 0.074510 0.066667
0.933333 0.074510 0.066667
0.976471 0.066667 0.058824
0.105882 0.113725 0.070588
0.133333 0.117647 0.070588
0.164706 0.117647 0.070588
0.184314 0.121569 0.070588
0.227451 0.117647 0.070588
0.254902 0.109804 0.074510
0.294118 0.109804 0.078431
0.317647 0.105882 0.066667
0.356863 0.105882 0.070588
0.392157 0.105882 0.078431
0.415686 0.105882 0.078431
0.454902 0.105882 0.082353
0.478431 0.109804 0.078431
0.521569 0.109804 0.086275
0.556863 0.113725 0.082353
0.596078 0.105882 0.082353
0.631373 0.109804 0.082353
0.666667 0.105882 0.074510
0.713725 0.109804 0.078431
0.756863 0.101961 0.078431
0.803922 0.101961 0.082353
0.847059 0.094118 0.074510
0.890196 0.094118 0.070588
0.925490 0.090196 0.074510
0.980392 0.090196 0.062745
0.109804 0.145098 0.070588
0.133333 0.145098 0.070588
0.172549 0.145098 0.082353
0.184314 0.141176 0.070588
0.227451 0.137255 0.082353
0.258824 0.133333 0.074510
0.286275 0.133333 0.074510
0.321569 0.137255 0.074510
0.352941 0.133333 0.074510
0.380392 0.133333 0.074510
0.419608 0.129412 0.078431
0.450980 0.129412 0.074510
0.490196 0.129412 0.078431
0.525490 0.125490 0.078431
0.552941 0.129412 0.078431
0.592157 0.129412 0.082353
0.631373 0.129412 0.078431
0.666667 0.125490 0.082353
0.713725 0.121569 0.078431
0.760784 0.125490 0.082353
0.803922 0.125490 0.070588
0.843137 0.125490 0.070588
0.894118 0.117647 0.074510
0.933333 0.117647 0.070588
0.976471 0.125490 0.058824
0.121569 0.176471 0.078431
0.137255 0.168627 0.074510
0.160784 0.172549 0.066667
0.192157 0.168627 0.074510
0.227451 0.168627 0.078431
0.254902 0.168627 0.078431
0.290196 0.164706 0.082353
0.321569 0.160784 0.074510
0.349020 0.160784 0.074510
0.384314 0.160784 0.082353
0.419608 0.160784 0.074510
0.458824 0.156863 0.078431
0.494118 0.152941 0.078431
0.525490 0.152941 0.082353
0.560784 0.156863 0.090196
0.596078 0.152941 0.082353
0.635294 0.152941 0.082353
0.674510 0.152941 0.078431
0.717647 0.160784 0.082353
0.764706 0.156863 0.070588
0.800000 0.152941 0.074510
0.858824 0.149020 0.074510
0.901961 0.156863 0.070588
0.937255 0.152941 0.062745
0.984314 0.152941 0.066667
0.109804 0.203922 0.070588
0.141176 0.207843 0.074510
0.160784 0.203922 0.070588
0.188235 0.203922 0.066667
0.223529 0.207843 0.070588
0.258824 0.200000 0.070588
0.286275 0.196078 0.070588
0.321569 0.188235 0.078431
0.352941 0.192157 0.082353
0.384314 0.188235 0.082353
0.419608 0.184314 0.074510
0.450980 0.188235 0.082353
0.486275 0.192157 0.078431
0.521569 0.184314 0.078431
0.560784 0.184314 0.086275
0.600000 0.192157 0.086275
0.635294 0.180392 0.082353
0.678431 0.184314 0.086275
0.729412 0.188235 0.086275
0.768627 0.188235 0.086275
0.815686 0.192157 0.078431
0.854902 0.192157 0.070588
0.905882 0.188235 0.066667
0.945098 0.188235 0.066667
0.988235 0.188235 0.058824
0.121569 0.231373 0.070588
0.145098 0.231373 0.078431
0.168627 0.227451 0.074510
0.188235 0.231373 0.074510
0.219608 0.227451 0.074510
0.243137 0.235294 0.074510
0.282353 0.227451 0.074510
0.317647 0.223529 0.074510
0.349020 0.219608 0.082353
0.376471 0.219608 0.078431
0.415686 0.219608 0.082353
0.450980 0.219608 0.086275
0.486275 0.215686 0.086275
0.517647 0.219608 0.086275
0.549020 0.219608 0.086275
0.588235 0.215686 0.090196
0.627451 0.219608 0.082353
0.666667 0.219608 0.078431
0.717647 0.219608 0.082353
0.756863 0.219608 0.078431
0.800000 0.219608 0.078431
0.843137 0.219608 0.066667
0.890196 0.215686 0.058824
0.933333 0.215686 0.058824
0.972549 0.219608 0.043137
0.121569 0.270588 0.086275
0.141176 0.262745 0.090196
0.160784 0.262745 0.078431
0.180392 0.266667 0.082353
0.211765 0.258824 0.070588
0.250980 0.262745 0.078431
0.278431 0.262745 0.078431
0.309804 0.258824 0.082353
0.349020 0.258824 0.086275
0.376471 0.254902 0.074510
0.407843 0.258824 0.082353
0.447059 0.254902 0.086275
0.482353 0.250980 0.086275
0.521569 0.250980 0.086275
0.560784 0.250980 0.090196
0.592157 0.250980 0.082353
0.631373 0.250980 0.086275
0.670588 0.250980 0.078431
0.713725 0.254902 0.082353
0.756863 0.254902 0.078431
0.800000 0.258824 0.074510
0.847059 0.258824 0.062745
0.890196 0.254902 0.062745
0.925490 0.254902 0.050980
0.972549 0.250980 0.039216
0.125490 0.294118 0.082353
0.145098 0.298039 0.082353
0.160784 0.298039 0.078431
0.192157 0.298039 0.082353
0.207843 0.301961 0.074510
0.243137 0.294118 0.074510
0.274510 0.294118 0.074510
0.313725 0.294118 0.078431
0.349020 0.298039 0.082353
0.380392 0.298039 0.082353
0.415686 0.294118 0.082353
0.447059 0.290196 0.086275
0.486275 0.290196 0.090196
0.521569 0.286275 0.090196
0.552941 0.290196 0.086275
0.592157 0.286275 0.094118
0.631373 0.286275 0.090196
0.670588 0.290196 0.090196
0.717647 0.286275 0.078431
0.756863 0.290196 0.070588
0.803922 0.294118 0.066667
0.847059 0.298039 0.066667
0.898039 0.294118 0.050980
0.941176 0.298039 0.050980
0.976471 0.298039 0.039216
0.133333 0.333333 0.074510
0.141176 0.333333 0.074510
0.164706 0.329412 0.078431
0.188235 0.333333 0.070588
0.207843 0.333333 0.078431
0.243137 0.333333 0.066667
0.274510 0.333333 0.070588
0.313725 0.333333 0.074510
0.345098 0.329412 0.078431
0.376471 0.333333 0.082353
0.415686 0.333333 0.086275
0.447059 0.329412 0.078431
0.482353 0.325490 0.082353
0.521569 0.325490 0.078431
0.560784 0.325490 0.082353
0.596078 0.321569 0.078431
0.635294 0.329412 0.078431
0.678431 0.325490 0.078431
0.717647 0.329412 0.074510
0.764706 0.325490 0.074510
0.803922 0.325490 0.070588
0.854902 0.337255 0.054902
0.894118 0.337255 0.054902
0.945098 0.333333 0.043137
0.980392 0.329412 0.031373
0.133333 0.368627 0.078431
0.145098 0.364706 0.070588
0.160784 0.364706 0.074510
0.192157 0.360784 0.078431
0.215686 0.364706 0.078431
0.243137 0.368627 0.082353
0.270588 0.364706 0.074510
0.301961 0.364706 0.070588
0.345098 0.368627 0.078431
0.380392 0.364706 0.074510
0.411765 0.364706 0.066667
0.439216 0.364706 0.066667
0.490196 0.360784 0.082353
0.525490 0.356863 0.086275
0.560784 0.352941 0.078431
0.596078 0.360784 0.078431
0.631373 0.356863 0.074510
0.674510 0.364706 0.070588
0.721569 0.368627 0.062745
0.768627 0.368627 0.074510
0.815686 0.376471 0.054902
0.854902 0.376471 0.050980
0.901961 0.376471 0.043137
0.945098 0.372549 0.035294
0.992157 0.372549 0.023529
0.129412 0.396078 0.070588
0.145098 0.392157 0.074510
0.149020 0.400000 0.070588
0.180392 0.396078 0.078431
0.203922 0.396078 0.074510
0.235294 0.388235 0.070588
0.266667 0.392157 0.066667
0.301961 0.392157 0.070588
0.337255 0.396078 0.070588
0.372549 0.392157 0.070588
0.403922 0.396078 0.070588
0.439216 0.392157 0.062745
0.478431 0.392157 0.066667
0.513725 0.392157 0.070588
0.552941 0.392157 0.070588
0.592157 0.392157 0.074510
0.627451 0.396078 0.082353
0.666667 0.400000 0.082353
0.713725 0.400000 0.066667
0.756863 0.403922 0.058824
0.807843 0.400000 0.050980
0.850980 0.407843 0.039216
0.901961 0.403922 0.031373
0.937255 0.403922 0.015686
0.980392 0.407843 0.003922
0.129412 0.431373 0.054902
0.149020 0.435294 0.074510
0.164706 0.427451 0.062745
0.180392 0.431373 0.062745
0.211765 0.435294 0.066667
0.231373 0.431373 0.058824
0.274510 0.431373 0.054902
0.301961 0.435294 0.066667
0.333333 0.431373 0.062745
0.368627 0.427451 0.062745
0.403922 0.431373 0.058824
0.447059 0.435294 0.070588
0.482353 0.431373 0.062745
0.521569 0.431373 0.062745
0.556863 0.427451 0.062745
0.588235 0.431373 0.047059
0.631373 0.435294 0.054902
0.670588 0.435294 0.050980
0.713725 0.439216 0.054902
0.760784 0.439216 0.047059
0.803922 0.443137 0.039216
0.847059 0.443137 0.031373
0.886275 0.447059 0.023529
0.933333 0.447059 0.000000
0.984314 0.443137 0.007843
0.129412 0.470588 0.058824
0.152941 0.470588 0.058824
0.160784 0.470588 0.058824
0.188235 0.466667 0.058824
0.203922 0.474510 0.054902
0.239216 0.466667 0.062745
0.266667 0.466667 0.062745
0.301961 0.470588 0.058824
0.341176 0.470588 0.058824
0.368627 0.466667 0.058824
0.403922 0.462745 0.050980
0.439216 0.466667 0.050980
0.474510 0.470588 0.047059
0.513725 0.470588 0.054902
0.556863 0.470588 0.043137
0.596078 0.470588 0.043137
0.635294 0.470588 0.039216
0.678431 0.474510 0.035294
0.721569 0.478431 0.035294
0.760784 0.482353 0.027451
0.811765 0.486275 0.023529
0.854902 0.490196 0.023529
0.894118 0.494118 0.007843
0.941176 0.486275 0.003922
0.988235 0.486275 0.000000
0.117647 0.513725 0.050980
0.141176 0.513725 0.058824
0.160784 0.501961 0.058824
0.188235 0.505882 0.043137
0.215686 0.505882 0.054902
0.235294 0.505882 0.050980
0.270588 0.505882 0.058824
0.305882 0.505882 0.043137
0.333333 0.501961 0.047059
0.376471 0.505882 0.047059
0.411765 0.509804 0.047059
0.439216 0.509804 0.039216
0.474510 0.505882 0.031373
0.517647 0.509804 0.043137
0.556863 0.509804 0.039216
0.596078 0.509804 0.031373
0.639216 0.517647 0.027451
0.686275 0.517647 0.015686
0.725490 0.517647 0.007843
0.768627 0.525490 0.003922
0.815686 0.525490 0.000000
0.858824 0.529412 0.003922
0.894118 0.525490 0.000000
0.945098 0.529412 0.000000
0.996078 0.525490 0.000000
0.117647 0.552941 0.043137
0.133333 0.549020 0.031373
0.152941 0.549020 0.031373
0.176471 0.552941 0.031373
0.196078 0.549020 0.031373
0.231373 0.552941 0.027451
0.270588 0.549020 0.031373
0.301961 0.549020 0.027451
0.337255 0.545098 0.019608
0.368627 0.549020 0.023529
0.411765 0.552941 0.027451
0.447059 0.556863 0.023529
0.482353 0.552941 0.011765
0.521569 0.552941 0.011765
0.560784 0.556863 0.007843
0.603922 0.560784 0.007843
0.643137 0.560784 0.007843
0.682353 0.560784 0.003922
0.725490 0.560784 0.000000
0.768627 0.560784 0.003922
0.823529 0.568627 0.003922
0.862745 0.568627 0.000000
0.909804 0.572549 0.003922
0.949020 0.572549 0.000000
0.988235 0.572549 0.000000
0.113725 0.572549 0.011765
0.129412 0.580392 0.019608
0.137255 0.576471 0.011765
0.156863 0.580392 0.011765
0.207843 0.572549 0.011765
0.227451 0.580392 0.003922
0.254902 0.576471 0.000000
0.290196 0.580392 0.000000
0.329412 0.588235 0.003922
0.364706 0.580392 0.007843
0.403922 0.584314 0.000000
0.435294 0.588235 0.000000
0.486275 0.588235 0.003922
0.517647 0.592157 0.000000
0.564706 0.588235 0.000000
0.596078 0.592157 0.000000
0.635294 0.592157 0.000000
0.682353 0.600000 0.000000
0.729412 0.600000 0.000000
0.768627 0.600000 0.000000
0.811765 0.603922 0.000000
0.850980 0.603922 0.003922
0.894118 0.607843 0.000000
0.937255 0.603922 0.003922
0.976471 0.603922 0.000000
0.082353 0.639216 0.011765
0.101961 0.627451 0.003922
0.129412 0.635294 0.000000
0.152941 0.631373 0.000000
0.188235 0.627451 0.000000
0.219608 0.627451 0.003922
0.254902 0.623529 0.003922
0.286275 0.631373 0.003922
0.325490 0.631373 0.000000
0.364706 0.631373 0.000000
0.407843 0.635294 0.000000
0.447059 0.635294 0.000000
0.486275 0.635294 0.000000
0.525490 0.635294 0.000000
0.564706 0.635294 0.000000
0.603922 0.635294 0.000000
0.647059 0.639216 0.003922
0.682353 0.635294 0.000000
0.729412 0.635294 0.000000
0.772549 0.643137 0.003922
0.819608 0.643137 0.003922
0.858824 0.643137 0.000000
0.901961 0.647059 0.000000
0.937255 0.647059 0.015686
0.992157 0.643137 0.007843
0.050980 0.678431 0.003922
0.078431 0.682353 0.000000
0.113725 0.678431 0.000000
0.141176 0.674510 0.000000
0.164706 0.678431 0.000000
0.211765 0.674510 0.007843
0.247059 0.678431 0.000000
0.286275 0.678431 0.000000
0.329412 0.682353 0.000000
0.364706 0.678431 0.000000
0.407843 0.674510 0.000000
0.450980 0.678431 0.000000
0.490196 0.678431 0.000000
0.525490 0.674510 0.000000
0.568627 0.678431 0.003922
0.611765 0.682353 0.007843
0.650980 0.682353 0.003922
0.690196 0.682353 0.003922
0.733333 0.686275 0.003922
0.772549 0.686275 0.003922
0.819608 0.690196 0.000000
0.858824 0.690196 0.000000
0.898039 0.690196 0.000000
0.949020 0.694118 0.003922
0.992157 0.690196 0.000000
0.007843 0.733333 0.000000
0.043137 0.725490 0.000000
0.078431 0.729412 0.007843
0.117647 0.729412 0.000000
0.156863 0.721569 0.000000
0.196078 0.721569 0.000000
0.235294 0.721569 0.000000
0.286275 0.721569 0.003922
0.325490 0.725490 0.000000
0.372549 0.725490 0.003922
0.411765 0.725490 0.000000
0.450980 0.725490 0.000000
0.482353 0.725490 0.000000
0.529412 0.725490 0.000000
0.572549 0.729412 0.003922
0.615686 0.729412 0.000000
0.654902 0.729412 0.000000
0.694118 0.725490 0.003922
0.745098 0.729412 0.000000
0.784314 0.729412 0.000000
0.823529 0.729412 0.000000
0.866667 0.733333 0.003922
0.909804 0.733333 0.000000
0.949020 0.729412 0.003922
0.984314 0.737255 0.000000
0.000000 0.768627 0.007843
0.007843 0.772549 0.000000
0.043137 0.772549 0.000000
0.086275 0.768627 0.007843
0.141176 0.768627 0.000000
0.188235 0.768627 0.000000
0.239216 0.764706 0.000000
0.278431 0.772549 0.003922
0.313725 0.776471 0.000000
0.352941 0.776471 0.000000
0.407843 0.776471 0.000000
0.447059 0.768627 0.000000
0.486275 0.776471 0.000000
0.529412 0.772549 0.000000
0.568627 0.772549 0.000000
0.607843 0.772549 0.000000
0.654902 0.776471 0.000000
0.701961 0.772549 0.000000
0.745098 0.776471 0.000000
0.792157 0.776471 0.007843
0.831373 0.776471 0.003922
0.870588 0.776471 0.000000
0.909804 0.780392 0.000000
0.956863 0.776471 0.000000
1.000000 0.780392 0.000000
0.000000 0.796078 0.000000
0.003922 0.800000 0.000000
0.007843 0.803922 0.000000
0.062745 0.803922 0.003922
0.125490 0.803922 0.007843
0.180392 0.796078 0.000000
0.219608 0.803922 0.003922
0.250980 0.803922 0.007843
0.309804 0.800000 0.000000
0.352941 0.803922 0.000000
0.396078 0.807843 0.000000
0.435294 0.807843 0.000000
0.482353 0.807843 0.000000
0.521569 0.811765 0.000000
0.564706 0.815686 0.000000
0.603922 0.811765 0.003922
0.647059 0.811765 0.000000
0.690196 0.815686 0.000000
0.737255 0.815686 0.000000
0.780392 0.819608 0.000000
0.823529 0.815686 0.003922
0.862745 0.815686 0.000000
0.905882 0.819608 0.003922
0.941176 0.815686 0.000000
0.988235 0.811765 0.000000
0.000000 0.854902 0.000000
0.000000 0.854902 0.000000
0.003922 0.847059 0.000000
0.011765 0.854902 0.000000
0.098039 0.858824 0.003922
0.152941 0.850980 0.000000
0.203922 0.850980 0.000000
0.258824 0.850980 0.000000
0.301961 0.854902 0.000000
0.349020 0.858824 0.003922
0.388235 0.858824 0.000000
0.435294 0.854902 0.000000
0.478431 0.850980 0.000000
0.525490 0.854902 0.000000
0.568627 0.858824 0.000000
0.607843 0.858824 0.000000
0.647059 0.858824 0.000000
0.686275 0.858824 0.000000
0.737255 0.862745 0.000000
0.780392 0.858824 0.000000
0.819608 0.858824 0.000000
0.866667 0.854902 0.003922
0.909804 0.858824 0.003922
0.937255 0.866667 0.000000
0.988235 0.854902 0.000000
0.011765 0.898039 0.000000
0.000000 0.898039 0.000000
0.000000 0.898039 0.003922
0.007843 0.901961 0.000000
0.070588 0.898039 0.000000
0.145098 0.901961 0.003922
0.203922 0.898039 0.000000
0.243137 0.898039 0.003922
0.290196 0.898039 0.003922
0.337255 0.898039 0.000000
0.392157 0.898039 0.000000
0.439216 0.898039 0.000000
0.486275 0.901961 0.000000
0.521569 0.894118 0.000000
0.560784 0.898039 0.000000
0.611765 0.898039 0.000000
0.654902 0.901961 0.003922
0.694118 0.901961 0.000000
0.737255 0.898039 0.003922
0.780392 0.901961 0.007843
0.827451 0.901961 0.003922
0.866667 0.901961 0.003922
0.909804 0.905882 0.000000
0.956863 0.901961 0.003922
0.992157 0.901961 0.007843
0.000000 0.949020 0.000000
0.000000 0.941176 0.003922
0.000000 0.945098 0.007843
0.000000 0.949020 0.007843
0.011765 0.941176 0.000000
0.129412 0.941176 0.000000
0.180392 0.945098 0.003922
0.231373 0.941176 0.003922
0.282353 0.945098 0.007843
0.337255 0.945098 0.000000
0.380392 0.941176 0.000000
0.431373 0.945098 0.000000
0.474510 0.949020 0.003922
0.521569 0.945098 0.000000
0.564706 0.949020 0.000000
0.603922 0.949020 0.000000
0.643137 0.949020 0.000000
0.694118 0.949020 0.000000
0.737255 0.952941 0.003922
0.780392 0.952941 0.000000
0.819608 0.952941 0.000000
0.866667 0.949020 0.003922
0.913725 0.949020 0.003922
0.949020 0.945098 0.000000
0.992157 0.949020 0.007843
0.000000 0.996078 0.000000
0.000000 0.992157 0.000000
0.000000 0.988235 0.003922
0.007843 0.984314 0.000000
0.003922 0.988235 0.000000
0.074510 0.988235 0.000000
0.160784 0.988235 0.003922
0.227451 0.984314 0.007843
0.278431 0.980392 0.000000
0.325490 0.988235 0.000000
0.376471 0.992157 0.000000
0.423529 0.992157 0.000000
0.470588 0.992157 0.000000
0.513725 0.988235 0.003922
0.556863 0.992157 0.000000
0.600000 0.996078 0.007843
0.647059 0.996078 0.007843
0.694118 0.996078 0.007843
0.741176 0.996078 0.000000
0.780392 0.996078 0.007843
0.819608 1.000000 0.000000
0.866667 0.996078 0.000000
0.909804 1.000000 0.000000
0.952941 0.996078 0.000000
1.000000 1.000000 0.000000
0.101961 0.094118 0.098039
0.133333 0.090196 0.105882
0.164706 0.082353 0.101961
0.188235 0.082353 0.101961
0.227451 0.086275 0.101961
0.250980 0.094118 0.098039
0.282353 0.090196 0.101961
0.313725 0.094118 0.098039
0.360784 0.090196 0.101961
0.388235 0.090196 0.105882
0.427451 0.094118 0.105882
0.450980 0.090196 0.094118
0.482353 0.090196 0.098039
0.521569 0.094118 0.105882
0.552941 0.098039 0.101961
0.588235 0.094118 0.105882
0.627451 0.094118 0.101961
0.674510 0.090196 0.105882
0.713725 0.086275 0.094118
0.760784 0.082353 0.098039
0.803922 0.078431 0.098039
0.843137 0.074510 0.090196
0.890196 0.070588 0.090196
0.933333 0.066667 0.086275
0.992157 0.050980 0.086275
0.101961 0.121569 0.105882
0.133333 0.113725 0.098039
0.168627 0.113725 0.101961
0.188235 0.117647 0.109804
0.219608 0.105882 0.090196
0.250980 0.121569 0.094118
0.290196 0.113725 0.101961
0.321569 0.109804 0.101961
0.356863 0.105882 0.098039
0.392157 0.113725 0.105882
0.423529 0.109804 0.105882
0.458824 0.113725 0.109804
0.486275 0.113725 0.105882
0.521569 0.113725 0.101961
0.560784 0.113725 0.109804
0.596078 0.109804 0.109804
0.635294 0.109804 0.105882
0.678431 0.109804 0.098039
0.717647 0.109804 0.094118
0.764706 0.105882 0.094118
0.803922 0.098039 0.094118
0.843137 0.101961 0.094118
0.890196 0.098039 0.090196
0.921569 0.090196 0.086275
0.972549 0.090196 0.082353
0.098039 0.145098 0.098039
0.141176 0.149020 0.105882
0.164706 0.149020 0.113725
0.196078 0.149020 0.101961
0.219608 0.141176 0.105882
0.250980 0.141176 0.094118
0.286275 0.137255 0.094118
0.321569 0.137255 0.098039
0.360784 0.137255 0.101961
0.384314 0.133333 0.098039
0.419608 0.133333 0.105882
0.447059 0.133333 0.105882
0.482353 0.133333 0.101961
0.521569 0.133333 0.109804
0.552941 0.133333 0.109804
0.596078 0.129412 0.105882
0.635294 0.129412 0.105882
0.674510 0.129412 0.101961
0.721569 0.129412 0.101961
0.760784 0.129412 0.098039
0.803922 0.125490 0.098039
0.847059 0.125490 0.094118
0.894118 0.121569 0.090196
0.933333 0.113725 0.086275
0.972549 0.117647 0.082353
0.117647 0.176471 0.101961
0.137255 0.172549 0.098039
0.168627 0.176471 0.094118
0.196078 0.168627 0.098039
0.219608 0.176471 0.098039
0.254902 0.172549 0.098039
0.286275 0.172549 0.101961
0.321569 0.168627 0.101961
0.349020 0.164706 0.094118
0.388235 0.164706 0.098039
0.419608 0.160784 0.098039
0.454902 0.156863 0.101961
0.486275 0.160784 0.105882
0.521569 0.160784 0.101961
0.560784 0.160784 0.105882
0.596078 0.156863 0.101961
0.635294 0.156863 0.105882
0.674510 0.149020 0.101961
0.717647 0.156863 0.101961
0.768627 0.156863 0.105882
0.803922 0.152941 0.105882
0.858824 0.145098 0.094118
0.898039 0.145098 0.086275
0.941176 0.145098 0.078431
0.992157 0.149020 0.078431
0.117647 0.207843 0.094118
0.137255 0.211765 0.101961
0.156863 0.207843 0.098039
0.184314 0.196078 0.090196
0.219608 0.203922 0.098039
0.250980 0.203922 0.101961
0.290196 0.203922 0.109804
0.321569 0.196078 0.105882
0.356863 0.192157 0.105882
0.392157 0.196078 0.105882
0.427451 0.188235 0.105882
0.454902 0.188235 0.105882
0.490196 0.192157 0.101961
0.525490 0.184314 0.105882
0.564706 0.188235 0.101961
0.603922 0.188235 0.101961
0.639216 0.180392 0.101961
0.678431 0.184314 0.098039
0.733333 0.188235 0.098039
0.772549 0.188235 0.094118
0.815686 0.180392 0.090196
0.858824 0.184314 0.090196
0.905882 0.184314 0.090196
0.945098 0.176471 0.082353
0.988235 0.184314 0.078431
0.121569 0.227451 0.090196
0.141176 0.235294 0.094118
0.156863 0.243137 0.101961
0.184314 0.239216 0.101961
0.211765 0.235294 0.094118
0.250980 0.235294 0.098039
0.286275 0.227451 0.098039
0.329412 0.223529 0.105882
0.345098 0.231373 0.105882
0.376471 0.223529 0.101961
0.415686 0.223529 0.098039
0.443137 0.219608 0.101961
0.482353 0.219608 0.105882
0.521569 0.219608 0.109804
0.560784 0.219608 0.109804
0.600000 0.215686 0.109804
0.627451 0.215686 0.101961
0.666667 0.215686 0.101961
0.717647 0.215686 0.101961
0.756863 0.215686 0.101961
0.803922 0.219608 0.094118
0.847059 0.219608 0.094118
0.894118 0.215686 0.082353
0.933333 0.215686 0.082353
0.964706 0.223529 0.066667
0.125490 0.270588 0.101961
0.145098 0.266667 0.101961
0.160784 0.266667 0.098039
0.184314 0.266667 0.105882
0.207843 0.266667 0.098039
0.239216 0.274510 0.105882
0.290196 0.258824 0.105882
0.313725 0.262745 0.098039
0.349020 0.258824 0.098039
0.384314 0.258824 0.098039
0.411765 0.258824 0.098039
0.450980 0.258824 0.101961
0.482353 0.254902 0.105882
0.517647 0.250980 0.098039
0.560784 0.254902 0.105882
0.592157 0.258824 0.113725
0.635294 0.258824 0.109804
0.678431 0.254902 0.105882
0.713725 0.250980 0.094118
0.760784 0.254902 0.098039
0.807843 0.250980 0.094118
0.850980 0.258824 0.090196
0.890196 0.258824 0.086275
0.941176 0.250980 0.066667
0.980392 0.250980 0.066667
0.129412 0.294118 0.098039
0.149020 0.298039 0.098039
0.164706 0.298039 0.101961
0.192157 0.298039 0.098039
0.215686 0.301961 0.109804
0.243137 0.298039 0.098039
0.282353 0.298039 0.101961
0.317647 0.294118 0.098039
0.349020 0.294118 0.101961
0.384314 0.294118 0.098039
0.415686 0.290196 0.098039
0.450980 0.294118 0.101961
0.490196 0.294118 0.101961
0.517647 0.290196 0.101961
0.556863 0.290196 0.105882
0.596078 0.290196 0.101961
0.635294 0.290196 0.101961
0.674510 0.290196 0.098039
0.721569 0.290196 0.098039
0.760784 0.290196 0.086275
0.807843 0.294118 0.082353
0.847059 0.294118 0.086275
0.898039 0.290196 0.078431
0.937255 0.290196 0.078431
0.972549 0.290196 0.054902
0.137255 0.333333 0.094118
0.145098 0.333333 0.090196
0.172549 0.337255 0.090196
0.192157 0.333333 0.090196
0.211765 0.337255 0.090196
0.247059 0.329412 0.098039
0.278431 0.333333 0.094118
0.313725 0.329412 0.098039
0.345098 0.329412 0.090196
0.384314 0.325490 0.094118
0.415686 0.329412 0.094118
0.447059 0.329412 0.094118
0.482353 0.325490 0.086275
0.521569 0.329412 0.101961
0.556863 0.325490 0.105882
0.600000 0.321569 0.101961
0.635294 0.325490 0.101961
0.678431 0.321569 0.098039
0.721569 0.329412 0.094118
0.772549 0.329412 0.094118
0.815686 0.329412 0.094118
0.858824 0.329412 0.070588
0.898039 0.337255 0.070588
0.937255 0.337255 0.070588
0.976471 0.329412 0.062745
0.129412 0.368627 0.098039
0.149020 0.364706 0.098039
0.164706 0.372549 0.105882
0.188235 0.372549 0.098039
0.219608 0.364706 0.090196
0.247059 0.368627 0.094118
0.274510 0.376471 0.098039
0.301961 0.368627 0.090196
0.341176 0.368627 0.094118
0.376471 0.364706 0.086275
0.415686 0.364706 0.090196
0.447059 0.368627 0.090196
0.482353 0.364706 0.090196
0.521569 0.364706 0.094118
0.560784 0.360784 0.101961
0.596078 0.364706 0.098039
0.639216 0.364706 0.094118
0.678431 0.364706 0.094118
0.725490 0.368627 0.090196
0.772549 0.372549 0.090196
0.815686 0.368627 0.082353
0.858824 0.376471 0.074510
0.905882 0.372549 0.074510
0.949020 0.372549 0.066667
0.996078 0.372549 0.054902
0.129412 0.392157 0.090196
0.145098 0.388235 0.094118
0.164706 0.392157 0.094118
0.184314 0.396078 0.098039
0.211765 0.396078 0.090196
0.239216 0.400000 0.094118
0.266667 0.396078 0.086275
0.305882 0.396078 0.090196
0.337255 0.392157 0.082353
0.368627 0.396078 0.090196
0.407843 0.396078 0.086275
