app/src/main/assets/cube/Christmas 2.cube
TITLE "Christmas LUT #2"
#LUT size
LUT_3D_SIZE 25
#LUT data points
0.054902 0.164706 0.180392
0.078431 0.160784 0.180392
0.105882 0.160784 0.172549
0.129412 0.160784 0.172549
0.149020 0.160784 0.180392
0.176471 0.168627 0.188235
0.211765 0.164706 0.180392
0.239216 0.164706 0.180392
0.258824 0.172549 0.180392
0.305882 0.168627 0.184314
0.349020 0.172549 0.184314
0.388235 0.172549 0.184314
0.431373 0.172549 0.188235
0.482353 0.172549 0.192157
0.529412 0.176471 0.184314
0.576471 0.172549 0.184314
0.635294 0.168627 0.192157
0.682353 0.168627 0.188235
0.733333 0.164706 0.192157
0.780392 0.164706 0.192157
0.831373 0.160784 0.184314
0.878431 0.152941 0.184314
0.933333 0.149020 0.188235
0.980392 0.141176 0.180392
1.000000 0.133333 0.184314
0.043137 0.176471 0.180392
0.078431 0.172549 0.180392
0.101961 0.172549 0.180392
0.121569 0.176471 0.176471
0.156863 0.172549 0.184314
0.184314 0.176471 0.180392
0.200000 0.176471 0.176471
0.231373 0.176471 0.176471
0.270588 0.172549 0.184314
0.313725 0.180392 0.184314
0.345098 0.180392 0.184314
0.388235 0.184314 0.192157
0.431373 0.180392 0.184314
0.482353 0.184314 0.192157
0.533333 0.184314 0.192157
0.588235 0.184314 0.188235
0.631373 0.184314 0.184314
0.682353 0.180392 0.184314
0.729412 0.180392 0.184314
0.784314 0.180392 0.188235
0.835294 0.172549 0.192157
0.886275 0.168627 0.184314
0.925490 0.160784 0.184314
0.972549 0.152941 0.176471
1.000000 0.149020 0.180392
0.047059 0.188235 0.180392
0.070588 0.192157 0.172549
0.090196 0.192157 0.180392
0.113725 0.196078 0.176471
0.149020 0.184314 0.180392
0.168627 0.192157 0.184314
0.196078 0.192157 0.184314
0.235294 0.192157 0.184314
0.270588 0.188235 0.184314
0.305882 0.188235 0.180392
0.349020 0.192157 0.192157
0.392157 0.196078 0.192157
0.435294 0.196078 0.192157
0.486275 0.196078 0.192157
0.541176 0.196078 0.192157
0.588235 0.196078 0.196078
0.635294 0.196078 0.188235
0.678431 0.192157 0.184314
0.733333 0.192157 0.184314
0.788235 0.192157 0.188235
0.835294 0.188235 0.180392
0.882353 0.184314 0.184314
0.937255 0.176471 0.180392
0.980392 0.172549 0.180392
1.000000 0.168627 0.176471
0.039216 0.207843 0.172549
0.054902 0.207843 0.188235
0.074510 0.211765 0.184314
0.109804 0.207843 0.184314
0.141176 0.207843 0.184314
0.180392 0.203922 0.196078
0.203922 0.207843 0.184314
0.235294 0.207843 0.184314
0.266667 0.207843 0.180392
0.305882 0.207843 0.188235
0.345098 0.215686 0.188235
0.396078 0.207843 0.192157
0.443137 0.211765 0.196078
0.486275 0.207843 0.184314
0.533333 0.219608 0.192157
0.588235 0.215686 0.192157
0.635294 0.215686 0.184314
0.690196 0.215686 0.184314
0.737255 0.215686 0.188235
0.792157 0.215686 0.188235
0.839216 0.203922 0.184314
0.894118 0.196078 0.180392
0.933333 0.200000 0.180392
0.988235 0.196078 0.188235
1.000000 0.196078 0.184314
0.023529 0.223529 0.188235
0.054902 0.223529 0.188235
0.078431 0.223529 0.192157
0.101961 0.231373 0.188235
0.137255 0.223529 0.176471
0.164706 0.235294 0.188235
0.200000 0.231373 0.188235
0.227451 0.227451 0.188235
0.266667 0.231373 0.196078
0.301961 0.231373 0.192157
0.345098 0.227451 0.184314
0.396078 0.231373 0.184314
0.443137 0.239216 0.188235
0.486275 0.235294 0.188235
0.541176 0.235294 0.188235
0.588235 0.235294 0.192157
0.635294 0.235294 0.188235
0.690196 0.231373 0.192157
0.749020 0.239216 0.188235
0.792157 0.235294 0.188235
0.843137 0.231373 0.180392
0.890196 0.231373 0.180392
0.937255 0.231373 0.176471
0.980392 0.219608 0.180392
0.992157 0.223529 0.176471
0.015686 0.243137 0.188235
0.039216 0.243137 0.196078
0.066667 0.247059 0.196078
0.086275 0.247059 0.192157
0.121569 0.247059 0.188235
0.156863 0.247059 0.184314
0.192157 0.247059 0.188235
0.231373 0.247059 0.192157
0.270588 0.247059 0.192157
0.301961 0.250980 0.188235
0.345098 0.254902 0.192157
0.384314 0.254902 0.188235
0.439216 0.258824 0.196078
0.482353 0.258824 0.192157
0.529412 0.262745 0.188235
0.584314 0.258824 0.188235
0.635294 0.262745 0.184314
0.682353 0.262745 0.184314
0.733333 0.266667 0.188235
0.784314 0.262745 0.188235
0.835294 0.258824 0.180392
0.882353 0.258824 0.184314
0.933333 0.254902 0.188235
0.976471 0.250980 0.172549
0.992157 0.250980 0.172549
0.000000 0.278431 0.200000
0.019608 0.274510 0.196078
0.058824 0.274510 0.200000
0.086275 0.270588 0.192157
0.117647 0.270588 0.196078
0.149020 0.270588 0.200000
0.184314 0.266667 0.192157
0.223529 0.274510 0.196078
0.262745 0.274510 0.200000
0.301961 0.278431 0.192157
0.345098 0.282353 0.192157
0.388235 0.278431 0.192157
0.431373 0.282353 0.192157
0.490196 0.286275 0.192157
0.541176 0.290196 0.192157
0.584314 0.294118 0.196078
0.627451 0.290196 0.192157
0.686275 0.294118 0.192157
0.733333 0.298039 0.188235
0.784314 0.294118 0.184314
0.839216 0.290196 0.184314
0.894118 0.290196 0.180392
0.933333 0.286275 0.176471
0.976471 0.290196 0.176471
0.992157 0.282353 0.168627
0.000000 0.305882 0.184314
0.003922 0.301961 0.192157
0.035294 0.305882 0.196078
0.070588 0.298039 0.200000
0.121569 0.301961 0.192157
0.160784 0.301961 0.192157
0.188235 0.298039 0.200000
0.227451 0.298039 0.203922
0.262745 0.301961 0.196078
0.305882 0.305882 0.196078
0.345098 0.309804 0.196078
0.396078 0.313725 0.200000
0.447059 0.317647 0.196078
0.490196 0.313725 0.192157
0.541176 0.321569 0.192157
0.592157 0.321569 0.192157
0.639216 0.325490 0.188235
0.690196 0.325490 0.192157
0.737255 0.329412 0.184314
0.784314 0.329412 0.184314
0.835294 0.329412 0.176471
0.886275 0.329412 0.180392
0.933333 0.321569 0.164706
0.984314 0.317647 0.176471
1.000000 0.321569 0.176471
0.000000 0.333333 0.188235
0.000000 0.337255 0.192157
0.011765 0.333333 0.184314
0.074510 0.329412 0.203922
0.117647 0.337255 0.200000
0.149020 0.333333 0.200000
0.192157 0.341176 0.196078
0.231373 0.337255 0.200000
0.270588 0.329412 0.200000
0.313725 0.329412 0.200000
0.349020 0.341176 0.192157
0.392157 0.345098 0.196078
0.439216 0.349020 0.184314
0.490196 0.352941 0.196078
0.537255 0.349020 0.192157
0.596078 0.352941 0.192157
0.643137 0.356863 0.188235
0.690196 0.360784 0.188235
0.741176 0.360784 0.184314
0.796078 0.360784 0.180392
0.839216 0.360784 0.176471
0.890196 0.360784 0.176471
0.933333 0.360784 0.168627
0.980392 0.360784 0.172549
0.992157 0.356863 0.164706
0.007843 0.372549 0.196078
0.000000 0.368627 0.188235
0.000000 0.372549 0.192157
0.058824 0.368627 0.192157
0.105882 0.368627 0.200000
0.152941 0.376471 0.207843
0.196078 0.364706 0.196078
0.231373 0.372549 0.200000
0.270588 0.372549 0.196078
0.313725 0.376471 0.200000
0.364706 0.376471 0.200000
0.407843 0.364706 0.188235
0.450980 0.380392 0.200000
0.498039 0.376471 0.196078
0.549020 0.384314 0.196078
0.596078 0.388235 0.192157
0.647059 0.388235 0.184314
0.694118 0.392157 0.180392
0.745098 0.396078 0.176471
0.796078 0.403922 0.172549
0.843137 0.400000 0.172549
0.890196 0.400000 0.172549
0.933333 0.400000 0.164706
0.984314 0.396078 0.164706
1.000000 0.396078 0.160784
0.000000 0.400000 0.192157
0.003922 0.396078 0.200000
0.000000 0.396078 0.200000
0.035294 0.403922 0.200000
0.098039 0.396078 0.203922
0.152941 0.396078 0.196078
0.184314 0.400000 0.184314
0.231373 0.403922 0.196078
0.274510 0.400000 0.203922
0.313725 0.403922 0.200000
0.352941 0.403922 0.192157
0.392157 0.403922 0.188235
0.447059 0.411765 0.196078
0.490196 0.415686 0.188235
0.541176 0.415686 0.184314
0.596078 0.419608 0.188235
0.639216 0.427451 0.184314
0.686275 0.431373 0.180392
0.741176 0.427451 0.180392
0.788235 0.427451 0.172549
0.835294 0.431373 0.168627
0.882353 0.431373 0.168627
0.941176 0.435294 0.176471
0.988235 0.435294 0.164706
1.000000 0.435294 0.149020
0.003922 0.447059 0.196078
0.000000 0.443137 0.192157
0.000000 0.447059 0.192157
0.019608 0.447059 0.192157
0.090196 0.443137 0.192157
0.152941 0.443137 0.203922
0.200000 0.443137 0.196078
0.235294 0.439216 0.188235
0.282353 0.439216 0.192157
0.325490 0.443137 0.192157
0.364706 0.447059 0.192157
0.411765 0.447059 0.192157
0.450980 0.447059 0.192157
0.501961 0.450980 0.184314
0.545098 0.454902 0.192157
0.600000 0.454902 0.180392
0.643137 0.458824 0.184314
0.690196 0.462745 0.176471
0.741176 0.470588 0.176471
0.788235 0.466667 0.168627
0.835294 0.478431 0.168627
0.890196 0.478431 0.160784
0.933333 0.474510 0.160784
0.984314 0.478431 0.160784
0.996078 0.478431 0.152941
0.000000 0.490196 0.192157
0.003922 0.482353 0.196078
0.000000 0.490196 0.192157
0.011765 0.482353 0.192157
0.082353 0.490196 0.180392
0.149020 0.498039 0.184314
0.196078 0.486275 0.192157
0.243137 0.486275 0.192157
0.286275 0.486275 0.192157
0.333333 0.482353 0.188235
0.380392 0.482353 0.192157
0.419608 0.490196 0.192157
0.462745 0.490196 0.184314
0.501961 0.490196 0.188235
0.541176 0.498039 0.176471
0.588235 0.501961 0.176471
0.647059 0.505882 0.176471
0.690196 0.509804 0.172549
0.745098 0.509804 0.172549
0.788235 0.509804 0.164706
0.843137 0.513725 0.160784
0.886275 0.513725 0.160784
0.937255 0.513725 0.156863
0.984314 0.517647 0.156863
1.000000 0.509804 0.145098
0.000000 0.533333 0.200000
0.007843 0.525490 0.188235
0.007843 0.533333 0.184314
0.000000 0.533333 0.180392
0.082353 0.529412 0.184314
0.137255 0.541176 0.192157
0.196078 0.533333 0.184314
0.250980 0.525490 0.180392
0.286275 0.533333 0.184314
0.341176 0.541176 0.180392
0.392157 0.533333 0.188235
0.431373 0.525490 0.180392
0.470588 0.529412 0.172549
0.513725 0.537255 0.184314
0.556863 0.537255 0.176471
0.600000 0.537255 0.164706
0.647059 0.545098 0.164706
0.698039 0.549020 0.168627
0.741176 0.552941 0.160784
0.796078 0.552941 0.156863
0.839216 0.556863 0.156863
0.894118 0.560784 0.145098
0.945098 0.556863 0.149020
0.996078 0.552941 0.145098
1.000000 0.552941 0.125490
0.003922 0.576471 0.180392
0.000000 0.580392 0.172549
0.000000 0.584314 0.180392
0.003922 0.576471 0.180392
0.070588 0.576471 0.172549
0.149020 0.572549 0.176471
0.200000 0.580392 0.168627
0.254902 0.580392 0.172549
0.298039 0.576471 0.168627
0.341176 0.588235 0.176471
0.388235 0.580392 0.168627
0.427451 0.588235 0.180392
0.474510 0.580392 0.168627
0.517647 0.584314 0.168627
0.568627 0.580392 0.160784
0.611765 0.584314 0.164706
0.658824 0.588235 0.164706
0.698039 0.588235 0.156863
0.749020 0.592157 0.149020
0.796078 0.592157 0.152941
0.850980 0.592157 0.149020
0.898039 0.596078 0.149020
0.937255 0.600000 0.133333
0.988235 0.592157 0.129412
1.000000 0.596078 0.121569
0.000000 0.615686 0.156863
0.000000 0.611765 0.160784
0.000000 0.615686 0.172549
0.000000 0.615686 0.172549
0.062745 0.615686 0.172549
0.125490 0.611765 0.164706
0.192157 0.619608 0.160784
0.250980 0.615686 0.164706
0.294118 0.619608 0.156863
0.341176 0.615686 0.160784
0.388235 0.619608 0.164706
0.431373 0.615686 0.160784
0.482353 0.619608 0.164706
0.525490 0.623529 0.164706
0.568627 0.619608 0.164706
0.607843 0.619608 0.160784
0.650980 0.627451 0.156863
0.701961 0.627451 0.152941
0.749020 0.631373 0.152941
0.796078 0.635294 0.149020
0.847059 0.639216 0.137255
0.890196 0.635294 0.125490
0.937255 0.635294 0.125490
0.984314 0.639216 0.117647
1.000000 0.647059 0.113725
0.000000 0.666667 0.149020
0.000000 0.666667 0.149020
0.000000 0.670588 0.156863
0.000000 0.666667 0.156863
0.047059 0.662745 0.156863
0.125490 0.662745 0.152941
0.200000 0.670588 0.149020
0.250980 0.662745 0.156863
0.301961 0.666667 0.156863
0.349020 0.666667 0.160784
0.400000 0.662745 0.149020
0.439216 0.662745 0.149020
0.478431 0.662745 0.145098
0.525490 0.674510 0.145098
0.568627 0.678431 0.145098
0.623529 0.670588 0.145098
0.662745 0.670588 0.141176
0.705882 0.670588 0.133333
0.756863 0.670588 0.133333
0.800000 0.670588 0.125490
0.854902 0.678431 0.125490
0.898039 0.674510 0.121569
0.941176 0.670588 0.121569
0.988235 0.670588 0.105882
1.000000 0.674510 0.094118
0.000000 0.709804 0.133333
0.000000 0.713725 0.145098
0.007843 0.709804 0.145098
0.000000 0.717647 0.145098
0.039216 0.713725 0.141176
0.121569 0.701961 0.152941
0.192157 0.709804 0.137255
0.247059 0.717647 0.141176
0.301961 0.717647 0.137255
0.345098 0.713725 0.133333
0.400000 0.713725 0.137255
0.443137 0.717647 0.129412
0.486275 0.717647 0.129412
0.533333 0.713725 0.125490
0.580392 0.713725 0.137255
0.623529 0.713725 0.125490
0.674510 0.713725 0.129412
0.713725 0.717647 0.117647
0.760784 0.717647 0.121569
0.803922 0.721569 0.113725
0.850980 0.721569 0.105882
0.894118 0.721569 0.105882
0.945098 0.717647 0.094118
0.992157 0.717647 0.090196
1.000000 0.729412 0.082353
0.000000 0.760784 0.117647
0.000000 0.764706 0.121569
0.000000 0.764706 0.121569
0.000000 0.760784 0.125490
0.015686 0.764706 0.117647
0.121569 0.749020 0.113725
0.184314 0.756863 0.117647
0.247059 0.756863 0.121569
0.298039 0.760784 0.117647
0.349020 0.760784 0.121569
0.388235 0.760784 0.117647
0.439216 0.760784 0.121569
0.482353 0.768627 0.113725
0.533333 0.764706 0.113725
0.576471 0.760784 0.109804
0.627451 0.756863 0.101961
0.674510 0.756863 0.101961
0.725490 0.760784 0.105882
0.768627 0.756863 0.101961
0.815686 0.760784 0.098039
0.862745 0.756863 0.094118
0.917647 0.760784 0.082353
0.945098 0.760784 0.070588
0.992157 0.756863 0.066667
0.988235 0.768627 0.050980
0.000000 0.803922 0.101961
0.003922 0.807843 0.105882
0.003922 0.807843 0.105882
0.003922 0.803922 0.086275
0.000000 0.807843 0.094118
0.117647 0.800000 0.113725
0.172549 0.803922 0.105882
0.235294 0.815686 0.101961
0.301961 0.803922 0.094118
0.345098 0.807843 0.086275
0.400000 0.807843 0.090196
0.435294 0.803922 0.082353
0.490196 0.803922 0.086275
0.533333 0.800000 0.082353
0.588235 0.800000 0.078431
0.631373 0.803922 0.078431
0.682353 0.807843 0.082353
0.721569 0.807843 0.078431
0.768627 0.811765 0.074510
0.811765 0.807843 0.070588
0.862745 0.803922 0.054902
0.913725 0.807843 0.058824
0.945098 0.811765 0.043137
0.992157 0.803922 0.027451
0.996078 0.811765 0.019608
0.000000 0.843137 0.062745
0.003922 0.847059 0.066667
0.000000 0.839216 0.058824
0.000000 0.839216 0.058824
0.007843 0.835294 0.054902
0.082353 0.847059 0.062745
0.156863 0.843137 0.062745
0.231373 0.843137 0.070588
0.290196 0.843137 0.054902
0.337255 0.839216 0.058824
0.396078 0.843137 0.054902
0.439216 0.843137 0.047059
0.486275 0.843137 0.050980
0.529412 0.850980 0.043137
0.576471 0.850980 0.035294
0.623529 0.850980 0.035294
0.674510 0.847059 0.027451
0.717647 0.847059 0.019608
0.768627 0.847059 0.019608
0.811765 0.847059 0.019608
0.862745 0.850980 0.007843
0.901961 0.850980 0.003922
0.945098 0.847059 0.003922
0.992157 0.850980 0.000000
1.000000 0.843137 0.011765
0.000000 0.894118 0.019608
0.000000 0.894118 0.019608
0.003922 0.890196 0.019608
0.000000 0.886275 0.007843
0.007843 0.890196 0.003922
0.070588 0.890196 0.011765
0.149020 0.890196 0.011765
0.227451 0.894118 0.000000
0.278431 0.894118 0.003922
0.337255 0.898039 0.003922
0.384314 0.898039 0.003922
0.435294 0.894118 0.000000
0.490196 0.894118 0.003922
0.537255 0.894118 0.000000
0.588235 0.898039 0.000000
0.631373 0.894118 0.003922
0.674510 0.890196 0.003922
0.725490 0.894118 0.000000
0.768627 0.890196 0.000000
0.811765 0.894118 0.000000
0.862745 0.898039 0.000000
0.905882 0.894118 0.000000
0.949020 0.894118 0.000000
0.988235 0.890196 0.000000
1.000000 0.886275 0.000000
0.003922 0.941176 0.003922
0.000000 0.941176 0.000000
0.000000 0.937255 0.000000
0.000000 0.941176 0.000000
0.000000 0.937255 0.000000
0.047059 0.937255 0.007843
0.160784 0.933333 0.000000
0.215686 0.937255 0.003922
0.274510 0.937255 0.000000
0.337255 0.937255 0.003922
0.392157 0.933333 0.007843
0.439216 0.937255 0.007843
0.490196 0.941176 0.003922
0.533333 0.937255 0.007843
0.584314 0.937255 0.003922
0.631373 0.941176 0.003922
0.686275 0.941176 0.000000
0.725490 0.941176 0.000000
0.768627 0.937255 0.000000
0.819608 0.941176 0.000000
0.870588 0.937255 0.000000
0.905882 0.937255 0.000000
0.949020 0.937255 0.000000
0.996078 0.937255 0.000000
1.000000 0.941176 0.000000
0.000000 0.984314 0.000000
0.000000 0.988235 0.003922
0.000000 0.984314 0.000000
0.015686 0.980392 0.000000
0.000000 0.988235 0.000000
0.015686 0.980392 0.003922
0.125490 0.980392 0.011765
0.219608 0.976471 0.007843
0.278431 0.980392 0.000000
0.333333 0.988235 0.000000
0.384314 0.988235 0.000000
0.447059 0.980392 0.000000
0.490196 0.980392 0.000000
0.537255 0.988235 0.000000
0.584314 0.988235 0.000000
0.635294 0.984314 0.000000
0.674510 0.984314 0.000000
0.725490 0.988235 0.003922
0.768627 0.984314 0.000000
0.819608 0.988235 0.000000
0.862745 0.984314 0.000000
0.901961 0.984314 0.000000
0.945098 0.988235 0.000000
0.996078 0.984314 0.000000
1.000000 0.980392 0.000000
0.000000 1.000000 0.003922
0.000000 0.996078 0.000000
0.000000 1.000000 0.000000
0.003922 1.000000 0.000000
0.000000 0.996078 0.000000
0.003922 1.000000 0.000000
0.117647 1.000000 0.003922
0.211765 1.000000 0.003922
0.266667 1.000000 0.000000
0.333333 0.996078 0.003922
0.388235 0.996078 0.000000
0.443137 0.996078 0.000000
0.490196 1.000000 0.003922
0.537255 0.996078 0.000000
0.588235 1.000000 0.000000
0.639216 1.000000 0.003922
0.682353 1.000000 0.007843
0.725490 1.000000 0.003922
0.780392 1.000000 0.000000
0.827451 0.996078 0.000000
0.854902 1.000000 0.000000
0.898039 1.000000 0.000000
0.941176 1.000000 0.000000
0.992157 0.996078 0.000000
0.996078 0.996078 0.000000
0.050980 0.160784 0.203922
0.070588 0.160784 0.192157
0.105882 0.160784 0.196078
0.129412 0.156863 0.196078
0.152941 0.164706 0.200000
0.172549 0.160784 0.196078
0.211765 0.168627 0.200000
0.239216 0.172549 0.196078
0.266667 0.176471 0.200000
0.301961 0.172549 0.200000
0.352941 0.176471 0.203922
0.392157 0.176471 0.200000
0.435294 0.172549 0.200000
0.482353 0.172549 0.196078
0.533333 0.168627 0.200000
0.584314 0.172549 0.200000
0.627451 0.168627 0.200000
0.678431 0.164706 0.196078
0.733333 0.160784 0.200000
0.788235 0.160784 0.200000
0.839216 0.156863 0.196078
0.882353 0.149020 0.192157
0.937255 0.137255 0.184314
0.984314 0.137255 0.188235
1.000000 0.121569 0.184314
0.039216 0.176471 0.192157
0.066667 0.172549 0.200000
0.098039 0.172549 0.196078
0.125490 0.180392 0.192157
0.145098 0.172549 0.196078
0.176471 0.180392 0.200000
0.203922 0.176471 0.203922
0.239216 0.180392 0.200000
0.274510 0.176471 0.200000
0.309804 0.184314 0.203922
0.345098 0.180392 0.196078
0.388235 0.180392 0.203922
0.439216 0.184314 0.207843
0.482353 0.180392 0.203922
0.537255 0.188235 0.211765
0.584314 0.180392 0.196078
0.631373 0.180392 0.200000
0.686275 0.180392 0.200000
0.733333 0.180392 0.203922
0.784314 0.168627 0.196078
0.831373 0.168627 0.196078
0.886275 0.164706 0.196078
0.929412 0.156863 0.192157
0.972549 0.149020 0.184314
0.996078 0.145098 0.188235
0.035294 0.192157 0.192157
0.058824 0.192157 0.196078
0.094118 0.192157 0.207843
0.121569 0.192157 0.192157
0.149020 0.188235 0.192157
0.164706 0.200000 0.196078
0.207843 0.192157 0.196078
0.239216 0.192157 0.200000
0.274510 0.196078 0.200000
0.309804 0.200000 0.196078
0.349020 0.196078 0.200000
0.388235 0.200000 0.200000
0.439216 0.196078 0.200000
0.490196 0.200000 0.203922
0.533333 0.196078 0.200000
0.580392 0.196078 0.200000
0.639216 0.200000 0.196078
0.686275 0.192157 0.196078
0.737255 0.188235 0.200000
0.788235 0.188235 0.200000
0.843137 0.180392 0.192157
0.890196 0.184314 0.196078
0.937255 0.172549 0.188235
0.988235 0.168627 0.192157
1.000000 0.156863 0.188235
0.035294 0.211765 0.192157
0.054902 0.207843 0.203922
0.082353 0.207843 0.196078
0.105882 0.207843 0.196078
0.137255 0.211765 0.203922
0.168627 0.203922 0.192157
0.200000 0.207843 0.188235
0.231373 0.211765 0.196078
0.266667 0.203922 0.203922
0.309804 0.207843 0.203922
0.349020 0.211765 0.203922
0.396078 0.207843 0.200000
0.443137 0.211765 0.196078
0.486275 0.211765 0.203922
0.533333 0.215686 0.203922
0.588235 0.215686 0.200000
0.639216 0.211765 0.200000
0.690196 0.211765 0.200000
0.737255 0.207843 0.196078
0.792157 0.207843 0.192157
0.839216 0.203922 0.192157
0.886275 0.200000 0.188235
0.937255 0.200000 0.192157
0.988235 0.188235 0.192157
0.996078 0.188235 0.196078
0.023529 0.223529 0.188235
0.050980 0.227451 0.200000
0.074510 0.227451 0.207843
0.109804 0.223529 0.207843
0.129412 0.227451 0.203922
0.156863 0.231373 0.207843
0.203922 0.223529 0.200000
0.231373 0.231373 0.200000
0.266667 0.231373 0.203922
0.305882 0.231373 0.203922
0.352941 0.239216 0.207843
0.396078 0.227451 0.200000
0.447059 0.243137 0.200000
0.486275 0.235294 0.200000
0.545098 0.239216 0.200000
0.592157 0.239216 0.203922
0.639216 0.235294 0.200000
0.682353 0.235294 0.196078
0.741176 0.239216 0.196078
0.788235 0.235294 0.196078
0.847059 0.227451 0.192157
0.894118 0.223529 0.196078
0.937255 0.219608 0.196078
0.988235 0.215686 0.192157
0.992157 0.211765 0.184314
0.011765 0.247059 0.200000
0.039216 0.250980 0.200000
0.066667 0.247059 0.203922
0.094118 0.250980 0.207843
0.117647 0.250980 0.196078
0.149020 0.250980 0.200000
0.184314 0.247059 0.196078
0.219608 0.250980 0.200000
0.266667 0.250980 0.203922
0.301961 0.247059 0.196078
0.345098 0.254902 0.200000
0.388235 0.254902 0.207843
0.431373 0.258824 0.207843
0.486275 0.258824 0.211765
0.537255 0.254902 0.200000
0.588235 0.262745 0.207843
0.639216 0.258824 0.192157
0.690196 0.258824 0.192157
0.737255 0.262745 0.196078
0.784314 0.262745 0.196078
0.835294 0.258824 0.188235
0.886275 0.262745 0.188235
0.929412 0.258824 0.192157
0.972549 0.254902 0.184314
0.992157 0.247059 0.184314
0.007843 0.278431 0.203922
0.019608 0.270588 0.203922
0.047059 0.278431 0.200000
0.074510 0.278431 0.192157
0.121569 0.274510 0.200000
0.160784 0.274510 0.203922
0.188235 0.270588 0.203922
0.223529 0.274510 0.207843
0.262745 0.274510 0.207843
0.305882 0.278431 0.207843
0.341176 0.282353 0.200000
0.388235 0.282353 0.200000
0.435294 0.286275 0.203922
0.486275 0.290196 0.200000
0.541176 0.286275 0.200000
0.588235 0.290196 0.196078
0.635294 0.290196 0.203922
0.694118 0.294118 0.203922
0.745098 0.298039 0.203922
0.784314 0.290196 0.200000
0.839216 0.290196 0.192157
0.890196 0.286275 0.192157
0.933333 0.282353 0.188235
0.988235 0.282353 0.192157
1.000000 0.278431 0.184314
0.000000 0.305882 0.192157
0.003922 0.301961 0.200000
0.039216 0.294118 0.200000
0.070588 0.298039 0.203922
0.121569 0.298039 0.207843
0.152941 0.309804 0.207843
0.192157 0.301961 0.211765
0.231373 0.301961 0.207843
0.270588 0.301961 0.207843
0.305882 0.305882 0.203922
0.349020 0.301961 0.200000
0.396078 0.313725 0.207843
0.447059 0.313725 0.203922
0.494118 0.317647 0.203922
0.541176 0.317647 0.203922
0.592157 0.321569 0.200000
0.639216 0.321569 0.203922
0.690196 0.325490 0.196078
0.737255 0.325490 0.200000
0.788235 0.321569 0.196078
0.835294 0.325490 0.192157
0.890196 0.325490 0.192157
0.937255 0.321569 0.184314
0.980392 0.317647 0.188235
0.996078 0.317647 0.192157
0.000000 0.337255 0.200000
0.000000 0.341176 0.207843
0.015686 0.333333 0.203922
0.074510 0.329412 0.211765
0.105882 0.337255 0.211765
0.152941 0.337255 0.211765
0.180392 0.337255 0.203922
0.223529 0.341176 0.207843
0.262745 0.337255 0.211765
0.309804 0.337255 0.203922
0.352941 0.333333 0.207843
0.396078 0.337255 0.207843
0.443137 0.349020 0.207843
0.501961 0.352941 0.207843
0.545098 0.349020 0.203922
0.596078 0.352941 0.200000
0.643137 0.356863 0.196078
0.690196 0.356863 0.196078
0.741176 0.360784 0.192157
0.796078 0.360784 0.184314
0.843137 0.360784 0.188235
0.890196 0.360784 0.176471
0.933333 0.360784 0.176471
0.984314 0.364706 0.180392
0.996078 0.360784 0.180392
0.011765 0.368627 0.207843
0.000000 0.368627 0.203922
0.000000 0.376471 0.207843
0.047059 0.372549 0.207843
0.109804 0.372549 0.211765
0.152941 0.368627 0.211765
0.188235 0.372549 0.200000
0.227451 0.372549 0.200000
0.274510 0.372549 0.207843
0.313725 0.372549 0.203922
0.356863 0.368627 0.192157
0.407843 0.380392 0.207843
0.454902 0.384314 0.203922
0.494118 0.384314 0.200000
0.549020 0.384314 0.196078
0.596078 0.392157 0.196078
0.643137 0.396078 0.196078
0.694118 0.396078 0.192157
0.749020 0.396078 0.188235
0.792157 0.396078 0.176471
0.847059 0.403922 0.184314
0.894118 0.403922 0.184314
0.937255 0.400000 0.184314
0.988235 0.396078 0.180392
0.996078 0.396078 0.172549
0.000000 0.400000 0.203922
0.003922 0.396078 0.200000
0.000000 0.400000 0.203922
0.027451 0.407843 0.207843
0.098039 0.403922 0.207843
0.149020 0.400000 0.203922
0.188235 0.400000 0.196078
0.231373 0.403922 0.203922
0.274510 0.400000 0.203922
0.317647 0.407843 0.203922
0.364706 0.403922 0.200000
