app/src/main/assets/cube/Christmas 4.cube
TITLE "Christmas LUT #4"
#LUT size
LUT_3D_SIZE 5
#LUT data points
0.000000 0.000000 0.000000
0.321569 0.000000 0.015686
0.619608 0.000000 0.058824
0.905882 0.066667 0.160784
0.996078 0.231373 0.262745
0.086275 0.294118 0.011765
0.333333 0.298039 0.003922
0.627451 0.309804 0.125490
0.898039 0.333333 0.200000
1.000000 0.372549 0.294118
0.039216 0.607843 0.054902
0.313725 0.615686 0.066667
0.611765 0.600000 0.078431
0.874510 0.600000 0.215686
1.000000 0.615686 0.360784
0.000000 0.850980 0.168627
0.294118 0.854902 0.164706
0.564706 0.850980 0.164706
0.831373 0.839216 0.164706
0.996078 0.823529 0.301961
0.235294 1.000000 0.274510
0.356863 0.996078 0.294118
0.549020 1.000000 0.282353
0.776471 1.000000 0.305882
0.992157 1.000000 0.341176
0.023529 0.000000 0.345098
0.337255 0.000000 0.341176
0.615686 0.000000 0.349020
0.886275 0.125490 0.372549
0.996078 0.282353 0.439216
0.031373 0.290196 0.345098
0.325490 0.282353 0.345098
0.611765 0.313725 0.364706
0.878431 0.337255 0.388235
0.996078 0.403922 0.439216
0.000000 0.600000 0.333333
0.301961 0.603922 0.337255
0.596078 0.592157 0.329412
0.866667 0.600000 0.407843
1.000000 0.623529 0.486275
0.027451 0.847059 0.337255
0.294118 0.847059 0.345098
0.564706 0.843137 0.341176
0.835294 0.835294 0.349020
1.000000 0.827451 0.447059
0.266667 1.000000 0.415686
0.372549 0.996078 0.400000
0.560784 1.000000 0.407843
0.788235 1.000000 0.419608
0.996078 1.000000 0.443137
0.101961 0.003922 0.654902
0.337255 0.000000 0.643137
0.615686 0.000000 0.647059
0.870588 0.003922 0.619608
0.996078 0.215686 0.619608
0.000000 0.262745 0.643137
0.305882 0.266667 0.643137
0.615686 0.262745 0.647059
0.878431 0.282353 0.623529
1.000000 0.400000 0.643137
0.000000 0.588235 0.631373
0.286275 0.592157 0.639216
0.588235 0.588235 0.635294
0.835294 0.611765 0.639216
0.996078 0.662745 0.682353
0.117647 0.843137 0.615686
0.321569 0.850980 0.623529
0.576471 0.843137 0.619608
0.831373 0.831373 0.619608
0.992157 0.854902 0.698039
0.376471 1.000000 0.627451
0.450980 1.000000 0.623529
0.603922 1.000000 0.623529
0.800000 1.000000 0.627451
0.992157 1.000000 0.647059
0.117647 0.000000 0.878431
0.301961 0.003922 0.878431
0.568627 0.000000 0.882353
0.831373 0.000000 0.878431
1.000000 0.003922 0.866667
0.098039 0.254902 0.882353
0.294118 0.247059 0.874510
0.560784 0.258824 0.870588
0.823529 0.270588 0.874510
1.000000 0.298039 0.858824
0.125490 0.556863 0.866667
0.317647 0.556863 0.870588
0.572549 0.560784 0.870588
0.827451 0.564706 0.866667
1.000000 0.584314 0.866667
0.211765 0.823529 0.870588
0.349020 0.823529 0.866667
0.588235 0.823529 0.862745
0.827451 0.827451 0.858824
0.996078 0.870588 0.882353
0.388235 1.000000 0.835294
0.470588 1.000000 0.839216
0.627451 1.000000 0.835294
0.843137 1.000000 0.854902
1.000000 1.000000 0.866667
0.117647 0.000000 0.996078
0.286275 0.000000 1.000000
0.517647 0.000000 1.000000
0.756863 0.074510 0.996078
1.000000 0.168627 1.000000
0.160784 0.250980 1.000000
0.305882 0.254902 1.000000
0.525490 0.266667 1.000000
0.760784 0.301961 0.996078
0.992157 0.337255 0.996078
0.305882 0.552941 1.000000
0.376471 0.545098 0.996078
0.560784 0.549020 1.000000
0.780392 0.556863 1.000000
1.000000 0.580392 0.996078
0.403922 0.796078 1.000000
0.478431 0.792157 1.000000
0.631373 0.800000 1.000000
0.823529 0.815686 1.000000
0.988235 0.823529 1.000000
0.505882 1.000000 0.996078
0.556863 1.000000 0.992157
0.694118 1.000000 1.000000
0.898039 1.000000 0.996078
1.000000 1.000000 0.992157
