app/src/main/assets/cube/Christmas 7.cube
TITLE "Christmas LUT #7"
#LUT size
LUT_3D_SIZE 9
#LUT data points
0.133333 0.129412 0.121569
0.164706 0.133333 0.125490
0.227451 0.125490 0.121569
0.317647 0.129412 0.113725
0.466667 0.121569 0.113725
0.619608 0.117647 0.105882
0.788235 0.101961 0.090196
0.949020 0.078431 0.066667
0.992157 0.054902 0.043137
0.137255 0.168627 0.125490
0.160784 0.160784 0.121569
0.227451 0.160784 0.121569
0.321569 0.164706 0.117647
0.458824 0.176471 0.121569
0.627451 0.176471 0.101961
0.796078 0.172549 0.090196
0.945098 0.160784 0.062745
0.992157 0.152941 0.043137
0.129412 0.227451 0.113725
0.168627 0.231373 0.125490
0.235294 0.231373 0.113725
0.341176 0.247059 0.113725
0.474510 0.258824 0.105882
0.643137 0.270588 0.082353
0.803922 0.282353 0.062745
0.952941 0.278431 0.027451
0.992157 0.274510 0.000000
0.133333 0.345098 0.101961
0.172549 0.345098 0.098039
0.262745 0.349020 0.098039
0.356863 0.352941 0.098039
0.501961 0.368627 0.078431
0.650980 0.384314 0.050980
0.800000 0.392157 0.003922
0.945098 0.400000 0.000000
1.000000 0.396078 0.000000
0.113725 0.501961 0.000000
0.172549 0.513725 0.000000
0.282353 0.517647 0.000000
0.396078 0.513725 0.003922
0.529412 0.517647 0.000000
0.666667 0.521569 0.000000
0.815686 0.533333 0.000000
0.952941 0.529412 0.000000
1.000000 0.525490 0.003922
0.023529 0.678431 0.000000
0.156863 0.682353 0.003922
0.286275 0.678431 0.000000
0.415686 0.678431 0.000000
0.560784 0.670588 0.000000
0.698039 0.674510 0.000000
0.835294 0.678431 0.000000
0.960784 0.666667 0.000000
1.000000 0.662745 0.000000
0.000000 0.807843 0.000000
0.133333 0.815686 0.000000
0.270588 0.811765 0.000000
0.423529 0.811765 0.007843
0.545098 0.811765 0.000000
0.690196 0.803922 0.000000
0.827451 0.800000 0.000000
0.949020 0.800000 0.000000
0.996078 0.784314 0.011765
0.066667 0.933333 0.000000
0.176471 0.933333 0.000000
0.294118 0.933333 0.003922
0.419608 0.929412 0.000000
0.552941 0.933333 0.003922
0.690196 0.925490 0.003922
0.819608 0.925490 0.000000
0.945098 0.921569 0.000000
1.000000 0.917647 0.027451
0.243137 1.000000 0.101961
0.278431 1.000000 0.129412
0.356863 1.000000 0.133333
0.462745 1.000000 0.160784
0.576471 1.000000 0.176471
0.709804 1.000000 0.203922
0.835294 1.000000 0.239216
0.960784 1.000000 0.282353
1.000000 1.000000 0.317647
0.137255 0.125490 0.152941
0.168627 0.133333 0.152941
0.223529 0.133333 0.156863
0.321569 0.129412 0.152941
0.466667 0.098039 0.152941
0.619608 0.074510 0.149020
0.788235 0.027451 0.133333
0.949020 0.000000 0.121569
1.000000 0.003922 0.113725
0.137255 0.160784 0.145098
0.168627 0.168627 0.160784
0.231373 0.160784 0.160784
0.325490 0.160784 0.164706
0.466667 0.156863 0.141176
0.627451 0.149020 0.137255
0.796078 0.129412 0.129412
0.952941 0.121569 0.117647
1.000000 0.109804 0.090196
0.141176 0.223529 0.156863
0.176471 0.219608 0.164706
0.231373 0.227451 0.145098
0.341176 0.231373 0.145098
0.486275 0.250980 0.141176
0.643137 0.254902 0.129412
0.800000 0.258824 0.113725
0.952941 0.258824 0.098039
0.992157 0.254902 0.078431
0.109804 0.345098 0.133333
0.168627 0.345098 0.121569
0.254902 0.345098 0.133333
0.356863 0.352941 0.129412
0.501961 0.368627 0.117647
0.650980 0.384314 0.105882
0.811765 0.392157 0.078431
0.956863 0.392157 0.054902
0.996078 0.392157 0.054902
0.035294 0.505882 0.074510
0.145098 0.513725 0.082353
0.266667 0.509804 0.074510
0.400000 0.509804 0.066667
0.521569 0.509804 0.050980
0.670588 0.517647 0.019608
0.815686 0.525490 0.003922
0.952941 0.529412 0.003922
1.000000 0.521569 0.000000
0.007843 0.666667 0.000000
0.105882 0.670588 0.000000
0.266667 0.674510 0.000000
0.407843 0.674510 0.003922
0.549020 0.674510 0.003922
0.682353 0.670588 0.000000
0.827451 0.670588 0.000000
0.960784 0.662745 0.000000
0.996078 0.654902 0.000000
0.007843 0.803922 0.003922
0.094118 0.811765 0.003922
0.254902 0.811765 0.000000
0.407843 0.807843 0.000000
0.545098 0.807843 0.007843
0.686275 0.800000 0.000000
0.827451 0.807843 0.000000
0.949020 0.796078 0.007843
0.996078 0.788235 0.003922
0.019608 0.929412 0.003922
0.160784 0.941176 0.003922
0.286275 0.929412 0.000000
0.419608 0.929412 0.003922
0.549020 0.929412 0.000000
0.682353 0.929412 0.000000
0.815686 0.929412 0.000000
0.945098 0.917647 0.023529
0.992157 0.917647 0.129412
0.239216 1.000000 0.176471
0.278431 1.000000 0.176471
0.364706 1.000000 0.184314
0.458824 1.000000 0.200000
0.572549 0.996078 0.211765
0.705882 1.000000 0.235294
0.839216 1.000000 0.278431
0.960784 1.000000 0.313725
1.000000 1.000000 0.333333
0.137255 0.133333 0.203922
0.164706 0.133333 0.215686
0.235294 0.125490 0.215686
0.333333 0.121569 0.223529
0.478431 0.082353 0.247059
0.650980 0.000000 0.243137
0.803922 0.000000 0.219608
0.956863 0.000000 0.203922
0.996078 0.000000 0.196078
0.145098 0.156863 0.223529
0.168627 0.152941 0.211765
0.239216 0.156863 0.215686
0.333333 0.149020 0.219608
0.478431 0.125490 0.227451
0.639216 0.039216 0.219608
0.800000 0.000000 0.207843
0.960784 0.003922 0.207843
0.996078 0.000000 0.196078
0.125490 0.227451 0.215686
0.152941 0.231373 0.223529
0.227451 0.223529 0.207843
0.356863 0.223529 0.219608
0.494118 0.219608 0.211765
0.658824 0.219608 0.211765
0.811765 0.207843 0.200000
0.968627 0.207843 0.200000
1.000000 0.207843 0.192157
0.019608 0.349020 0.219608
0.109804 0.352941 0.200000
0.231373 0.356863 0.211765
0.364706 0.349020 0.203922
0.505882 0.356863 0.203922
0.654902 0.360784 0.196078
0.815686 0.376471 0.196078
0.960784 0.368627 0.192157
1.000000 0.368627 0.196078
0.003922 0.509804 0.188235
0.000000 0.509804 0.184314
0.231373 0.513725 0.184314
0.380392 0.505882 0.180392
0.529412 0.509804 0.188235
0.670588 0.513725 0.172549
0.819608 0.517647 0.172549
0.964706 0.517647 0.180392
1.000000 0.509804 0.180392
0.007843 0.674510 0.156863
0.000000 0.670588 0.152941
0.227451 0.670588 0.145098
0.392157 0.674510 0.149020
0.541176 0.670588 0.149020
0.686275 0.670588 0.149020
0.827451 0.658824 0.145098
0.960784 0.658824 0.156863
1.000000 0.654902 0.200000
0.000000 0.807843 0.129412
0.003922 0.803922 0.117647
0.219608 0.811765 0.125490
0.388235 0.807843 0.125490
0.541176 0.800000 0.125490
0.678431 0.803922 0.125490
0.823529 0.807843 0.141176
0.960784 0.796078 0.160784
0.992157 0.792157 0.192157
0.000000 0.933333 0.160784
0.117647 0.925490 0.152941
0.274510 0.929412 0.168627
0.403922 0.937255 0.176471
0.541176 0.929412 0.180392
0.674510 0.929412 0.184314
0.811765 0.925490 0.196078
0.945098 0.917647 0.215686
0.992157 0.905882 0.262745
0.239216 1.000000 0.278431
0.282353 0.996078 0.278431
0.360784 1.000000 0.286275
0.470588 1.000000 0.294118
0.576471 1.000000 0.309804
0.709804 1.000000 0.321569
0.839216 1.000000 0.356863
0.968627 0.996078 0.384314
1.000000 1.000000 0.411765
0.137255 0.129412 0.325490
0.176471 0.121569 0.329412
0.254902 0.117647 0.329412
0.345098 0.113725 0.333333
0.486275 0.062745 0.356863
0.647059 0.000000 0.368627
0.811765 0.000000 0.356863
0.960784 0.003922 0.349020
1.000000 0.000000 0.352941
0.113725 0.156863 0.333333
0.156863 0.149020 0.341176
0.250980 0.149020 0.333333
0.349020 0.137255 0.329412
0.490196 0.101961 0.352941
0.647059 0.011765 0.349020
0.803922 0.000000 0.356863
0.964706 0.000000 0.345098
1.000000 0.000000 0.337255
0.074510 0.239216 0.337255
0.133333 0.227451 0.329412
0.235294 0.223529 0.345098
0.368627 0.211765 0.345098
0.505882 0.207843 0.349020
0.662745 0.180392 0.352941
0.823529 0.149020 0.345098
0.968627 0.117647 0.333333
0.996078 0.129412 0.337255
0.007843 0.345098 0.349020
0.074510 0.356863 0.341176
0.227451 0.352941 0.341176
0.360784 0.345098 0.341176
0.513725 0.341176 0.329412
0.662745 0.345098 0.333333
0.823529 0.345098 0.333333
0.960784 0.341176 0.337255
0.996078 0.349020 0.341176
0.000000 0.509804 0.337255
0.000000 0.509804 0.337255
0.176471 0.513725 0.337255
0.364706 0.513725 0.329412
0.533333 0.505882 0.333333
0.678431 0.509804 0.333333
0.827451 0.509804 0.341176
0.964706 0.505882 0.333333
0.988235 0.505882 0.333333
0.000000 0.670588 0.333333
0.000000 0.678431 0.337255
0.152941 0.674510 0.325490
0.368627 0.666667 0.321569
0.537255 0.674510 0.321569
0.690196 0.670588 0.313725
0.835294 0.662745 0.321569
0.960784 0.654902 0.333333
1.000000 0.647059 0.368627
0.003922 0.811765 0.317647
0.000000 0.815686 0.305882
0.168627 0.807843 0.309804
0.376471 0.811765 0.309804
0.533333 0.807843 0.317647
0.682353 0.803922 0.305882
0.827451 0.803922 0.325490
0.952941 0.792157 0.329412
1.000000 0.780392 0.360784
0.007843 0.937255 0.341176
0.070588 0.933333 0.337255
0.250980 0.933333 0.341176
0.407843 0.933333 0.356863
0.537255 0.929412 0.341176
0.674510 0.925490 0.345098
0.811765 0.921569 0.352941
0.941176 0.917647 0.368627
1.000000 0.901961 0.396078
0.254902 1.000000 0.403922
0.298039 0.996078 0.407843
0.376471 0.996078 0.411765
0.462745 1.000000 0.419608
0.584314 1.000000 0.419608
0.709804 1.000000 0.435294
0.831373 1.000000 0.447059
0.960784 1.000000 0.478431
0.996078 1.000000 0.490196
0.129412 0.113725 0.482353
0.176471 0.109804 0.486275
0.266667 0.105882 0.482353
0.384314 0.074510 0.486275
0.505882 0.003922 0.486275
0.647059 0.000000 0.501961
0.800000 0.000000 0.513725
0.964706 0.000000 0.498039
1.000000 0.003922 0.482353
0.098039 0.145098 0.482353
0.168627 0.145098 0.490196
0.254902 0.137255 0.482353
0.376471 0.121569 0.490196
0.505882 0.078431 0.490196
0.650980 0.000000 0.486275
0.811765 0.000000 0.509804
0.964706 0.000000 0.513725
1.000000 0.003922 0.490196
0.003922 0.215686 0.498039
0.058824 0.215686 0.490196
0.235294 0.211765 0.501961
0.380392 0.200000 0.494118
0.513725 0.180392 0.498039
0.662745 0.160784 0.494118
0.815686 0.129412 0.501961
0.960784 0.090196 0.494118
1.000000 0.094118 0.486275
0.007843 0.352941 0.494118
0.003922 0.349020 0.490196
0.184314 0.349020 0.505882
0.356863 0.337255 0.498039
0.517647 0.329412 0.494118
0.674510 0.337255 0.490196
0.835294 0.329412 0.490196
0.960784 0.321569 0.490196
1.000000 0.333333 0.486275
0.000000 0.505882 0.490196
0.003922 0.509804 0.494118
0.164706 0.501961 0.490196
0.352941 0.505882 0.494118
0.521569 0.505882 0.494118
0.674510 0.501961 0.490196
0.831373 0.505882 0.490196
0.952941 0.501961 0.490196
1.000000 0.501961 0.498039
0.000000 0.678431 0.509804
0.003922 0.674510 0.501961
0.101961 0.674510 0.498039
0.345098 0.670588 0.498039
0.525490 0.666667 0.486275
0.690196 0.662745 0.482353
0.831373 0.658824 0.482353
0.960784 0.654902 0.501961
1.000000 0.654902 0.505882
0.000000 0.815686 0.486275
0.003922 0.811765 0.490196
0.133333 0.811765 0.490196
0.349020 0.815686 0.486275
0.529412 0.811765 0.482353
0.678431 0.803922 0.478431
0.831373 0.803922 0.486275
0.956863 0.788235 0.482353
1.000000 0.788235 0.513725
0.011765 0.929412 0.486275
0.062745 0.925490 0.494118
0.262745 0.933333 0.494118
0.403922 0.929412 0.494118
0.541176 0.929412 0.501961
0.682353 0.933333 0.494118
0.811765 0.917647 0.498039
0.941176 0.925490 0.505882
1.000000 0.913725 0.517647
0.294118 0.996078 0.525490
0.321569 1.000000 0.529412
0.396078 1.000000 0.529412
0.478431 1.000000 0.533333
0.592157 1.000000 0.541176
0.713725 1.000000 0.541176
0.835294 1.000000 0.552941
0.968627 1.000000 0.572549
1.000000 1.000000 0.584314
0.121569 0.094118 0.635294
0.196078 0.082353 0.639216
0.290196 0.062745 0.635294
0.407843 0.015686 0.643137
0.533333 0.000000 0.635294
0.662745 0.000000 0.639216
0.807843 0.000000 0.639216
0.960784 0.000000 0.647059
0.984314 0.003922 0.639216
0.082353 0.137255 0.627451
0.164706 0.125490 0.639216
0.278431 0.105882 0.635294
0.400000 0.074510 0.639216
0.529412 0.000000 0.643137
0.674510 0.000000 0.643137
0.819608 0.000000 0.643137
0.964706 0.000000 0.639216
0.992157 0.003922 0.643137
0.000000 0.211765 0.647059
0.000000 0.211765 0.635294
0.235294 0.196078 0.647059
0.376471 0.184314 0.643137
0.533333 0.164706 0.650980
0.670588 0.133333 0.643137
0.823529 0.090196 0.635294
0.964706 0.054902 0.635294
1.000000 0.066667 0.627451
0.000000 0.341176 0.631373
0.000000 0.345098 0.650980
0.137255 0.325490 0.647059
0.349020 0.329412 0.643137
0.521569 0.317647 0.639216
0.674510 0.313725 0.647059
0.827451 0.309804 0.639216
0.968627 0.317647 0.639216
1.000000 0.321569 0.631373
0.000000 0.505882 0.647059
0.003922 0.498039 0.647059
0.098039 0.498039 0.647059
0.321569 0.494118 0.631373
0.513725 0.486275 0.650980
0.678431 0.490196 0.654902
0.835294 0.490196 0.647059
0.964706 0.494118 0.635294
1.000000 0.501961 0.631373
0.000000 0.666667 0.662745
0.000000 0.666667 0.643137
0.086275 0.670588 0.654902
0.333333 0.666667 0.647059
0.517647 0.658824 0.643137
0.686275 0.654902 0.643137
0.827451 0.654902 0.643137
0.952941 0.658824 0.647059
0.992157 0.666667 0.650980
0.000000 0.807843 0.627451
0.003922 0.811765 0.631373
0.117647 0.803922 0.635294
0.352941 0.803922 0.635294
0.537255 0.803922 0.643137
0.682353 0.803922 0.631373
0.827451 0.800000 0.635294
0.952941 0.800000 0.647059
1.000000 0.796078 0.643137
0.000000 0.925490 0.635294
0.145098 0.933333 0.635294
0.290196 0.925490 0.627451
0.431373 0.925490 0.635294
0.564706 0.925490 0.639216
0.686275 0.921569 0.639216
0.811765 0.921569 0.631373
0.949020 0.921569 0.639216
1.000000 0.917647 0.654902
0.364706 1.000000 0.666667
0.400000 1.000000 0.647059
0.450980 1.000000 0.650980
0.517647 0.996078 0.654902
0.611765 0.996078 0.662745
0.725490 1.000000 0.662745
0.847059 1.000000 0.674510
0.956863 1.000000 0.682353
1.000000 1.000000 0.698039
0.129412 0.058824 0.780392
0.200000 0.039216 0.776471
0.298039 0.007843 0.780392
0.415686 0.000000 0.776471
0.545098 0.003922 0.784314
0.682353 0.000000 0.776471
0.815686 0.000000 0.776471
0.960784 0.000000 0.780392
1.000000 0.000000 0.764706
0.082353 0.105882 0.780392
0.168627 0.094118 0.788235
0.278431 0.082353 0.776471
0.415686 0.023529 0.784314
0.541176 0.000000 0.780392
0.678431 0.003922 0.780392
0.823529 0.000000 0.776471
0.964706 0.000000 0.780392
1.000000 0.000000 0.764706
0.003922 0.188235 0.784314
0.000000 0.196078 0.780392
0.231373 0.176471 0.792157
0.380392 0.164706 0.776471
0.537255 0.141176 0.784314
0.678431 0.105882 0.784314
0.827451 0.043137 0.776471
0.964706 0.000000 0.772549
1.000000 0.027451 0.772549
0.000000 0.321569 0.792157
0.000000 0.321569 0.768627
0.137255 0.309804 0.784314
0.349020 0.309804 0.788235
0.525490 0.309804 0.780392
0.678431 0.301961 0.784314
0.827451 0.298039 0.772549
0.964706 0.298039 0.776471
1.000000 0.313725 0.768627
0.000000 0.490196 0.780392
0.000000 0.486275 0.776471
0.062745 0.486275 0.780392
0.333333 0.478431 0.792157
0.505882 0.478431 0.784314
0.666667 0.474510 0.784314
0.831373 0.474510 0.784314
0.972549 0.478431 0.768627
1.000000 0.498039 0.752941
0.000000 0.650980 0.776471
0.000000 0.650980 0.780392
0.086275 0.647059 0.772549
0.333333 0.647059 0.776471
0.513725 0.650980 0.776471
0.682353 0.643137 0.776471
0.827451 0.650980 0.780392
0.949020 0.654902 0.772549
1.000000 0.666667 0.764706
0.000000 0.807843 0.776471
0.007843 0.796078 0.772549
0.149020 0.796078 0.780392
0.368627 0.796078 0.776471
0.541176 0.803922 0.768627
0.690196 0.803922 0.784314
0.819608 0.800000 0.776471
0.937255 0.800000 0.784314
0.992157 0.800000 0.780392
0.078431 0.921569 0.760784
0.172549 0.925490 0.780392
0.305882 0.929412 0.768627
0.447059 0.921569 0.760784
0.572549 0.925490 0.776471
0.705882 0.917647 0.776471
0.819608 0.921569 0.768627
0.937255 0.921569 0.772549
1.000000 0.921569 0.776471
0.388235 0.996078 0.768627
0.403922 1.000000 0.776471
0.447059 1.000000 0.768627
0.537255 1.000000 0.776471
0.643137 0.996078 0.792157
0.737255 1.000000 0.788235
0.850980 0.996078 0.792157
0.960784 1.000000 0.796078
1.000000 1.000000 0.803922
0.113725 0.000000 0.894118
0.192157 0.000000 0.905882
0.298039 0.000000 0.909804
0.415686 0.000000 0.909804
0.541176 0.003922 0.905882
0.674510 0.000000 0.898039
0.811765 0.000000 0.901961
0.945098 0.000000 0.905882
1.000000 0.000000 0.901961
0.062745 0.066667 0.905882
0.156863 0.058824 0.905882
0.270588 0.031373 0.913725
0.400000 0.000000 0.909804
0.537255 0.000000 0.901961
0.670588 0.000000 0.905882
0.807843 0.000000 0.909804
0.952941 0.000000 0.909804
0.988235 0.003922 0.901961
0.000000 0.180392 0.901961
0.000000 0.172549 0.905882
0.223529 0.164706 0.905882
0.376471 0.152941 0.909804
0.521569 0.125490 0.909804
0.658824 0.094118 0.913725
0.811765 0.043137 0.905882
0.952941 0.000000 0.909804
0.988235 0.000000 0.890196
0.000000 0.313725 0.898039
0.003922 0.305882 0.909804
0.125490 0.305882 0.913725
0.352941 0.298039 0.913725
0.509804 0.298039 0.909804
0.654902 0.298039 0.905882
0.803922 0.298039 0.905882
0.952941 0.294118 0.909804
1.000000 0.298039 0.913725
0.003922 0.466667 0.898039
0.000000 0.470588 0.901961
0.027451 0.466667 0.890196
0.321569 0.466667 0.913725
0.498039 0.466667 0.905882
0.654902 0.466667 0.905882
0.800000 0.470588 0.909804
0.949020 0.474510 0.917647
1.000000 0.494118 0.894118
0.000000 0.631373 0.913725
0.000000 0.635294 0.905882
0.101961 0.627451 0.905882
0.333333 0.635294 0.909804
0.513725 0.631373 0.905882
0.662745 0.643137 0.905882
0.803922 0.643137 0.901961
0.941176 0.647059 0.901961
1.000000 0.654902 0.894118
0.000000 0.784314 0.894118
0.007843 0.780392 0.913725
0.215686 0.776471 0.909804
0.396078 0.784314 0.905882
0.545098 0.796078 0.905882
0.686275 0.792157 0.898039
0.815686 0.792157 0.901961
0.929412 0.796078 0.901961
1.000000 0.796078 0.898039
0.160784 0.925490 0.901961
0.223529 0.917647 0.894118
0.341176 0.913725 0.901961
0.450980 0.917647 0.894118
0.584314 0.917647 0.898039
0.713725 0.917647 0.901961
0.827451 0.913725 0.901961
0.933333 0.921569 0.894118
1.000000 0.925490 0.905882
0.403922 1.000000 0.894118
0.419608 1.000000 0.890196
0.474510 1.000000 0.894118
0.552941 0.992157 0.894118
0.647059 1.000000 0.898039
0.756863 1.000000 0.901961
0.858824 0.996078 0.909804
0.952941 1.000000 0.921569
1.000000 1.000000 0.929412
0.039216 0.000000 0.996078
0.145098 0.000000 1.000000
0.270588 0.000000 1.000000
0.388235 0.000000 1.000000
0.513725 0.000000 0.996078
0.647059 0.000000 1.000000
0.780392 0.000000 1.000000
0.905882 0.000000 0.996078
0.996078 0.000000 0.996078
0.000000 0.035294 0.996078
0.090196 0.015686 0.996078
0.235294 0.000000 0.996078
0.388235 0.000000 1.000000
0.505882 0.000000 1.000000
0.643137 0.000000 1.000000
0.772549 0.000000 1.000000
0.909804 0.003922 1.000000
1.000000 0.000000 0.988235
0.000000 0.164706 1.000000
0.003922 0.156863 1.000000
0.196078 0.152941 1.000000
0.356863 0.137255 1.000000
0.498039 0.121569 1.000000
0.643137 0.105882 1.000000
0.776471 0.086275 0.992157
0.913725 0.082353 1.000000
0.992157 0.101961 1.000000
0.007843 0.301961 1.000000
0.003922 0.305882 1.000000
0.078431 0.301961 0.996078
0.309804 0.298039 1.000000
0.486275 0.301961 1.000000
0.627451 0.301961 1.000000
0.768627 0.301961 0.992157
0.909804 0.309804 1.000000
1.000000 0.325490 1.000000
0.007843 0.450980 0.992157
0.000000 0.454902 1.000000
0.000000 0.450980 0.988235
0.301961 0.454902 1.000000
0.474510 0.458824 0.996078
0.623529 0.462745 1.000000
0.768627 0.470588 1.000000
0.913725 0.482353 1.000000
1.000000 0.494118 0.992157
0.000000 0.615686 1.000000
0.007843 0.611765 0.996078
0.117647 0.615686 0.988235
0.345098 0.619608 1.000000
0.494118 0.623529 0.996078
0.643137 0.627451 0.996078
0.780392 0.635294 1.000000
0.913725 0.643137 1.000000
0.996078 0.647059 1.000000
0.000000 0.764706 0.992157
0.141176 0.760784 1.000000
0.270588 0.756863 1.000000
0.411765 0.764706 1.000000
0.549020 0.780392 1.000000
0.678431 0.776471 0.996078
0.796078 0.784314 1.000000
0.913725 0.796078 1.000000
1.000000 0.796078 1.000000
0.290196 0.901961 0.992157
0.329412 0.901961 0.992157
0.403922 0.894118 1.000000
0.490196 0.898039 0.996078
0.603922 0.901961 1.000000
0.717647 0.905882 0.996078
0.823529 0.909804 1.000000
0.917647 0.921569 1.000000
1.000000 0.929412 1.000000
0.458824 1.000000 1.000000
0.478431 1.000000 0.996078
0.533333 0.996078 1.000000
0.588235 1.000000 1.000000
0.670588 1.000000 1.000000
0.772549 1.000000 0.996078
0.882353 1.000000 0.992157
0.976471 0.996078 1.000000
1.000000 1.000000 0.992157
