app/src/main/assets/cube/Christmas 3.cube
TITLE "Christmas LUT #3"
#LUT size
LUT_3D_SIZE 25
#LUT data points
0.003922 0.000000 0.000000
0.027451 0.003922 0.003922
0.066667 0.011765 0.011765
0.098039 0.011765 0.019608
0.145098 0.019608 0.031373
0.188235 0.023529 0.031373
0.227451 0.023529 0.039216
0.262745 0.019608 0.031373
0.313725 0.019608 0.035294
0.352941 0.015686 0.027451
0.407843 0.011765 0.027451
0.458824 0.007843 0.027451
0.513725 0.007843 0.027451
0.572549 0.019608 0.043137
0.627451 0.027451 0.047059
0.678431 0.031373 0.054902
0.729412 0.039216 0.050980
0.796078 0.047059 0.066667
0.854902 0.058824 0.070588
0.909804 0.070588 0.078431
0.956863 0.082353 0.086275
1.000000 0.105882 0.109804
1.000000 0.121569 0.125490
1.000000 0.133333 0.152941
1.000000 0.149020 0.152941
0.007843 0.027451 0.003922
0.027451 0.031373 0.011765
0.074510 0.031373 0.007843
0.113725 0.039216 0.023529
0.141176 0.047059 0.031373
0.184314 0.047059 0.031373
0.227451 0.047059 0.047059
0.270588 0.043137 0.027451
0.313725 0.047059 0.035294
0.360784 0.050980 0.031373
0.411765 0.047059 0.027451
0.470588 0.047059 0.035294
0.513725 0.050980 0.035294
0.572549 0.054902 0.035294
0.627451 0.066667 0.043137
0.678431 0.078431 0.054902
0.737255 0.074510 0.054902
0.800000 0.082353 0.066667
0.850980 0.094118 0.074510
0.905882 0.101961 0.082353
0.956863 0.113725 0.101961
1.000000 0.121569 0.113725
1.000000 0.137255 0.125490
1.000000 0.156863 0.145098
1.000000 0.172549 0.168627
0.031373 0.058824 0.027451
0.043137 0.066667 0.019608
0.086275 0.062745 0.015686
0.113725 0.062745 0.027451
0.149020 0.074510 0.015686
0.184314 0.074510 0.031373
0.227451 0.070588 0.031373
0.266667 0.078431 0.031373
0.313725 0.078431 0.035294
0.360784 0.078431 0.023529
0.415686 0.078431 0.027451
0.466667 0.082353 0.031373
0.525490 0.094118 0.035294
0.576471 0.094118 0.035294
0.635294 0.101961 0.047059
0.686275 0.105882 0.050980
0.741176 0.113725 0.050980
0.796078 0.117647 0.054902
0.854902 0.125490 0.066667
0.909804 0.133333 0.082353
0.956863 0.141176 0.094118
1.000000 0.149020 0.113725
1.000000 0.164706 0.133333
0.996078 0.184314 0.145098
1.000000 0.192157 0.168627
0.047059 0.098039 0.019608
0.066667 0.101961 0.027451
0.086275 0.098039 0.023529
0.109804 0.101961 0.019608
0.149020 0.105882 0.035294
0.203922 0.105882 0.027451
0.231373 0.109804 0.031373
0.274510 0.113725 0.035294
0.313725 0.113725 0.031373
0.368627 0.113725 0.035294
0.415686 0.121569 0.031373
0.466667 0.121569 0.027451
0.525490 0.133333 0.039216
0.576471 0.137255 0.043137
0.631373 0.145098 0.050980
0.694118 0.152941 0.050980
0.741176 0.152941 0.054902
0.807843 0.164706 0.066667
0.858824 0.168627 0.074510
0.913725 0.172549 0.086275
0.960784 0.180392 0.098039
1.000000 0.184314 0.117647
1.000000 0.203922 0.137255
1.000000 0.207843 0.152941
0.996078 0.219608 0.176471
0.066667 0.129412 0.027451
0.078431 0.141176 0.039216
0.098039 0.133333 0.027451
0.133333 0.133333 0.031373
0.160784 0.133333 0.023529
0.200000 0.145098 0.039216
0.235294 0.141176 0.031373
0.274510 0.141176 0.031373
0.325490 0.149020 0.035294
0.368627 0.152941 0.031373
0.415686 0.164706 0.027451
0.462745 0.164706 0.031373
0.525490 0.168627 0.047059
0.572549 0.180392 0.054902
0.631373 0.184314 0.050980
0.694118 0.192157 0.054902
0.756863 0.196078 0.062745
0.807843 0.203922 0.070588
0.862745 0.207843 0.074510
0.917647 0.215686 0.090196
0.964706 0.223529 0.105882
1.000000 0.235294 0.125490
1.000000 0.231373 0.129412
0.996078 0.243137 0.160784
1.000000 0.254902 0.180392
0.066667 0.164706 0.039216
0.086275 0.168627 0.047059
0.109804 0.168627 0.039216
0.129412 0.168627 0.035294
0.160784 0.164706 0.039216
0.192157 0.168627 0.035294
0.227451 0.172549 0.027451
0.274510 0.180392 0.039216
0.313725 0.180392 0.035294
0.360784 0.188235 0.043137
0.411765 0.196078 0.043137
0.458824 0.203922 0.047059
0.513725 0.211765 0.047059
0.564706 0.215686 0.043137
0.627451 0.223529 0.047059
0.678431 0.239216 0.058824
0.741176 0.239216 0.062745
0.796078 0.243137 0.074510
0.850980 0.250980 0.086275
0.905882 0.254902 0.090196
0.945098 0.266667 0.101961
0.996078 0.266667 0.117647
1.000000 0.266667 0.129412
0.996078 0.270588 0.149020
1.000000 0.282353 0.180392
0.086275 0.207843 0.043137
0.113725 0.203922 0.039216
0.113725 0.211765 0.058824
0.137255 0.203922 0.039216
0.172549 0.200000 0.039216
0.203922 0.215686 0.047059
0.235294 0.200000 0.031373
0.270588 0.211765 0.043137
0.313725 0.219608 0.047059
0.368627 0.223529 0.047059
0.419608 0.231373 0.050980
0.470588 0.231373 0.047059
0.517647 0.243137 0.043137
0.572549 0.254902 0.039216
0.635294 0.266667 0.054902
0.682353 0.270588 0.047059
0.745098 0.278431 0.058824
0.800000 0.286275 0.066667
0.858824 0.290196 0.082353
0.905882 0.294118 0.094118
0.952941 0.301961 0.105882
1.000000 0.309804 0.125490
1.000000 0.305882 0.133333
1.000000 0.309804 0.149020
0.996078 0.321569 0.172549
0.113725 0.247059 0.047059
0.121569 0.247059 0.050980
0.133333 0.250980 0.047059
0.156863 0.250980 0.054902
0.180392 0.250980 0.062745
0.211765 0.243137 0.050980
0.247059 0.247059 0.043137
0.282353 0.254902 0.050980
0.325490 0.258824 0.047059
0.372549 0.270588 0.047059
0.415686 0.274510 0.047059
0.462745 0.282353 0.047059
0.525490 0.298039 0.050980
0.576471 0.301961 0.058824
0.635294 0.305882 0.054902
0.690196 0.317647 0.058824
0.749020 0.325490 0.070588
0.807843 0.329412 0.074510
0.858824 0.333333 0.086275
0.909804 0.341176 0.094118
0.956863 0.345098 0.113725
1.000000 0.349020 0.133333
0.996078 0.356863 0.133333
1.000000 0.352941 0.168627
1.000000 0.364706 0.184314
0.125490 0.305882 0.062745
0.133333 0.294118 0.058824
0.156863 0.290196 0.054902
0.180392 0.290196 0.050980
0.200000 0.294118 0.058824
0.235294 0.298039 0.054902
0.262745 0.294118 0.058824
0.298039 0.298039 0.054902
0.333333 0.301961 0.054902
0.376471 0.305882 0.047059
0.423529 0.317647 0.054902
0.470588 0.325490 0.050980
0.525490 0.333333 0.062745
0.588235 0.345098 0.050980
0.639216 0.349020 0.054902
0.698039 0.360784 0.058824
0.752941 0.372549 0.070588
0.811765 0.372549 0.074510
0.858824 0.380392 0.086275
0.909804 0.384314 0.098039
0.952941 0.388235 0.113725
1.000000 0.392157 0.133333
0.996078 0.392157 0.149020
1.000000 0.396078 0.172549
1.000000 0.396078 0.196078
0.141176 0.345098 0.050980
0.145098 0.341176 0.054902
0.172549 0.341176 0.058824
0.184314 0.341176 0.054902
0.215686 0.341176 0.054902
0.243137 0.345098 0.058824
0.274510 0.345098 0.054902
0.309804 0.352941 0.054902
0.349020 0.349020 0.058824
0.384314 0.356863 0.050980
0.431373 0.364706 0.058824
0.478431 0.364706 0.058824
0.545098 0.388235 0.054902
0.588235 0.392157 0.058824
0.650980 0.400000 0.058824
0.701961 0.411765 0.062745
0.760784 0.415686 0.062745
0.811765 0.419608 0.074510
0.866667 0.427451 0.090196
0.913725 0.435294 0.101961
0.968627 0.439216 0.121569
0.996078 0.439216 0.141176
1.000000 0.439216 0.152941
1.000000 0.447059 0.176471
1.000000 0.447059 0.196078
0.156863 0.384314 0.054902
0.168627 0.376471 0.054902
0.188235 0.380392 0.058824
0.207843 0.384314 0.058824
0.231373 0.384314 0.058824
0.254902 0.388235 0.058824
0.286275 0.384314 0.054902
0.321569 0.392157 0.062745
0.352941 0.388235 0.062745
0.392157 0.388235 0.062745
0.435294 0.396078 0.054902
0.470588 0.403922 0.050980
0.529412 0.415686 0.054902
0.584314 0.427451 0.054902
0.639216 0.435294 0.047059
0.698039 0.447059 0.062745
0.749020 0.454902 0.054902
0.803922 0.458824 0.066667
0.850980 0.466667 0.078431
0.905882 0.474510 0.101961
0.949020 0.474510 0.117647
0.992157 0.474510 0.141176
1.000000 0.474510 0.156863
1.000000 0.478431 0.176471
1.000000 0.482353 0.200000
0.184314 0.447059 0.066667
0.172549 0.447059 0.058824
0.200000 0.443137 0.054902
0.223529 0.443137 0.054902
0.254902 0.439216 0.062745
0.266667 0.450980 0.050980
0.309804 0.443137 0.062745
0.333333 0.443137 0.050980
0.368627 0.447059 0.058824
0.411765 0.454902 0.054902
0.450980 0.454902 0.054902
0.494118 0.458824 0.054902
0.537255 0.462745 0.058824
0.588235 0.478431 0.058824
0.643137 0.482353 0.066667
0.694118 0.490196 0.058824
0.749020 0.498039 0.066667
0.800000 0.513725 0.078431
0.854902 0.509804 0.086275
0.901961 0.513725 0.105882
0.949020 0.521569 0.125490
0.992157 0.521569 0.149020
1.000000 0.517647 0.152941
1.000000 0.513725 0.184314
1.000000 0.513725 0.215686
0.196078 0.509804 0.058824
0.200000 0.505882 0.066667
0.219608 0.490196 0.062745
0.239216 0.505882 0.070588
0.250980 0.494118 0.058824
0.294118 0.501961 0.047059
0.325490 0.498039 0.062745
0.352941 0.498039 0.054902
0.392157 0.501961 0.058824
0.427451 0.505882 0.054902
0.466667 0.505882 0.054902
0.509804 0.513725 0.054902
0.552941 0.517647 0.058824
0.600000 0.517647 0.058824
0.654902 0.529412 0.047059
0.701961 0.541176 0.054902
0.760784 0.549020 0.062745
0.811765 0.552941 0.074510
0.866667 0.556863 0.094118
0.901961 0.560784 0.109804
0.945098 0.560784 0.125490
0.988235 0.560784 0.149020
1.000000 0.560784 0.176471
0.996078 0.560784 0.200000
1.000000 0.552941 0.227451
0.203922 0.564706 0.043137
0.223529 0.560784 0.070588
0.231373 0.556863 0.047059
0.250980 0.549020 0.054902
0.274510 0.568627 0.070588
0.298039 0.560784 0.054902
0.329412 0.560784 0.058824
0.364706 0.564706 0.066667
0.400000 0.560784 0.058824
0.443137 0.564706 0.058824
0.482353 0.564706 0.058824
0.521569 0.564706 0.054902
0.560784 0.564706 0.054902
0.611765 0.572549 0.054902
0.662745 0.572549 0.054902
0.713725 0.588235 0.058824
0.768627 0.596078 0.074510
0.815686 0.603922 0.086275
0.858824 0.603922 0.101961
0.905882 0.611765 0.121569
0.949020 0.611765 0.145098
0.988235 0.611765 0.168627
1.000000 0.603922 0.188235
0.992157 0.603922 0.207843
0.996078 0.603922 0.235294
0.223529 0.619608 0.062745
0.243137 0.611765 0.062745
0.250980 0.615686 0.062745
0.270588 0.611765 0.066667
0.290196 0.623529 0.062745
0.313725 0.615686 0.058824
0.345098 0.615686 0.054902
0.380392 0.623529 0.062745
0.419608 0.623529 0.058824
0.450980 0.623529 0.054902
0.498039 0.623529 0.054902
0.541176 0.627451 0.058824
0.588235 0.623529 0.054902
0.627451 0.623529 0.058824
0.670588 0.631373 0.054902
0.721569 0.635294 0.066667
0.768627 0.643137 0.082353
0.823529 0.643137 0.101961
0.870588 0.650980 0.121569
0.917647 0.647059 0.137255
0.956863 0.650980 0.164706
0.988235 0.647059 0.192157
1.000000 0.647059 0.215686
1.000000 0.650980 0.250980
1.000000 0.647059 0.270588
0.227451 0.662745 0.058824
0.243137 0.662745 0.054902
0.258824 0.662745 0.058824
0.278431 0.654902 0.058824
0.301961 0.658824 0.058824
0.325490 0.658824 0.058824
0.356863 0.658824 0.054902
0.400000 0.658824 0.062745
0.427451 0.658824 0.054902
0.470588 0.662745 0.058824
0.505882 0.666667 0.054902
0.541176 0.674510 0.062745
0.580392 0.670588 0.070588
0.631373 0.674510 0.070588
0.670588 0.674510 0.070588
0.721569 0.678431 0.074510
0.772549 0.678431 0.082353
0.819608 0.686275 0.094118
0.862745 0.690196 0.109804
0.909804 0.686275 0.133333
0.941176 0.690196 0.164706
0.988235 0.682353 0.188235
0.996078 0.686275 0.219608
0.988235 0.686275 0.239216
0.996078 0.678431 0.266667
0.258824 0.721569 0.078431
0.278431 0.717647 0.082353
0.278431 0.717647 0.074510
0.294118 0.717647 0.078431
0.313725 0.725490 0.086275
0.333333 0.717647 0.078431
0.376471 0.713725 0.074510
0.411765 0.717647 0.074510
0.443137 0.721569 0.078431
0.486275 0.725490 0.078431
0.525490 0.725490 0.086275
0.564706 0.721569 0.090196
0.600000 0.725490 0.086275
0.647059 0.729412 0.090196
0.686275 0.729412 0.086275
0.741176 0.725490 0.094118
0.776471 0.729412 0.101961
0.811765 0.733333 0.117647
0.862745 0.733333 0.133333
0.905882 0.729412 0.160784
0.937255 0.729412 0.188235
0.980392 0.725490 0.215686
1.000000 0.729412 0.231373
0.996078 0.717647 0.254902
1.000000 0.717647 0.282353
0.278431 0.772549 0.105882
0.294118 0.776471 0.113725
0.298039 0.776471 0.105882
0.317647 0.772549 0.101961
0.333333 0.776471 0.109804
0.360784 0.764706 0.101961
0.388235 0.768627 0.109804
0.423529 0.772549 0.113725
0.454902 0.776471 0.109804
0.494118 0.772549 0.113725
0.533333 0.776471 0.113725
0.572549 0.772549 0.117647
0.619608 0.772549 0.117647
0.658824 0.772549 0.113725
0.694118 0.776471 0.137255
0.737255 0.780392 0.137255
0.784314 0.780392 0.129412
0.827451 0.780392 0.137255
0.866667 0.776471 0.156863
0.909804 0.780392 0.180392
0.945098 0.768627 0.200000
0.976471 0.768627 0.227451
1.000000 0.772549 0.250980
1.000000 0.756863 0.274510
1.000000 0.756863 0.313725
0.309804 0.827451 0.156863
0.313725 0.827451 0.145098
0.325490 0.819608 0.156863
0.341176 0.819608 0.156863
0.352941 0.815686 0.141176
0.384314 0.811765 0.141176
0.415686 0.815686 0.149020
0.439216 0.815686 0.149020
0.474510 0.811765 0.149020
0.513725 0.815686 0.156863
0.549020 0.819608 0.156863
0.584314 0.815686 0.149020
0.623529 0.815686 0.152941
0.658824 0.819608 0.176471
0.698039 0.819608 0.176471
0.749020 0.819608 0.176471
0.788235 0.819608 0.180392
0.827451 0.819608 0.184314
0.866667 0.815686 0.196078
0.909804 0.819608 0.211765
0.945098 0.811765 0.219608
0.984314 0.807843 0.247059
1.000000 0.803922 0.282353
1.000000 0.803922 0.313725
0.996078 0.800000 0.349020
0.341176 0.866667 0.192157
0.341176 0.858824 0.188235
0.349020 0.858824 0.188235
0.360784 0.854902 0.188235
0.380392 0.858824 0.188235
0.403922 0.858824 0.188235
0.431373 0.858824 0.188235
0.462745 0.862745 0.196078
0.494118 0.858824 0.196078
0.525490 0.862745 0.200000
0.556863 0.858824 0.200000
0.596078 0.850980 0.200000
0.627451 0.854902 0.211765
0.666667 0.854902 0.219608
0.709804 0.858824 0.219608
0.752941 0.862745 0.223529
0.788235 0.858824 0.223529
0.819608 0.858824 0.235294
0.870588 0.858824 0.243137
0.913725 0.862745 0.258824
0.941176 0.858824 0.266667
0.972549 0.854902 0.282353
0.992157 0.843137 0.313725
0.996078 0.843137 0.345098
1.000000 0.835294 0.364706
0.349020 0.890196 0.219608
0.364706 0.890196 0.215686
0.372549 0.890196 0.219608
0.376471 0.886275 0.215686
0.392157 0.886275 0.219608
0.411765 0.890196 0.227451
0.435294 0.890196 0.227451
0.474510 0.890196 0.231373
0.490196 0.886275 0.227451
0.521569 0.886275 0.231373
0.560784 0.886275 0.235294
0.596078 0.890196 0.243137
0.635294 0.890196 0.254902
0.670588 0.890196 0.258824
0.705882 0.886275 0.254902
0.745098 0.886275 0.250980
0.784314 0.890196 0.274510
0.823529 0.890196 0.278431
0.854902 0.894118 0.278431
0.894118 0.890196 0.290196
0.933333 0.890196 0.294118
0.984314 0.882353 0.313725
1.000000 0.878431 0.329412
1.000000 0.870588 0.345098
1.000000 0.862745 0.380392
0.407843 0.925490 0.294118
0.403922 0.921569 0.282353
0.411765 0.925490 0.274510
0.415686 0.921569 0.282353
0.435294 0.925490 0.274510
0.435294 0.925490 0.290196
0.470588 0.921569 0.282353
0.490196 0.925490 0.282353
0.513725 0.925490 0.286275
0.549020 0.925490 0.290196
0.580392 0.925490 0.298039
0.607843 0.921569 0.298039
0.635294 0.925490 0.301961
0.678431 0.929412 0.313725
0.713725 0.925490 0.305882
0.752941 0.921569 0.325490
0.784314 0.921569 0.325490
0.807843 0.921569 0.317647
0.858824 0.921569 0.333333
0.898039 0.921569 0.341176
0.925490 0.917647 0.341176
0.976471 0.917647 0.356863
0.992157 0.917647 0.364706
1.000000 0.901961 0.380392
0.988235 0.913725 0.407843
0.435294 0.956863 0.352941
0.439216 0.952941 0.349020
0.450980 0.960784 0.341176
0.462745 0.952941 0.349020
0.474510 0.949020 0.349020
0.490196 0.956863 0.352941
0.501961 0.960784 0.349020
0.521569 0.956863 0.345098
0.545098 0.956863 0.349020
0.568627 0.956863 0.356863
0.600000 0.952941 0.364706
0.623529 0.952941 0.364706
0.654902 0.952941 0.364706
0.694118 0.952941 0.368627
0.717647 0.952941 0.372549
0.749020 0.952941 0.384314
0.784314 0.949020 0.384314
0.823529 0.945098 0.396078
0.858824 0.945098 0.407843
0.894118 0.949020 0.411765
0.925490 0.952941 0.411765
0.956863 0.949020 0.419608
0.996078 0.945098 0.435294
0.996078 0.945098 0.435294
0.996078 0.941176 0.462745
0.498039 0.980392 0.419608
0.490196 0.984314 0.411765
0.486275 0.980392 0.407843
0.513725 0.980392 0.415686
0.509804 0.988235 0.411765
0.521569 0.984314 0.411765
0.541176 0.980392 0.407843
0.560784 0.984314 0.415686
0.580392 0.976471 0.419608
0.603922 0.984314 0.431373
0.623529 0.988235 0.435294
0.650980 0.980392 0.431373
0.682353 0.984314 0.435294
0.698039 0.980392 0.447059
0.737255 0.980392 0.443137
0.768627 0.980392 0.443137
0.800000 0.980392 0.454902
0.831373 0.976471 0.462745
0.862745 0.980392 0.470588
0.898039 0.980392 0.482353
0.933333 0.972549 0.490196
0.960784 0.976471 0.501961
0.996078 0.976471 0.517647
0.992157 0.972549 0.513725
0.996078 0.976471 0.517647
0.560784 1.000000 0.498039
0.564706 1.000000 0.490196
0.549020 1.000000 0.486275
0.560784 1.000000 0.490196
0.560784 1.000000 0.490196
0.580392 1.000000 0.490196
0.588235 1.000000 0.486275
0.603922 1.000000 0.490196
0.619608 1.000000 0.494118
0.639216 1.000000 0.501961
0.662745 1.000000 0.501961
0.690196 1.000000 0.509804
0.709804 1.000000 0.509804
0.741176 1.000000 0.513725
0.768627 0.996078 0.521569
0.800000 1.000000 0.533333
0.823529 1.000000 0.541176
0.850980 1.000000 0.545098
0.882353 1.000000 0.552941
0.921569 1.000000 0.556863
0.949020 1.000000 0.568627
0.980392 1.000000 0.580392
0.996078 1.000000 0.584314
0.996078 1.000000 0.600000
1.000000 1.000000 0.607843
0.015686 0.003922 0.031373
0.043137 0.003922 0.035294
0.062745 0.011765 0.039216
0.098039 0.015686 0.043137
0.141176 0.019608 0.050980
0.180392 0.023529 0.054902
0.219608 0.027451 0.050980
0.258824 0.023529 0.054902
0.305882 0.027451 0.058824
0.349020 0.023529 0.062745
0.403922 0.023529 0.066667
0.454902 0.023529 0.066667
0.505882 0.019608 0.062745
0.564706 0.031373 0.078431
0.627451 0.039216 0.082353
0.674510 0.047059 0.086275
0.737255 0.054902 0.090196
0.788235 0.054902 0.090196
0.847059 0.062745 0.101961
0.913725 0.074510 0.105882
0.956863 0.098039 0.121569
0.996078 0.109804 0.125490
1.000000 0.125490 0.145098
0.992157 0.145098 0.164706
1.000000 0.164706 0.172549
0.011765 0.027451 0.023529
0.035294 0.035294 0.043137
0.062745 0.043137 0.031373
0.105882 0.043137 0.047059
0.141176 0.039216 0.050980
0.188235 0.054902 0.058824
0.227451 0.054902 0.050980
0.266667 0.050980 0.062745
0.298039 0.054902 0.066667
0.349020 0.058824 0.062745
0.403922 0.054902 0.062745
0.458824 0.054902 0.066667
0.509804 0.058824 0.070588
0.572549 0.070588 0.074510
0.623529 0.074510 0.078431
0.670588 0.082353 0.086275
0.733333 0.090196 0.094118
0.800000 0.094118 0.105882
0.858824 0.094118 0.109804
0.909804 0.101961 0.117647
0.952941 0.117647 0.125490
0.992157 0.137255 0.133333
1.000000 0.145098 0.141176
1.000000 0.160784 0.160784
1.000000 0.172549 0.196078
0.031373 0.058824 0.031373
0.054902 0.066667 0.039216
0.078431 0.066667 0.039216
0.113725 0.070588 0.054902
0.145098 0.070588 0.047059
0.184314 0.074510 0.058824
0.235294 0.078431 0.070588
0.270588 0.078431 0.062745
0.313725 0.082353 0.066667
0.356863 0.086275 0.066667
0.411765 0.086275 0.070588
0.458824 0.094118 0.074510
0.509804 0.098039 0.074510
0.564706 0.105882 0.078431
0.631373 0.101961 0.078431
0.678431 0.113725 0.082353
0.741176 0.121569 0.086275
0.796078 0.125490 0.094118
0.850980 0.133333 0.101961
0.905882 0.145098 0.109804
0.952941 0.152941 0.125490
1.000000 0.156863 0.137255
0.992157 0.172549 0.152941
0.996078 0.184314 0.160784
0.996078 0.192157 0.172549
0.050980 0.098039 0.058824
0.062745 0.094118 0.043137
0.098039 0.098039 0.066667
0.121569 0.098039 0.050980
0.152941 0.098039 0.062745
0.192157 0.105882 0.054902
0.227451 0.109804 0.066667
0.266667 0.109804 0.062745
0.309804 0.117647 0.062745
0.360784 0.117647 0.074510
0.411765 0.121569 0.070588
0.462745 0.125490 0.074510
0.509804 0.133333 0.078431
0.576471 0.141176 0.074510
0.627451 0.145098 0.082353
0.682353 0.149020 0.086275
0.745098 0.156863 0.098039
0.800000 0.160784 0.094118
0.858824 0.172549 0.105882
0.921569 0.176471 0.113725
0.964706 0.180392 0.121569
1.000000 0.192157 0.137255
1.000000 0.192157 0.141176
1.000000 0.211765 0.164706
1.000000 0.223529 0.188235
0.062745 0.137255 0.058824
0.078431 0.129412 0.058824
0.101961 0.137255 0.062745
0.133333 0.129412 0.050980
0.156863 0.129412 0.058824
0.196078 0.133333 0.070588
0.231373 0.145098 0.062745
0.274510 0.149020 0.066667
0.321569 0.156863 0.070588
0.360784 0.156863 0.070588
0.411765 0.160784 0.062745
0.458824 0.164706 0.074510
0.525490 0.172549 0.078431
0.572549 0.180392 0.086275
0.635294 0.188235 0.094118
0.690196 0.196078 0.098039
0.745098 0.196078 0.090196
0.807843 0.203922 0.101961
0.862745 0.215686 0.105882
0.917647 0.219608 0.117647
0.968627 0.223529 0.129412
1.000000 0.231373 0.137255
1.000000 0.239216 0.152941
1.000000 0.250980 0.176471
1.000000 0.258824 0.196078
0.070588 0.160784 0.058824
0.090196 0.160784 0.058824
0.113725 0.168627 0.066667
0.133333 0.168627 0.062745
0.164706 0.164706 0.062745
0.188235 0.164706 0.062745
0.227451 0.172549 0.066667
0.270588 0.176471 0.074510
0.309804 0.188235 0.066667
0.356863 0.188235 0.062745
0.400000 0.192157 0.066667
0.450980 0.196078 0.070588
0.505882 0.207843 0.082353
0.564706 0.215686 0.082353
0.627451 0.223529 0.086275
0.678431 0.231373 0.090196
0.741176 0.235294 0.082353
0.800000 0.243137 0.101961
0.854902 0.250980 0.109804
0.913725 0.254902 0.113725
0.952941 0.258824 0.125490
0.996078 0.262745 0.141176
1.000000 0.266667 0.152941
1.000000 0.282353 0.180392
1.000000 0.286275 0.200000
0.094118 0.211765 0.078431
0.109804 0.203922 0.070588
0.141176 0.207843 0.082353
0.145098 0.207843 0.062745
0.180392 0.203922 0.070588
0.203922 0.203922 0.070588
0.231373 0.207843 0.066667
0.274510 0.215686 0.062745
0.317647 0.215686 0.070588
0.364706 0.227451 0.070588
0.411765 0.235294 0.074510
0.466667 0.239216 0.082353
0.513725 0.250980 0.082353
0.564706 0.258824 0.078431
0.627451 0.262745 0.090196
0.690196 0.274510 0.086275
0.752941 0.278431 0.094118
0.803922 0.294118 0.101961
0.854902 0.298039 0.109804
0.905882 0.298039 0.117647
0.952941 0.305882 0.129412
1.000000 0.309804 0.149020
1.000000 0.313725 0.152941
1.000000 0.317647 0.172549
1.000000 0.329412 0.188235
0.109804 0.250980 0.078431
0.137255 0.243137 0.066667
0.133333 0.247059 0.058824
0.164706 0.250980 0.070588
0.192157 0.243137 0.070588
0.223529 0.250980 0.078431
0.250980 0.247059 0.074510
0.282353 0.250980 0.070588
0.325490 0.262745 0.070588
0.376471 0.266667 0.070588
0.419608 0.274510 0.070588
0.466667 0.282353 0.070588
0.525490 0.294118 0.074510
0.580392 0.301961 0.082353
0.631373 0.309804 0.090196
0.690196 0.317647 0.090196
0.752941 0.325490 0.094118
0.803922 0.333333 0.098039
0.862745 0.333333 0.105882
0.909804 0.341176 0.117647
0.956863 0.341176 0.125490
1.000000 0.349020 0.145098
1.000000 0.352941 0.164706
1.000000 0.360784 0.180392
1.000000 0.360784 0.196078
0.125490 0.294118 0.074510
0.141176 0.286275 0.082353
0.149020 0.298039 0.074510
0.164706 0.294118 0.070588
0.215686 0.294118 0.086275
0.231373 0.290196 0.074510
0.262745 0.298039 0.082353
0.298039 0.301961 0.078431
0.337255 0.301961 0.070588
0.380392 0.305882 0.074510
0.427451 0.317647 0.070588
0.482353 0.329412 0.074510
0.529412 0.337255 0.078431
0.592157 0.345098 0.082353
0.639216 0.352941 0.086275
0.701961 0.360784 0.090196
0.756863 0.368627 0.101961
0.811765 0.376471 0.098039
0.862745 0.380392 0.105882
0.913725 0.392157 0.121569
0.960784 0.392157 0.137255
0.996078 0.400000 0.152941
1.000000 0.396078 0.160784
0.996078 0.403922 0.188235
1.000000 0.403922 0.207843
0.141176 0.345098 0.086275
0.152941 0.345098 0.086275
0.164706 0.349020 0.082353
0.188235 0.345098 0.070588
0.219608 0.345098 0.082353
0.243137 0.341176 0.082353
0.270588 0.349020 0.078431
0.309804 0.349020 0.078431
0.349020 0.349020 0.074510
0.388235 0.356863 0.074510
0.431373 0.360784 0.078431
0.486275 0.368627 0.086275
0.533333 0.380392 0.070588
0.588235 0.388235 0.078431
0.643137 0.396078 0.086275
0.705882 0.411765 0.094118
0.764706 0.415686 0.101961
0.819608 0.423529 0.109804
0.870588 0.427451 0.113725
0.925490 0.431373 0.133333
0.960784 0.439216 0.137255
0.996078 0.443137 0.160784
1.000000 0.443137 0.184314
0.996078 0.447059 0.207843
1.000000 0.447059 0.227451
0.156863 0.384314 0.082353
0.172549 0.384314 0.086275
0.184314 0.384314 0.082353
0.200000 0.384314 0.078431
0.235294 0.384314 0.082353
0.258824 0.384314 0.086275
0.294118 0.388235 0.082353
0.325490 0.392157 0.086275
0.360784 0.388235 0.082353
0.396078 0.388235 0.086275
0.427451 0.396078 0.078431
