app/src/main/assets/cube/Christmas 6.cube
TITLE "Christmas LUT #6"
#LUT size
LUT_3D_SIZE 25
#LUT data points
0.156863 0.105882 0.133333
0.172549 0.105882 0.129412
0.192157 0.109804 0.129412
0.211765 0.105882 0.133333
0.243137 0.105882 0.133333
0.270588 0.101961 0.129412
0.301961 0.101961 0.129412
0.337255 0.098039 0.129412
0.376471 0.098039 0.129412
0.411765 0.094118 0.129412
0.458824 0.094118 0.133333
0.513725 0.094118 0.133333
0.568627 0.090196 0.133333
0.627451 0.090196 0.129412
0.686275 0.082353 0.121569
0.741176 0.074510 0.117647
0.800000 0.066667 0.109804
0.847059 0.054902 0.109804
0.894118 0.039216 0.101961
0.937255 0.023529 0.098039
0.980392 0.011765 0.094118
0.992157 0.000000 0.082353
1.000000 0.000000 0.082353
1.000000 0.000000 0.082353
0.992157 0.003922 0.062745
0.160784 0.117647 0.141176
0.168627 0.129412 0.133333
0.196078 0.121569 0.137255
0.215686 0.117647 0.133333
0.243137 0.117647 0.121569
0.262745 0.121569 0.129412
0.309804 0.117647 0.133333
0.337255 0.117647 0.129412
0.372549 0.117647 0.133333
0.411765 0.113725 0.129412
0.462745 0.113725 0.129412
0.517647 0.113725 0.129412
0.560784 0.109804 0.121569
0.619608 0.109804 0.117647
0.674510 0.109804 0.109804
0.745098 0.105882 0.109804
0.788235 0.098039 0.105882
0.847059 0.090196 0.101961
0.894118 0.086275 0.101961
0.937255 0.070588 0.098039
0.980392 0.054902 0.094118
1.000000 0.039216 0.090196
0.996078 0.023529 0.078431
0.996078 0.007843 0.066667
0.992157 0.000000 0.070588
0.168627 0.137255 0.125490
0.180392 0.141176 0.137255
0.192157 0.137255 0.133333
0.215686 0.137255 0.141176
0.247059 0.133333 0.141176
0.270588 0.129412 0.137255
0.294118 0.137255 0.137255
0.329412 0.133333 0.129412
0.368627 0.133333 0.129412
0.411765 0.133333 0.125490
0.462745 0.133333 0.125490
0.505882 0.137255 0.129412
0.560784 0.137255 0.125490
0.611765 0.133333 0.121569
0.682353 0.137255 0.117647
0.737255 0.137255 0.117647
0.788235 0.125490 0.105882
0.839216 0.121569 0.105882
0.890196 0.113725 0.101961
0.937255 0.105882 0.094118
0.976471 0.098039 0.090196
1.000000 0.086275 0.082353
0.996078 0.082353 0.066667
1.000000 0.066667 0.078431
0.992157 0.066667 0.074510
0.172549 0.160784 0.125490
0.176471 0.156863 0.133333
0.200000 0.156863 0.141176
0.223529 0.156863 0.129412
0.239216 0.156863 0.137255
0.274510 0.152941 0.141176
0.305882 0.160784 0.137255
0.333333 0.156863 0.133333
0.368627 0.152941 0.125490
0.411765 0.160784 0.125490
0.462745 0.160784 0.129412
0.509804 0.164706 0.125490
0.560784 0.164706 0.125490
0.611765 0.168627 0.113725
0.674510 0.172549 0.121569
0.733333 0.172549 0.109804
0.784314 0.168627 0.101961
0.835294 0.164706 0.098039
0.882353 0.152941 0.094118
0.921569 0.145098 0.094118
0.968627 0.145098 0.094118
1.000000 0.137255 0.082353
1.000000 0.133333 0.070588
1.000000 0.125490 0.066667
1.000000 0.109804 0.058824
0.172549 0.188235 0.133333
0.188235 0.180392 0.133333
0.207843 0.184314 0.137255
0.219608 0.180392 0.133333
0.243137 0.180392 0.129412
0.270588 0.184314 0.133333
0.294118 0.176471 0.133333
0.329412 0.180392 0.129412
0.372549 0.184314 0.129412
0.415686 0.188235 0.133333
0.454902 0.192157 0.125490
0.505882 0.196078 0.129412
0.556863 0.200000 0.125490
0.611765 0.200000 0.117647
0.670588 0.203922 0.117647
0.725490 0.207843 0.109804
0.780392 0.211765 0.105882
0.823529 0.196078 0.094118
0.878431 0.196078 0.098039
0.921569 0.196078 0.086275
0.964706 0.180392 0.078431
1.000000 0.176471 0.078431
1.000000 0.172549 0.066667
0.996078 0.164706 0.070588
1.000000 0.160784 0.066667
0.180392 0.215686 0.133333
0.196078 0.215686 0.137255
0.211765 0.219608 0.137255
0.227451 0.219608 0.137255
0.254902 0.211765 0.133333
0.278431 0.211765 0.133333
0.313725 0.215686 0.129412
0.352941 0.215686 0.137255
0.388235 0.223529 0.125490
0.427451 0.223529 0.129412
0.470588 0.231373 0.121569
0.525490 0.235294 0.121569
0.580392 0.247059 0.125490
0.639216 0.254902 0.117647
0.698039 0.250980 0.105882
0.752941 0.250980 0.105882
0.807843 0.250980 0.094118
0.850980 0.250980 0.090196
0.898039 0.239216 0.086275
0.941176 0.239216 0.082353
0.984314 0.231373 0.078431
1.000000 0.227451 0.062745
1.000000 0.223529 0.058824
1.000000 0.219608 0.054902
1.000000 0.211765 0.062745
0.196078 0.247059 0.145098
0.215686 0.239216 0.137255
0.215686 0.250980 0.137255
0.227451 0.247059 0.129412
0.266667 0.247059 0.129412
0.282353 0.243137 0.137255
0.309804 0.250980 0.129412
0.345098 0.247059 0.129412
0.384314 0.254902 0.133333
0.427451 0.258824 0.125490
0.474510 0.270588 0.125490
0.525490 0.274510 0.125490
0.576471 0.282353 0.117647
0.635294 0.290196 0.109804
0.694118 0.294118 0.105882
0.749020 0.294118 0.101961
0.803922 0.294118 0.098039
0.858824 0.286275 0.086275
0.901961 0.286275 0.078431
0.941176 0.274510 0.070588
0.980392 0.278431 0.058824
1.000000 0.270588 0.054902
1.000000 0.266667 0.050980
1.000000 0.262745 0.047059
1.000000 0.258824 0.039216
0.200000 0.286275 0.133333
0.211765 0.282353 0.125490
0.223529 0.290196 0.125490
0.247059 0.298039 0.129412
0.274510 0.282353 0.137255
0.294118 0.286275 0.125490
0.317647 0.286275 0.133333
0.349020 0.290196 0.129412
0.388235 0.294118 0.121569
0.431373 0.305882 0.121569
0.478431 0.313725 0.117647
0.525490 0.317647 0.105882
0.584314 0.325490 0.098039
0.639216 0.329412 0.105882
0.698039 0.337255 0.090196
0.749020 0.337255 0.082353
0.800000 0.333333 0.074510
0.847059 0.329412 0.074510
0.890196 0.329412 0.062745
0.933333 0.329412 0.054902
0.968627 0.325490 0.047059
1.000000 0.317647 0.047059
0.996078 0.313725 0.035294
1.000000 0.305882 0.031373
1.000000 0.301961 0.011765
0.215686 0.325490 0.133333
0.223529 0.329412 0.113725
0.223529 0.329412 0.121569
0.258824 0.329412 0.125490
0.278431 0.337255 0.113725
0.301961 0.337255 0.113725
0.333333 0.333333 0.121569
0.360784 0.333333 0.117647
0.396078 0.337255 0.121569
0.439216 0.341176 0.121569
0.486275 0.352941 0.113725
0.529412 0.356863 0.101961
0.580392 0.368627 0.094118
0.639216 0.372549 0.086275
0.698039 0.376471 0.086275
0.749020 0.372549 0.070588
0.796078 0.376471 0.062745
0.843137 0.376471 0.054902
0.882353 0.372549 0.043137
0.921569 0.364706 0.035294
0.960784 0.364706 0.035294
1.000000 0.356863 0.007843
1.000000 0.356863 0.007843
1.000000 0.349020 0.003922
0.996078 0.349020 0.000000
0.223529 0.376471 0.113725
0.227451 0.384314 0.109804
0.243137 0.384314 0.109804
0.262745 0.384314 0.109804
0.294118 0.384314 0.117647
0.321569 0.388235 0.121569
0.349020 0.388235 0.117647
0.376471 0.388235 0.109804
0.415686 0.388235 0.105882
0.447059 0.392157 0.105882
0.486275 0.396078 0.098039
0.529412 0.400000 0.098039
0.592157 0.407843 0.086275
0.639216 0.415686 0.074510
0.690196 0.411765 0.058824
0.741176 0.415686 0.054902
0.784314 0.415686 0.031373
0.831373 0.411765 0.027451
0.874510 0.411765 0.019608
0.917647 0.411765 0.011765
0.960784 0.407843 0.000000
0.996078 0.403922 0.000000
1.000000 0.400000 0.000000
1.000000 0.392157 0.000000
1.000000 0.388235 0.000000
0.227451 0.470588 0.074510
0.243137 0.470588 0.078431
0.254902 0.474510 0.078431
0.274510 0.474510 0.078431
0.305882 0.470588 0.078431
0.325490 0.466667 0.074510
0.360784 0.470588 0.070588
0.403922 0.474510 0.082353
0.439216 0.470588 0.074510
0.478431 0.470588 0.074510
0.521569 0.470588 0.058824
0.564706 0.470588 0.047059
0.615686 0.474510 0.035294
0.662745 0.478431 0.023529
0.713725 0.478431 0.007843
0.768627 0.474510 0.007843
0.807843 0.478431 0.000000
0.847059 0.470588 0.000000
0.894118 0.466667 0.000000
0.937255 0.466667 0.000000
0.972549 0.458824 0.000000
1.000000 0.450980 0.000000
1.000000 0.450980 0.000000
1.000000 0.443137 0.003922
0.992157 0.435294 0.000000
0.227451 0.513725 0.050980
0.227451 0.517647 0.027451
0.247059 0.521569 0.031373
0.270588 0.521569 0.043137
0.294118 0.525490 0.031373
0.333333 0.525490 0.035294
0.360784 0.525490 0.039216
0.400000 0.521569 0.023529
0.439216 0.521569 0.023529
0.478431 0.521569 0.019608
0.521569 0.521569 0.011765
0.568627 0.517647 0.007843
0.611765 0.517647 0.000000
0.662745 0.517647 0.000000
0.717647 0.521569 0.000000
0.756863 0.521569 0.000000
0.803922 0.521569 0.000000
0.854902 0.513725 0.000000
0.894118 0.505882 0.000000
0.933333 0.505882 0.000000
0.972549 0.505882 0.003922
1.000000 0.498039 0.000000
0.996078 0.494118 0.003922
1.000000 0.482353 0.000000
1.000000 0.482353 0.000000
0.223529 0.568627 0.023529
0.223529 0.564706 0.003922
0.243137 0.568627 0.003922
0.262745 0.576471 0.000000
0.301961 0.572549 0.003922
0.325490 0.576471 0.000000
0.364706 0.568627 0.000000
0.400000 0.572549 0.000000
0.439216 0.572549 0.000000
0.478431 0.572549 0.000000
0.521569 0.568627 0.003922
0.560784 0.568627 0.000000
0.611765 0.564706 0.000000
0.662745 0.556863 0.000000
0.705882 0.568627 0.000000
0.752941 0.564706 0.000000
0.800000 0.564706 0.000000
0.839216 0.556863 0.000000
0.886275 0.552941 0.000000
0.929412 0.549020 0.003922
0.968627 0.549020 0.007843
1.000000 0.541176 0.007843
1.000000 0.533333 0.000000
1.000000 0.529412 0.007843
1.000000 0.525490 0.000000
0.196078 0.615686 0.000000
0.219608 0.619608 0.000000
0.231373 0.619608 0.011765
0.250980 0.623529 0.011765
0.294118 0.623529 0.003922
0.321569 0.619608 0.000000
0.356863 0.619608 0.003922
0.396078 0.619608 0.003922
0.439216 0.619608 0.000000
0.482353 0.615686 0.003922
0.521569 0.615686 0.003922
0.568627 0.611765 0.000000
0.611765 0.611765 0.000000
0.650980 0.607843 0.003922
0.698039 0.607843 0.000000
0.745098 0.603922 0.000000
0.796078 0.603922 0.000000
0.839216 0.600000 0.000000
0.874510 0.596078 0.000000
0.917647 0.588235 0.000000
0.956863 0.580392 0.000000
0.992157 0.576471 0.000000
1.000000 0.568627 0.003922
1.000000 0.572549 0.011765
1.000000 0.564706 0.007843
0.200000 0.658824 0.007843
0.223529 0.658824 0.003922
0.227451 0.666667 0.000000
0.247059 0.670588 0.000000
0.282353 0.666667 0.000000
0.321569 0.670588 0.011765
0.356863 0.666667 0.003922
0.396078 0.666667 0.003922
0.439216 0.666667 0.000000
0.478431 0.662745 0.003922
0.525490 0.654902 0.000000
0.572549 0.658824 0.000000
0.611765 0.654902 0.003922
0.658824 0.654902 0.000000
0.705882 0.647059 0.000000
0.752941 0.647059 0.000000
0.796078 0.643137 0.003922
0.831373 0.639216 0.000000
0.878431 0.635294 0.003922
0.917647 0.627451 0.000000
0.956863 0.627451 0.000000
0.992157 0.623529 0.003922
1.000000 0.615686 0.003922
1.000000 0.611765 0.000000
1.000000 0.603922 0.000000
0.184314 0.745098 0.000000
0.200000 0.745098 0.000000
0.223529 0.749020 0.000000
0.254902 0.745098 0.000000
0.290196 0.741176 0.000000
0.321569 0.737255 0.000000
0.364706 0.741176 0.003922
0.407843 0.737255 0.007843
0.450980 0.733333 0.000000
0.494118 0.729412 0.000000
0.545098 0.725490 0.003922
0.588235 0.721569 0.003922
0.635294 0.717647 0.000000
0.674510 0.721569 0.000000
0.717647 0.717647 0.000000
0.760784 0.713725 0.000000
0.807843 0.701961 0.000000
0.854902 0.701961 0.000000
0.890196 0.698039 0.000000
0.925490 0.686275 0.000000
0.968627 0.678431 0.000000
0.996078 0.674510 0.007843
1.000000 0.662745 0.003922
1.000000 0.654902 0.003922
1.000000 0.658824 0.000000
0.184314 0.760784 0.000000
0.196078 0.764706 0.007843
0.219608 0.768627 0.003922
0.243137 0.772549 0.000000
0.278431 0.772549 0.007843
0.313725 0.776471 0.007843
0.368627 0.768627 0.000000
0.403922 0.768627 0.003922
0.439216 0.764706 0.003922
0.486275 0.760784 0.000000
0.537255 0.760784 0.003922
0.576471 0.756863 0.000000
0.623529 0.752941 0.003922
0.670588 0.752941 0.000000
0.713725 0.752941 0.000000
0.760784 0.749020 0.000000
0.800000 0.749020 0.003922
0.850980 0.741176 0.003922
0.886275 0.737255 0.003922
0.917647 0.729412 0.000000
0.960784 0.721569 0.000000
1.000000 0.713725 0.000000
1.000000 0.705882 0.000000
0.996078 0.701961 0.000000
1.000000 0.705882 0.003922
0.180392 0.796078 0.000000
0.196078 0.807843 0.000000
0.223529 0.800000 0.003922
0.250980 0.807843 0.000000
0.282353 0.803922 0.000000
0.313725 0.803922 0.000000
0.352941 0.800000 0.007843
0.396078 0.807843 0.007843
0.435294 0.800000 0.003922
0.478431 0.796078 0.000000
0.529412 0.796078 0.007843
0.568627 0.800000 0.007843
0.619608 0.792157 0.003922
0.662745 0.792157 0.003922
0.701961 0.784314 0.000000
0.752941 0.784314 0.000000
0.796078 0.784314 0.000000
0.843137 0.780392 0.000000
0.886275 0.776471 0.003922
0.921569 0.764706 0.000000
0.960784 0.764706 0.000000
0.992157 0.756863 0.000000
1.000000 0.749020 0.003922
1.000000 0.737255 0.000000
1.000000 0.737255 0.003922
0.184314 0.827451 0.000000
0.203922 0.843137 0.000000
0.211765 0.843137 0.000000
0.254902 0.839216 0.000000
0.274510 0.843137 0.000000
0.313725 0.835294 0.000000
0.352941 0.835294 0.000000
0.392157 0.835294 0.000000
0.431373 0.835294 0.000000
0.482353 0.835294 0.003922
0.525490 0.831373 0.007843
0.572549 0.831373 0.003922
0.611765 0.823529 0.000000
0.654902 0.827451 0.000000
0.698039 0.823529 0.007843
0.745098 0.823529 0.003922
0.788235 0.819608 0.000000
0.831373 0.811765 0.003922
0.866667 0.807843 0.000000
0.913725 0.807843 0.003922
0.952941 0.803922 0.000000
0.988235 0.796078 0.007843
1.000000 0.784314 0.000000
1.000000 0.776471 0.000000
1.000000 0.776471 0.000000
0.184314 0.866667 0.000000
0.200000 0.870588 0.007843
0.223529 0.874510 0.003922
0.247059 0.874510 0.003922
0.286275 0.878431 0.000000
0.317647 0.874510 0.000000
0.352941 0.870588 0.000000
0.396078 0.874510 0.000000
0.431373 0.870588 0.000000
0.470588 0.870588 0.003922
0.513725 0.866667 0.003922
0.552941 0.866667 0.000000
0.600000 0.862745 0.003922
0.647059 0.866667 0.007843
0.686275 0.858824 0.000000
0.729412 0.850980 0.000000
0.776471 0.854902 0.000000
0.815686 0.850980 0.007843
0.862745 0.850980 0.000000
0.905882 0.847059 0.000000
0.945098 0.839216 0.000000
0.992157 0.835294 0.003922
1.000000 0.827451 0.000000
1.000000 0.819608 0.000000
0.996078 0.815686 0.000000
0.219608 0.929412 0.007843
0.235294 0.929412 0.003922
0.250980 0.925490 0.000000
0.266667 0.925490 0.000000
0.298039 0.929412 0.003922
0.329412 0.925490 0.003922
0.368627 0.925490 0.000000
0.403922 0.921569 0.003922
0.435294 0.921569 0.000000
0.474510 0.921569 0.000000
0.517647 0.917647 0.007843
0.564706 0.913725 0.003922
0.607843 0.909804 0.007843
0.647059 0.913725 0.007843
0.686275 0.905882 0.000000
0.733333 0.901961 0.000000
0.776471 0.901961 0.000000
0.823529 0.898039 0.000000
0.862745 0.898039 0.000000
0.905882 0.894118 0.003922
0.949020 0.890196 0.000000
0.984314 0.886275 0.003922
1.000000 0.874510 0.000000
1.000000 0.874510 0.000000
0.996078 0.870588 0.000000
0.203922 0.945098 0.000000
0.223529 0.949020 0.003922
0.231373 0.952941 0.000000
0.262745 0.949020 0.000000
0.294118 0.949020 0.007843
0.325490 0.952941 0.000000
0.360784 0.949020 0.000000
0.392157 0.949020 0.000000
0.435294 0.949020 0.000000
0.474510 0.949020 0.000000
0.517647 0.945098 0.000000
0.552941 0.941176 0.000000
0.592157 0.941176 0.007843
0.639216 0.941176 0.000000
0.682353 0.933333 0.003922
0.725490 0.941176 0.003922
0.760784 0.937255 0.000000
0.811765 0.929412 0.000000
0.850980 0.929412 0.000000
0.894118 0.929412 0.000000
0.945098 0.921569 0.000000
0.988235 0.925490 0.003922
0.992157 0.921569 0.003922
1.000000 0.913725 0.000000
0.992157 0.913725 0.000000
0.215686 0.980392 0.000000
0.231373 0.980392 0.000000
0.235294 0.976471 0.000000
0.258824 0.984314 0.000000
0.298039 0.976471 0.003922
0.317647 0.980392 0.003922
0.356863 0.980392 0.000000
0.396078 0.980392 0.000000
0.431373 0.976471 0.000000
0.470588 0.976471 0.000000
0.509804 0.976471 0.003922
0.545098 0.972549 0.000000
0.588235 0.976471 0.000000
0.635294 0.972549 0.003922
0.670588 0.968627 0.003922
0.713725 0.964706 0.003922
0.760784 0.964706 0.000000
0.796078 0.960784 0.000000
0.843137 0.960784 0.003922
0.882353 0.960784 0.000000
0.917647 0.956863 0.000000
0.952941 0.952941 0.000000
0.992157 0.952941 0.000000
0.996078 0.956863 0.000000
0.996078 0.945098 0.007843
0.219608 1.000000 0.007843
0.231373 0.996078 0.000000
0.254902 1.000000 0.003922
0.274510 1.000000 0.000000
0.301961 0.996078 0.000000
0.329412 1.000000 0.003922
0.356863 1.000000 0.000000
0.392157 1.000000 0.000000
0.427451 1.000000 0.000000
0.466667 1.000000 0.000000
0.501961 1.000000 0.000000
0.549020 1.000000 0.000000
0.584314 1.000000 0.000000
0.619608 0.996078 0.000000
0.666667 0.992157 0.000000
0.709804 0.992157 0.000000
0.749020 0.988235 0.000000
0.788235 0.988235 0.000000
0.831373 0.992157 0.003922
0.874510 0.988235 0.003922
0.913725 0.976471 0.000000
0.964706 0.984314 0.000000
0.996078 0.976471 0.000000
1.000000 0.984314 0.000000
0.996078 0.976471 0.000000
0.235294 1.000000 0.007843
0.235294 1.000000 0.000000
0.250980 1.000000 0.000000
0.286275 1.000000 0.000000
0.298039 1.000000 0.003922
0.329412 1.000000 0.003922
0.356863 1.000000 0.000000
0.392157 1.000000 0.000000
0.427451 1.000000 0.000000
0.462745 1.000000 0.003922
0.501961 1.000000 0.000000
0.545098 1.000000 0.000000
0.576471 0.996078 0.000000
0.623529 1.000000 0.000000
0.670588 0.996078 0.000000
0.713725 1.000000 0.000000
0.756863 0.996078 0.000000
0.800000 1.000000 0.000000
0.847059 1.000000 0.007843
0.882353 1.000000 0.000000
0.933333 1.000000 0.000000
0.976471 1.000000 0.003922
0.992157 0.996078 0.000000
1.000000 1.000000 0.003922
1.000000 1.000000 0.003922
0.156863 0.105882 0.145098
0.176471 0.109804 0.149020
0.192157 0.109804 0.145098
0.207843 0.105882 0.141176
0.235294 0.105882 0.141176
0.266667 0.101961 0.141176
0.305882 0.105882 0.141176
0.341176 0.098039 0.141176
0.380392 0.098039 0.141176
0.415686 0.094118 0.141176
0.462745 0.098039 0.141176
0.505882 0.090196 0.137255
0.564706 0.086275 0.137255
0.619608 0.078431 0.137255
0.686275 0.070588 0.137255
0.741176 0.062745 0.137255
0.796078 0.043137 0.125490
0.839216 0.031373 0.113725
0.890196 0.011765 0.113725
0.937255 0.000000 0.113725
0.976471 0.000000 0.105882
1.000000 0.000000 0.101961
0.996078 0.000000 0.094118
0.992157 0.003922 0.094118
1.000000 0.000000 0.094118
0.160784 0.121569 0.152941
0.180392 0.121569 0.133333
0.200000 0.117647 0.145098
0.207843 0.117647 0.149020
0.247059 0.109804 0.137255
0.266667 0.121569 0.149020
0.298039 0.121569 0.149020
0.337255 0.113725 0.141176
0.372549 0.117647 0.149020
0.411765 0.117647 0.145098
0.454902 0.113725 0.145098
0.501961 0.109804 0.141176
0.556863 0.109804 0.141176
0.615686 0.105882 0.137255
0.674510 0.101961 0.141176
0.741176 0.090196 0.129412
0.784314 0.090196 0.129412
0.843137 0.074510 0.121569
0.886275 0.058824 0.117647
0.933333 0.050980 0.121569
0.968627 0.031373 0.105882
0.996078 0.019608 0.105882
0.992157 0.003922 0.094118
1.000000 0.003922 0.098039
1.000000 0.000000 0.094118
0.152941 0.149020 0.141176
0.172549 0.137255 0.141176
0.188235 0.141176 0.149020
0.219608 0.141176 0.145098
0.239216 0.137255 0.149020
0.270588 0.137255 0.141176
0.294118 0.133333 0.149020
0.329412 0.129412 0.149020
0.372549 0.137255 0.145098
0.411765 0.137255 0.145098
0.458824 0.137255 0.145098
0.501961 0.133333 0.137255
0.560784 0.137255 0.137255
0.615686 0.133333 0.141176
0.682353 0.125490 0.121569
0.733333 0.129412 0.129412
0.788235 0.121569 0.121569
0.835294 0.113725 0.121569
0.882353 0.101961 0.113725
0.933333 0.098039 0.113725
0.972549 0.082353 0.109804
1.000000 0.074510 0.105882
0.996078 0.066667 0.098039
1.000000 0.047059 0.086275
1.000000 0.035294 0.094118
0.164706 0.160784 0.141176
0.188235 0.156863 0.145098
0.196078 0.164706 0.152941
0.211765 0.156863 0.145098
0.243137 0.164706 0.160784
0.266667 0.156863 0.145098
0.298039 0.160784 0.152941
0.333333 0.156863 0.145098
0.372549 0.156863 0.145098
0.419608 0.152941 0.141176
0.458824 0.152941 0.137255
0.505882 0.160784 0.145098
0.549020 0.160784 0.141176
0.619608 0.160784 0.133333
0.670588 0.164706 0.141176
0.729412 0.164706 0.133333
0.780392 0.160784 0.125490
0.823529 0.145098 0.117647
0.874510 0.141176 0.105882
0.929412 0.141176 0.109804
0.968627 0.133333 0.101961
1.000000 0.125490 0.098039
0.996078 0.113725 0.090196
0.992157 0.109804 0.086275
1.000000 0.101961 0.078431
0.176471 0.180392 0.149020
0.192157 0.180392 0.145098
0.207843 0.180392 0.149020
0.219608 0.176471 0.152941
0.239216 0.184314 0.149020
0.270588 0.180392 0.149020
0.298039 0.180392 0.141176
0.337255 0.180392 0.141176
0.376471 0.180392 0.137255
0.411765 0.184314 0.141176
0.454902 0.188235 0.137255
0.501961 0.192157 0.141176
0.556863 0.200000 0.129412
0.611765 0.200000 0.125490
0.670588 0.203922 0.125490
0.721569 0.200000 0.125490
0.772549 0.200000 0.109804
0.823529 0.192157 0.113725
0.878431 0.184314 0.105882
0.925490 0.184314 0.098039
0.960784 0.180392 0.098039
0.996078 0.176471 0.098039
0.996078 0.164706 0.082353
1.000000 0.156863 0.078431
1.000000 0.152941 0.070588
0.176471 0.219608 0.152941
0.188235 0.215686 0.145098
0.207843 0.219608 0.152941
0.223529 0.211765 0.145098
0.247059 0.211765 0.145098
0.282353 0.215686 0.152941
0.313725 0.211765 0.145098
0.352941 0.211765 0.149020
0.388235 0.219608 0.145098
0.423529 0.223529 0.141176
0.466667 0.231373 0.137255
0.513725 0.231373 0.133333
0.576471 0.239216 0.133333
0.635294 0.247059 0.125490
0.698039 0.250980 0.117647
0.752941 0.243137 0.109804
0.803922 0.243137 0.109804
0.843137 0.239216 0.105882
0.894118 0.231373 0.101961
0.929412 0.227451 0.098039
0.972549 0.227451 0.094118
1.000000 0.223529 0.086275
1.000000 0.215686 0.082353
0.996078 0.211765 0.078431
1.000000 0.211765 0.062745
0.188235 0.243137 0.145098
0.196078 0.247059 0.145098
0.219608 0.254902 0.149020
0.235294 0.243137 0.149020
0.266667 0.243137 0.141176
0.282353 0.239216 0.152941
0.321569 0.243137 0.145098
0.345098 0.243137 0.145098
0.384314 0.250980 0.145098
0.427451 0.254902 0.141176
0.470588 0.262745 0.137255
0.525490 0.274510 0.137255
0.572549 0.278431 0.125490
0.643137 0.282353 0.121569
0.701961 0.286275 0.121569
0.752941 0.290196 0.101961
0.800000 0.290196 0.098039
0.858824 0.286275 0.101961
0.890196 0.278431 0.090196
0.929412 0.270588 0.086275
0.972549 0.266667 0.074510
1.000000 0.270588 0.078431
1.000000 0.262745 0.074510
1.000000 0.254902 0.058824
1.000000 0.254902 0.050980
0.200000 0.286275 0.145098
0.203922 0.282353 0.137255
0.235294 0.278431 0.145098
0.247059 0.286275 0.149020
0.266667 0.282353 0.152941
0.290196 0.290196 0.149020
0.309804 0.286275 0.145098
0.349020 0.286275 0.145098
0.388235 0.298039 0.137255
0.431373 0.301961 0.133333
0.478431 0.305882 0.129412
0.521569 0.309804 0.125490
0.580392 0.321569 0.117647
0.639216 0.325490 0.125490
0.686275 0.329412 0.105882
0.741176 0.329412 0.105882
0.796078 0.333333 0.094118
0.835294 0.325490 0.090196
0.882353 0.325490 0.082353
0.929412 0.317647 0.078431
0.972549 0.313725 0.066667
1.000000 0.309804 0.066667
1.000000 0.301961 0.050980
1.000000 0.301961 0.043137
1.000000 0.298039 0.035294
0.215686 0.321569 0.145098
0.219608 0.329412 0.137255
0.239216 0.325490 0.133333
0.262745 0.333333 0.145098
0.266667 0.333333 0.121569
0.305882 0.333333 0.129412
0.337255 0.329412 0.137255
0.372549 0.333333 0.133333
0.400000 0.329412 0.133333
0.435294 0.333333 0.133333
0.474510 0.349020 0.125490
0.521569 0.360784 0.117647
0.576471 0.364706 0.113725
0.635294 0.372549 0.098039
0.678431 0.372549 0.090196
0.733333 0.372549 0.086275
0.784314 0.368627 0.078431
0.827451 0.364706 0.074510
0.874510 0.364706 0.066667
0.925490 0.364706 0.066667
0.956863 0.356863 0.058824
1.000000 0.352941 0.039216
1.000000 0.349020 0.039216
1.000000 0.345098 0.035294
1.000000 0.337255 0.015686
0.219608 0.384314 0.137255
0.239216 0.380392 0.129412
0.250980 0.376471 0.121569
0.266667 0.380392 0.121569
0.286275 0.384314 0.129412
0.309804 0.384314 0.133333
0.341176 0.384314 0.125490
0.372549 0.380392 0.121569
0.400000 0.380392 0.113725
0.439216 0.388235 0.113725
0.482353 0.392157 0.117647
0.525490 0.400000 0.113725
0.584314 0.403922 0.098039
0.631373 0.407843 0.090196
0.686275 0.407843 0.086275
0.733333 0.411765 0.074510
0.780392 0.411765 0.066667
0.831373 0.407843 0.054902
0.874510 0.407843 0.054902
0.917647 0.407843 0.039216
0.952941 0.403922 0.019608
0.992157 0.403922 0.023529
1.000000 0.396078 0.011765
1.000000 0.388235 0.007843
1.000000 0.384314 0.003922
0.219608 0.470588 0.094118
0.231373 0.462745 0.094118
0.250980 0.466667 0.098039
0.274510 0.470588 0.098039
0.305882 0.466667 0.098039
0.329412 0.466667 0.098039
0.356863 0.462745 0.090196
0.396078 0.462745 0.094118
0.431373 0.458824 0.094118
0.470588 0.458824 0.094118
0.509804 0.458824 0.082353
