app/src/main/assets/cube/Christmas 4.cube
TITLE "Christmas LUT #4"
#LUT size
LUT_3D_SIZE 25
#LUT data points
0.000000 0.000000 0.000000
0.043137 0.003922 0.000000
0.094118 0.000000 0.000000
0.156863 0.000000 0.003922
0.215686 0.000000 0.007843
0.270588 0.000000 0.011765
0.321569 0.000000 0.015686
0.376471 0.000000 0.023529
0.427451 0.000000 0.019608
0.474510 0.000000 0.027451
0.529412 0.003922 0.039216
0.572549 0.000000 0.050980
0.619608 0.000000 0.058824
0.674510 0.003922 0.078431
0.721569 0.000000 0.094118
0.772549 0.000000 0.109804
0.807843 0.003922 0.125490
0.854902 0.035294 0.149020
0.905882 0.066667 0.160784
0.945098 0.094118 0.176471
0.980392 0.125490 0.192157
1.000000 0.145098 0.211765
1.000000 0.172549 0.231373
1.000000 0.196078 0.254902
0.996078 0.231373 0.262745
0.019608 0.027451 0.007843
0.058824 0.031373 0.007843
0.109804 0.043137 0.015686
0.149020 0.035294 0.011765
0.223529 0.039216 0.015686
0.274510 0.023529 0.015686
0.321569 0.023529 0.023529
0.380392 0.007843 0.023529
0.427451 0.011765 0.027451
0.478431 0.003922 0.031373
0.521569 0.007843 0.039216
0.576471 0.007843 0.058824
0.619608 0.011765 0.066667
0.674510 0.019608 0.086275
0.725490 0.031373 0.101961
0.776471 0.050980 0.113725
0.819608 0.062745 0.129412
0.862745 0.086275 0.152941
0.909804 0.105882 0.172549
0.945098 0.129412 0.184314
0.976471 0.152941 0.203922
1.000000 0.168627 0.223529
1.000000 0.184314 0.235294
1.000000 0.207843 0.254902
0.996078 0.235294 0.266667
0.027451 0.086275 0.011765
0.074510 0.078431 0.007843
0.117647 0.086275 0.000000
0.168627 0.078431 0.015686
0.215686 0.086275 0.027451
0.282353 0.074510 0.019608
0.325490 0.078431 0.019608
0.376471 0.078431 0.023529
0.423529 0.070588 0.027451
0.478431 0.074510 0.039216
0.525490 0.074510 0.054902
0.572549 0.082353 0.066667
0.623529 0.082353 0.070588
0.670588 0.090196 0.082353
0.717647 0.098039 0.101961
0.772549 0.105882 0.117647
0.815686 0.113725 0.129412
0.854902 0.129412 0.149020
0.898039 0.137255 0.168627
0.929412 0.156863 0.184314
0.972549 0.176471 0.200000
1.000000 0.188235 0.211765
0.996078 0.207843 0.231373
0.996078 0.231373 0.247059
1.000000 0.250980 0.278431
0.039216 0.137255 0.011765
0.094118 0.129412 0.007843
0.133333 0.137255 0.011765
0.184314 0.133333 0.007843
0.231373 0.129412 0.000000
0.286275 0.133333 0.019608
0.333333 0.133333 0.027451
0.384314 0.133333 0.027451
0.427451 0.129412 0.035294
0.478431 0.133333 0.054902
0.525490 0.137255 0.062745
0.568627 0.137255 0.070588
0.619608 0.141176 0.082353
0.666667 0.141176 0.098039
0.717647 0.152941 0.117647
0.764706 0.160784 0.129412
0.807843 0.160784 0.137255
0.850980 0.172549 0.156863
0.890196 0.188235 0.172549
0.933333 0.196078 0.188235
0.968627 0.200000 0.203922
1.000000 0.211765 0.223529
0.996078 0.235294 0.227451
0.992157 0.254902 0.247059
1.000000 0.270588 0.266667
0.058824 0.180392 0.007843
0.101961 0.188235 0.007843
0.145098 0.180392 0.000000
0.188235 0.184314 0.000000
0.239216 0.184314 0.000000
0.290196 0.184314 0.007843
0.333333 0.180392 0.011765
0.376471 0.184314 0.027451
0.431373 0.184314 0.047059
0.478431 0.192157 0.062745
0.521569 0.188235 0.066667
0.568627 0.196078 0.086275
0.615686 0.200000 0.098039
0.670588 0.203922 0.109804
0.717647 0.207843 0.121569
0.764706 0.211765 0.141176
0.807843 0.211765 0.156863
0.850980 0.223529 0.176471
0.894118 0.227451 0.176471
0.937255 0.239216 0.192157
0.968627 0.247059 0.207843
0.996078 0.258824 0.223529
1.000000 0.266667 0.239216
0.996078 0.286275 0.258824
1.000000 0.294118 0.278431
0.082353 0.247059 0.000000
0.109804 0.243137 0.003922
0.160784 0.247059 0.003922
0.203922 0.243137 0.003922
0.250980 0.243137 0.003922
0.298039 0.243137 0.003922
0.341176 0.239216 0.007843
0.396078 0.239216 0.007843
0.439216 0.239216 0.054902
0.486275 0.247059 0.074510
0.537255 0.250980 0.090196
0.584314 0.254902 0.109804
0.627451 0.258824 0.117647
0.674510 0.266667 0.129412
0.725490 0.266667 0.129412
0.776471 0.270588 0.149020
0.827451 0.274510 0.168627
0.866667 0.278431 0.180392
0.901961 0.278431 0.192157
0.945098 0.282353 0.207843
0.972549 0.298039 0.219608
0.996078 0.301961 0.231373
1.000000 0.317647 0.250980
0.996078 0.321569 0.266667
0.996078 0.337255 0.294118
0.086275 0.294118 0.011765
0.129412 0.294118 0.000000
0.156863 0.301961 0.000000
0.203922 0.290196 0.007843
0.258824 0.290196 0.003922
0.294118 0.298039 0.000000
0.333333 0.298039 0.003922
0.384314 0.290196 0.007843
0.439216 0.294118 0.027451
0.486275 0.298039 0.054902
0.533333 0.298039 0.086275
0.584314 0.309804 0.117647
0.627451 0.309804 0.125490
0.678431 0.313725 0.141176
0.729412 0.325490 0.156863
0.776471 0.313725 0.164706
0.819608 0.325490 0.176471
0.854902 0.329412 0.184314
0.898039 0.333333 0.200000
0.941176 0.333333 0.215686
0.972549 0.341176 0.227451
0.996078 0.345098 0.243137
0.996078 0.352941 0.254902
0.996078 0.360784 0.278431
1.000000 0.372549 0.294118
0.090196 0.345098 0.015686
0.137255 0.349020 0.011765
0.152941 0.341176 0.003922
0.211765 0.345098 0.003922
0.247059 0.349020 0.007843
0.294118 0.345098 0.000000
0.345098 0.345098 0.007843
0.388235 0.349020 0.015686
0.435294 0.349020 0.015686
0.478431 0.349020 0.039216
0.525490 0.352941 0.066667
0.572549 0.356863 0.101961
0.623529 0.364706 0.137255
0.670588 0.368627 0.156863
0.725490 0.372549 0.168627
0.768627 0.376471 0.180392
0.811765 0.372549 0.184314
0.850980 0.376471 0.200000
0.898039 0.376471 0.215686
0.937255 0.380392 0.223529
0.968627 0.380392 0.235294
1.000000 0.384314 0.258824
1.000000 0.392157 0.278431
1.000000 0.396078 0.286275
1.000000 0.411765 0.305882
0.086275 0.400000 0.011765
0.137255 0.403922 0.015686
0.160784 0.392157 0.023529
0.200000 0.403922 0.019608
0.243137 0.407843 0.015686
0.294118 0.400000 0.019608
0.337255 0.403922 0.027451
0.384314 0.400000 0.027451
0.423529 0.400000 0.015686
0.478431 0.403922 0.031373
0.525490 0.403922 0.047059
0.576471 0.400000 0.066667
0.627451 0.411765 0.098039
0.682353 0.411765 0.141176
0.725490 0.419608 0.160784
0.772549 0.423529 0.188235
0.811765 0.423529 0.200000
0.850980 0.423529 0.203922
0.890196 0.419608 0.215686
0.929412 0.419608 0.227451
0.964706 0.423529 0.243137
1.000000 0.427451 0.266667
1.000000 0.427451 0.270588
1.000000 0.439216 0.301961
1.000000 0.439216 0.305882
0.098039 0.458824 0.031373
0.125490 0.454902 0.019608
0.156863 0.454902 0.027451
0.203922 0.454902 0.015686
0.243137 0.454902 0.019608
0.286275 0.454902 0.031373
0.337255 0.450980 0.027451
0.380392 0.454902 0.031373
0.431373 0.454902 0.039216
0.478431 0.450980 0.035294
0.525490 0.450980 0.039216
0.572549 0.447059 0.043137
0.627451 0.450980 0.094118
0.674510 0.454902 0.121569
0.717647 0.454902 0.149020
0.764706 0.462745 0.180392
0.807843 0.466667 0.203922
0.839216 0.466667 0.215686
0.878431 0.462745 0.227451
0.921569 0.470588 0.247059
0.960784 0.470588 0.258824
1.000000 0.474510 0.266667
1.000000 0.474510 0.278431
1.000000 0.482353 0.294118
1.000000 0.482353 0.313725
0.082353 0.517647 0.043137
0.113725 0.521569 0.047059
0.149020 0.517647 0.039216
0.196078 0.525490 0.047059
0.235294 0.513725 0.043137
0.286275 0.517647 0.047059
0.329412 0.517647 0.047059
0.388235 0.517647 0.058824
0.427451 0.517647 0.062745
0.474510 0.517647 0.054902
0.533333 0.513725 0.050980
0.580392 0.513725 0.050980
0.631373 0.505882 0.062745
0.674510 0.513725 0.101961
0.717647 0.509804 0.141176
0.764706 0.513725 0.172549
0.819608 0.517647 0.203922
0.847059 0.525490 0.227451
0.894118 0.521569 0.254902
0.925490 0.525490 0.266667
0.972549 0.517647 0.278431
1.000000 0.517647 0.286275
1.000000 0.521569 0.309804
1.000000 0.529412 0.325490
1.000000 0.533333 0.349020
0.054902 0.564706 0.039216
0.105882 0.564706 0.054902
0.133333 0.568627 0.058824
0.184314 0.572549 0.066667
0.227451 0.560784 0.050980
0.286275 0.564706 0.054902
0.329412 0.560784 0.058824
0.364706 0.564706 0.058824
0.423529 0.564706 0.070588
0.474510 0.560784 0.066667
0.521569 0.556863 0.066667
0.576471 0.560784 0.066667
0.619608 0.560784 0.070588
0.658824 0.556863 0.082353
0.709804 0.552941 0.109804
0.756863 0.556863 0.145098
0.803922 0.560784 0.172549
0.839216 0.560784 0.207843
0.886275 0.564706 0.243137
0.929412 0.560784 0.270588
0.968627 0.564706 0.294118
0.996078 0.568627 0.305882
1.000000 0.572549 0.317647
0.996078 0.572549 0.329412
1.000000 0.576471 0.356863
0.039216 0.607843 0.054902
0.082353 0.600000 0.058824
0.129412 0.607843 0.070588
0.172549 0.611765 0.070588
0.207843 0.615686 0.070588
0.266667 0.611765 0.070588
0.313725 0.615686 0.066667
0.364706 0.615686 0.074510
0.411765 0.611765 0.074510
0.458824 0.607843 0.070588
0.513725 0.603922 0.078431
0.564706 0.603922 0.082353
0.611765 0.600000 0.078431
0.658824 0.603922 0.090196
0.705882 0.592157 0.090196
0.752941 0.596078 0.121569
0.800000 0.596078 0.156863
0.839216 0.596078 0.192157
0.874510 0.600000 0.215686
0.913725 0.603922 0.243137
0.952941 0.603922 0.274510
0.992157 0.611765 0.309804
1.000000 0.600000 0.329412
1.000000 0.619608 0.349020
1.000000 0.615686 0.360784
0.007843 0.662745 0.078431
0.066667 0.647059 0.074510
0.113725 0.654902 0.086275
0.152941 0.654902 0.078431
0.215686 0.650980 0.098039
0.262745 0.650980 0.090196
0.309804 0.650980 0.090196
0.356863 0.650980 0.082353
0.403922 0.654902 0.082353
0.458824 0.650980 0.090196
0.498039 0.643137 0.094118
0.552941 0.643137 0.094118
0.600000 0.643137 0.098039
0.647059 0.643137 0.094118
0.690196 0.643137 0.101961
0.733333 0.639216 0.105882
0.784314 0.639216 0.129412
0.827451 0.635294 0.168627
0.862745 0.635294 0.203922
0.905882 0.635294 0.231373
0.945098 0.639216 0.247059
0.976471 0.643137 0.290196
0.996078 0.639216 0.313725
1.000000 0.643137 0.356863
0.996078 0.654902 0.384314
0.003922 0.690196 0.090196
0.039216 0.698039 0.090196
0.101961 0.690196 0.105882
0.152941 0.698039 0.105882
0.200000 0.701961 0.094118
0.247059 0.698039 0.098039
0.298039 0.690196 0.094118
0.345098 0.694118 0.098039
0.396078 0.686275 0.101961
0.447059 0.694118 0.109804
0.501961 0.694118 0.101961
0.549020 0.690196 0.109804
0.592157 0.686275 0.113725
0.635294 0.682353 0.109804
0.682353 0.682353 0.109804
0.729412 0.682353 0.101961
0.776471 0.678431 0.109804
0.819608 0.678431 0.137255
0.858824 0.670588 0.168627
0.901961 0.670588 0.207843
0.937255 0.678431 0.239216
0.980392 0.678431 0.270588
1.000000 0.678431 0.309804
0.996078 0.682353 0.341176
0.996078 0.690196 0.368627
0.000000 0.756863 0.121569
0.035294 0.749020 0.113725
0.094118 0.756863 0.125490
0.145098 0.749020 0.121569
0.207843 0.756863 0.125490
0.247059 0.752941 0.117647
0.298039 0.752941 0.121569
0.341176 0.752941 0.117647
0.400000 0.752941 0.125490
0.443137 0.745098 0.125490
0.494118 0.745098 0.129412
0.541176 0.741176 0.125490
0.592157 0.737255 0.121569
0.643137 0.733333 0.133333
0.690196 0.733333 0.129412
0.737255 0.733333 0.137255
0.772549 0.737255 0.121569
0.823529 0.729412 0.141176
0.866667 0.721569 0.160784
0.909804 0.717647 0.180392
0.937255 0.721569 0.215686
0.980392 0.721569 0.250980
1.000000 0.721569 0.298039
1.000000 0.717647 0.329412
1.000000 0.725490 0.380392
0.007843 0.780392 0.133333
0.023529 0.776471 0.129412
0.090196 0.784314 0.133333
0.133333 0.780392 0.133333
0.188235 0.788235 0.137255
0.231373 0.784314 0.133333
0.294118 0.784314 0.133333
0.345098 0.780392 0.133333
0.388235 0.784314 0.141176
0.439216 0.776471 0.137255
0.486275 0.780392 0.141176
0.533333 0.780392 0.129412
0.580392 0.780392 0.133333
0.631373 0.776471 0.129412
0.678431 0.772549 0.145098
0.713725 0.768627 0.149020
0.764706 0.764706 0.145098
0.815686 0.760784 0.137255
0.862745 0.760784 0.145098
0.898039 0.760784 0.164706
0.937255 0.760784 0.192157
0.980392 0.756863 0.243137
0.996078 0.760784 0.274510
1.000000 0.756863 0.313725
1.000000 0.760784 0.345098
0.000000 0.811765 0.145098
0.023529 0.819608 0.152941
0.090196 0.819608 0.149020
0.145098 0.819608 0.152941
0.203922 0.823529 0.149020
0.239216 0.819608 0.145098
0.294118 0.815686 0.152941
0.333333 0.815686 0.152941
0.388235 0.815686 0.152941
0.431373 0.811765 0.152941
0.478431 0.815686 0.152941
0.529412 0.815686 0.152941
0.572549 0.815686 0.145098
0.619608 0.811765 0.149020
0.666667 0.811765 0.152941
0.709804 0.807843 0.156863
0.756863 0.807843 0.152941
0.796078 0.807843 0.152941
0.850980 0.807843 0.152941
0.890196 0.803922 0.160784
0.933333 0.800000 0.176471
0.964706 0.796078 0.192157
1.000000 0.796078 0.247059
0.996078 0.784314 0.298039
1.000000 0.792157 0.337255
0.000000 0.850980 0.168627
0.039216 0.858824 0.152941
0.101961 0.862745 0.149020
0.164706 0.858824 0.156863
0.196078 0.850980 0.160784
0.247059 0.854902 0.152941
0.294118 0.854902 0.164706
0.337255 0.850980 0.160784
0.384314 0.854902 0.164706
0.435294 0.854902 0.164706
0.470588 0.850980 0.156863
0.517647 0.847059 0.156863
0.564706 0.850980 0.164706
0.619608 0.847059 0.168627
0.658824 0.847059 0.172549
0.701961 0.843137 0.168627
0.741176 0.847059 0.168627
0.792157 0.839216 0.164706
0.831373 0.839216 0.164706
0.878431 0.835294 0.168627
0.921569 0.839216 0.176471
0.968627 0.831373 0.180392
0.996078 0.827451 0.211765
0.992157 0.827451 0.254902
0.996078 0.823529 0.301961
0.031373 0.894118 0.172549
0.074510 0.890196 0.176471
0.117647 0.882353 0.176471
0.164706 0.894118 0.168627
0.207843 0.890196 0.172549
0.247059 0.890196 0.176471
0.294118 0.890196 0.180392
0.337255 0.894118 0.188235
0.384314 0.890196 0.188235
0.423529 0.894118 0.176471
0.466667 0.890196 0.176471
0.513725 0.886275 0.172549
0.556863 0.882353 0.176471
0.603922 0.878431 0.188235
0.643137 0.878431 0.188235
0.686275 0.878431 0.184314
0.729412 0.874510 0.176471
0.776471 0.874510 0.172549
0.823529 0.874510 0.184314
0.862745 0.874510 0.188235
0.909804 0.870588 0.192157
0.956863 0.870588 0.196078
0.988235 0.866667 0.207843
0.996078 0.862745 0.239216
1.000000 0.858824 0.270588
0.129412 0.933333 0.215686
0.152941 0.937255 0.215686
0.164706 0.933333 0.207843
0.196078 0.933333 0.207843
0.227451 0.933333 0.207843
0.270588 0.937255 0.211765
0.305882 0.925490 0.207843
0.356863 0.925490 0.215686
0.396078 0.929412 0.200000
0.435294 0.929412 0.203922
0.474510 0.925490 0.207843
0.517647 0.933333 0.211765
0.560784 0.929412 0.207843
0.600000 0.929412 0.207843
0.647059 0.917647 0.207843
0.686275 0.917647 0.211765
0.737255 0.913725 0.211765
0.772549 0.921569 0.211765
0.823529 0.913725 0.215686
0.850980 0.917647 0.223529
0.898039 0.909804 0.215686
0.933333 0.909804 0.219608
0.984314 0.905882 0.227451
1.000000 0.905882 0.235294
0.992157 0.898039 0.262745
0.133333 0.952941 0.207843
0.145098 0.964706 0.219608
0.176471 0.964706 0.219608
0.203922 0.968627 0.231373
0.250980 0.956863 0.223529
0.270588 0.964706 0.219608
0.301961 0.964706 0.215686
0.352941 0.956863 0.227451
0.392157 0.956863 0.227451
0.439216 0.960784 0.219608
0.482353 0.960784 0.227451
0.517647 0.956863 0.227451
0.556863 0.956863 0.223529
0.600000 0.952941 0.231373
0.639216 0.949020 0.243137
0.678431 0.952941 0.223529
0.721569 0.949020 0.231373
0.760784 0.949020 0.235294
0.803922 0.952941 0.235294
0.843137 0.952941 0.243137
0.886275 0.945098 0.235294
0.945098 0.941176 0.243137
0.972549 0.945098 0.254902
0.992157 0.941176 0.247059
1.000000 0.941176 0.282353
0.160784 0.992157 0.223529
0.184314 0.988235 0.247059
0.207843 0.992157 0.231373
0.227451 0.992157 0.239216
0.258824 0.984314 0.239216
0.290196 0.996078 0.239216
0.313725 0.996078 0.239216
0.352941 0.996078 0.247059
0.396078 0.988235 0.239216
0.435294 0.988235 0.235294
0.474510 0.988235 0.243137
0.509804 0.984314 0.243137
0.549020 0.984314 0.239216
0.596078 0.984314 0.250980
0.631373 0.980392 0.243137
0.678431 0.976471 0.247059
0.717647 0.976471 0.250980
0.756863 0.976471 0.258824
0.800000 0.972549 0.262745
0.839216 0.972549 0.258824
0.878431 0.972549 0.258824
0.913725 0.972549 0.262745
0.956863 0.972549 0.254902
1.000000 0.968627 0.278431
0.992157 0.968627 0.278431
0.211765 1.000000 0.247059
0.215686 1.000000 0.258824
0.231373 1.000000 0.270588
0.250980 0.996078 0.266667
0.278431 1.000000 0.262745
0.294118 1.000000 0.262745
0.333333 1.000000 0.266667
0.368627 0.996078 0.266667
0.400000 1.000000 0.266667
0.439216 1.000000 0.262745
0.474510 1.000000 0.266667
0.513725 1.000000 0.266667
0.552941 1.000000 0.270588
0.584314 1.000000 0.258824
0.623529 1.000000 0.270588
0.670588 1.000000 0.278431
0.709804 1.000000 0.274510
0.749020 1.000000 0.278431
0.788235 1.000000 0.278431
0.827451 1.000000 0.274510
0.866667 1.000000 0.282353
0.898039 0.996078 0.290196
0.949020 0.992157 0.294118
0.992157 0.992157 0.301961
1.000000 0.996078 0.305882
0.235294 1.000000 0.274510
0.239216 1.000000 0.278431
0.258824 1.000000 0.286275
0.282353 1.000000 0.290196
0.290196 1.000000 0.294118
0.325490 1.000000 0.294118
0.356863 0.996078 0.294118
0.380392 1.000000 0.290196
0.411765 0.996078 0.290196
0.439216 1.000000 0.294118
0.478431 1.000000 0.294118
0.517647 1.000000 0.290196
0.549020 1.000000 0.282353
0.588235 1.000000 0.294118
0.631373 1.000000 0.298039
0.658824 1.000000 0.298039
0.698039 1.000000 0.301961
0.737255 1.000000 0.309804
0.776471 1.000000 0.305882
0.815686 1.000000 0.309804
0.850980 0.996078 0.309804
0.898039 1.000000 0.325490
0.929412 1.000000 0.325490
0.956863 1.000000 0.329412
0.992157 1.000000 0.341176
0.007843 0.000000 0.054902
0.047059 0.000000 0.054902
0.105882 0.000000 0.058824
0.156863 0.000000 0.058824
0.223529 0.000000 0.066667
0.270588 0.000000 0.070588
0.329412 0.003922 0.074510
0.372549 0.000000 0.078431
0.427451 0.000000 0.090196
0.478431 0.000000 0.098039
0.525490 0.000000 0.105882
0.576471 0.000000 0.113725
0.623529 0.000000 0.117647
0.670588 0.000000 0.125490
0.721569 0.000000 0.133333
0.768627 0.000000 0.149020
0.807843 0.023529 0.168627
0.850980 0.047059 0.176471
0.898039 0.078431 0.192157
0.945098 0.105882 0.200000
0.976471 0.129412 0.219608
1.000000 0.149020 0.231373
1.000000 0.172549 0.247059
1.000000 0.207843 0.270588
1.000000 0.223529 0.290196
0.015686 0.035294 0.058824
0.058824 0.031373 0.058824
0.113725 0.023529 0.054902
0.164706 0.015686 0.058824
0.223529 0.023529 0.058824
0.266667 0.023529 0.074510
0.333333 0.000000 0.082353
0.384314 0.003922 0.078431
0.427451 0.000000 0.082353
0.478431 0.000000 0.090196
0.521569 0.000000 0.105882
0.568627 0.000000 0.113725
0.615686 0.015686 0.125490
0.670588 0.035294 0.129412
0.717647 0.043137 0.137255
0.764706 0.062745 0.149020
0.815686 0.070588 0.168627
0.858824 0.090196 0.176471
0.905882 0.117647 0.192157
0.941176 0.137255 0.203922
0.972549 0.156863 0.219608
1.000000 0.172549 0.231373
1.000000 0.188235 0.250980
1.000000 0.219608 0.262745
0.996078 0.243137 0.301961
0.003922 0.082353 0.039216
0.070588 0.082353 0.054902
0.113725 0.086275 0.054902
0.160784 0.078431 0.058824
0.223529 0.070588 0.074510
0.274510 0.078431 0.074510
0.337255 0.066667 0.078431
0.384314 0.070588 0.082353
0.431373 0.070588 0.090196
0.478431 0.074510 0.090196
0.525490 0.070588 0.105882
0.572549 0.078431 0.121569
0.619608 0.086275 0.125490
0.670588 0.090196 0.137255
0.713725 0.094118 0.152941
0.764706 0.105882 0.156863
0.811765 0.121569 0.160784
0.847059 0.137255 0.172549
0.894118 0.149020 0.188235
0.929412 0.160784 0.200000
0.972549 0.184314 0.223529
1.000000 0.192157 0.243137
0.996078 0.211765 0.254902
0.996078 0.239216 0.258824
1.000000 0.243137 0.298039
0.015686 0.129412 0.050980
0.078431 0.133333 0.066667
0.121569 0.133333 0.058824
0.184314 0.133333 0.066667
0.227451 0.125490 0.066667
0.282353 0.125490 0.078431
0.333333 0.129412 0.086275
0.380392 0.129412 0.082353
0.427451 0.125490 0.086275
0.470588 0.129412 0.101961
0.521569 0.133333 0.113725
0.576471 0.137255 0.121569
0.619608 0.141176 0.121569
0.670588 0.145098 0.149020
0.717647 0.152941 0.152941
0.764706 0.160784 0.152941
0.807843 0.164706 0.160784
0.850980 0.172549 0.180392
0.886275 0.184314 0.196078
0.929412 0.200000 0.211765
0.964706 0.207843 0.219608
0.996078 0.227451 0.231373
1.000000 0.235294 0.250980
1.000000 0.254902 0.262745
1.000000 0.274510 0.294118
0.027451 0.180392 0.058824
0.086275 0.188235 0.074510
0.141176 0.184314 0.058824
0.188235 0.184314 0.062745
0.243137 0.176471 0.058824
0.286275 0.180392 0.066667
0.337255 0.180392 0.078431
0.380392 0.184314 0.094118
0.431373 0.188235 0.105882
0.474510 0.188235 0.113725
0.525490 0.188235 0.121569
0.572549 0.192157 0.129412
0.619608 0.200000 0.137255
0.670588 0.200000 0.145098
0.721569 0.203922 0.152941
0.768627 0.211765 0.172549
0.811765 0.211765 0.180392
0.854902 0.219608 0.200000
0.894118 0.231373 0.203922
0.933333 0.239216 0.215686
0.964706 0.243137 0.235294
0.996078 0.262745 0.243137
0.996078 0.274510 0.243137
0.996078 0.282353 0.266667
1.000000 0.298039 0.286275
0.058824 0.239216 0.058824
0.098039 0.243137 0.070588
0.152941 0.243137 0.070588
0.200000 0.243137 0.074510
0.250980 0.239216 0.070588
0.298039 0.239216 0.070588
0.345098 0.239216 0.070588
0.392157 0.239216 0.078431
0.435294 0.247059 0.105882
0.482353 0.243137 0.121569
0.529412 0.250980 0.133333
0.572549 0.254902 0.141176
0.615686 0.258824 0.152941
0.674510 0.266667 0.160784
0.721569 0.266667 0.168627
0.772549 0.266667 0.180392
0.819608 0.266667 0.188235
0.858824 0.274510 0.196078
0.905882 0.282353 0.207843
0.941176 0.286275 0.223529
0.980392 0.290196 0.239216
1.000000 0.301961 0.254902
1.000000 0.305882 0.266667
1.000000 0.321569 0.294118
0.996078 0.345098 0.290196
0.078431 0.286275 0.074510
0.109804 0.298039 0.070588
0.149020 0.298039 0.066667
0.200000 0.290196 0.078431
0.239216 0.290196 0.070588
0.282353 0.294118 0.070588
0.345098 0.298039 0.070588
0.392157 0.294118 0.082353
0.431373 0.290196 0.086275
0.482353 0.294118 0.105882
0.525490 0.301961 0.133333
0.580392 0.309804 0.149020
0.623529 0.313725 0.160784
0.682353 0.313725 0.164706
0.733333 0.313725 0.180392
0.768627 0.321569 0.188235
0.815686 0.325490 0.200000
0.850980 0.325490 0.211765
0.898039 0.325490 0.227451
0.937255 0.325490 0.235294
0.972549 0.337255 0.247059
1.000000 0.349020 0.262745
1.000000 0.356863 0.278431
1.000000 0.360784 0.294118
0.996078 0.368627 0.305882
0.074510 0.345098 0.082353
0.121569 0.345098 0.078431
0.152941 0.349020 0.070588
0.207843 0.349020 0.074510
0.254902 0.345098 0.078431
0.290196 0.352941 0.074510
0.337255 0.341176 0.082353
0.388235 0.345098 0.086275
0.439216 0.349020 0.086275
0.482353 0.349020 0.098039
0.525490 0.352941 0.113725
0.572549 0.356863 0.137255
0.623529 0.364706 0.168627
0.674510 0.368627 0.188235
0.717647 0.372549 0.192157
0.764706 0.368627 0.196078
0.811765 0.372549 0.215686
0.847059 0.368627 0.223529
0.894118 0.372549 0.235294
0.933333 0.372549 0.239216
0.968627 0.380392 0.250980
1.000000 0.388235 0.266667
1.000000 0.396078 0.286275
1.000000 0.396078 0.286275
0.996078 0.403922 0.321569
0.074510 0.396078 0.074510
0.121569 0.403922 0.082353
0.164706 0.396078 0.082353
0.203922 0.396078 0.078431
0.247059 0.400000 0.074510
0.286275 0.400000 0.078431
0.333333 0.400000 0.086275
0.384314 0.403922 0.090196
0.427451 0.400000 0.086275
0.474510 0.400000 0.090196
0.525490 0.400000 0.105882
0.572549 0.407843 0.125490
0.619608 0.403922 0.149020
0.670588 0.411765 0.176471
0.713725 0.411765 0.192157
0.760784 0.419608 0.211765
0.803922 0.423529 0.223529
0.843137 0.419608 0.227451
0.878431 0.423529 0.239216
0.921569 0.423529 0.254902
0.964706 0.423529 0.270588
1.000000 0.427451 0.282353
1.000000 0.427451 0.294118
0.992157 0.443137 0.305882
0.996078 0.447059 0.317647
0.078431 0.450980 0.082353
0.113725 0.454902 0.086275
0.152941 0.454902 0.078431
0.196078 0.450980 0.090196
0.239216 0.454902 0.086275
0.286275 0.458824 0.086275
0.333333 0.454902 0.090196
0.376471 0.450980 0.090196
0.423529 0.450980 0.086275
0.470588 0.450980 0.090196
0.517647 0.450980 0.090196
0.568627 0.450980 0.098039
0.615686 0.454902 0.141176
0.658824 0.454902 0.156863
0.709804 0.458824 0.180392
0.752941 0.466667 0.200000
0.796078 0.466667 0.223529
0.839216 0.466667 0.239216
0.882353 0.470588 0.247059
0.925490 0.474510 0.262745
0.964706 0.470588 0.274510
0.992157 0.474510 0.286275
1.000000 0.474510 0.298039
0.996078 0.482353 0.317647
1.000000 0.490196 0.325490
0.074510 0.517647 0.094118
0.101961 0.517647 0.094118
0.145098 0.521569 0.098039
0.192157 0.517647 0.094118
0.235294 0.517647 0.094118
0.278431 0.521569 0.094118
0.325490 0.517647 0.098039
0.376471 0.521569 0.105882
0.423529 0.513725 0.105882
0.470588 0.513725 0.105882
0.521569 0.509804 0.098039
