app/src/main/assets/cube/Christmas 6.cube
TITLE "Christmas LUT #6"
#LUT size
LUT_3D_SIZE 5
#LUT data points
0.156863 0.105882 0.133333
0.301961 0.101961 0.129412
0.568627 0.090196 0.133333
0.894118 0.039216 0.101961
0.992157 0.003922 0.062745
0.196078 0.247059 0.145098
0.309804 0.250980 0.129412
0.576471 0.282353 0.117647
0.901961 0.286275 0.078431
1.000000 0.258824 0.039216
0.223529 0.568627 0.023529
0.364706 0.568627 0.000000
0.611765 0.564706 0.000000
0.886275 0.552941 0.000000
1.000000 0.525490 0.000000
0.184314 0.827451 0.000000
0.352941 0.835294 0.000000
0.611765 0.823529 0.000000
0.866667 0.807843 0.000000
1.000000 0.776471 0.000000
0.235294 1.000000 0.007843
0.356863 1.000000 0.000000
0.576471 0.996078 0.000000
0.847059 1.000000 0.007843
1.000000 1.000000 0.003922
0.164706 0.105882 0.266667
0.298039 0.098039 0.258824
0.564706 0.000000 0.274510
0.894118 0.000000 0.247059
0.996078 0.000000 0.235294
0.184314 0.235294 0.258824
0.313725 0.239216 0.262745
0.584314 0.235294 0.250980
0.890196 0.211765 0.235294
0.996078 0.192157 0.211765
0.090196 0.552941 0.215686
0.317647 0.564706 0.207843
0.603922 0.549020 0.200000
0.878431 0.533333 0.184314
1.000000 0.505882 0.172549
0.066667 0.827451 0.113725
0.309804 0.827451 0.113725
0.596078 0.815686 0.098039
0.870588 0.811765 0.078431
1.000000 0.772549 0.105882
0.211765 1.000000 0.054902
0.345098 1.000000 0.066667
0.576471 1.000000 0.074510
0.843137 1.000000 0.074510
0.996078 1.000000 0.105882
0.227451 0.074510 0.525490
0.368627 0.031373 0.521569
0.596078 0.003922 0.517647
0.905882 0.000000 0.517647
1.000000 0.003922 0.482353
0.125490 0.235294 0.525490
0.341176 0.219608 0.525490
0.603922 0.192157 0.525490
0.898039 0.121569 0.501961
1.000000 0.149020 0.478431
0.000000 0.552941 0.498039
0.274510 0.556863 0.501961
0.611765 0.541176 0.494118
0.890196 0.525490 0.494118
1.000000 0.517647 0.478431
0.133333 0.835294 0.478431
0.349020 0.827451 0.486275
0.603922 0.819608 0.462745
0.870588 0.811765 0.454902
1.000000 0.776471 0.466667
0.309804 0.996078 0.458824
0.407843 1.000000 0.454902
0.600000 1.000000 0.458824
0.847059 0.996078 0.458824
0.996078 1.000000 0.458824
0.278431 0.000000 0.760784
0.384314 0.003922 0.760784
0.611765 0.003922 0.756863
0.882353 0.000000 0.752941
1.000000 0.000000 0.729412
0.196078 0.200000 0.749020
0.345098 0.192157 0.760784
0.603922 0.152941 0.760784
0.874510 0.054902 0.756863
1.000000 0.086275 0.717647
0.062745 0.509804 0.745098
0.309804 0.505882 0.737255
0.603922 0.509804 0.745098
0.886275 0.501961 0.741176
0.996078 0.521569 0.721569
0.196078 0.815686 0.725490
0.368627 0.815686 0.725490
0.619608 0.811765 0.725490
0.866667 0.800000 0.721569
1.000000 0.800000 0.725490
0.450980 1.000000 0.705882
0.521569 1.000000 0.698039
0.682353 1.000000 0.713725
0.866667 1.000000 0.701961
1.000000 1.000000 0.709804
0.286275 0.000000 0.956863
0.384314 0.000000 0.960784
0.580392 0.000000 0.956863
0.831373 0.000000 0.952941
1.000000 0.000000 0.949020
0.223529 0.164706 0.960784
0.345098 0.164706 0.937255
0.568627 0.141176 0.952941
0.827451 0.082353 0.952941
1.000000 0.066667 0.952941
0.184314 0.486275 0.941176
0.341176 0.482353 0.952941
0.576471 0.486275 0.945098
0.831373 0.490196 0.949020
1.000000 0.494118 0.941176
0.329412 0.768627 0.949020
0.443137 0.772549 0.945098
0.631373 0.776471 0.941176
0.847059 0.784314 0.937255
0.996078 0.792157 0.933333
0.494118 1.000000 0.929412
0.556863 1.000000 0.929412
0.698039 1.000000 0.929412
0.890196 0.996078 0.921569
0.996078 1.000000 0.921569
