app/src/main/assets/cube/Christmas 5.cube
TITLE "Christmas LUT #5"
#LUT size
LUT_3D_SIZE 9
#LUT data points
0.101961 0.086275 0.074510
0.188235 0.090196 0.074510
0.282353 0.090196 0.070588
0.380392 0.086275 0.074510
0.486275 0.086275 0.078431
0.588235 0.086275 0.074510
0.713725 0.094118 0.082353
0.839216 0.078431 0.078431
0.976471 0.066667 0.058824
0.121569 0.176471 0.078431
0.192157 0.168627 0.074510
0.290196 0.164706 0.082353
0.384314 0.160784 0.082353
0.494118 0.152941 0.078431
0.596078 0.152941 0.082353
0.717647 0.160784 0.082353
0.858824 0.149020 0.074510
0.984314 0.152941 0.066667
0.121569 0.270588 0.086275
0.180392 0.266667 0.082353
0.278431 0.262745 0.078431
0.376471 0.254902 0.074510
0.482353 0.250980 0.086275
0.592157 0.250980 0.082353
0.713725 0.254902 0.082353
0.847059 0.258824 0.062745
0.972549 0.250980 0.039216
0.133333 0.368627 0.078431
0.192157 0.360784 0.078431
0.270588 0.364706 0.074510
0.380392 0.364706 0.074510
0.490196 0.360784 0.082353
0.596078 0.360784 0.078431
0.721569 0.368627 0.062745
0.854902 0.376471 0.050980
0.992157 0.372549 0.023529
0.129412 0.470588 0.058824
0.188235 0.466667 0.058824
0.266667 0.466667 0.062745
0.368627 0.466667 0.058824
0.474510 0.470588 0.047059
0.596078 0.470588 0.043137
0.721569 0.478431 0.035294
0.854902 0.490196 0.023529
0.988235 0.486275 0.000000
0.113725 0.572549 0.011765
0.156863 0.580392 0.011765
0.254902 0.576471 0.000000
0.364706 0.580392 0.007843
0.486275 0.588235 0.003922
0.596078 0.592157 0.000000
0.729412 0.600000 0.000000
0.850980 0.603922 0.003922
0.976471 0.603922 0.000000
0.007843 0.733333 0.000000
0.117647 0.729412 0.000000
0.235294 0.721569 0.000000
0.372549 0.725490 0.003922
0.482353 0.725490 0.000000
0.615686 0.729412 0.000000
0.745098 0.729412 0.000000
0.866667 0.733333 0.003922
0.984314 0.737255 0.000000
0.000000 0.854902 0.000000
0.011765 0.854902 0.000000
0.203922 0.850980 0.000000
0.349020 0.858824 0.003922
0.478431 0.850980 0.000000
0.607843 0.858824 0.000000
0.737255 0.862745 0.000000
0.866667 0.854902 0.003922
0.988235 0.854902 0.000000
0.000000 0.996078 0.000000
0.007843 0.984314 0.000000
0.160784 0.988235 0.003922
0.325490 0.988235 0.000000
0.470588 0.992157 0.000000
0.600000 0.996078 0.007843
0.741176 0.996078 0.000000
0.866667 0.996078 0.000000
1.000000 1.000000 0.000000
0.109804 0.094118 0.160784
0.192157 0.082353 0.168627
0.290196 0.101961 0.156863
0.384314 0.105882 0.160784
0.486275 0.101961 0.160784
0.592157 0.098039 0.152941
0.721569 0.082353 0.149020
0.854902 0.062745 0.149020
0.984314 0.035294 0.133333
0.113725 0.176471 0.164706
0.200000 0.180392 0.164706
0.286275 0.168627 0.160784
0.388235 0.172549 0.160784
0.494118 0.164706 0.156863
0.603922 0.164706 0.156863
0.725490 0.152941 0.152941
0.862745 0.149020 0.145098
0.992157 0.137255 0.129412
0.137255 0.274510 0.156863
0.188235 0.270588 0.149020
0.286275 0.262745 0.160784
0.384314 0.262745 0.152941
0.482353 0.258824 0.152941
0.603922 0.250980 0.149020
0.721569 0.250980 0.152941
0.854902 0.254902 0.133333
0.984314 0.243137 0.125490
0.117647 0.372549 0.145098
0.180392 0.376471 0.145098
0.278431 0.372549 0.145098
0.388235 0.368627 0.141176
0.490196 0.368627 0.152941
0.607843 0.368627 0.152941
0.737255 0.372549 0.141176
0.866667 0.372549 0.133333
1.000000 0.376471 0.121569
0.125490 0.478431 0.133333
0.176471 0.470588 0.137255
0.262745 0.474510 0.137255
0.372549 0.474510 0.125490
0.482353 0.478431 0.125490
0.600000 0.478431 0.125490
0.729412 0.478431 0.125490
0.858824 0.486275 0.117647
0.988235 0.494118 0.101961
0.078431 0.588235 0.101961
0.152941 0.584314 0.109804
0.243137 0.592157 0.098039
0.368627 0.588235 0.098039
0.486275 0.588235 0.098039
0.607843 0.592157 0.098039
0.725490 0.600000 0.070588
0.854902 0.607843 0.054902
0.980392 0.600000 0.039216
0.007843 0.733333 0.023529
0.098039 0.733333 0.019608
0.235294 0.725490 0.019608
0.360784 0.729412 0.007843
0.490196 0.733333 0.007843
0.619608 0.733333 0.003922
0.741176 0.737255 0.000000
0.862745 0.745098 0.000000
1.000000 0.741176 0.000000
0.000000 0.854902 0.000000
0.000000 0.854902 0.000000
0.192157 0.858824 0.000000
0.341176 0.854902 0.000000
0.478431 0.858824 0.000000
0.615686 0.858824 0.000000
0.737255 0.862745 0.000000
0.858824 0.858824 0.000000
0.996078 0.862745 0.000000
0.007843 0.992157 0.000000
0.000000 0.992157 0.000000
0.141176 0.988235 0.003922
0.325490 0.996078 0.000000
0.474510 0.996078 0.003922
0.600000 0.996078 0.000000
0.741176 1.000000 0.000000
0.870588 1.000000 0.000000
1.000000 1.000000 0.000000
0.113725 0.086275 0.258824
0.192157 0.094118 0.258824
0.286275 0.098039 0.262745
0.392157 0.098039 0.258824
0.490196 0.105882 0.258824
0.592157 0.105882 0.250980
0.721569 0.070588 0.258824
0.850980 0.007843 0.239216
0.980392 0.000000 0.239216
0.137255 0.164706 0.274510
0.188235 0.164706 0.274510
0.290196 0.160784 0.266667
0.392157 0.164706 0.262745
0.501961 0.164706 0.262745
0.607843 0.160784 0.258824
0.725490 0.141176 0.258824
0.870588 0.117647 0.262745
0.992157 0.090196 0.239216
0.141176 0.266667 0.254902
0.192157 0.262745 0.262745
0.290196 0.258824 0.250980
0.376471 0.258824 0.258824
0.478431 0.258824 0.254902
0.600000 0.250980 0.258824
0.725490 0.247059 0.243137
0.858824 0.239216 0.243137
0.984314 0.231373 0.227451
0.121569 0.376471 0.258824
0.180392 0.372549 0.254902
0.274510 0.372549 0.254902
0.380392 0.368627 0.247059
0.486275 0.364706 0.254902
0.600000 0.364706 0.254902
0.737255 0.364706 0.247059
0.870588 0.364706 0.243137
1.000000 0.360784 0.239216
0.082353 0.478431 0.243137
0.145098 0.478431 0.223529
0.258824 0.478431 0.239216
0.372549 0.474510 0.235294
0.482353 0.474510 0.235294
0.600000 0.478431 0.227451
0.721569 0.482353 0.235294
0.866667 0.482353 0.235294
0.980392 0.482353 0.219608
0.000000 0.592157 0.219608
0.113725 0.588235 0.215686
0.227451 0.596078 0.219608
0.356863 0.592157 0.215686
0.486275 0.592157 0.211765
0.611765 0.596078 0.215686
0.733333 0.600000 0.207843
0.862745 0.607843 0.207843
0.988235 0.600000 0.200000
0.000000 0.733333 0.188235
0.000000 0.733333 0.188235
0.200000 0.729412 0.188235
0.337255 0.733333 0.184314
0.486275 0.729412 0.192157
0.611765 0.733333 0.184314
0.741176 0.737255 0.172549
0.878431 0.741176 0.168627
0.992157 0.733333 0.149020
0.003922 0.862745 0.125490
0.000000 0.862745 0.133333
0.141176 0.858824 0.121569
0.321569 0.854902 0.117647
0.466667 0.854902 0.113725
0.600000 0.862745 0.113725
0.733333 0.862745 0.105882
0.862745 0.862745 0.094118
0.992157 0.858824 0.090196
0.003922 0.988235 0.000000
0.000000 0.996078 0.000000
0.043137 1.000000 0.000000
0.305882 0.992157 0.000000
0.454902 0.992157 0.000000
0.596078 1.000000 0.000000
0.741176 0.996078 0.000000
0.874510 0.996078 0.000000
1.000000 1.000000 0.000000
0.121569 0.094118 0.368627
0.176471 0.090196 0.372549
0.278431 0.101961 0.372549
0.380392 0.094118 0.372549
0.490196 0.090196 0.376471
0.596078 0.086275 0.368627
0.717647 0.054902 0.372549
0.854902 0.000000 0.372549
0.980392 0.000000 0.368627
0.125490 0.160784 0.376471
0.184314 0.152941 0.376471
0.282353 0.152941 0.376471
0.388235 0.149020 0.372549
0.490196 0.145098 0.380392
0.600000 0.149020 0.372549
0.733333 0.133333 0.384314
0.862745 0.090196 0.372549
0.988235 0.000000 0.352941
0.125490 0.254902 0.376471
0.172549 0.254902 0.368627
0.270588 0.250980 0.376471
0.384314 0.247059 0.372549
0.486275 0.247059 0.368627
0.588235 0.250980 0.364706
0.725490 0.243137 0.364706
0.862745 0.211765 0.368627
0.988235 0.176471 0.356863
0.113725 0.364706 0.372549
0.172549 0.364706 0.380392
0.266667 0.364706 0.380392
0.376471 0.356863 0.380392
0.482353 0.360784 0.380392
0.603922 0.360784 0.372549
0.729412 0.352941 0.360784
0.874510 0.345098 0.372549
0.996078 0.345098 0.360784
0.054902 0.482353 0.360784
0.145098 0.470588 0.368627
0.243137 0.474510 0.356863
0.356863 0.470588 0.360784
0.474510 0.470588 0.352941
0.603922 0.470588 0.364706
0.733333 0.478431 0.368627
0.862745 0.466667 0.349020
0.988235 0.466667 0.337255
0.003922 0.592157 0.352941
0.003922 0.592157 0.341176
0.176471 0.592157 0.333333
0.321569 0.600000 0.341176
0.470588 0.596078 0.333333
0.600000 0.596078 0.341176
0.733333 0.596078 0.329412
0.862745 0.600000 0.333333
0.992157 0.592157 0.333333
0.000000 0.737255 0.313725
0.003922 0.733333 0.313725
0.082353 0.729412 0.317647
0.309804 0.737255 0.317647
0.466667 0.737255 0.321569
0.607843 0.733333 0.313725
0.741176 0.737255 0.313725
0.878431 0.737255 0.298039
0.996078 0.729412 0.301961
0.003922 0.866667 0.278431
0.000000 0.862745 0.278431
0.003922 0.858824 0.274510
0.282353 0.862745 0.274510
0.447059 0.858824 0.290196
0.592157 0.858824 0.274510
0.725490 0.866667 0.270588
0.870588 0.866667 0.270588
0.992157 0.858824 0.274510
0.003922 1.000000 0.239216
0.000000 0.996078 0.231373
0.000000 0.996078 0.235294
0.239216 0.992157 0.219608
0.423529 0.996078 0.231373
0.576471 1.000000 0.227451
0.721569 1.000000 0.223529
0.870588 1.000000 0.235294
0.988235 0.996078 0.219608
0.129412 0.086275 0.486275
0.176471 0.098039 0.486275
0.270588 0.094118 0.498039
0.372549 0.090196 0.490196
0.490196 0.074510 0.498039
0.592157 0.058824 0.490196
0.725490 0.019608 0.501961
0.858824 0.000000 0.509804
0.992157 0.000000 0.490196
0.129412 0.156863 0.501961
0.176471 0.152941 0.505882
0.270588 0.160784 0.501961
0.384314 0.149020 0.501961
0.490196 0.141176 0.501961
0.603922 0.129412 0.501961
0.737255 0.113725 0.513725
0.874510 0.043137 0.513725
0.996078 0.000000 0.505882
0.105882 0.243137 0.501961
0.172549 0.243137 0.494118
0.274510 0.239216 0.494118
0.376471 0.239216 0.490196
0.486275 0.231373 0.498039
0.592157 0.231373 0.494118
0.729412 0.219608 0.501961
0.862745 0.192157 0.498039
0.984314 0.152941 0.486275
0.066667 0.356863 0.501961
0.145098 0.356863 0.490196
0.239216 0.349020 0.501961
0.352941 0.345098 0.498039
0.498039 0.337255 0.501961
0.607843 0.349020 0.498039
0.737255 0.341176 0.505882
0.878431 0.325490 0.494118
1.000000 0.309804 0.490196
0.007843 0.478431 0.482353
0.090196 0.470588 0.494118
0.223529 0.470588 0.490196
0.337255 0.466667 0.494118
0.470588 0.466667 0.490196
0.592157 0.462745 0.490196
0.733333 0.462745 0.482353
0.866667 0.458824 0.486275
0.984314 0.447059 0.474510
0.003922 0.592157 0.494118
0.000000 0.588235 0.490196
0.149020 0.592157 0.482353
0.298039 0.592157 0.474510
0.447059 0.592157 0.470588
0.603922 0.592157 0.470588
0.737255 0.592157 0.478431
0.866667 0.596078 0.474510
1.000000 0.584314 0.458824
0.000000 0.737255 0.470588
0.000000 0.733333 0.466667
0.000000 0.733333 0.458824
0.235294 0.733333 0.454902
0.427451 0.741176 0.462745
0.592157 0.741176 0.454902
0.737255 0.737255 0.454902
0.878431 0.737255 0.447059
1.000000 0.725490 0.443137
0.000000 0.870588 0.411765
0.000000 0.866667 0.415686
0.007843 0.862745 0.423529
0.172549 0.862745 0.435294
0.411765 0.858824 0.415686
0.580392 0.870588 0.427451
0.721569 0.866667 0.419608
0.870588 0.862745 0.419608
1.000000 0.850980 0.407843
0.000000 1.000000 0.388235
0.000000 1.000000 0.396078
0.003922 0.996078 0.396078
0.121569 0.996078 0.388235
0.388235 0.996078 0.392157
0.564706 0.992157 0.384314
0.717647 0.996078 0.384314
0.862745 1.000000 0.396078
0.996078 1.000000 0.388235
0.133333 0.086275 0.619608
0.176471 0.086275 0.611765
0.286275 0.086275 0.631373
0.376471 0.074510 0.623529
0.490196 0.062745 0.631373
0.603922 0.019608 0.623529
0.737255 0.000000 0.631373
0.862745 0.000000 0.627451
0.988235 0.000000 0.639216
0.121569 0.141176 0.635294
0.176471 0.141176 0.631373
0.278431 0.145098 0.627451
0.372549 0.137255 0.623529
0.498039 0.125490 0.627451
0.623529 0.105882 0.635294
0.745098 0.070588 0.650980
0.882353 0.000000 0.643137
1.000000 0.000000 0.643137
0.082353 0.235294 0.631373
0.149020 0.235294 0.631373
0.262745 0.231373 0.627451
0.368627 0.231373 0.623529
0.490196 0.219608 0.635294
0.607843 0.219608 0.635294
0.737255 0.196078 0.635294
0.866667 0.172549 0.631373
1.000000 0.125490 0.631373
0.000000 0.352941 0.631373
0.078431 0.349020 0.643137
0.207843 0.341176 0.631373
0.352941 0.337255 0.627451
0.482353 0.333333 0.635294
0.611765 0.325490 0.635294
0.749020 0.321569 0.647059
0.886275 0.313725 0.647059
0.996078 0.298039 0.627451
0.007843 0.470588 0.627451
0.000000 0.474510 0.627451
0.180392 0.466667 0.635294
0.321569 0.454902 0.631373
0.466667 0.454902 0.639216
0.603922 0.450980 0.635294
0.749020 0.443137 0.631373
0.882353 0.443137 0.639216
0.996078 0.435294 0.615686
0.000000 0.592157 0.619608
0.007843 0.588235 0.627451
0.078431 0.592157 0.623529
0.278431 0.592157 0.627451
0.431373 0.588235 0.619608
0.592157 0.588235 0.619608
0.737255 0.592157 0.623529
0.874510 0.596078 0.619608
1.000000 0.592157 0.611765
0.000000 0.737255 0.619608
0.000000 0.745098 0.623529
0.003922 0.737255 0.623529
0.207843 0.737255 0.619608
0.403922 0.737255 0.615686
0.584314 0.741176 0.607843
0.737255 0.733333 0.611765
0.874510 0.741176 0.603922
0.996078 0.737255 0.603922
0.003922 0.870588 0.596078
0.000000 0.874510 0.588235
0.000000 0.866667 0.588235
0.035294 0.866667 0.576471
0.388235 0.866667 0.580392
0.564706 0.866667 0.584314
0.721569 0.870588 0.584314
0.866667 0.866667 0.576471
1.000000 0.850980 0.564706
0.000000 1.000000 0.552941
0.000000 0.996078 0.549020
0.000000 0.996078 0.541176
0.050980 1.000000 0.560784
0.376471 0.996078 0.552941
0.552941 1.000000 0.556863
0.717647 1.000000 0.560784
0.858824 1.000000 0.568627
1.000000 0.996078 0.560784
0.117647 0.078431 0.764706
0.184314 0.070588 0.760784
0.266667 0.070588 0.756863
0.376471 0.050980 0.756863
0.498039 0.019608 0.760784
0.611765 0.000000 0.772549
0.733333 0.000000 0.756863
0.862745 0.000000 0.760784
0.996078 0.000000 0.764706
0.101961 0.133333 0.764706
0.160784 0.137255 0.764706
0.278431 0.129412 0.768627
0.384314 0.125490 0.752941
0.494118 0.105882 0.764706
0.611765 0.086275 0.764706
0.745098 0.019608 0.764706
0.866667 0.000000 0.768627
0.996078 0.000000 0.780392
0.019608 0.223529 0.764706
0.133333 0.227451 0.760784
0.235294 0.215686 0.772549
0.364706 0.219608 0.768627
0.494118 0.207843 0.768627
0.607843 0.192157 0.772549
0.729412 0.180392 0.764706
0.870588 0.141176 0.772549
1.000000 0.082353 0.768627
0.011765 0.325490 0.776471
0.000000 0.333333 0.768627
0.196078 0.325490 0.768627
0.341176 0.325490 0.768627
0.474510 0.321569 0.772549
0.607843 0.317647 0.768627
0.741176 0.305882 0.776471
0.886275 0.286275 0.784314
1.000000 0.274510 0.776471
0.000000 0.466667 0.772549
0.000000 0.458824 0.760784
0.098039 0.458824 0.760784
0.294118 0.443137 0.768627
0.435294 0.439216 0.760784
0.592157 0.435294 0.772549
0.733333 0.427451 0.764706
0.886275 0.419608 0.772549
1.000000 0.419608 0.749020
0.007843 0.580392 0.764706
0.000000 0.592157 0.768627
0.000000 0.588235 0.756863
0.243137 0.580392 0.772549
0.411765 0.576471 0.764706
0.572549 0.576471 0.764706
0.737255 0.572549 0.768627
0.878431 0.572549 0.760784
1.000000 0.576471 0.741176
0.000000 0.729412 0.764706
0.000000 0.729412 0.764706
0.000000 0.733333 0.760784
0.192157 0.729412 0.760784
0.419608 0.725490 0.772549
0.580392 0.729412 0.764706
0.737255 0.733333 0.764706
0.874510 0.737255 0.760784
1.000000 0.745098 0.760784
0.000000 0.874510 0.752941
0.000000 0.870588 0.756863
0.003922 0.866667 0.756863
0.003922 0.870588 0.741176
0.368627 0.874510 0.756863
0.560784 0.870588 0.745098
0.725490 0.862745 0.737255
0.866667 0.870588 0.737255
1.000000 0.866667 0.741176
0.007843 1.000000 0.749020
0.003922 0.996078 0.733333
0.000000 1.000000 0.717647
0.000000 0.996078 0.713725
0.349020 1.000000 0.717647
0.552941 1.000000 0.725490
0.721569 1.000000 0.725490
0.858824 0.996078 0.729412
0.996078 1.000000 0.725490
0.098039 0.054902 0.894118
0.160784 0.047059 0.878431
0.266667 0.043137 0.890196
0.368627 0.015686 0.886275
0.494118 0.000000 0.894118
0.603922 0.007843 0.890196
0.741176 0.000000 0.890196
0.862745 0.003922 0.890196
0.984314 0.000000 0.882353
0.074510 0.121569 0.890196
0.152941 0.121569 0.901961
0.262745 0.113725 0.894118
0.368627 0.101961 0.890196
0.490196 0.090196 0.898039
0.615686 0.047059 0.898039
0.733333 0.000000 0.890196
0.866667 0.007843 0.898039
1.000000 0.000000 0.901961
0.000000 0.219608 0.890196
0.113725 0.215686 0.886275
0.239216 0.211765 0.894118
0.356863 0.207843 0.886275
0.482353 0.196078 0.890196
0.607843 0.180392 0.890196
0.733333 0.160784 0.894118
0.858824 0.121569 0.898039
1.000000 0.043137 0.898039
0.003922 0.325490 0.890196
0.000000 0.329412 0.898039
0.164706 0.321569 0.898039
0.321569 0.321569 0.894118
0.466667 0.309804 0.894118
0.596078 0.301961 0.898039
0.729412 0.294118 0.898039
0.862745 0.274510 0.898039
0.992157 0.262745 0.901961
0.000000 0.447059 0.886275
0.000000 0.447059 0.890196
0.000000 0.435294 0.886275
0.254902 0.431373 0.890196
0.435294 0.419608 0.901961
0.576471 0.419608 0.901961
0.725490 0.411765 0.901961
0.862745 0.407843 0.905882
1.000000 0.396078 0.905882
0.000000 0.572549 0.898039
0.000000 0.576471 0.890196
0.000000 0.568627 0.894118
0.192157 0.568627 0.898039
0.396078 0.560784 0.890196
0.556863 0.556863 0.901961
0.721569 0.556863 0.894118
0.866667 0.560784 0.898039
1.000000 0.545098 0.894118
0.000000 0.713725 0.898039
0.000000 0.717647 0.890196
0.000000 0.709804 0.886275
0.160784 0.717647 0.898039
0.392157 0.717647 0.890196
0.564706 0.713725 0.890196
0.717647 0.721569 0.894118
0.874510 0.721569 0.898039
1.000000 0.721569 0.901961
0.003922 0.850980 0.894118
0.000000 0.850980 0.890196
0.000000 0.850980 0.886275
0.105882 0.854902 0.886275
0.376471 0.854902 0.898039
0.564706 0.854902 0.898039
0.717647 0.862745 0.894118
0.866667 0.862745 0.882353
0.992157 0.874510 0.882353
0.000000 1.000000 0.890196
0.007843 1.000000 0.890196
0.003922 1.000000 0.886275
0.007843 1.000000 0.886275
0.356863 1.000000 0.878431
0.552941 0.996078 0.878431
0.713725 1.000000 0.882353
0.866667 0.996078 0.882353
1.000000 0.996078 0.898039
0.066667 0.023529 1.000000
0.137255 0.015686 1.000000
0.258824 0.003922 1.000000
0.364706 0.000000 1.000000
0.482353 0.000000 1.000000
0.611765 0.000000 1.000000
0.733333 0.000000 1.000000
0.862745 0.000000 0.992157
0.996078 0.000000 1.000000
0.047059 0.117647 0.996078
0.125490 0.105882 0.988235
0.243137 0.105882 0.996078
0.356863 0.090196 0.996078
0.486275 0.066667 1.000000
0.603922 0.011765 0.996078
0.733333 0.000000 1.000000
0.866667 0.000000 0.996078
1.000000 0.000000 0.996078
0.000000 0.203922 1.000000
0.062745 0.215686 1.000000
0.219608 0.200000 1.000000
0.349020 0.196078 1.000000
0.470588 0.188235 0.996078
0.596078 0.172549 0.996078
0.729412 0.141176 1.000000
0.858824 0.082353 0.996078
1.000000 0.000000 0.980392
0.000000 0.313725 1.000000
0.000000 0.309804 1.000000
0.145098 0.309804 1.000000
0.317647 0.305882 0.992157
0.462745 0.301961 1.000000
0.588235 0.294118 0.996078
0.725490 0.278431 0.996078
0.870588 0.254902 1.000000
0.992157 0.231373 0.996078
0.000000 0.423529 1.000000
0.000000 0.419608 1.000000
0.000000 0.415686 0.996078
0.235294 0.415686 0.996078
0.411765 0.411765 1.000000
0.564706 0.407843 1.000000
0.713725 0.403922 1.000000
0.862745 0.388235 0.996078
1.000000 0.364706 1.000000
0.011765 0.560784 1.000000
0.000000 0.560784 1.000000
0.000000 0.556863 1.000000
0.168627 0.549020 1.000000
0.372549 0.541176 0.992157
0.556863 0.537255 1.000000
0.709804 0.541176 0.996078
0.866667 0.541176 0.996078
0.996078 0.529412 0.992157
0.000000 0.701961 1.000000
0.003922 0.701961 0.992157
0.003922 0.698039 1.000000
0.149020 0.698039 1.000000
0.396078 0.698039 1.000000
0.556863 0.705882 1.000000
0.709804 0.701961 0.996078
0.870588 0.705882 1.000000
1.000000 0.694118 1.000000
0.000000 0.839216 1.000000
0.000000 0.839216 1.000000
0.003922 0.839216 0.996078
0.066667 0.843137 0.996078
0.380392 0.847059 1.000000
0.560784 0.850980 1.000000
0.721569 0.854902 1.000000
0.878431 0.862745 1.000000
1.000000 0.866667 1.000000
0.000000 0.984314 0.996078
0.000000 0.976471 1.000000
0.000000 0.980392 1.000000
0.168627 0.980392 1.000000
0.415686 0.984314 1.000000
0.596078 0.976471 1.000000
0.776471 0.984314 1.000000
0.933333 0.992157 1.000000
1.000000 0.996078 1.000000
