app/src/main/assets/cube/Christmas 3.cube
TITLE "Christmas LUT #3"
#LUT size
LUT_3D_SIZE 9
#LUT data points
0.003922 0.000000 0.000000
0.098039 0.011765 0.019608
0.227451 0.023529 0.039216
0.352941 0.015686 0.027451
0.513725 0.007843 0.027451
0.678431 0.031373 0.054902
0.854902 0.058824 0.070588
1.000000 0.105882 0.109804
1.000000 0.149020 0.152941
0.047059 0.098039 0.019608
0.109804 0.101961 0.019608
0.231373 0.109804 0.031373
0.368627 0.113725 0.035294
0.525490 0.133333 0.039216
0.694118 0.152941 0.050980
0.858824 0.168627 0.074510
1.000000 0.184314 0.117647
0.996078 0.219608 0.176471
0.086275 0.207843 0.043137
0.137255 0.203922 0.039216
0.235294 0.200000 0.031373
0.368627 0.223529 0.047059
0.517647 0.243137 0.043137
0.682353 0.270588 0.047059
0.858824 0.290196 0.082353
1.000000 0.309804 0.125490
0.996078 0.321569 0.172549
0.141176 0.345098 0.050980
0.184314 0.341176 0.054902
0.274510 0.345098 0.054902
0.384314 0.356863 0.050980
0.545098 0.388235 0.054902
0.701961 0.411765 0.062745
0.866667 0.427451 0.090196
0.996078 0.439216 0.141176
1.000000 0.447059 0.196078
0.196078 0.509804 0.058824
0.239216 0.505882 0.070588
0.325490 0.498039 0.062745
0.427451 0.505882 0.054902
0.552941 0.517647 0.058824
0.701961 0.541176 0.054902
0.866667 0.556863 0.094118
0.988235 0.560784 0.149020
1.000000 0.552941 0.227451
0.227451 0.662745 0.058824
0.278431 0.654902 0.058824
0.356863 0.658824 0.054902
0.470588 0.662745 0.058824
0.580392 0.670588 0.070588
0.721569 0.678431 0.074510
0.862745 0.690196 0.109804
0.988235 0.682353 0.188235
0.996078 0.678431 0.266667
0.309804 0.827451 0.156863
0.341176 0.819608 0.156863
0.415686 0.815686 0.149020
0.513725 0.815686 0.156863
0.623529 0.815686 0.152941
0.749020 0.819608 0.176471
0.866667 0.815686 0.196078
0.984314 0.807843 0.247059
0.996078 0.800000 0.349020
0.407843 0.925490 0.294118
0.415686 0.921569 0.282353
0.470588 0.921569 0.282353
0.549020 0.925490 0.290196
0.635294 0.925490 0.301961
0.752941 0.921569 0.325490
0.858824 0.921569 0.333333
0.976471 0.917647 0.356863
0.988235 0.913725 0.407843
0.560784 1.000000 0.498039
0.560784 1.000000 0.490196
0.588235 1.000000 0.486275
0.639216 1.000000 0.501961
0.709804 1.000000 0.509804
0.800000 1.000000 0.533333
0.882353 1.000000 0.552941
0.980392 1.000000 0.580392
1.000000 1.000000 0.607843
0.027451 0.023529 0.094118
0.113725 0.023529 0.101961
0.219608 0.035294 0.113725
0.333333 0.039216 0.117647
0.501961 0.047059 0.137255
0.670588 0.058824 0.152941
0.850980 0.082353 0.168627
0.996078 0.129412 0.196078
1.000000 0.172549 0.231373
0.054902 0.101961 0.101961
0.121569 0.098039 0.098039
0.227451 0.113725 0.121569
0.356863 0.121569 0.121569
0.501961 0.141176 0.145098
0.686275 0.160784 0.149020
0.862745 0.172549 0.172549
1.000000 0.203922 0.200000
1.000000 0.247059 0.250980
0.105882 0.203922 0.121569
0.156863 0.203922 0.125490
0.235294 0.203922 0.129412
0.356863 0.223529 0.125490
0.509804 0.247059 0.141176
0.682353 0.270588 0.152941
0.854902 0.294118 0.168627
0.996078 0.309804 0.196078
1.000000 0.329412 0.235294
0.152941 0.341176 0.137255
0.200000 0.345098 0.141176
0.278431 0.345098 0.133333
0.384314 0.349020 0.125490
0.541176 0.384314 0.145098
0.701961 0.411765 0.156863
0.874510 0.435294 0.176471
1.000000 0.450980 0.219608
1.000000 0.458824 0.274510
0.196078 0.505882 0.145098
0.239216 0.501961 0.137255
0.321569 0.498039 0.133333
0.427451 0.509804 0.145098
0.552941 0.513725 0.141176
0.709804 0.537255 0.156863
0.866667 0.560784 0.176471
1.000000 0.568627 0.235294
1.000000 0.560784 0.286275
0.231373 0.662745 0.149020
0.282353 0.662745 0.149020
0.360784 0.662745 0.145098
0.466667 0.666667 0.160784
0.596078 0.674510 0.160784
0.725490 0.678431 0.152941
0.862745 0.686275 0.188235
0.984314 0.686275 0.247059
1.000000 0.682353 0.325490
0.321569 0.819608 0.223529
0.349020 0.823529 0.207843
0.407843 0.819608 0.211765
0.509804 0.819608 0.219608
0.631373 0.823529 0.227451
0.749020 0.819608 0.239216
0.870588 0.827451 0.262745
0.976471 0.815686 0.313725
1.000000 0.803922 0.403922
0.403922 0.925490 0.325490
0.427451 0.925490 0.333333
0.474510 0.929412 0.329412
0.556863 0.921569 0.333333
0.647059 0.917647 0.356863
0.749020 0.925490 0.368627
0.854902 0.921569 0.380392
0.980392 0.913725 0.396078
0.996078 0.905882 0.458824
0.580392 1.000000 0.545098
0.576471 1.000000 0.513725
0.611765 0.996078 0.521569
0.650980 1.000000 0.537255
0.709804 1.000000 0.541176
0.803922 1.000000 0.564706
0.898039 0.996078 0.588235
0.988235 0.996078 0.615686
1.000000 1.000000 0.647059
0.047059 0.023529 0.203922
0.121569 0.031373 0.203922
0.219608 0.035294 0.200000
0.345098 0.043137 0.223529
0.494118 0.047059 0.239216
0.654902 0.050980 0.254902
0.839216 0.086275 0.278431
0.980392 0.149020 0.298039
1.000000 0.219608 0.349020
0.086275 0.117647 0.200000
0.152941 0.113725 0.207843
0.231373 0.113725 0.207843
0.356863 0.121569 0.223529
0.501961 0.137255 0.243137
0.674510 0.152941 0.266667
0.847059 0.180392 0.282353
1.000000 0.223529 0.313725
1.000000 0.270588 0.349020
0.113725 0.211765 0.200000
0.160784 0.207843 0.207843
0.250980 0.219608 0.211765
0.360784 0.227451 0.223529
0.498039 0.247059 0.239216
0.674510 0.266667 0.254902
0.835294 0.298039 0.274510
0.992157 0.317647 0.309804
0.992157 0.349020 0.341176
0.152941 0.345098 0.231373
0.203922 0.345098 0.235294
0.290196 0.345098 0.243137
0.376471 0.349020 0.235294
0.529412 0.380392 0.239216
0.694118 0.407843 0.270588
0.862745 0.431373 0.294118
0.992157 0.454902 0.329412
1.000000 0.478431 0.372549
0.203922 0.505882 0.239216
0.239216 0.498039 0.254902
0.329412 0.494118 0.243137
0.423529 0.498039 0.247059
0.541176 0.505882 0.250980
0.705882 0.533333 0.278431
0.850980 0.556863 0.290196
0.988235 0.572549 0.329412
0.996078 0.580392 0.384314
0.250980 0.658824 0.270588
0.286275 0.658824 0.266667
0.364706 0.662745 0.270588
0.474510 0.662745 0.270588
0.588235 0.670588 0.274510
0.717647 0.670588 0.270588
0.858824 0.686275 0.305882
0.980392 0.690196 0.349020
1.000000 0.694118 0.411765
0.337255 0.819608 0.329412
0.356863 0.823529 0.321569
0.431373 0.819608 0.325490
0.525490 0.815686 0.325490
0.627451 0.819608 0.329412
0.745098 0.815686 0.337255
0.870588 0.827451 0.372549
0.980392 0.819608 0.407843
1.000000 0.811765 0.478431
0.447059 0.921569 0.423529
0.454902 0.929412 0.415686
0.505882 0.925490 0.419608
0.572549 0.929412 0.423529
0.654902 0.925490 0.435294
0.756863 0.917647 0.447059
0.850980 0.921569 0.458824
0.968627 0.917647 0.470588
1.000000 0.905882 0.533333
0.615686 1.000000 0.603922
0.615686 0.996078 0.584314
0.627451 1.000000 0.580392
0.678431 1.000000 0.600000
0.733333 1.000000 0.596078
0.815686 0.992157 0.619608
0.894118 1.000000 0.635294
0.988235 1.000000 0.658824
1.000000 1.000000 0.678431
0.058824 0.031373 0.333333
0.141176 0.031373 0.325490
0.243137 0.039216 0.321569
0.349020 0.047059 0.313725
0.498039 0.047059 0.341176
0.666667 0.047059 0.376471
0.831373 0.074510 0.384314
0.976471 0.176471 0.415686
1.000000 0.298039 0.462745
0.101961 0.125490 0.329412
0.149020 0.137255 0.313725
0.254902 0.129412 0.321569
0.360784 0.125490 0.325490
0.501961 0.137255 0.345098
0.666667 0.149020 0.376471
0.839216 0.184314 0.396078
0.980392 0.254902 0.427451
0.996078 0.341176 0.458824
0.125490 0.235294 0.321569
0.164706 0.223529 0.305882
0.262745 0.231373 0.313725
0.364706 0.231373 0.325490
0.505882 0.250980 0.345098
0.658824 0.266667 0.360784
0.835294 0.298039 0.400000
0.972549 0.349020 0.435294
1.000000 0.388235 0.478431
0.164706 0.341176 0.313725
0.207843 0.341176 0.337255
0.294118 0.356863 0.345098
0.407843 0.372549 0.352941
0.529412 0.384314 0.360784
0.682353 0.403922 0.380392
0.854902 0.435294 0.411765
0.988235 0.470588 0.454902
0.996078 0.513725 0.494118
0.207843 0.501961 0.372549
0.247059 0.498039 0.360784
0.329412 0.501961 0.364706
0.431373 0.498039 0.356863
0.549020 0.509804 0.368627
0.701961 0.533333 0.396078
0.850980 0.560784 0.423529
0.972549 0.584314 0.458824
1.000000 0.600000 0.494118
0.258824 0.654902 0.388235
0.301961 0.650980 0.384314
0.380392 0.658824 0.392157
0.474510 0.658824 0.392157
0.588235 0.666667 0.396078
0.713725 0.674510 0.403922
0.843137 0.690196 0.427451
0.960784 0.701961 0.466667
1.000000 0.709804 0.533333
0.368627 0.811765 0.450980
0.392157 0.807843 0.447059
0.447059 0.815686 0.447059
0.537255 0.815686 0.454902
0.639216 0.815686 0.458824
0.752941 0.815686 0.466667
0.862745 0.815686 0.478431
0.968627 0.811765 0.529412
1.000000 0.823529 0.568627
0.490196 0.925490 0.525490
0.501961 0.917647 0.525490
0.525490 0.921569 0.521569
0.596078 0.917647 0.533333
0.666667 0.917647 0.541176
0.768627 0.913725 0.541176
0.862745 0.921569 0.564706
0.956863 0.917647 0.576471
0.996078 0.909804 0.615686
0.635294 0.996078 0.654902
0.635294 1.000000 0.650980
0.662745 1.000000 0.658824
0.705882 0.996078 0.662745
0.749020 1.000000 0.674510
0.819608 0.996078 0.670588
0.898039 1.000000 0.701961
0.976471 1.000000 0.717647
1.000000 1.000000 0.737255
0.109804 0.043137 0.482353
0.176471 0.043137 0.474510
0.282353 0.050980 0.474510
0.392157 0.058824 0.466667
0.513725 0.062745 0.470588
0.670588 0.058824 0.490196
0.835294 0.090196 0.513725
0.976471 0.192157 0.537255
1.000000 0.309804 0.576471
0.129412 0.149020 0.470588
0.192157 0.145098 0.474510
0.286275 0.149020 0.470588
0.403922 0.149020 0.470588
0.517647 0.145098 0.474510
0.682353 0.156863 0.505882
0.850980 0.184314 0.529412
0.984314 0.262745 0.545098
1.000000 0.368627 0.580392
0.152941 0.254902 0.454902
0.207843 0.254902 0.458824
0.286275 0.250980 0.466667
0.403922 0.250980 0.458824
0.505882 0.254902 0.458824
0.678431 0.274510 0.490196
0.835294 0.305882 0.525490
0.960784 0.364706 0.549020
1.000000 0.458824 0.588235
0.184314 0.372549 0.462745
0.231373 0.372549 0.466667
0.313725 0.376471 0.466667
0.423529 0.384314 0.478431
0.545098 0.392157 0.474510
0.698039 0.415686 0.509804
0.839216 0.454902 0.545098
0.964706 0.509804 0.592157
1.000000 0.568627 0.631373
0.219608 0.505882 0.478431
0.266667 0.498039 0.482353
0.345098 0.505882 0.482353
0.458824 0.525490 0.494118
0.576471 0.537255 0.501961
0.705882 0.545098 0.521569
0.843137 0.572549 0.545098
0.960784 0.603922 0.592157
1.000000 0.643137 0.631373
0.278431 0.654902 0.505882
0.313725 0.658824 0.509804
0.392157 0.658824 0.513725
0.482353 0.662745 0.517647
0.600000 0.662745 0.517647
0.713725 0.674510 0.533333
0.835294 0.694118 0.552941
0.949020 0.717647 0.600000
1.000000 0.729412 0.643137
0.427451 0.811765 0.580392
0.450980 0.807843 0.584314
0.478431 0.807843 0.572549
0.552941 0.811765 0.572549
0.643137 0.815686 0.576471
0.749020 0.807843 0.576471
0.854902 0.811765 0.600000
0.945098 0.819608 0.627451
1.000000 0.831373 0.670588
0.521569 0.921569 0.635294
0.537255 0.913725 0.635294
0.568627 0.913725 0.623529
0.627451 0.913725 0.635294
0.698039 0.913725 0.647059
0.780392 0.917647 0.650980
0.866667 0.913725 0.654902
0.952941 0.913725 0.670588
1.000000 0.913725 0.717647
0.662745 1.000000 0.721569
0.666667 1.000000 0.725490
0.686275 1.000000 0.729412
0.729412 1.000000 0.737255
0.764706 1.000000 0.741176
0.835294 1.000000 0.749020
0.905882 1.000000 0.756863
0.976471 1.000000 0.764706
1.000000 1.000000 0.788235
0.137255 0.074510 0.654902
0.207843 0.074510 0.647059
0.321569 0.078431 0.639216
0.443137 0.074510 0.647059
0.568627 0.074510 0.639216
0.690196 0.074510 0.635294
0.847059 0.109804 0.654902
0.988235 0.215686 0.670588
1.000000 0.341176 0.670588
0.156863 0.172549 0.654902
0.231373 0.168627 0.647059
0.325490 0.168627 0.647059
0.447059 0.168627 0.647059
0.564706 0.168627 0.647059
0.705882 0.176471 0.647059
0.847059 0.203922 0.654902
0.984314 0.294118 0.678431
1.000000 0.403922 0.690196
0.184314 0.290196 0.631373
0.239216 0.278431 0.627451
0.321569 0.278431 0.639216
0.443137 0.286275 0.631373
0.572549 0.290196 0.627451
0.694118 0.294118 0.623529
0.847059 0.321569 0.654902
0.972549 0.384314 0.662745
0.996078 0.474510 0.698039
0.223529 0.415686 0.635294
0.258824 0.407843 0.650980
0.352941 0.419608 0.639216
0.458824 0.423529 0.639216
0.584314 0.423529 0.643137
0.705882 0.431373 0.643137
0.843137 0.478431 0.662745
0.964706 0.537255 0.698039
1.000000 0.611765 0.729412
0.247059 0.537255 0.635294
0.294118 0.537255 0.627451
0.368627 0.545098 0.635294
0.482353 0.552941 0.639216
0.607843 0.560784 0.639216
0.721569 0.568627 0.650980
0.843137 0.603922 0.674510
0.945098 0.643137 0.713725
0.996078 0.694118 0.733333
0.290196 0.662745 0.631373
0.325490 0.666667 0.631373
0.400000 0.674510 0.635294
0.509804 0.678431 0.643137
0.627451 0.694118 0.662745
0.737255 0.694118 0.670588
0.835294 0.717647 0.686275
0.945098 0.737255 0.721569
0.996078 0.760784 0.756863
0.454902 0.811765 0.682353
0.466667 0.811765 0.662745
0.521569 0.811765 0.682353
0.596078 0.811765 0.690196
0.682353 0.815686 0.709804
0.760784 0.819608 0.705882
0.850980 0.823529 0.709804
0.949020 0.831373 0.737255
1.000000 0.847059 0.780392
0.596078 0.913725 0.745098
0.607843 0.909804 0.737255
0.635294 0.913725 0.749020
0.678431 0.905882 0.745098
0.725490 0.913725 0.749020
0.788235 0.917647 0.749020
0.866667 0.913725 0.756863
0.949020 0.917647 0.764706
0.996078 0.921569 0.792157
0.745098 1.000000 0.831373
0.729412 1.000000 0.823529
0.729412 1.000000 0.807843
0.756863 1.000000 0.815686
0.788235 0.996078 0.815686
0.847059 1.000000 0.823529
0.901961 1.000000 0.827451
0.980392 1.000000 0.839216
1.000000 1.000000 0.847059
0.188235 0.121569 0.811765
0.239216 0.121569 0.803922
0.345098 0.125490 0.800000
0.470588 0.133333 0.803922
0.600000 0.133333 0.800000
0.729412 0.141176 0.803922
0.866667 0.156863 0.796078
0.980392 0.243137 0.788235
1.000000 0.368627 0.784314
0.211765 0.196078 0.811765
0.247059 0.203922 0.807843
0.360784 0.207843 0.807843
0.470588 0.211765 0.807843
0.603922 0.215686 0.811765
0.737255 0.231373 0.800000
0.870588 0.235294 0.803922
0.980392 0.313725 0.803922
1.000000 0.427451 0.784314
0.227451 0.321569 0.807843
0.278431 0.321569 0.784314
0.376471 0.325490 0.788235
0.482353 0.329412 0.796078
0.603922 0.333333 0.792157
0.737255 0.333333 0.792157
0.862745 0.349020 0.796078
0.972549 0.400000 0.788235
0.996078 0.490196 0.803922
0.290196 0.466667 0.800000
0.321569 0.466667 0.784314
0.400000 0.462745 0.796078
0.513725 0.466667 0.796078
0.619608 0.470588 0.796078
0.737255 0.482353 0.796078
0.862745 0.494118 0.792157
0.964706 0.549020 0.807843
1.000000 0.627451 0.815686
0.329412 0.588235 0.792157
0.372549 0.580392 0.792157
0.439216 0.588235 0.780392
0.533333 0.596078 0.788235
0.635294 0.600000 0.784314
0.737255 0.607843 0.792157
0.850980 0.611765 0.784314
0.937255 0.654902 0.800000
1.000000 0.709804 0.815686
0.380392 0.698039 0.780392
0.407843 0.701961 0.784314
0.466667 0.705882 0.780392
0.560784 0.705882 0.780392
0.650980 0.709804 0.784314
0.749020 0.721569 0.784314
0.850980 0.729412 0.792157
0.937255 0.752941 0.815686
1.000000 0.788235 0.839216
0.474510 0.827451 0.780392
0.482353 0.823529 0.792157
0.533333 0.819608 0.792157
0.611765 0.819608 0.796078
0.686275 0.823529 0.796078
0.788235 0.827451 0.823529
0.866667 0.835294 0.823529
0.941176 0.847059 0.839216
1.000000 0.866667 0.862745
0.619608 0.917647 0.815686
0.619608 0.913725 0.823529
0.647059 0.913725 0.815686
0.698039 0.909804 0.815686
0.749020 0.921569 0.831373
0.796078 0.921569 0.839216
0.866667 0.917647 0.839216
0.945098 0.917647 0.843137
1.000000 0.933333 0.862745
0.749020 0.996078 0.874510
0.756863 0.992157 0.882353
0.760784 0.992157 0.866667
0.800000 0.996078 0.882353
0.827451 0.996078 0.886275
0.858824 0.992157 0.886275
0.909804 1.000000 0.890196
0.976471 0.996078 0.905882
1.000000 0.996078 0.913725
0.243137 0.196078 0.925490
0.286275 0.203922 0.921569
0.372549 0.211765 0.925490
0.486275 0.215686 0.925490
0.603922 0.235294 0.917647
0.733333 0.254902 0.917647
0.870588 0.286275 0.921569
0.984314 0.321569 0.913725
0.996078 0.407843 0.890196
0.270588 0.274510 0.933333
0.301961 0.274510 0.925490
0.388235 0.274510 0.925490
0.498039 0.282353 0.921569
0.611765 0.298039 0.929412
0.737255 0.321569 0.917647
0.862745 0.345098 0.913725
0.980392 0.384314 0.913725
0.996078 0.450980 0.901961
0.317647 0.388235 0.929412
0.352941 0.384314 0.921569
0.423529 0.380392 0.921569
0.513725 0.396078 0.921569
0.623529 0.400000 0.913725
0.749020 0.415686 0.913725
0.866667 0.443137 0.921569
0.980392 0.466667 0.913725
1.000000 0.521569 0.898039
0.407843 0.525490 0.909804
0.419608 0.529412 0.921569
0.478431 0.525490 0.909804
0.560784 0.533333 0.909804
0.658824 0.545098 0.909804
0.756863 0.560784 0.909804
0.866667 0.576471 0.909804
0.972549 0.592157 0.909804
0.996078 0.639216 0.901961
0.470588 0.639216 0.909804
0.490196 0.643137 0.905882
0.537255 0.647059 0.901961
0.600000 0.654902 0.901961
0.678431 0.662745 0.901961
0.768627 0.666667 0.905882
0.866667 0.670588 0.901961
0.956863 0.678431 0.898039
1.000000 0.717647 0.886275
0.505882 0.737255 0.894118
0.529412 0.737255 0.894118
0.572549 0.741176 0.905882
0.639216 0.756863 0.905882
0.709804 0.760784 0.898039
0.784314 0.760784 0.894118
0.866667 0.768627 0.894118
0.945098 0.772549 0.901961
1.000000 0.800000 0.890196
0.576471 0.843137 0.894118
0.603922 0.847059 0.905882
0.619608 0.839216 0.898039
0.674510 0.843137 0.905882
0.737255 0.847059 0.901961
0.811765 0.847059 0.905882
0.870588 0.854902 0.909804
0.945098 0.866667 0.909804
1.000000 0.882353 0.929412
0.631373 0.925490 0.905882
0.623529 0.925490 0.894118
0.650980 0.925490 0.894118
0.705882 0.921569 0.898039
0.752941 0.917647 0.901961
0.819608 0.925490 0.905882
0.882353 0.925490 0.909804
0.945098 0.929412 0.917647
1.000000 0.941176 0.941176
0.760784 1.000000 0.937255
0.760784 1.000000 0.921569
0.776471 1.000000 0.933333
0.796078 0.996078 0.937255
0.835294 0.996078 0.933333
0.886275 0.996078 0.941176
0.929412 0.996078 0.956863
0.972549 0.996078 0.949020
1.000000 1.000000 0.964706
0.356863 0.333333 1.000000
0.380392 0.333333 1.000000
0.450980 0.345098 1.000000
0.525490 0.356863 1.000000
0.635294 0.384314 1.000000
0.749020 0.419608 1.000000
0.858824 0.458824 1.000000
0.956863 0.501961 1.000000
1.000000 0.541176 1.000000
0.400000 0.403922 1.000000
0.415686 0.396078 1.000000
0.466667 0.400000 1.000000
0.552941 0.419608 0.996078
0.650980 0.443137 1.000000
0.752941 0.470588 0.996078
0.862745 0.505882 1.000000
0.964706 0.545098 1.000000
1.000000 0.576471 1.000000
0.458824 0.494118 1.000000
0.470588 0.490196 1.000000
0.517647 0.498039 1.000000
0.584314 0.501961 1.000000
0.678431 0.521569 1.000000
0.772549 0.549020 1.000000
0.866667 0.580392 1.000000
0.960784 0.600000 0.996078
1.000000 0.623529 1.000000
0.556863 0.627451 1.000000
0.564706 0.623529 0.996078
0.596078 0.631373 1.000000
0.650980 0.639216 0.996078
0.721569 0.647059 1.000000
0.792157 0.658824 0.996078
0.882353 0.678431 1.000000
0.960784 0.690196 1.000000
0.992157 0.701961 0.996078
0.607843 0.717647 1.000000
0.627451 0.725490 0.988235
0.654902 0.729412 0.996078
0.694118 0.729412 0.992157
0.752941 0.733333 0.992157
0.819608 0.745098 0.996078
0.886275 0.752941 0.992157
0.956863 0.760784 0.992157
1.000000 0.768627 0.988235
0.635294 0.792157 0.992157
0.647059 0.796078 0.988235
0.678431 0.803922 0.996078
0.721569 0.807843 0.992157
0.772549 0.815686 0.992157
0.831373 0.819608 0.988235
0.894118 0.827451 0.992157
0.956863 0.827451 0.996078
0.996078 0.827451 1.000000
0.698039 0.882353 0.992157
0.694118 0.878431 0.988235
0.721569 0.874510 0.988235
0.749020 0.882353 0.992157
0.792157 0.886275 0.988235
0.847059 0.894118 0.988235
0.905882 0.898039 0.992157
0.960784 0.901961 0.992157
0.996078 0.901961 0.996078
0.721569 0.941176 0.992157
0.733333 0.941176 0.996078
0.749020 0.941176 0.996078
0.780392 0.945098 0.992157
0.815686 0.949020 0.988235
0.862745 0.949020 0.992157
0.909804 0.949020 0.988235
0.956863 0.949020 0.992157
1.000000 0.960784 0.984314
0.772549 1.000000 1.000000
0.772549 1.000000 0.996078
0.788235 1.000000 0.992157
0.815686 0.996078 0.988235
0.847059 1.000000 0.996078
0.886275 1.000000 0.992157
0.929412 1.000000 0.996078
0.980392 1.000000 0.996078
0.996078 0.996078 0.996078
