app/src/main/assets/cube/Christmas 8.cube
TITLE "Christmas LUT #8"
#LUT size
LUT_3D_SIZE 25
#LUT data points
0.000000 0.000000 0.007843
0.035294 0.000000 0.003922
0.074510 0.000000 0.000000
0.117647 0.000000 0.000000
0.164706 0.000000 0.003922
0.215686 0.003922 0.003922
0.266667 0.000000 0.000000
0.313725 0.000000 0.003922
0.368627 0.000000 0.000000
0.411765 0.000000 0.000000
0.462745 0.000000 0.000000
0.509804 0.000000 0.000000
0.568627 0.003922 0.000000
0.623529 0.003922 0.000000
0.678431 0.003922 0.003922
0.729412 0.000000 0.003922
0.792157 0.000000 0.000000
0.839216 0.000000 0.000000
0.894118 0.000000 0.000000
0.941176 0.000000 0.000000
0.980392 0.003922 0.000000
0.996078 0.000000 0.000000
0.996078 0.000000 0.000000
0.996078 0.000000 0.000000
0.996078 0.000000 0.000000
0.000000 0.035294 0.000000
0.031373 0.031373 0.000000
0.074510 0.039216 0.011765
0.125490 0.035294 0.003922
0.176471 0.031373 0.000000
0.215686 0.031373 0.000000
0.270588 0.035294 0.003922
0.317647 0.031373 0.003922
0.364706 0.023529 0.000000
0.419608 0.019608 0.000000
0.474510 0.011765 0.003922
0.521569 0.003922 0.000000
0.572549 0.000000 0.000000
0.635294 0.000000 0.000000
0.682353 0.000000 0.003922
0.745098 0.000000 0.007843
0.788235 0.000000 0.000000
0.839216 0.000000 0.000000
0.886275 0.003922 0.000000
0.949020 0.000000 0.000000
0.988235 0.000000 0.000000
1.000000 0.003922 0.003922
0.996078 0.000000 0.000000
1.000000 0.003922 0.011765
0.996078 0.000000 0.000000
0.003922 0.078431 0.003922
0.043137 0.078431 0.003922
0.090196 0.070588 0.000000
0.125490 0.074510 0.000000
0.180392 0.082353 0.003922
0.223529 0.078431 0.003922
0.266667 0.078431 0.000000
0.321569 0.074510 0.003922
0.376471 0.074510 0.003922
0.423529 0.074510 0.003922
0.482353 0.066667 0.003922
0.533333 0.062745 0.000000
0.580392 0.058824 0.000000
0.627451 0.054902 0.000000
0.682353 0.047059 0.000000
0.741176 0.043137 0.000000
0.792157 0.031373 0.000000
0.847059 0.015686 0.000000
0.894118 0.011765 0.003922
0.941176 0.000000 0.000000
0.992157 0.000000 0.007843
0.996078 0.000000 0.007843
0.992157 0.000000 0.003922
0.996078 0.000000 0.000000
0.996078 0.000000 0.000000
0.011765 0.125490 0.007843
0.043137 0.117647 0.000000
0.086275 0.125490 0.000000
0.125490 0.121569 0.000000
0.180392 0.121569 0.000000
0.227451 0.133333 0.000000
0.274510 0.133333 0.000000
0.325490 0.129412 0.000000
0.376471 0.129412 0.000000
0.427451 0.129412 0.003922
0.478431 0.121569 0.000000
0.533333 0.121569 0.003922
0.584314 0.121569 0.003922
0.643137 0.117647 0.003922
0.690196 0.121569 0.007843
0.745098 0.113725 0.000000
0.800000 0.113725 0.000000
0.847059 0.105882 0.000000
0.901961 0.101961 0.000000
0.952941 0.098039 0.000000
0.996078 0.094118 0.000000
0.992157 0.090196 0.000000
0.996078 0.094118 0.000000
0.996078 0.086275 0.000000
1.000000 0.090196 0.000000
0.003922 0.172549 0.000000
0.054902 0.176471 0.003922
0.098039 0.168627 0.003922
0.141176 0.176471 0.007843
0.180392 0.168627 0.000000
0.231373 0.172549 0.003922
0.278431 0.172549 0.000000
0.325490 0.176471 0.000000
0.380392 0.172549 0.000000
0.427451 0.176471 0.003922
0.478431 0.168627 0.000000
0.529412 0.172549 0.000000
0.588235 0.176471 0.000000
0.635294 0.176471 0.003922
0.694118 0.172549 0.000000
0.749020 0.172549 0.000000
0.807843 0.168627 0.000000
0.858824 0.172549 0.003922
0.905882 0.164706 0.000000
0.952941 0.160784 0.003922
0.988235 0.160784 0.000000
1.000000 0.156863 0.000000
1.000000 0.156863 0.003922
1.000000 0.156863 0.003922
1.000000 0.152941 0.000000
0.011765 0.207843 0.000000
0.054902 0.211765 0.003922
0.098039 0.211765 0.000000
0.145098 0.211765 0.000000
0.184314 0.211765 0.000000
0.231373 0.211765 0.000000
0.278431 0.211765 0.000000
0.329412 0.211765 0.000000
0.364706 0.219608 0.003922
0.415686 0.215686 0.000000
0.474510 0.219608 0.007843
0.517647 0.215686 0.000000
0.576471 0.219608 0.000000
0.631373 0.219608 0.000000
0.690196 0.215686 0.000000
0.741176 0.219608 0.000000
0.788235 0.219608 0.000000
0.843137 0.219608 0.000000
0.898039 0.219608 0.000000
0.945098 0.219608 0.000000
0.988235 0.215686 0.007843
1.000000 0.211765 0.000000
1.000000 0.211765 0.000000
1.000000 0.211765 0.007843
1.000000 0.203922 0.007843
0.015686 0.258824 0.000000
0.058824 0.266667 0.000000
0.105882 0.266667 0.000000
0.141176 0.262745 0.000000
0.188235 0.262745 0.003922
0.239216 0.266667 0.000000
0.278431 0.258824 0.000000
0.333333 0.262745 0.003922
0.376471 0.262745 0.003922
0.423529 0.262745 0.003922
0.474510 0.266667 0.000000
0.533333 0.270588 0.003922
0.576471 0.266667 0.000000
0.635294 0.270588 0.000000
0.686275 0.278431 0.000000
0.737255 0.274510 0.000000
0.792157 0.270588 0.000000
0.843137 0.278431 0.003922
0.894118 0.278431 0.007843
0.941176 0.270588 0.000000
0.980392 0.270588 0.000000
0.992157 0.266667 0.003922
0.996078 0.262745 0.000000
1.000000 0.258824 0.000000
1.000000 0.258824 0.000000
0.007843 0.317647 0.000000
0.058824 0.313725 0.000000
0.105882 0.313725 0.000000
0.149020 0.309804 0.003922
0.200000 0.313725 0.000000
0.243137 0.309804 0.000000
0.282353 0.309804 0.000000
0.333333 0.313725 0.000000
0.380392 0.313725 0.000000
0.427451 0.317647 0.000000
0.482353 0.317647 0.000000
0.533333 0.317647 0.000000
0.584314 0.317647 0.000000
0.639216 0.321569 0.003922
0.694118 0.321569 0.000000
0.741176 0.321569 0.000000
0.800000 0.325490 0.000000
0.843137 0.325490 0.000000
0.898039 0.329412 0.003922
0.941176 0.329412 0.003922
0.988235 0.325490 0.000000
1.000000 0.325490 0.003922
1.000000 0.317647 0.000000
1.000000 0.309804 0.003922
1.000000 0.309804 0.003922
0.007843 0.364706 0.000000
0.054902 0.372549 0.007843
0.101961 0.364706 0.000000
0.149020 0.364706 0.000000
0.196078 0.364706 0.003922
0.247059 0.368627 0.003922
0.294118 0.368627 0.007843
0.345098 0.364706 0.003922
0.388235 0.364706 0.000000
0.439216 0.364706 0.000000
0.486275 0.368627 0.000000
0.541176 0.368627 0.000000
0.588235 0.368627 0.000000
0.647059 0.376471 0.003922
0.701961 0.376471 0.007843
0.756863 0.376471 0.003922
0.803922 0.376471 0.003922
0.850980 0.380392 0.007843
0.898039 0.376471 0.003922
0.945098 0.380392 0.003922
0.988235 0.372549 0.007843
1.000000 0.372549 0.000000
1.000000 0.372549 0.000000
1.000000 0.364706 0.007843
1.000000 0.356863 0.007843
0.011765 0.415686 0.003922
0.043137 0.419608 0.000000
0.105882 0.415686 0.003922
0.152941 0.415686 0.000000
0.207843 0.415686 0.000000
0.250980 0.419608 0.007843
0.305882 0.419608 0.003922
0.349020 0.415686 0.000000
0.396078 0.419608 0.003922
0.447059 0.419608 0.000000
0.498039 0.415686 0.000000
0.541176 0.419608 0.000000
0.596078 0.423529 0.003922
0.647059 0.423529 0.003922
0.701961 0.423529 0.000000
0.756863 0.423529 0.003922
0.807843 0.427451 0.007843
0.850980 0.427451 0.003922
0.905882 0.427451 0.000000
0.945098 0.427451 0.000000
0.992157 0.423529 0.000000
1.000000 0.423529 0.000000
1.000000 0.419608 0.000000
0.992157 0.415686 0.000000
0.996078 0.415686 0.000000
0.003922 0.454902 0.000000
0.050980 0.454902 0.000000
0.105882 0.454902 0.000000
0.149020 0.450980 0.000000
0.196078 0.450980 0.000000
0.243137 0.450980 0.000000
0.286275 0.454902 0.000000
0.341176 0.462745 0.003922
0.384314 0.458824 0.003922
0.431373 0.462745 0.000000
0.486275 0.458824 0.000000
0.533333 0.458824 0.000000
0.584314 0.466667 0.000000
0.631373 0.466667 0.000000
0.690196 0.470588 0.003922
0.741176 0.470588 0.000000
0.796078 0.470588 0.000000
0.843137 0.470588 0.000000
0.898039 0.470588 0.003922
0.941176 0.470588 0.000000
0.980392 0.466667 0.003922
0.996078 0.466667 0.003922
0.992157 0.462745 0.000000
0.996078 0.458824 0.003922
0.992157 0.454902 0.000000
0.000000 0.513725 0.003922
0.043137 0.509804 0.000000
0.109804 0.513725 0.000000
0.152941 0.517647 0.000000
0.200000 0.509804 0.007843
0.250980 0.505882 0.000000
0.298039 0.517647 0.000000
0.349020 0.509804 0.000000
0.396078 0.513725 0.000000
0.443137 0.509804 0.000000
0.494118 0.517647 0.000000
0.549020 0.513725 0.000000
0.596078 0.517647 0.003922
0.643137 0.513725 0.000000
0.694118 0.521569 0.000000
0.745098 0.525490 0.000000
0.792157 0.517647 0.000000
0.847059 0.525490 0.000000
0.894118 0.525490 0.000000
0.945098 0.517647 0.003922
0.980392 0.517647 0.000000
1.000000 0.517647 0.000000
1.000000 0.505882 0.000000
1.000000 0.498039 0.000000
0.992157 0.509804 0.000000
0.003922 0.568627 0.000000
0.035294 0.568627 0.000000
0.105882 0.568627 0.000000
0.156863 0.560784 0.000000
0.200000 0.568627 0.000000
0.247059 0.576471 0.000000
0.309804 0.564706 0.000000
0.356863 0.564706 0.000000
0.403922 0.568627 0.003922
0.454902 0.568627 0.003922
0.498039 0.568627 0.003922
0.549020 0.568627 0.000000
0.600000 0.568627 0.000000
0.650980 0.568627 0.000000
0.698039 0.572549 0.003922
0.749020 0.572549 0.003922
0.800000 0.572549 0.000000
0.850980 0.568627 0.000000
0.894118 0.572549 0.000000
0.941176 0.568627 0.000000
0.984314 0.568627 0.003922
1.000000 0.564706 0.007843
1.000000 0.556863 0.000000
0.992157 0.556863 0.000000
1.000000 0.556863 0.003922
0.000000 0.619608 0.000000
0.054902 0.623529 0.007843
0.101961 0.615686 0.000000
0.149020 0.619608 0.000000
0.211765 0.627451 0.007843
0.258824 0.619608 0.000000
0.305882 0.619608 0.000000
0.356863 0.619608 0.000000
0.403922 0.623529 0.000000
0.458824 0.619608 0.000000
0.505882 0.623529 0.003922
0.556863 0.619608 0.000000
0.607843 0.623529 0.007843
0.654902 0.623529 0.000000
0.701961 0.623529 0.000000
0.752941 0.619608 0.000000
0.807843 0.631373 0.000000
0.850980 0.623529 0.000000
0.898039 0.623529 0.003922
0.941176 0.615686 0.000000
0.984314 0.615686 0.000000
1.000000 0.611765 0.000000
1.000000 0.607843 0.000000
1.000000 0.600000 0.000000
1.000000 0.596078 0.000000
0.000000 0.682353 0.000000
0.043137 0.678431 0.000000
0.109804 0.674510 0.000000
0.156863 0.674510 0.000000
0.203922 0.674510 0.000000
0.254902 0.678431 0.003922
0.305882 0.674510 0.000000
0.352941 0.674510 0.000000
0.407843 0.674510 0.000000
0.458824 0.678431 0.003922
0.509804 0.678431 0.000000
0.560784 0.678431 0.000000
0.607843 0.678431 0.003922
0.654902 0.678431 0.003922
0.705882 0.674510 0.003922
0.756863 0.678431 0.000000
0.803922 0.678431 0.000000
0.847059 0.678431 0.000000
0.898039 0.670588 0.000000
0.941176 0.674510 0.000000
0.980392 0.662745 0.000000
1.000000 0.658824 0.003922
1.000000 0.654902 0.003922
1.000000 0.647059 0.000000
1.000000 0.639216 0.000000
0.000000 0.705882 0.000000
0.043137 0.705882 0.000000
0.098039 0.705882 0.000000
0.149020 0.705882 0.000000
0.200000 0.705882 0.003922
0.247059 0.709804 0.003922
0.298039 0.709804 0.000000
0.345098 0.709804 0.007843
0.400000 0.709804 0.003922
0.443137 0.709804 0.000000
0.501961 0.709804 0.003922
0.549020 0.709804 0.003922
0.600000 0.717647 0.003922
0.643137 0.713725 0.000000
0.698039 0.713725 0.003922
0.749020 0.713725 0.000000
0.796078 0.717647 0.000000
0.839216 0.721569 0.000000
0.882353 0.717647 0.000000
0.929412 0.713725 0.003922
0.968627 0.709804 0.000000
0.996078 0.701961 0.000000
1.000000 0.694118 0.000000
1.000000 0.682353 0.000000
1.000000 0.678431 0.003922
0.000000 0.768627 0.007843
0.027451 0.776471 0.000000
0.098039 0.764706 0.000000
0.156863 0.768627 0.003922
0.207843 0.760784 0.007843
0.247059 0.756863 0.000000
0.301961 0.752941 0.003922
0.349020 0.764706 0.003922
0.396078 0.760784 0.000000
0.450980 0.764706 0.000000
0.494118 0.756863 0.000000
0.556863 0.764706 0.003922
0.596078 0.760784 0.000000
0.654902 0.764706 0.000000
0.698039 0.760784 0.000000
0.737255 0.764706 0.003922
0.792157 0.764706 0.003922
0.839216 0.760784 0.003922
0.890196 0.760784 0.003922
0.929412 0.756863 0.000000
0.964706 0.749020 0.000000
0.988235 0.752941 0.000000
1.000000 0.737255 0.000000
1.000000 0.729412 0.007843
1.000000 0.717647 0.000000
0.003922 0.811765 0.007843
0.050980 0.807843 0.003922
0.105882 0.807843 0.000000
0.152941 0.807843 0.007843
0.192157 0.811765 0.000000
0.258824 0.803922 0.007843
0.309804 0.811765 0.000000
0.356863 0.807843 0.000000
0.400000 0.807843 0.000000
0.447059 0.807843 0.000000
0.498039 0.807843 0.000000
0.545098 0.811765 0.000000
0.600000 0.807843 0.000000
0.643137 0.807843 0.000000
0.698039 0.807843 0.000000
0.745098 0.803922 0.000000
0.788235 0.807843 0.000000
0.827451 0.807843 0.000000
0.874510 0.811765 0.000000
0.925490 0.803922 0.000000
0.980392 0.796078 0.000000
1.000000 0.792157 0.000000
0.992157 0.780392 0.011765
1.000000 0.772549 0.011765
0.988235 0.768627 0.000000
0.007843 0.862745 0.003922
0.062745 0.850980 0.000000
0.117647 0.854902 0.003922
0.152941 0.858824 0.000000
0.207843 0.850980 0.000000
0.258824 0.850980 0.000000
0.301961 0.854902 0.000000
0.352941 0.850980 0.000000
0.400000 0.850980 0.000000
0.447059 0.854902 0.000000
0.498039 0.854902 0.003922
0.541176 0.850980 0.003922
0.592157 0.847059 0.000000
0.639216 0.850980 0.000000
0.686275 0.847059 0.000000
0.737255 0.854902 0.000000
0.780392 0.847059 0.000000
0.831373 0.850980 0.000000
0.866667 0.847059 0.000000
0.917647 0.854902 0.000000
0.960784 0.847059 0.000000
0.996078 0.839216 0.007843
1.000000 0.831373 0.003922
1.000000 0.819608 0.000000
1.000000 0.819608 0.000000
0.047059 0.898039 0.007843
0.074510 0.894118 0.007843
0.117647 0.890196 0.000000
0.149020 0.890196 0.000000
0.215686 0.890196 0.003922
0.254902 0.894118 0.003922
0.301961 0.886275 0.000000
0.352941 0.890196 0.003922
0.400000 0.890196 0.003922
0.450980 0.890196 0.003922
0.494118 0.890196 0.003922
0.541176 0.886275 0.000000
0.588235 0.890196 0.000000
0.635294 0.890196 0.000000
0.682353 0.890196 0.000000
0.725490 0.886275 0.000000
0.776471 0.886275 0.003922
0.819608 0.886275 0.000000
0.862745 0.882353 0.000000
0.905882 0.886275 0.007843
0.964706 0.882353 0.000000
0.988235 0.878431 0.000000
0.996078 0.882353 0.003922
0.996078 0.870588 0.000000
0.996078 0.854902 0.000000
0.007843 0.917647 0.000000
0.050980 0.917647 0.000000
0.101961 0.917647 0.000000
0.149020 0.917647 0.000000
0.200000 0.921569 0.003922
0.247059 0.913725 0.000000
0.298039 0.917647 0.000000
0.345098 0.917647 0.003922
0.384314 0.921569 0.000000
0.435294 0.921569 0.000000
0.482353 0.921569 0.000000
0.529412 0.921569 0.003922
0.572549 0.917647 0.000000
0.619608 0.917647 0.003922
0.666667 0.913725 0.007843
0.713725 0.917647 0.003922
0.760784 0.917647 0.000000
0.803922 0.921569 0.003922
0.847059 0.917647 0.000000
0.894118 0.917647 0.000000
0.941176 0.917647 0.000000
0.968627 0.913725 0.000000
0.984314 0.913725 0.003922
0.996078 0.909804 0.003922
1.000000 0.894118 0.000000
0.066667 0.960784 0.000000
0.113725 0.956863 0.003922
0.137255 0.956863 0.007843
0.164706 0.956863 0.000000
0.211765 0.956863 0.000000
0.250980 0.956863 0.000000
0.294118 0.960784 0.000000
0.345098 0.952941 0.000000
0.388235 0.960784 0.000000
0.439216 0.952941 0.000000
0.482353 0.956863 0.000000
0.521569 0.949020 0.000000
0.572549 0.956863 0.003922
0.615686 0.949020 0.000000
0.662745 0.952941 0.000000
0.709804 0.949020 0.003922
0.756863 0.949020 0.007843
0.792157 0.949020 0.000000
0.831373 0.952941 0.000000
0.874510 0.949020 0.000000
0.917647 0.949020 0.000000
0.968627 0.949020 0.007843
0.992157 0.941176 0.011765
0.992157 0.941176 0.003922
0.996078 0.937255 0.000000
0.098039 0.984314 0.011765
0.125490 0.992157 0.007843
0.145098 0.988235 0.000000
0.184314 0.988235 0.000000
0.211765 0.996078 0.000000
0.270588 0.992157 0.000000
0.301961 0.988235 0.003922
0.345098 0.984314 0.000000
0.392157 0.984314 0.000000
0.435294 0.988235 0.000000
0.474510 0.988235 0.000000
0.521569 0.988235 0.000000
0.568627 0.988235 0.000000
0.611765 0.984314 0.000000
0.650980 0.984314 0.000000
0.698039 0.980392 0.000000
0.741176 0.984314 0.000000
0.780392 0.976471 0.000000
0.823529 0.984314 0.003922
0.866667 0.980392 0.000000
0.913725 0.976471 0.000000
0.937255 0.980392 0.000000
0.988235 0.972549 0.000000
1.000000 0.964706 0.000000
0.992157 0.972549 0.000000
0.137255 1.000000 0.003922
0.156863 1.000000 0.003922
0.168627 0.996078 0.000000
0.200000 1.000000 0.003922
0.219608 1.000000 0.000000
0.266667 1.000000 0.000000
0.309804 1.000000 0.000000
0.349020 1.000000 0.000000
0.388235 0.996078 0.000000
0.431373 1.000000 0.000000
0.470588 1.000000 0.000000
0.517647 1.000000 0.003922
0.564706 1.000000 0.007843
0.600000 0.996078 0.000000
0.647059 0.996078 0.007843
0.690196 0.992157 0.000000
0.737255 1.000000 0.000000
0.772549 0.996078 0.003922
0.815686 1.000000 0.003922
0.858824 0.996078 0.003922
0.898039 1.000000 0.000000
0.937255 0.996078 0.003922
0.972549 1.000000 0.003922
0.996078 1.000000 0.003922
1.000000 0.992157 0.000000
0.172549 1.000000 0.000000
0.176471 1.000000 0.000000
0.196078 0.996078 0.000000
0.227451 1.000000 0.000000
0.235294 1.000000 0.000000
0.274510 1.000000 0.000000
0.313725 1.000000 0.000000
0.352941 1.000000 0.000000
0.392157 1.000000 0.003922
0.431373 1.000000 0.000000
0.478431 1.000000 0.000000
0.517647 1.000000 0.003922
0.556863 1.000000 0.003922
0.596078 1.000000 0.000000
0.639216 0.996078 0.000000
0.678431 1.000000 0.000000
0.721569 1.000000 0.003922
0.760784 1.000000 0.003922
0.800000 1.000000 0.000000
0.843137 1.000000 0.003922
0.870588 1.000000 0.000000
0.913725 1.000000 0.000000
0.952941 0.996078 0.000000
0.988235 1.000000 0.007843
1.000000 0.996078 0.003922
0.000000 0.000000 0.031373
0.043137 0.000000 0.031373
0.082353 0.000000 0.027451
0.121569 0.000000 0.023529
0.168627 0.000000 0.027451
0.215686 0.000000 0.023529
0.270588 0.000000 0.019608
0.317647 0.000000 0.023529
0.364706 0.003922 0.023529
0.415686 0.000000 0.015686
0.470588 0.000000 0.015686
0.517647 0.000000 0.007843
0.580392 0.000000 0.000000
0.627451 0.000000 0.000000
0.686275 0.000000 0.000000
0.737255 0.000000 0.000000
0.796078 0.000000 0.000000
0.843137 0.000000 0.000000
0.890196 0.000000 0.000000
0.941176 0.000000 0.000000
0.980392 0.000000 0.003922
0.996078 0.000000 0.000000
0.996078 0.000000 0.000000
1.000000 0.003922 0.003922
0.996078 0.000000 0.011765
0.003922 0.039216 0.027451
0.035294 0.027451 0.031373
0.082353 0.035294 0.035294
0.133333 0.031373 0.027451
0.180392 0.031373 0.027451
0.223529 0.027451 0.023529
0.274510 0.023529 0.023529
0.325490 0.015686 0.027451
0.368627 0.007843 0.019608
0.423529 0.007843 0.015686
0.470588 0.000000 0.003922
0.529412 0.003922 0.007843
0.576471 0.000000 0.000000
0.639216 0.003922 0.000000
0.682353 0.000000 0.000000
0.737255 0.000000 0.000000
0.796078 0.003922 0.003922
0.847059 0.003922 0.000000
0.898039 0.003922 0.000000
0.949020 0.000000 0.000000
0.980392 0.000000 0.003922
0.996078 0.000000 0.000000
0.996078 0.000000 0.000000
1.000000 0.003922 0.011765
0.996078 0.000000 0.007843
0.000000 0.074510 0.015686
0.039216 0.082353 0.027451
0.094118 0.078431 0.031373
0.141176 0.074510 0.035294
0.172549 0.082353 0.027451
0.227451 0.070588 0.023529
0.278431 0.074510 0.019608
0.321569 0.074510 0.015686
0.376471 0.074510 0.011765
0.427451 0.066667 0.007843
0.482353 0.058824 0.007843
0.533333 0.054902 0.000000
0.584314 0.050980 0.000000
0.639216 0.050980 0.000000
0.690196 0.031373 0.000000
0.741176 0.023529 0.000000
0.803922 0.011765 0.000000
0.854902 0.000000 0.000000
0.901961 0.000000 0.007843
0.949020 0.000000 0.000000
0.992157 0.003922 0.000000
1.000000 0.003922 0.000000
0.996078 0.000000 0.000000
1.000000 0.003922 0.003922
0.996078 0.000000 0.000000
0.000000 0.129412 0.023529
0.039216 0.129412 0.019608
0.098039 0.133333 0.019608
0.137255 0.121569 0.015686
0.192157 0.125490 0.023529
0.231373 0.125490 0.019608
0.282353 0.129412 0.015686
0.333333 0.121569 0.011765
0.376471 0.121569 0.011765
0.431373 0.121569 0.003922
0.482353 0.117647 0.000000
0.537255 0.113725 0.000000
0.584314 0.117647 0.000000
0.643137 0.113725 0.000000
0.694118 0.105882 0.000000
0.749020 0.105882 0.000000
0.796078 0.098039 0.000000
0.850980 0.101961 0.000000
0.898039 0.090196 0.000000
0.956863 0.094118 0.000000
0.992157 0.082353 0.000000
0.996078 0.086275 0.000000
1.000000 0.078431 0.000000
1.000000 0.078431 0.003922
1.000000 0.074510 0.003922
0.000000 0.176471 0.011765
0.043137 0.180392 0.015686
0.090196 0.180392 0.015686
0.141176 0.168627 0.007843
0.184314 0.168627 0.019608
0.231373 0.172549 0.019608
0.278431 0.168627 0.011765
0.333333 0.168627 0.003922
0.380392 0.172549 0.007843
0.435294 0.172549 0.003922
0.486275 0.168627 0.000000
0.533333 0.168627 0.000000
0.596078 0.168627 0.000000
0.643137 0.168627 0.000000
0.701961 0.172549 0.000000
0.752941 0.168627 0.000000
0.803922 0.164706 0.000000
0.854902 0.168627 0.000000
0.901961 0.160784 0.000000
0.949020 0.160784 0.000000
0.992157 0.156863 0.000000
1.000000 0.152941 0.003922
1.000000 0.149020 0.000000
1.000000 0.149020 0.000000
1.000000 0.145098 0.000000
0.003922 0.211765 0.007843
0.047059 0.215686 0.007843
0.094118 0.211765 0.007843
0.141176 0.219608 0.011765
0.184314 0.219608 0.011765
0.227451 0.215686 0.007843
0.278431 0.219608 0.003922
0.321569 0.215686 0.000000
0.376471 0.215686 0.000000
0.419608 0.215686 0.000000
0.478431 0.215686 0.000000
0.525490 0.215686 0.000000
0.584314 0.219608 0.000000
0.631373 0.219608 0.000000
0.690196 0.215686 0.000000
0.741176 0.219608 0.000000
0.792157 0.215686 0.003922
0.843137 0.219608 0.003922
0.894118 0.215686 0.000000
0.945098 0.211765 0.000000
0.988235 0.215686 0.007843
1.000000 0.207843 0.000000
1.000000 0.203922 0.000000
1.000000 0.203922 0.003922
1.000000 0.203922 0.003922
0.007843 0.262745 0.000000
0.047059 0.270588 0.000000
0.094118 0.270588 0.007843
0.137255 0.262745 0.000000
0.188235 0.262745 0.003922
0.239216 0.266667 0.000000
0.286275 0.266667 0.007843
0.333333 0.266667 0.000000
0.380392 0.266667 0.000000
0.431373 0.262745 0.000000
0.482353 0.266667 0.003922
0.533333 0.262745 0.000000
0.584314 0.270588 0.000000
0.635294 0.270588 0.000000
0.694118 0.274510 0.000000
0.749020 0.274510 0.003922
0.800000 0.270588 0.003922
0.850980 0.270588 0.000000
0.901961 0.270588 0.003922
0.952941 0.266667 0.003922
0.984314 0.266667 0.000000
1.000000 0.266667 0.000000
1.000000 0.262745 0.003922
1.000000 0.258824 0.000000
1.000000 0.258824 0.000000
0.000000 0.321569 0.000000
0.039216 0.317647 0.003922
0.101961 0.317647 0.000000
0.141176 0.313725 0.003922
0.196078 0.317647 0.003922
0.247059 0.317647 0.000000
0.286275 0.313725 0.000000
0.337255 0.317647 0.000000
0.384314 0.317647 0.003922
0.439216 0.317647 0.000000
0.482353 0.317647 0.000000
0.541176 0.317647 0.000000
0.600000 0.321569 0.000000
0.647059 0.325490 0.003922
0.698039 0.325490 0.003922
0.752941 0.325490 0.003922
0.800000 0.325490 0.007843
0.850980 0.321569 0.003922
0.898039 0.325490 0.000000
0.937255 0.325490 0.000000
0.992157 0.321569 0.000000
1.000000 0.325490 0.000000
1.000000 0.309804 0.000000
0.996078 0.309804 0.000000
1.000000 0.309804 0.011765
0.000000 0.368627 0.000000
0.054902 0.372549 0.007843
0.101961 0.364706 0.000000
0.149020 0.372549 0.003922
0.196078 0.364706 0.003922
0.243137 0.364706 0.000000
0.290196 0.368627 0.000000
0.341176 0.368627 0.000000
0.388235 0.368627 0.000000
0.443137 0.368627 0.000000
0.490196 0.372549 0.000000
0.545098 0.372549 0.000000
0.592157 0.372549 0.000000
0.643137 0.376471 0.000000
0.694118 0.380392 0.000000
0.756863 0.376471 0.000000
0.803922 0.380392 0.000000
0.858824 0.376471 0.000000
0.905882 0.380392 0.007843
0.952941 0.376471 0.003922
0.992157 0.368627 0.000000
1.000000 0.364706 0.000000
0.996078 0.368627 0.000000
0.996078 0.368627 0.000000
1.000000 0.360784 0.003922
0.003922 0.427451 0.000000
0.047059 0.423529 0.000000
0.101961 0.423529 0.000000
0.141176 0.423529 0.000000
0.200000 0.419608 0.000000
0.250980 0.419608 0.000000
0.294118 0.419608 0.000000
0.349020 0.423529 0.000000
0.400000 0.423529 0.007843
0.447059 0.419608 0.003922
0.490196 0.419608 0.000000
0.545098 0.423529 0.007843
0.596078 0.423529 0.003922
0.647059 0.423529 0.003922
0.705882 0.427451 0.003922
0.752941 0.431373 0.007843
0.807843 0.427451 0.007843
0.854902 0.431373 0.003922
0.901961 0.431373 0.000000
0.945098 0.427451 0.000000
0.992157 0.423529 0.000000
1.000000 0.423529 0.000000
1.000000 0.419608 0.000000
0.996078 0.415686 0.000000
0.996078 0.411765 0.007843
0.000000 0.454902 0.000000
0.047059 0.458824 0.000000
0.101961 0.458824 0.000000
0.149020 0.458824 0.000000
0.196078 0.458824 0.003922
0.243137 0.458824 0.000000
0.298039 0.458824 0.000000
0.341176 0.462745 0.000000
0.388235 0.454902 0.003922
0.439216 0.458824 0.000000
0.486275 0.458824 0.000000
