app/src/main/assets/cube/Christmas 1.cube
TITLE "Christmas LUT #1"
#LUT size
LUT_3D_SIZE 25
#LUT data points
0.082353 0.086275 0.101961
0.086275 0.090196 0.098039
0.105882 0.090196 0.094118
0.133333 0.086275 0.094118
0.149020 0.094118 0.094118
0.180392 0.094118 0.101961
0.215686 0.090196 0.101961
0.231373 0.098039 0.101961
0.258824 0.094118 0.101961
0.298039 0.094118 0.109804
0.341176 0.098039 0.109804
0.388235 0.094118 0.109804
0.431373 0.090196 0.121569
0.474510 0.094118 0.121569
0.537255 0.090196 0.129412
0.592157 0.082353 0.129412
0.662745 0.070588 0.129412
0.717647 0.070588 0.137255
0.776471 0.058824 0.137255
0.839216 0.027451 0.137255
0.894118 0.011765 0.137255
0.945098 0.000000 0.137255
0.988235 0.000000 0.145098
0.992157 0.003922 0.156863
1.000000 0.000000 0.164706
0.074510 0.094118 0.105882
0.086275 0.101961 0.098039
0.101961 0.101961 0.109804
0.129412 0.105882 0.105882
0.145098 0.105882 0.098039
0.180392 0.109804 0.109804
0.207843 0.105882 0.109804
0.227451 0.101961 0.105882
0.262745 0.105882 0.109804
0.301961 0.105882 0.117647
0.333333 0.113725 0.125490
0.380392 0.113725 0.117647
0.431373 0.109804 0.117647
0.474510 0.113725 0.125490
0.533333 0.105882 0.117647
0.600000 0.101961 0.137255
0.650980 0.098039 0.133333
0.717647 0.090196 0.129412
0.776471 0.086275 0.129412
0.839216 0.074510 0.137255
0.890196 0.058824 0.145098
0.941176 0.047059 0.145098
0.988235 0.035294 0.145098
1.000000 0.031373 0.145098
0.996078 0.043137 0.160784
0.070588 0.117647 0.101961
0.082353 0.125490 0.094118
0.101961 0.121569 0.098039
0.137255 0.117647 0.094118
0.149020 0.121569 0.098039
0.176471 0.117647 0.105882
0.200000 0.117647 0.105882
0.231373 0.121569 0.109804
0.266667 0.129412 0.113725
0.298039 0.125490 0.113725
0.329412 0.129412 0.117647
0.376471 0.125490 0.125490
0.427451 0.133333 0.121569
0.474510 0.129412 0.121569
0.533333 0.125490 0.129412
0.592157 0.129412 0.129412
0.650980 0.125490 0.129412
0.709804 0.121569 0.129412
0.768627 0.117647 0.133333
0.827451 0.105882 0.137255
0.886275 0.101961 0.141176
0.933333 0.090196 0.149020
0.984314 0.090196 0.149020
1.000000 0.086275 0.152941
1.000000 0.090196 0.164706
0.058824 0.152941 0.098039
0.082353 0.145098 0.105882
0.101961 0.149020 0.101961
0.129412 0.141176 0.098039
0.145098 0.145098 0.105882
0.180392 0.141176 0.101961
0.203922 0.149020 0.113725
0.223529 0.145098 0.117647
0.258824 0.145098 0.113725
0.309804 0.141176 0.117647
0.337255 0.152941 0.129412
0.376471 0.145098 0.121569
0.419608 0.149020 0.121569
0.478431 0.152941 0.121569
0.537255 0.156863 0.133333
0.592157 0.152941 0.137255
0.643137 0.152941 0.129412
0.705882 0.149020 0.133333
0.760784 0.152941 0.137255
0.819608 0.145098 0.137255
0.866667 0.141176 0.133333
0.917647 0.133333 0.141176
0.976471 0.133333 0.152941
0.996078 0.129412 0.156863
1.000000 0.129412 0.168627
0.050980 0.172549 0.101961
0.086275 0.176471 0.113725
0.090196 0.172549 0.105882
0.117647 0.168627 0.101961
0.156863 0.164706 0.109804
0.168627 0.172549 0.109804
0.196078 0.172549 0.117647
0.231373 0.168627 0.117647
0.262745 0.168627 0.121569
0.294118 0.168627 0.125490
0.325490 0.176471 0.125490
0.376471 0.172549 0.121569
0.427451 0.176471 0.129412
0.482353 0.184314 0.133333
0.529412 0.184314 0.129412
0.584314 0.192157 0.133333
0.643137 0.188235 0.129412
0.698039 0.188235 0.133333
0.756863 0.184314 0.133333
0.815686 0.188235 0.141176
0.874510 0.176471 0.137255
0.917647 0.180392 0.145098
0.968627 0.180392 0.149020
0.996078 0.176471 0.156863
1.000000 0.180392 0.164706
0.039216 0.211765 0.113725
0.066667 0.196078 0.113725
0.098039 0.196078 0.113725
0.109804 0.203922 0.117647
0.141176 0.200000 0.117647
0.180392 0.200000 0.113725
0.203922 0.200000 0.117647
0.247059 0.203922 0.125490
0.270588 0.196078 0.129412
0.305882 0.200000 0.125490
0.345098 0.207843 0.129412
0.384314 0.219608 0.133333
0.439216 0.215686 0.137255
0.501961 0.223529 0.137255
0.556863 0.227451 0.133333
0.619608 0.227451 0.137255
0.678431 0.231373 0.137255
0.725490 0.231373 0.141176
0.776471 0.231373 0.141176
0.827451 0.231373 0.141176
0.894118 0.231373 0.149020
0.945098 0.231373 0.149020
0.992157 0.227451 0.156863
1.000000 0.227451 0.160784
1.000000 0.227451 0.176471
0.027451 0.235294 0.117647
0.047059 0.231373 0.105882
0.082353 0.235294 0.113725
0.113725 0.227451 0.117647
0.141176 0.231373 0.117647
0.176471 0.235294 0.105882
0.211765 0.227451 0.121569
0.235294 0.231373 0.121569
0.262745 0.235294 0.121569
0.301961 0.235294 0.125490
0.341176 0.239216 0.133333
0.388235 0.243137 0.129412
0.447059 0.247059 0.133333
0.498039 0.258824 0.145098
0.545098 0.266667 0.149020
0.607843 0.270588 0.133333
0.662745 0.270588 0.137255
0.717647 0.270588 0.137255
0.776471 0.270588 0.145098
0.835294 0.274510 0.149020
0.890196 0.274510 0.152941
0.945098 0.278431 0.149020
0.992157 0.274510 0.152941
1.000000 0.270588 0.172549
1.000000 0.274510 0.164706
0.007843 0.270588 0.141176
0.015686 0.266667 0.121569
0.054902 0.270588 0.117647
0.094118 0.270588 0.117647
0.125490 0.274510 0.121569
0.152941 0.270588 0.121569
0.192157 0.274510 0.121569
0.239216 0.270588 0.125490
0.286275 0.274510 0.137255
0.309804 0.270588 0.129412
0.364706 0.270588 0.137255
0.400000 0.282353 0.133333
0.454902 0.290196 0.141176
0.490196 0.298039 0.141176
0.552941 0.305882 0.145098
0.600000 0.305882 0.149020
0.666667 0.305882 0.145098
0.725490 0.309804 0.145098
0.780392 0.313725 0.149020
0.831373 0.317647 0.145098
0.890196 0.321569 0.149020
0.937255 0.313725 0.156863
0.988235 0.313725 0.164706
1.000000 0.317647 0.172549
1.000000 0.317647 0.172549
0.003922 0.305882 0.125490
0.000000 0.301961 0.121569
0.011765 0.317647 0.129412
0.054902 0.313725 0.125490
0.109804 0.313725 0.125490
0.149020 0.317647 0.137255
0.207843 0.313725 0.137255
0.243137 0.321569 0.129412
0.278431 0.317647 0.121569
0.321569 0.321569 0.125490
0.352941 0.329412 0.133333
0.407843 0.321569 0.125490
0.454902 0.329412 0.129412
0.501961 0.337255 0.141176
0.552941 0.345098 0.149020
0.607843 0.341176 0.149020
0.662745 0.349020 0.149020
0.717647 0.349020 0.149020
0.772549 0.352941 0.149020
0.823529 0.352941 0.149020
0.882353 0.356863 0.156863
0.933333 0.360784 0.160784
0.968627 0.356863 0.156863
1.000000 0.364706 0.172549
1.000000 0.356863 0.176471
0.000000 0.364706 0.129412
0.000000 0.352941 0.113725
0.007843 0.360784 0.121569
0.003922 0.360784 0.121569
0.086275 0.364706 0.137255
0.149020 0.368627 0.129412
0.203922 0.368627 0.121569
0.227451 0.368627 0.125490
0.282353 0.368627 0.125490
0.329412 0.376471 0.125490
0.380392 0.372549 0.133333
0.407843 0.368627 0.129412
0.462745 0.380392 0.133333
0.513725 0.380392 0.141176
0.560784 0.380392 0.145098
0.615686 0.384314 0.149020
0.662745 0.388235 0.152941
0.713725 0.396078 0.149020
0.764706 0.396078 0.145098
0.815686 0.403922 0.149020
0.870588 0.400000 0.152941
0.929412 0.403922 0.156863
0.984314 0.403922 0.160784
1.000000 0.403922 0.168627
1.000000 0.407843 0.180392
0.000000 0.439216 0.109804
0.003922 0.443137 0.113725
0.003922 0.443137 0.121569
0.000000 0.439216 0.117647
0.000000 0.454902 0.109804
0.125490 0.435294 0.117647
0.192157 0.439216 0.121569
0.243137 0.447059 0.121569
0.294118 0.450980 0.113725
0.345098 0.443137 0.117647
0.396078 0.443137 0.121569
0.439216 0.447059 0.121569
0.494118 0.447059 0.125490
0.545098 0.447059 0.125490
0.592157 0.447059 0.129412
0.643137 0.454902 0.133333
0.690196 0.450980 0.133333
0.749020 0.450980 0.145098
0.796078 0.454902 0.152941
0.847059 0.454902 0.156863
0.894118 0.454902 0.164706
0.937255 0.458824 0.164706
0.984314 0.458824 0.172549
1.000000 0.462745 0.180392
0.992157 0.474510 0.192157
0.000000 0.482353 0.113725
0.003922 0.490196 0.113725
0.000000 0.486275 0.109804
0.000000 0.494118 0.113725
0.000000 0.494118 0.113725
0.066667 0.498039 0.117647
0.164706 0.505882 0.098039
0.231373 0.498039 0.109804
0.286275 0.501961 0.101961
0.341176 0.501961 0.101961
0.400000 0.498039 0.101961
0.454902 0.494118 0.105882
0.494118 0.494118 0.109804
0.549020 0.494118 0.113725
0.603922 0.494118 0.113725
0.639216 0.498039 0.121569
0.694118 0.498039 0.125490
0.745098 0.498039 0.125490
0.800000 0.498039 0.137255
0.850980 0.498039 0.152941
0.898039 0.505882 0.172549
0.941176 0.501961 0.172549
0.992157 0.501961 0.172549
1.000000 0.509804 0.196078
0.996078 0.513725 0.207843
0.000000 0.541176 0.101961
0.000000 0.541176 0.101961
0.003922 0.549020 0.098039
0.000000 0.552941 0.101961
0.000000 0.552941 0.098039
0.000000 0.552941 0.101961
0.125490 0.552941 0.101961
0.207843 0.549020 0.105882
0.266667 0.552941 0.094118
0.333333 0.549020 0.090196
0.392157 0.549020 0.098039
0.450980 0.545098 0.098039
0.509804 0.549020 0.098039
0.549020 0.552941 0.094118
0.596078 0.545098 0.094118
0.647059 0.549020 0.094118
0.701961 0.545098 0.101961
0.752941 0.549020 0.117647
0.796078 0.545098 0.129412
0.839216 0.549020 0.137255
0.894118 0.549020 0.156863
0.941176 0.549020 0.172549
0.976471 0.549020 0.184314
1.000000 0.556863 0.207843
1.000000 0.552941 0.215686
0.000000 0.592157 0.078431
0.003922 0.596078 0.090196
0.000000 0.592157 0.078431
0.000000 0.603922 0.078431
0.011765 0.596078 0.086275
0.000000 0.603922 0.086275
0.047059 0.603922 0.078431
0.168627 0.603922 0.090196
0.258824 0.600000 0.086275
0.321569 0.600000 0.082353
0.384314 0.600000 0.090196
0.447059 0.600000 0.094118
0.490196 0.596078 0.082353
0.549020 0.600000 0.082353
0.596078 0.603922 0.082353
0.647059 0.596078 0.082353
0.698039 0.603922 0.086275
0.752941 0.600000 0.094118
0.796078 0.596078 0.105882
0.850980 0.592157 0.121569
0.898039 0.584314 0.133333
0.933333 0.592157 0.149020
0.980392 0.592157 0.192157
0.992157 0.588235 0.215686
1.000000 0.596078 0.223529
0.000000 0.639216 0.070588
0.003922 0.658824 0.074510
0.000000 0.654902 0.062745
0.000000 0.654902 0.066667
0.003922 0.658824 0.062745
0.000000 0.658824 0.066667
0.000000 0.654902 0.066667
0.133333 0.658824 0.074510
0.235294 0.650980 0.062745
0.305882 0.654902 0.066667
0.364706 0.650980 0.058824
0.431373 0.662745 0.074510
0.482353 0.647059 0.066667
0.537255 0.647059 0.070588
0.592157 0.647059 0.062745
0.647059 0.647059 0.066667
0.701961 0.647059 0.066667
0.745098 0.643137 0.074510
0.792157 0.643137 0.082353
0.843137 0.643137 0.090196
0.898039 0.635294 0.113725
0.933333 0.639216 0.137255
0.972549 0.635294 0.168627
1.000000 0.627451 0.196078
1.000000 0.631373 0.215686
0.000000 0.737255 0.062745
0.000000 0.733333 0.058824
0.000000 0.733333 0.070588
0.007843 0.737255 0.074510
0.000000 0.729412 0.066667
0.000000 0.729412 0.054902
0.000000 0.737255 0.050980
0.090196 0.729412 0.066667
0.219608 0.729412 0.070588
0.301961 0.721569 0.070588
0.376471 0.717647 0.070588
0.435294 0.721569 0.058824
0.490196 0.721569 0.062745
0.552941 0.721569 0.066667
0.607843 0.713725 0.066667
0.666667 0.713725 0.078431
0.709804 0.709804 0.082353
0.764706 0.709804 0.078431
0.815686 0.705882 0.074510
0.870588 0.701961 0.090196
0.913725 0.701961 0.113725
0.949020 0.690196 0.141176
0.988235 0.686275 0.176471
1.000000 0.682353 0.211765
1.000000 0.690196 0.239216
0.003922 0.756863 0.047059
0.000000 0.760784 0.047059
0.007843 0.764706 0.070588
0.000000 0.760784 0.047059
0.000000 0.772549 0.070588
0.000000 0.772549 0.054902
0.003922 0.768627 0.062745
0.007843 0.772549 0.058824
0.164706 0.764706 0.066667
0.282353 0.764706 0.070588
0.352941 0.764706 0.066667
0.419608 0.760784 0.066667
0.470588 0.764706 0.066667
0.537255 0.760784 0.074510
0.603922 0.752941 0.074510
0.658824 0.752941 0.070588
0.705882 0.752941 0.086275
0.756863 0.749020 0.082353
0.807843 0.752941 0.090196
0.854902 0.752941 0.082353
0.898039 0.752941 0.101961
0.945098 0.745098 0.141176
0.992157 0.737255 0.172549
0.996078 0.729412 0.192157
1.000000 0.733333 0.235294
0.003922 0.803922 0.047059
0.003922 0.807843 0.066667
0.000000 0.807843 0.070588
0.000000 0.803922 0.066667
0.007843 0.811765 0.070588
0.011765 0.796078 0.066667
0.000000 0.807843 0.078431
0.015686 0.800000 0.066667
0.156863 0.800000 0.074510
0.258824 0.803922 0.070588
0.341176 0.796078 0.062745
0.407843 0.807843 0.074510
0.466667 0.803922 0.078431
0.529412 0.792157 0.094118
0.592157 0.788235 0.094118
0.639216 0.792157 0.098039
0.694118 0.788235 0.098039
0.749020 0.788235 0.101961
0.796078 0.792157 0.101961
0.843137 0.792157 0.105882
0.898039 0.792157 0.105882
0.937255 0.788235 0.117647
0.980392 0.784314 0.152941
0.992157 0.776471 0.180392
1.000000 0.776471 0.215686
0.000000 0.839216 0.086275
0.000000 0.843137 0.062745
0.003922 0.843137 0.082353
0.000000 0.843137 0.090196
0.000000 0.843137 0.090196
0.000000 0.843137 0.094118
0.000000 0.839216 0.090196
0.003922 0.850980 0.086275
0.133333 0.835294 0.090196
0.247059 0.850980 0.098039
0.325490 0.839216 0.094118
0.384314 0.843137 0.090196
0.458824 0.835294 0.098039
0.517647 0.831373 0.105882
0.576471 0.835294 0.109804
0.631373 0.831373 0.113725
0.682353 0.831373 0.109804
0.733333 0.827451 0.113725
0.780392 0.823529 0.109804
0.831373 0.823529 0.121569
0.882353 0.823529 0.129412
0.929412 0.823529 0.129412
0.968627 0.819608 0.141176
1.000000 0.815686 0.176471
1.000000 0.819608 0.200000
0.000000 0.878431 0.094118
0.000000 0.882353 0.094118
0.000000 0.878431 0.101961
0.007843 0.874510 0.117647
0.000000 0.882353 0.117647
0.000000 0.878431 0.117647
0.000000 0.882353 0.117647
0.011765 0.878431 0.117647
0.113725 0.878431 0.125490
0.231373 0.878431 0.129412
0.337255 0.874510 0.121569
0.384314 0.878431 0.113725
0.454902 0.874510 0.129412
0.498039 0.870588 0.125490
0.556863 0.866667 0.125490
0.611765 0.866667 0.129412
0.666667 0.862745 0.129412
0.721569 0.862745 0.133333
0.768627 0.862745 0.141176
0.819608 0.866667 0.145098
0.862745 0.858824 0.160784
0.909804 0.866667 0.168627
0.968627 0.870588 0.172549
0.996078 0.866667 0.180392
1.000000 0.858824 0.196078
0.003922 0.929412 0.200000
0.000000 0.937255 0.196078
0.000000 0.933333 0.188235
0.000000 0.925490 0.184314
0.000000 0.925490 0.184314
0.000000 0.937255 0.196078
0.000000 0.929412 0.188235
0.000000 0.925490 0.184314
0.180392 0.929412 0.180392
0.258824 0.921569 0.188235
0.345098 0.917647 0.192157
0.407843 0.917647 0.188235
0.454902 0.921569 0.192157
0.517647 0.917647 0.192157
0.564706 0.909804 0.192157
0.615686 0.909804 0.200000
0.674510 0.909804 0.188235
0.729412 0.905882 0.196078
0.776471 0.905882 0.203922
0.811765 0.901961 0.203922
0.854902 0.905882 0.207843
0.901961 0.901961 0.211765
0.952941 0.901961 0.219608
0.984314 0.901961 0.239216
1.000000 0.909804 0.258824
0.000000 0.949020 0.180392
0.003922 0.949020 0.200000
0.000000 0.952941 0.192157
0.000000 0.964706 0.200000
0.000000 0.960784 0.219608
0.003922 0.949020 0.203922
0.000000 0.956863 0.215686
0.070588 0.956863 0.219608
0.203922 0.949020 0.219608
0.286275 0.952941 0.219608
0.341176 0.952941 0.215686
0.411765 0.945098 0.215686
0.462745 0.949020 0.219608
0.517647 0.949020 0.223529
0.560784 0.949020 0.215686
0.615686 0.945098 0.215686
0.662745 0.941176 0.227451
0.713725 0.941176 0.235294
0.760784 0.937255 0.235294
0.803922 0.933333 0.239216
0.847059 0.937255 0.247059
0.894118 0.933333 0.250980
0.937255 0.933333 0.266667
0.976471 0.933333 0.274510
0.988235 0.945098 0.290196
0.000000 0.980392 0.231373
0.000000 0.984314 0.227451
0.000000 0.976471 0.239216
0.000000 0.992157 0.239216
0.000000 0.980392 0.239216
0.000000 0.988235 0.247059
0.000000 0.988235 0.235294
0.156863 0.980392 0.254902
0.235294 0.980392 0.250980
0.298039 0.976471 0.247059
0.356863 0.976471 0.250980
0.411765 0.976471 0.254902
0.466667 0.976471 0.254902
0.513725 0.980392 0.250980
0.560784 0.976471 0.254902
0.607843 0.976471 0.254902
0.658824 0.972549 0.254902
0.701961 0.968627 0.258824
0.752941 0.968627 0.266667
0.796078 0.972549 0.274510
0.839216 0.968627 0.274510
0.882353 0.960784 0.282353
0.929412 0.956863 0.298039
0.960784 0.956863 0.298039
0.992157 0.972549 0.329412
0.000000 1.000000 0.254902
0.000000 0.996078 0.266667
0.003922 0.992157 0.274510
0.003922 1.000000 0.282353
0.000000 0.996078 0.282353
0.054902 0.996078 0.278431
0.156863 1.000000 0.290196
0.211765 1.000000 0.274510
0.278431 1.000000 0.270588
0.337255 1.000000 0.290196
0.380392 1.000000 0.298039
0.439216 1.000000 0.301961
0.474510 1.000000 0.290196
0.529412 1.000000 0.282353
0.572549 1.000000 0.290196
0.615686 0.996078 0.298039
0.654902 0.996078 0.301961
0.694118 0.996078 0.305882
0.737255 1.000000 0.309804
0.784314 0.996078 0.313725
0.819608 0.992157 0.313725
0.850980 0.992157 0.325490
0.901961 0.992157 0.333333
0.937255 0.988235 0.333333
0.976471 0.984314 0.360784
0.003922 0.996078 0.298039
0.000000 1.000000 0.313725
0.007843 0.996078 0.317647
0.090196 1.000000 0.329412
0.152941 1.000000 0.321569
0.207843 1.000000 0.325490
0.258824 0.996078 0.317647
0.290196 1.000000 0.325490
0.325490 1.000000 0.325490
0.372549 1.000000 0.325490
0.415686 0.992157 0.329412
0.458824 1.000000 0.329412
0.501961 1.000000 0.325490
0.545098 1.000000 0.329412
0.584314 1.000000 0.329412
0.619608 1.000000 0.333333
0.658824 1.000000 0.337255
0.698039 1.000000 0.341176
0.737255 1.000000 0.345098
0.784314 1.000000 0.356863
0.815686 1.000000 0.356863
0.854902 1.000000 0.364706
0.894118 1.000000 0.376471
0.921569 1.000000 0.376471
0.945098 1.000000 0.384314
0.070588 0.098039 0.121569
0.090196 0.094118 0.113725
0.101961 0.090196 0.117647
0.137255 0.086275 0.121569
0.152941 0.086275 0.117647
0.184314 0.094118 0.125490
0.211765 0.090196 0.121569
0.239216 0.094118 0.125490
0.262745 0.094118 0.129412
0.309804 0.090196 0.133333
0.341176 0.094118 0.129412
0.380392 0.094118 0.137255
0.427451 0.090196 0.141176
0.486275 0.086275 0.141176
0.541176 0.078431 0.141176
0.596078 0.074510 0.149020
0.654902 0.058824 0.149020
0.709804 0.043137 0.149020
0.768627 0.019608 0.149020
0.831373 0.000000 0.149020
0.890196 0.003922 0.160784
0.937255 0.000000 0.152941
0.988235 0.000000 0.160784
1.000000 0.000000 0.156863
1.000000 0.000000 0.172549
0.070588 0.109804 0.117647
0.082353 0.101961 0.117647
0.113725 0.101961 0.137255
0.125490 0.101961 0.109804
0.149020 0.101961 0.117647
0.188235 0.105882 0.125490
0.203922 0.105882 0.129412
0.239216 0.101961 0.125490
0.266667 0.105882 0.121569
0.290196 0.113725 0.125490
0.329412 0.105882 0.129412
0.384314 0.105882 0.137255
0.431373 0.105882 0.145098
0.486275 0.105882 0.141176
0.533333 0.105882 0.129412
0.596078 0.094118 0.145098
0.654902 0.086275 0.152941
0.713725 0.074510 0.149020
0.776471 0.062745 0.152941
0.827451 0.043137 0.152941
0.886275 0.027451 0.152941
0.937255 0.011765 0.160784
0.988235 0.003922 0.172549
1.000000 0.000000 0.172549
1.000000 0.007843 0.192157
0.074510 0.121569 0.113725
0.082353 0.121569 0.117647
0.101961 0.125490 0.109804
0.121569 0.121569 0.121569
0.149020 0.129412 0.117647
0.180392 0.121569 0.133333
0.207843 0.121569 0.129412
0.219608 0.125490 0.125490
0.278431 0.125490 0.137255
0.298039 0.121569 0.133333
0.337255 0.121569 0.133333
0.372549 0.129412 0.133333
0.423529 0.125490 0.133333
0.486275 0.125490 0.145098
0.537255 0.117647 0.141176
0.592157 0.117647 0.145098
0.650980 0.113725 0.145098
0.713725 0.101961 0.145098
0.772549 0.098039 0.152941
0.827451 0.090196 0.149020
0.878431 0.082353 0.156863
0.929412 0.074510 0.168627
0.984314 0.070588 0.156863
1.000000 0.062745 0.184314
1.000000 0.062745 0.168627
0.066667 0.149020 0.129412
0.078431 0.145098 0.121569
0.101961 0.145098 0.121569
0.121569 0.141176 0.113725
0.160784 0.149020 0.121569
0.180392 0.145098 0.125490
0.200000 0.145098 0.133333
0.223529 0.141176 0.137255
0.258824 0.149020 0.137255
0.294118 0.145098 0.141176
0.333333 0.145098 0.137255
0.388235 0.149020 0.145098
0.423529 0.149020 0.141176
0.478431 0.152941 0.137255
0.533333 0.149020 0.145098
0.588235 0.149020 0.145098
0.650980 0.149020 0.145098
0.701961 0.145098 0.141176
0.756863 0.133333 0.149020
0.815686 0.137255 0.152941
0.866667 0.133333 0.168627
0.929412 0.121569 0.168627
0.968627 0.117647 0.152941
1.000000 0.121569 0.164706
1.000000 0.121569 0.176471
0.054902 0.172549 0.141176
0.074510 0.164706 0.125490
0.098039 0.168627 0.121569
0.117647 0.172549 0.121569
0.141176 0.172549 0.121569
0.168627 0.168627 0.137255
0.207843 0.172549 0.145098
0.223529 0.168627 0.133333
0.254902 0.176471 0.141176
0.298039 0.168627 0.141176
0.333333 0.184314 0.149020
0.380392 0.172549 0.141176
0.431373 0.176471 0.152941
0.482353 0.180392 0.156863
0.533333 0.180392 0.149020
0.588235 0.184314 0.149020
0.643137 0.184314 0.149020
0.698039 0.184314 0.152941
0.756863 0.180392 0.152941
0.811765 0.176471 0.164706
0.870588 0.164706 0.160784
0.921569 0.168627 0.164706
0.980392 0.164706 0.156863
1.000000 0.164706 0.164706
1.000000 0.168627 0.176471
0.043137 0.196078 0.121569
0.054902 0.200000 0.129412
0.086275 0.200000 0.129412
0.113725 0.203922 0.133333
0.141176 0.196078 0.129412
0.176471 0.203922 0.141176
0.203922 0.200000 0.129412
0.231373 0.203922 0.133333
0.266667 0.203922 0.145098
0.298039 0.207843 0.152941
0.337255 0.207843 0.149020
0.380392 0.211765 0.149020
0.439216 0.215686 0.149020
0.490196 0.223529 0.149020
0.556863 0.223529 0.145098
0.603922 0.223529 0.149020
0.662745 0.227451 0.152941
0.717647 0.227451 0.156863
0.772549 0.223529 0.156863
0.831373 0.219608 0.160784
0.886275 0.219608 0.160784
0.933333 0.219608 0.164706
0.988235 0.219608 0.172549
1.000000 0.215686 0.176471
1.000000 0.227451 0.184314
0.019608 0.223529 0.133333
0.050980 0.227451 0.137255
0.074510 0.231373 0.137255
0.098039 0.231373 0.133333
0.137255 0.239216 0.133333
0.168627 0.227451 0.137255
0.207843 0.231373 0.129412
0.235294 0.235294 0.141176
0.262745 0.235294 0.133333
0.313725 0.231373 0.149020
0.341176 0.235294 0.152941
0.384314 0.243137 0.149020
0.435294 0.247059 0.156863
0.494118 0.250980 0.160784
0.556863 0.258824 0.164706
0.615686 0.262745 0.168627
0.662745 0.262745 0.164706
0.729412 0.266667 0.156863
0.776471 0.270588 0.156863
0.835294 0.262745 0.164706
0.886275 0.266667 0.168627
0.937255 0.266667 0.164706
0.988235 0.266667 0.156863
1.000000 0.262745 0.176471
1.000000 0.278431 0.196078
0.000000 0.270588 0.137255
0.007843 0.262745 0.129412
0.043137 0.266667 0.137255
0.090196 0.266667 0.137255
0.121569 0.266667 0.133333
0.164706 0.270588 0.133333
0.192157 0.270588 0.133333
0.235294 0.274510 0.141176
0.274510 0.274510 0.133333
0.313725 0.274510 0.137255
0.352941 0.278431 0.152941
0.400000 0.278431 0.156863
0.447059 0.290196 0.152941
0.490196 0.294118 0.156863
0.549020 0.294118 0.168627
0.600000 0.301961 0.168627
0.666667 0.301961 0.168627
0.713725 0.305882 0.160784
0.772549 0.309804 0.160784
0.827451 0.309804 0.160784
0.882353 0.309804 0.164706
0.929412 0.309804 0.172549
0.984314 0.309804 0.160784
0.992157 0.309804 0.176471
0.996078 0.317647 0.184314
0.000000 0.309804 0.149020
0.000000 0.305882 0.141176
0.003922 0.309804 0.145098
0.050980 0.313725 0.145098
0.109804 0.309804 0.149020
0.145098 0.313725 0.133333
0.184314 0.313725 0.145098
0.231373 0.321569 0.149020
0.286275 0.313725 0.141176
0.313725 0.325490 0.141176
0.364706 0.321569 0.141176
0.403922 0.321569 0.137255
0.454902 0.325490 0.149020
0.498039 0.337255 0.156863
0.541176 0.333333 0.160784
0.600000 0.337255 0.160784
0.658824 0.341176 0.164706
0.721569 0.349020 0.168627
0.772549 0.349020 0.164706
0.827451 0.349020 0.156863
0.878431 0.349020 0.164706
0.921569 0.356863 0.152941
0.980392 0.349020 0.168627
1.000000 0.360784 0.184314
1.000000 0.364706 0.180392
0.000000 0.360784 0.145098
0.007843 0.356863 0.137255
0.007843 0.360784 0.149020
0.003922 0.356863 0.145098
0.074510 0.368627 0.149020
0.129412 0.368627 0.137255
0.188235 0.360784 0.129412
0.231373 0.368627 0.141176
0.286275 0.360784 0.145098
0.329412 0.364706 0.141176
0.372549 0.364706 0.141176
0.407843 0.364706 0.152941
0.454902 0.376471 0.145098
0.501961 0.376471 0.152941
0.552941 0.376471 0.152941
0.603922 0.384314 0.160784
0.654902 0.384314 0.160784
0.705882 0.392157 0.160784
0.764706 0.396078 0.156863
0.823529 0.396078 0.164706
0.878431 0.396078 0.160784
0.921569 0.400000 0.168627
0.968627 0.400000 0.176471
0.992157 0.400000 0.184314
0.996078 0.403922 0.188235
0.000000 0.435294 0.137255
0.000000 0.439216 0.141176
0.000000 0.431373 0.145098
0.000000 0.435294 0.137255
0.000000 0.443137 0.137255
0.109804 0.439216 0.145098
0.172549 0.439216 0.137255
0.235294 0.443137 0.137255
0.290196 0.435294 0.133333
0.341176 0.435294 0.137255
0.388235 0.435294 0.137255
