app/src/main/assets/cube/Christmas 2.cube
TITLE "Christmas LUT #2"
#LUT size
LUT_3D_SIZE 9
#LUT data points
0.054902 0.164706 0.180392
0.129412 0.160784 0.172549
0.211765 0.164706 0.180392
0.305882 0.168627 0.184314
0.431373 0.172549 0.188235
0.576471 0.172549 0.184314
0.733333 0.164706 0.192157
0.878431 0.152941 0.184314
1.000000 0.133333 0.184314
0.039216 0.207843 0.172549
0.109804 0.207843 0.184314
0.203922 0.207843 0.184314
0.305882 0.207843 0.188235
0.443137 0.211765 0.196078
0.588235 0.215686 0.192157
0.737255 0.215686 0.188235
0.894118 0.196078 0.180392
1.000000 0.196078 0.184314
0.000000 0.278431 0.200000
0.086275 0.270588 0.192157
0.184314 0.266667 0.192157
0.301961 0.278431 0.192157
0.431373 0.282353 0.192157
0.584314 0.294118 0.196078
0.733333 0.298039 0.188235
0.894118 0.290196 0.180392
0.992157 0.282353 0.168627
0.007843 0.372549 0.196078
0.058824 0.368627 0.192157
0.196078 0.364706 0.196078
0.313725 0.376471 0.200000
0.450980 0.380392 0.200000
0.596078 0.388235 0.192157
0.745098 0.396078 0.176471
0.890196 0.400000 0.172549
1.000000 0.396078 0.160784
0.000000 0.490196 0.192157
0.011765 0.482353 0.192157
0.196078 0.486275 0.192157
0.333333 0.482353 0.188235
0.462745 0.490196 0.184314
0.588235 0.501961 0.176471
0.745098 0.509804 0.172549
0.886275 0.513725 0.160784
1.000000 0.509804 0.145098
0.000000 0.615686 0.156863
0.000000 0.615686 0.172549
0.192157 0.619608 0.160784
0.341176 0.615686 0.160784
0.482353 0.619608 0.164706
0.607843 0.619608 0.160784
0.749020 0.631373 0.152941
0.890196 0.635294 0.125490
1.000000 0.647059 0.113725
0.000000 0.760784 0.117647
0.000000 0.760784 0.125490
0.184314 0.756863 0.117647
0.349020 0.760784 0.121569
0.482353 0.768627 0.113725
0.627451 0.756863 0.101961
0.768627 0.756863 0.101961
0.917647 0.760784 0.082353
0.988235 0.768627 0.050980
0.000000 0.894118 0.019608
0.000000 0.886275 0.007843
0.149020 0.890196 0.011765
0.337255 0.898039 0.003922
0.490196 0.894118 0.003922
0.631373 0.894118 0.003922
0.768627 0.890196 0.000000
0.905882 0.894118 0.000000
1.000000 0.886275 0.000000
0.000000 1.000000 0.003922
0.003922 1.000000 0.000000
0.117647 1.000000 0.003922
0.333333 0.996078 0.003922
0.490196 1.000000 0.003922
0.639216 1.000000 0.003922
0.780392 1.000000 0.000000
0.898039 1.000000 0.000000
0.996078 0.996078 0.000000
0.039216 0.168627 0.243137
0.117647 0.164706 0.227451
0.200000 0.176471 0.231373
0.309804 0.176471 0.239216
0.439216 0.172549 0.231373
0.584314 0.164706 0.227451
0.745098 0.152941 0.227451
0.890196 0.129412 0.231373
1.000000 0.105882 0.211765
0.023529 0.207843 0.231373
0.105882 0.211765 0.239216
0.196078 0.207843 0.227451
0.301961 0.211765 0.235294
0.447059 0.215686 0.231373
0.596078 0.207843 0.227451
0.745098 0.200000 0.227451
0.882353 0.188235 0.219608
1.000000 0.172549 0.207843
0.011765 0.270588 0.231373
0.090196 0.274510 0.235294
0.184314 0.278431 0.227451
0.305882 0.274510 0.231373
0.435294 0.282353 0.223529
0.592157 0.282353 0.223529
0.737255 0.286275 0.215686
0.890196 0.282353 0.211765
0.988235 0.270588 0.215686
0.000000 0.380392 0.231373
0.031373 0.372549 0.235294
0.196078 0.368627 0.231373
0.313725 0.368627 0.227451
0.454902 0.380392 0.223529
0.596078 0.388235 0.223529
0.752941 0.396078 0.219608
0.898039 0.396078 0.211765
1.000000 0.392157 0.203922
0.000000 0.490196 0.223529
0.003922 0.486275 0.223529
0.188235 0.490196 0.223529
0.333333 0.494118 0.219608
0.466667 0.494118 0.219608
0.603922 0.501961 0.211765
0.756863 0.505882 0.215686
0.901961 0.509804 0.203922
0.996078 0.517647 0.192157
0.000000 0.619608 0.188235
0.007843 0.615686 0.207843
0.180392 0.619608 0.196078
0.337255 0.627451 0.192157
0.478431 0.627451 0.200000
0.611765 0.627451 0.196078
0.756863 0.631373 0.188235
0.898039 0.635294 0.176471
1.000000 0.635294 0.149020
0.000000 0.760784 0.168627
0.000000 0.756863 0.164706
0.176471 0.756863 0.168627
0.345098 0.764706 0.156863
0.486275 0.764706 0.160784
0.627451 0.764706 0.160784
0.764706 0.768627 0.156863
0.909804 0.756863 0.141176
0.996078 0.764706 0.129412
0.003922 0.894118 0.105882
0.000000 0.894118 0.125490
0.141176 0.890196 0.098039
0.333333 0.890196 0.105882
0.486275 0.898039 0.098039
0.631373 0.898039 0.086275
0.768627 0.894118 0.082353
0.901961 0.894118 0.074510
0.996078 0.894118 0.043137
0.000000 1.000000 0.000000
0.000000 0.996078 0.000000
0.121569 1.000000 0.003922
0.337255 1.000000 0.003922
0.498039 0.996078 0.000000
0.635294 1.000000 0.000000
0.764706 1.000000 0.000000
0.898039 1.000000 0.000000
0.992157 1.000000 0.000000
0.007843 0.156863 0.298039
0.105882 0.168627 0.301961
0.188235 0.176471 0.298039
0.298039 0.176471 0.301961
0.435294 0.172549 0.309804
0.588235 0.149020 0.305882
0.745098 0.090196 0.294118
0.890196 0.023529 0.298039
1.000000 0.000000 0.282353
0.007843 0.203922 0.309804
0.086275 0.203922 0.305882
0.188235 0.207843 0.294118
0.305882 0.211765 0.298039
0.450980 0.207843 0.305882
0.596078 0.184314 0.301961
0.745098 0.156863 0.301961
0.890196 0.137255 0.290196
0.996078 0.109804 0.290196
0.003922 0.270588 0.305882
0.062745 0.270588 0.294118
0.180392 0.278431 0.298039
0.313725 0.278431 0.298039
0.450980 0.274510 0.301961
0.603922 0.266667 0.301961
0.745098 0.258824 0.290196
0.898039 0.254902 0.290196
0.992157 0.243137 0.270588
0.007843 0.372549 0.301961
0.003922 0.368627 0.298039
0.172549 0.372549 0.298039
0.313725 0.372549 0.290196
0.454902 0.372549 0.290196
0.600000 0.380392 0.290196
0.752941 0.384314 0.286275
0.901961 0.376471 0.278431
1.000000 0.372549 0.278431
0.000000 0.498039 0.282353
0.007843 0.494118 0.290196
0.156863 0.498039 0.298039
0.321569 0.494118 0.286275
0.466667 0.494118 0.290196
0.600000 0.494118 0.278431
0.756863 0.501961 0.282353
0.894118 0.505882 0.274510
0.996078 0.509804 0.266667
0.000000 0.631373 0.274510
0.003922 0.627451 0.274510
0.149020 0.619608 0.278431
0.325490 0.623529 0.270588
0.470588 0.623529 0.274510
0.607843 0.627451 0.266667
0.756863 0.623529 0.270588
0.905882 0.635294 0.262745
0.996078 0.635294 0.247059
0.003922 0.764706 0.250980
0.003922 0.764706 0.250980
0.125490 0.764706 0.258824
0.329412 0.764706 0.250980
0.482353 0.768627 0.247059
0.623529 0.764706 0.247059
0.764706 0.764706 0.239216
0.909804 0.764706 0.247059
0.996078 0.764706 0.231373
0.003922 0.890196 0.215686
0.000000 0.894118 0.211765
0.098039 0.898039 0.219608
0.321569 0.894118 0.223529
0.478431 0.898039 0.215686
0.631373 0.890196 0.215686
0.768627 0.894118 0.215686
0.905882 0.894118 0.207843
0.988235 0.898039 0.200000
0.000000 1.000000 0.172549
0.007843 0.996078 0.184314
0.094118 0.992157 0.180392
0.317647 1.000000 0.180392
0.490196 1.000000 0.168627
0.631373 1.000000 0.172549
0.768627 1.000000 0.168627
0.898039 1.000000 0.172549
1.000000 1.000000 0.176471
0.000000 0.164706 0.392157
0.086275 0.168627 0.392157
0.200000 0.172549 0.376471
0.309804 0.172549 0.392157
0.439216 0.168627 0.392157
0.584314 0.141176 0.400000
0.749020 0.074510 0.396078
0.898039 0.000000 0.396078
1.000000 0.000000 0.388235
0.003922 0.207843 0.392157
0.078431 0.203922 0.388235
0.192157 0.200000 0.388235
0.305882 0.203922 0.388235
0.454902 0.192157 0.392157
0.592157 0.172549 0.392157
0.752941 0.137255 0.407843
0.898039 0.066667 0.407843
1.000000 0.003922 0.388235
0.003922 0.274510 0.396078
0.011765 0.274510 0.388235
0.192157 0.266667 0.384314
0.313725 0.274510 0.380392
0.443137 0.266667 0.388235
0.596078 0.262745 0.392157
0.749020 0.239216 0.388235
0.909804 0.203922 0.388235
0.996078 0.188235 0.368627
0.003922 0.376471 0.400000
0.000000 0.380392 0.392157
0.160784 0.376471 0.388235
0.313725 0.372549 0.392157
0.466667 0.368627 0.384314
0.615686 0.360784 0.384314
0.764706 0.360784 0.376471
0.905882 0.352941 0.376471
0.996078 0.349020 0.372549
0.000000 0.498039 0.384314
0.000000 0.494118 0.388235
0.129412 0.494118 0.380392
0.313725 0.486275 0.380392
0.466667 0.490196 0.380392
0.611765 0.498039 0.380392
0.760784 0.501961 0.376471
0.913725 0.490196 0.376471
0.996078 0.490196 0.364706
0.000000 0.627451 0.364706
0.000000 0.623529 0.372549
0.062745 0.623529 0.364706
0.301961 0.623529 0.372549
0.466667 0.627451 0.368627
0.615686 0.623529 0.368627
0.760784 0.623529 0.364706
0.905882 0.631373 0.360784
0.996078 0.627451 0.352941
0.000000 0.772549 0.360784
0.000000 0.768627 0.356863
0.023529 0.768627 0.345098
0.309804 0.760784 0.352941
0.474510 0.760784 0.349020
0.627451 0.764706 0.356863
0.768627 0.764706 0.349020
0.901961 0.764706 0.356863
1.000000 0.752941 0.341176
0.000000 0.909804 0.337255
0.000000 0.894118 0.337255
0.000000 0.898039 0.341176
0.305882 0.898039 0.345098
0.470588 0.890196 0.333333
0.627451 0.890196 0.337255
0.764706 0.894118 0.341176
0.917647 0.898039 0.337255
0.992157 0.890196 0.345098
0.000000 1.000000 0.317647
0.003922 1.000000 0.317647
0.027451 1.000000 0.317647
0.301961 1.000000 0.317647
0.486275 0.996078 0.325490
0.631373 1.000000 0.325490
0.768627 0.996078 0.321569
0.898039 1.000000 0.329412
1.000000 1.000000 0.341176
0.003922 0.168627 0.505882
0.098039 0.168627 0.505882
0.215686 0.168627 0.490196
0.341176 0.164706 0.498039
0.466667 0.152941 0.501961
0.588235 0.137255 0.509804
0.756863 0.062745 0.517647
0.901961 0.000000 0.513725
1.000000 0.000000 0.501961
0.015686 0.207843 0.517647
0.070588 0.203922 0.494118
0.200000 0.207843 0.498039
0.329412 0.203922 0.498039
0.474510 0.188235 0.509804
0.611765 0.172549 0.509804
0.756863 0.129412 0.513725
0.898039 0.050980 0.533333
1.000000 0.000000 0.509804
0.000000 0.274510 0.494118
0.000000 0.278431 0.505882
0.180392 0.266667 0.494118
0.329412 0.270588 0.494118
0.470588 0.258824 0.501961
0.600000 0.250980 0.501961
0.760784 0.235294 0.513725
0.901961 0.203922 0.501961
1.000000 0.168627 0.498039
0.000000 0.380392 0.505882
0.000000 0.380392 0.494118
0.149020 0.368627 0.498039
0.329412 0.368627 0.505882
0.470588 0.364706 0.501961
0.607843 0.368627 0.501961
0.760784 0.352941 0.498039
0.905882 0.337255 0.498039
1.000000 0.321569 0.490196
0.000000 0.501961 0.486275
0.000000 0.486275 0.494118
0.121569 0.494118 0.501961
0.309804 0.486275 0.498039
0.470588 0.490196 0.501961
0.611765 0.494118 0.501961
0.764706 0.490196 0.490196
0.909804 0.482353 0.494118
1.000000 0.486275 0.490196
0.000000 0.623529 0.490196
0.000000 0.627451 0.494118
0.035294 0.623529 0.486275
0.290196 0.627451 0.490196
0.458824 0.619608 0.486275
0.611765 0.627451 0.490196
0.768627 0.627451 0.494118
0.909804 0.623529 0.486275
1.000000 0.619608 0.482353
0.000000 0.764706 0.490196
0.000000 0.768627 0.478431
0.000000 0.764706 0.490196
0.286275 0.760784 0.482353
0.466667 0.764706 0.482353
0.623529 0.764706 0.490196
0.772549 0.760784 0.482353
0.909804 0.764706 0.486275
1.000000 0.756863 0.478431
0.003922 0.894118 0.482353
0.003922 0.894118 0.482353
0.000000 0.898039 0.482353
0.301961 0.894118 0.474510
0.474510 0.894118 0.478431
0.631373 0.898039 0.470588
0.772549 0.898039 0.470588
0.909804 0.901961 0.474510
1.000000 0.894118 0.474510
0.000000 0.992157 0.466667
0.000000 0.996078 0.470588
0.023529 0.996078 0.462745
0.313725 1.000000 0.462745
0.474510 1.000000 0.462745
0.631373 1.000000 0.466667
0.772549 1.000000 0.458824
0.894118 0.996078 0.466667
0.992157 1.000000 0.466667
0.000000 0.168627 0.619608
0.113725 0.160784 0.631373
0.231373 0.152941 0.627451
0.364706 0.152941 0.631373
0.494118 0.133333 0.631373
0.627451 0.101961 0.623529
0.756863 0.039216 0.627451
0.901961 0.000000 0.631373
1.000000 0.000000 0.635294
0.007843 0.196078 0.631373
0.078431 0.196078 0.627451
0.227451 0.196078 0.635294
0.360784 0.188235 0.631373
0.482353 0.172549 0.631373
0.623529 0.156863 0.627451
0.768627 0.117647 0.643137
0.905882 0.027451 0.647059
1.000000 0.000000 0.627451
0.000000 0.282353 0.623529
0.000000 0.274510 0.619608
0.180392 0.270588 0.635294
0.345098 0.262745 0.627451
0.490196 0.254902 0.631373
0.623529 0.247059 0.627451
0.764706 0.231373 0.631373
0.909804 0.196078 0.627451
0.996078 0.168627 0.627451
0.000000 0.380392 0.635294
0.000000 0.380392 0.627451
0.133333 0.364706 0.631373
0.333333 0.368627 0.639216
0.478431 0.360784 0.635294
0.619608 0.356863 0.627451
0.764706 0.345098 0.619608
0.909804 0.337255 0.631373
0.996078 0.321569 0.611765
0.000000 0.505882 0.623529
0.000000 0.498039 0.631373
0.109804 0.494118 0.631373
0.317647 0.498039 0.627451
0.474510 0.490196 0.627451
0.623529 0.490196 0.627451
0.764706 0.486275 0.619608
0.913725 0.474510 0.623529
1.000000 0.474510 0.611765
0.000000 0.631373 0.619608
0.000000 0.627451 0.619608
0.074510 0.623529 0.611765
0.305882 0.627451 0.619608
0.466667 0.627451 0.611765
0.623529 0.623529 0.615686
0.776471 0.627451 0.623529
0.917647 0.619608 0.619608
1.000000 0.619608 0.607843
0.003922 0.756863 0.611765
0.000000 0.768627 0.619608
0.015686 0.760784 0.611765
0.294118 0.764706 0.623529
0.474510 0.768627 0.615686
0.627451 0.764706 0.607843
0.772549 0.756863 0.607843
0.917647 0.764706 0.596078
1.000000 0.760784 0.588235
0.000000 0.901961 0.615686
0.000000 0.901961 0.603922
0.000000 0.894118 0.600000
0.305882 0.894118 0.603922
0.490196 0.898039 0.603922
0.635294 0.894118 0.603922
0.772549 0.890196 0.600000
0.917647 0.894118 0.596078
1.000000 0.890196 0.603922
0.000000 1.000000 0.592157
0.000000 1.000000 0.600000
0.105882 0.992157 0.607843
0.349020 1.000000 0.600000
0.486275 1.000000 0.592157
0.643137 1.000000 0.588235
0.776471 1.000000 0.596078
0.901961 1.000000 0.600000
0.996078 1.000000 0.592157
0.070588 0.152941 0.752941
0.152941 0.152941 0.741176
0.262745 0.145098 0.756863
0.388235 0.129412 0.749020
0.509804 0.109804 0.745098
0.643137 0.070588 0.741176
0.764706 0.000000 0.737255
0.909804 0.000000 0.741176
1.000000 0.000000 0.745098
0.000000 0.196078 0.749020
0.121569 0.196078 0.749020
0.254902 0.180392 0.745098
0.380392 0.176471 0.752941
0.505882 0.156863 0.752941
0.639216 0.137255 0.745098
0.768627 0.090196 0.756863
0.901961 0.000000 0.741176
0.992157 0.000000 0.749020
0.000000 0.266667 0.752941
0.007843 0.266667 0.749020
0.219608 0.266667 0.745098
0.364706 0.254902 0.737255
0.501961 0.247059 0.749020
0.635294 0.231373 0.745098
0.768627 0.211765 0.745098
0.913725 0.184314 0.745098
1.000000 0.156863 0.741176
0.003922 0.368627 0.745098
0.003922 0.364706 0.752941
0.160784 0.364706 0.760784
0.341176 0.364706 0.749020
0.494118 0.356863 0.749020
0.635294 0.352941 0.745098
0.776471 0.341176 0.745098
0.921569 0.337255 0.745098
1.000000 0.321569 0.745098
0.003922 0.494118 0.745098
0.000000 0.498039 0.752941
0.121569 0.494118 0.745098
0.329412 0.490196 0.741176
0.486275 0.490196 0.745098
0.639216 0.486275 0.749020
0.776471 0.482353 0.737255
0.917647 0.474510 0.733333
0.992157 0.478431 0.737255
0.000000 0.631373 0.729412
0.000000 0.631373 0.741176
0.101961 0.631373 0.745098
0.313725 0.631373 0.745098
0.486275 0.631373 0.745098
0.635294 0.623529 0.745098
0.780392 0.619608 0.745098
0.917647 0.623529 0.741176
1.000000 0.611765 0.725490
0.000000 0.768627 0.729412
0.000000 0.764706 0.737255
0.086275 0.764706 0.741176
0.325490 0.760784 0.737255
0.486275 0.764706 0.741176
0.639216 0.760784 0.737255
0.784314 0.768627 0.733333
0.913725 0.760784 0.733333
0.992157 0.760784 0.729412
0.000000 0.894118 0.725490
0.000000 0.898039 0.717647
0.101961 0.898039 0.729412
0.325490 0.901961 0.729412
0.494118 0.898039 0.729412
0.650980 0.894118 0.733333
0.784314 0.890196 0.729412
0.913725 0.894118 0.729412
0.996078 0.898039 0.737255
0.011765 0.996078 0.725490
0.003922 1.000000 0.717647
0.145098 1.000000 0.737255
0.352941 1.000000 0.729412
0.509804 1.000000 0.725490
0.658824 1.000000 0.729412
0.792157 1.000000 0.725490
0.913725 0.996078 0.733333
0.996078 1.000000 0.733333
0.098039 0.141176 0.870588
0.180392 0.137255 0.874510
0.290196 0.129412 0.882353
0.396078 0.113725 0.878431
0.521569 0.086275 0.874510
0.647059 0.031373 0.874510
0.784314 0.000000 0.874510
0.905882 0.000000 0.870588
1.000000 0.000000 0.866667
0.027451 0.184314 0.870588
0.149020 0.176471 0.878431
0.266667 0.176471 0.874510
0.384314 0.164706 0.882353
0.517647 0.149020 0.870588
0.643137 0.113725 0.862745
0.776471 0.054902 0.878431
0.909804 0.003922 0.866667
1.000000 0.000000 0.870588
0.000000 0.254902 0.866667
0.050980 0.262745 0.882353
0.231373 0.254902 0.882353
0.380392 0.243137 0.878431
0.501961 0.235294 0.874510
0.643137 0.223529 0.874510
0.776471 0.203922 0.866667
0.917647 0.184314 0.870588
0.996078 0.152941 0.866667
0.000000 0.360784 0.866667
0.000000 0.364706 0.866667
0.176471 0.360784 0.878431
0.356863 0.356863 0.874510
0.494118 0.352941 0.878431
0.631373 0.345098 0.870588
0.780392 0.341176 0.882353
0.917647 0.325490 0.870588
0.996078 0.325490 0.874510
0.003922 0.490196 0.874510
0.000000 0.490196 0.890196
0.141176 0.486275 0.870588
0.329412 0.486275 0.870588
0.486275 0.486275 0.878431
0.631373 0.482353 0.878431
0.776471 0.474510 0.874510
0.913725 0.474510 0.874510
1.000000 0.462745 0.870588
0.000000 0.627451 0.870588
0.003922 0.627451 0.882353
0.121569 0.627451 0.882353
0.321569 0.627451 0.878431
0.490196 0.623529 0.874510
0.631373 0.623529 0.878431
0.780392 0.623529 0.870588
0.917647 0.619608 0.874510
1.000000 0.611765 0.870588
0.000000 0.756863 0.878431
0.000000 0.764706 0.866667
0.125490 0.752941 0.878431
0.337255 0.760784 0.870588
0.494118 0.756863 0.870588
0.643137 0.756863 0.874510
0.784314 0.760784 0.870588
0.917647 0.760784 0.866667
0.996078 0.760784 0.862745
0.003922 0.901961 0.874510
0.000000 0.890196 0.862745
0.137255 0.894118 0.874510
0.341176 0.894118 0.870588
0.498039 0.894118 0.870588
0.654902 0.894118 0.874510
0.780392 0.898039 0.866667
0.925490 0.898039 0.866667
0.996078 0.898039 0.870588
0.000000 0.996078 0.886275
0.000000 1.000000 0.886275
0.141176 1.000000 0.886275
0.345098 1.000000 0.882353
0.498039 0.996078 0.878431
0.650980 1.000000 0.882353
0.792157 1.000000 0.882353
0.937255 1.000000 0.898039
0.992157 1.000000 0.898039
0.003922 0.117647 1.000000
0.109804 0.113725 1.000000
0.258824 0.105882 1.000000
0.372549 0.090196 1.000000
0.509804 0.047059 1.000000
0.643137 0.000000 1.000000
0.768627 0.000000 0.996078
0.901961 0.000000 1.000000
1.000000 0.000000 1.000000
0.000000 0.160784 1.000000
0.066667 0.160784 1.000000
0.231373 0.156863 1.000000
0.368627 0.145098 0.996078
0.501961 0.117647 0.992157
0.635294 0.086275 1.000000
0.760784 0.011765 0.996078
0.901961 0.000000 1.000000
1.000000 0.003922 1.000000
0.003922 0.247059 1.000000
0.000000 0.247059 1.000000
0.196078 0.235294 0.992157
0.345098 0.239216 0.996078
0.486275 0.227451 0.996078
0.631373 0.211765 0.996078
0.768627 0.188235 0.996078
0.909804 0.164706 0.996078
1.000000 0.149020 0.992157
0.000000 0.364706 0.992157
0.000000 0.352941 1.000000
0.121569 0.345098 1.000000
0.313725 0.349020 0.996078
0.486275 0.345098 1.000000
0.619608 0.341176 1.000000
0.768627 0.329412 1.000000
0.901961 0.321569 1.000000
1.000000 0.309804 1.000000
0.003922 0.486275 0.996078
0.003922 0.482353 1.000000
0.019608 0.478431 0.992157
0.305882 0.478431 1.000000
0.462745 0.478431 1.000000
0.615686 0.474510 1.000000
0.760784 0.474510 1.000000
0.905882 0.466667 1.000000
1.000000 0.462745 1.000000
0.000000 0.619608 1.000000
0.000000 0.623529 1.000000
0.023529 0.623529 0.992157
0.301961 0.627451 1.000000
0.478431 0.619608 1.000000
0.623529 0.615686 0.996078
0.772549 0.615686 0.996078
0.905882 0.615686 1.000000
0.992157 0.615686 1.000000
0.000000 0.752941 0.996078
0.000000 0.756863 0.996078
0.058824 0.756863 0.992157
0.309804 0.756863 1.000000
0.498039 0.752941 1.000000
0.639216 0.756863 1.000000
0.772549 0.752941 1.000000
0.909804 0.760784 1.000000
0.992157 0.756863 0.992157
0.000000 0.901961 0.996078
0.000000 0.901961 0.996078
0.074510 0.901961 1.000000
0.325490 0.898039 0.996078
0.490196 0.905882 1.000000
0.647059 0.898039 0.996078
0.792157 0.898039 1.000000
0.913725 0.905882 1.000000
1.000000 0.913725 1.000000
0.003922 1.000000 1.000000
0.000000 1.000000 1.000000
0.219608 1.000000 0.996078
0.384314 0.992157 1.000000
0.529412 1.000000 0.996078
0.686275 1.000000 0.996078
0.835294 1.000000 0.992157
0.964706 0.996078 1.000000
1.000000 1.000000 0.992157
