app/src/main/assets/cube/Christmas 6.cube
TITLE "Christmas LUT #6"
#LUT size
LUT_3D_SIZE 9
#LUT data points
0.156863 0.105882 0.133333
0.211765 0.105882 0.133333
0.301961 0.101961 0.129412
0.411765 0.094118 0.129412
0.568627 0.090196 0.133333
0.741176 0.074510 0.117647
0.894118 0.039216 0.101961
0.992157 0.000000 0.082353
0.992157 0.003922 0.062745
0.172549 0.160784 0.125490
0.223529 0.156863 0.129412
0.305882 0.160784 0.137255
0.411765 0.160784 0.125490
0.560784 0.164706 0.125490
0.733333 0.172549 0.109804
0.882353 0.152941 0.094118
1.000000 0.137255 0.082353
1.000000 0.109804 0.058824
0.196078 0.247059 0.145098
0.227451 0.247059 0.129412
0.309804 0.250980 0.129412
0.427451 0.258824 0.125490
0.576471 0.282353 0.117647
0.749020 0.294118 0.101961
0.901961 0.286275 0.078431
1.000000 0.270588 0.054902
1.000000 0.258824 0.039216
0.223529 0.376471 0.113725
0.262745 0.384314 0.109804
0.349020 0.388235 0.117647
0.447059 0.392157 0.105882
0.592157 0.407843 0.086275
0.741176 0.415686 0.054902
0.874510 0.411765 0.019608
0.996078 0.403922 0.000000
1.000000 0.388235 0.000000
0.223529 0.568627 0.023529
0.262745 0.576471 0.000000
0.364706 0.568627 0.000000
0.478431 0.572549 0.000000
0.611765 0.564706 0.000000
0.752941 0.564706 0.000000
0.886275 0.552941 0.000000
1.000000 0.541176 0.007843
1.000000 0.525490 0.000000
0.184314 0.745098 0.000000
0.254902 0.745098 0.000000
0.364706 0.741176 0.003922
0.494118 0.729412 0.000000
0.635294 0.717647 0.000000
0.760784 0.713725 0.000000
0.890196 0.698039 0.000000
0.996078 0.674510 0.007843
1.000000 0.658824 0.000000
0.184314 0.827451 0.000000
0.254902 0.839216 0.000000
0.352941 0.835294 0.000000
0.482353 0.835294 0.003922
0.611765 0.823529 0.000000
0.745098 0.823529 0.003922
0.866667 0.807843 0.000000
0.988235 0.796078 0.007843
1.000000 0.776471 0.000000
0.203922 0.945098 0.000000
0.262745 0.949020 0.000000
0.360784 0.949020 0.000000
0.474510 0.949020 0.000000
0.592157 0.941176 0.007843
0.725490 0.941176 0.003922
0.850980 0.929412 0.000000
0.988235 0.925490 0.003922
0.992157 0.913725 0.000000
0.235294 1.000000 0.007843
0.286275 1.000000 0.000000
0.356863 1.000000 0.000000
0.462745 1.000000 0.003922
0.576471 0.996078 0.000000
0.713725 1.000000 0.000000
0.847059 1.000000 0.007843
0.976471 1.000000 0.003922
1.000000 1.000000 0.003922
0.160784 0.109804 0.188235
0.211765 0.101961 0.188235
0.298039 0.105882 0.188235
0.411765 0.082353 0.184314
0.560784 0.047059 0.172549
0.733333 0.000000 0.168627
0.886275 0.000000 0.164706
0.996078 0.000000 0.141176
1.000000 0.000000 0.125490
0.180392 0.152941 0.180392
0.219608 0.152941 0.176471
0.298039 0.152941 0.180392
0.411765 0.149020 0.184314
0.552941 0.145098 0.172549
0.721569 0.133333 0.168627
0.874510 0.113725 0.149020
0.992157 0.082353 0.137255
0.992157 0.058824 0.121569
0.192157 0.247059 0.180392
0.231373 0.243137 0.176471
0.305882 0.239216 0.176471
0.427451 0.250980 0.168627
0.568627 0.266667 0.164706
0.737255 0.270588 0.145098
0.886275 0.262745 0.137255
0.992157 0.243137 0.129412
1.000000 0.231373 0.105882
0.200000 0.368627 0.156863
0.243137 0.376471 0.141176
0.333333 0.376471 0.156863
0.435294 0.376471 0.152941
0.572549 0.396078 0.129412
0.729412 0.407843 0.121569
0.874510 0.396078 0.101961
0.992157 0.392157 0.094118
1.000000 0.372549 0.082353
0.188235 0.552941 0.094118
0.243137 0.552941 0.086275
0.337255 0.564706 0.090196
0.466667 0.560784 0.082353
0.600000 0.552941 0.074510
0.741176 0.549020 0.043137
0.874510 0.545098 0.027451
0.996078 0.529412 0.019608
1.000000 0.521569 0.015686
0.152941 0.725490 0.000000
0.223529 0.725490 0.000000
0.349020 0.725490 0.000000
0.478431 0.717647 0.007843
0.619608 0.713725 0.000000
0.752941 0.705882 0.000000
0.882353 0.686275 0.000000
0.992157 0.670588 0.000000
1.000000 0.647059 0.000000
0.156863 0.835294 0.003922
0.227451 0.831373 0.007843
0.333333 0.827451 0.000000
0.470588 0.823529 0.000000
0.600000 0.819608 0.000000
0.729412 0.815686 0.000000
0.870588 0.811765 0.000000
0.988235 0.788235 0.000000
0.996078 0.768627 0.000000
0.192157 0.941176 0.007843
0.258824 0.945098 0.000000
0.360784 0.945098 0.003922
0.466667 0.941176 0.000000
0.588235 0.937255 0.003922
0.713725 0.937255 0.007843
0.847059 0.925490 0.000000
0.980392 0.917647 0.003922
0.996078 0.909804 0.000000
0.215686 1.000000 0.000000
0.266667 1.000000 0.007843
0.349020 1.000000 0.000000
0.450980 1.000000 0.000000
0.576471 0.996078 0.000000
0.709804 0.996078 0.000000
0.843137 1.000000 0.000000
0.972549 1.000000 0.003922
1.000000 1.000000 0.003922
0.164706 0.105882 0.266667
0.215686 0.105882 0.266667
0.298039 0.098039 0.258824
0.415686 0.078431 0.270588
0.564706 0.000000 0.274510
0.745098 0.003922 0.270588
0.894118 0.000000 0.247059
1.000000 0.003922 0.231373
0.996078 0.000000 0.235294
0.172549 0.156863 0.247059
0.215686 0.152941 0.258824
0.301961 0.149020 0.262745
0.411765 0.133333 0.266667
0.560784 0.094118 0.258824
0.721569 0.000000 0.243137
0.878431 0.000000 0.235294
0.988235 0.003922 0.215686
0.992157 0.000000 0.215686
0.184314 0.235294 0.258824
0.223529 0.243137 0.254902
0.313725 0.239216 0.262745
0.431373 0.239216 0.254902
0.584314 0.235294 0.250980
0.752941 0.223529 0.239216
0.890196 0.211765 0.235294
1.000000 0.192157 0.223529
0.996078 0.192157 0.211765
0.160784 0.372549 0.247059
0.211765 0.372549 0.239216
0.321569 0.376471 0.239216
0.439216 0.376471 0.235294
0.580392 0.388235 0.231373
0.733333 0.384314 0.219608
0.878431 0.380392 0.211765
1.000000 0.364706 0.211765
0.996078 0.356863 0.196078
0.090196 0.552941 0.215686
0.188235 0.556863 0.211765
0.317647 0.564706 0.207843
0.454902 0.549020 0.203922
0.603922 0.549020 0.200000
0.741176 0.541176 0.184314
0.878431 0.533333 0.184314
0.996078 0.517647 0.184314
1.000000 0.505882 0.172549
0.050980 0.729412 0.176471
0.176471 0.717647 0.172549
0.313725 0.717647 0.164706
0.466667 0.713725 0.164706
0.615686 0.705882 0.156863
0.760784 0.701961 0.149020
0.886275 0.674510 0.145098
0.992157 0.662745 0.145098
1.000000 0.647059 0.156863
0.066667 0.827451 0.113725
0.180392 0.827451 0.113725
0.309804 0.827451 0.113725
0.454902 0.823529 0.109804
0.596078 0.815686 0.098039
0.737255 0.807843 0.086275
0.870588 0.811765 0.078431
0.992157 0.796078 0.086275
1.000000 0.772549 0.105882
0.160784 0.945098 0.082353
0.235294 0.937255 0.098039
0.329412 0.949020 0.098039
0.458824 0.941176 0.098039
0.584314 0.937255 0.078431
0.725490 0.925490 0.066667
0.839216 0.921569 0.031373
0.972549 0.913725 0.023529
0.996078 0.898039 0.086275
0.211765 1.000000 0.054902
0.262745 0.996078 0.058824
0.345098 1.000000 0.066667
0.450980 1.000000 0.074510
0.576471 1.000000 0.074510
0.705882 0.996078 0.066667
0.843137 1.000000 0.074510
0.968627 1.000000 0.086275
0.996078 1.000000 0.105882
0.188235 0.098039 0.372549
0.250980 0.094118 0.380392
0.333333 0.082353 0.380392
0.427451 0.054902 0.376471
0.576471 0.003922 0.392157
0.752941 0.000000 0.396078
0.901961 0.000000 0.384314
1.000000 0.000000 0.368627
0.984314 0.003922 0.352941
0.180392 0.149020 0.372549
0.239216 0.145098 0.372549
0.325490 0.137255 0.380392
0.431373 0.117647 0.364706
0.568627 0.062745 0.388235
0.741176 0.003922 0.376471
0.882353 0.000000 0.360784
0.996078 0.000000 0.345098
1.000000 0.003922 0.341176
0.172549 0.247059 0.372549
0.215686 0.239216 0.380392
0.317647 0.231373 0.384314
0.450980 0.223529 0.372549
0.596078 0.207843 0.388235
0.764706 0.172549 0.380392
0.898039 0.141176 0.356863
1.000000 0.125490 0.341176
1.000000 0.133333 0.345098
0.145098 0.376471 0.352941
0.200000 0.380392 0.368627
0.305882 0.380392 0.364706
0.443137 0.372549 0.356863
0.596078 0.368627 0.352941
0.745098 0.352941 0.345098
0.882353 0.349020 0.349020
1.000000 0.337255 0.341176
1.000000 0.333333 0.333333
0.000000 0.560784 0.352941
0.094118 0.556863 0.360784
0.278431 0.564706 0.356863
0.447059 0.552941 0.345098
0.607843 0.545098 0.341176
0.749020 0.541176 0.337255
0.882353 0.521569 0.329412
1.000000 0.509804 0.329412
0.996078 0.498039 0.321569
0.000000 0.725490 0.337255
0.113725 0.725490 0.337255
0.301961 0.713725 0.341176
0.454902 0.713725 0.333333
0.615686 0.709804 0.333333
0.760784 0.698039 0.321569
0.890196 0.674510 0.309804
0.996078 0.658824 0.317647
1.000000 0.643137 0.325490
0.003922 0.827451 0.305882
0.176471 0.827451 0.301961
0.313725 0.827451 0.309804
0.450980 0.827451 0.305882
0.592157 0.815686 0.294118
0.729412 0.815686 0.286275
0.874510 0.807843 0.290196
0.988235 0.788235 0.286275
1.000000 0.764706 0.305882
0.180392 0.945098 0.309804
0.247059 0.937255 0.305882
0.352941 0.941176 0.313725
0.474510 0.937255 0.301961
0.588235 0.933333 0.298039
0.717647 0.929412 0.301961
0.843137 0.925490 0.286275
0.980392 0.921569 0.290196
1.000000 0.898039 0.290196
0.243137 1.000000 0.282353
0.286275 1.000000 0.294118
0.372549 0.996078 0.298039
0.462745 1.000000 0.301961
0.588235 1.000000 0.294118
0.713725 1.000000 0.301961
0.839216 1.000000 0.294118
0.976471 0.996078 0.298039
1.000000 1.000000 0.309804
0.227451 0.074510 0.525490
0.282353 0.066667 0.533333
0.368627 0.031373 0.521569
0.470588 0.000000 0.521569
0.596078 0.003922 0.517647
0.749020 0.000000 0.525490
0.905882 0.000000 0.517647
1.000000 0.000000 0.501961
1.000000 0.003922 0.482353
0.215686 0.129412 0.513725
0.270588 0.121569 0.525490
0.352941 0.113725 0.517647
0.466667 0.082353 0.525490
0.588235 0.015686 0.505882
0.741176 0.000000 0.505882
0.886275 0.000000 0.509804
1.000000 0.003922 0.494118
0.992157 0.000000 0.458824
0.125490 0.235294 0.525490
0.203922 0.227451 0.525490
0.341176 0.219608 0.525490
0.462745 0.207843 0.521569
0.603922 0.192157 0.525490
0.756863 0.156863 0.513725
0.898039 0.121569 0.501961
1.000000 0.101961 0.486275
1.000000 0.149020 0.478431
0.090196 0.384314 0.509804
0.168627 0.388235 0.525490
0.301961 0.372549 0.513725
0.443137 0.364706 0.509804
0.596078 0.352941 0.505882
0.749020 0.349020 0.494118
0.890196 0.341176 0.486275
0.992157 0.345098 0.478431
1.000000 0.349020 0.478431
0.000000 0.552941 0.498039
0.109804 0.556863 0.517647
0.274510 0.556863 0.501961
0.447059 0.549020 0.505882
0.611765 0.541176 0.494118
0.752941 0.529412 0.494118
0.890196 0.525490 0.494118
1.000000 0.521569 0.478431
1.000000 0.517647 0.478431
0.000000 0.721569 0.505882
0.156863 0.725490 0.509804
0.313725 0.717647 0.501961
0.462745 0.709804 0.501961
0.615686 0.705882 0.486275
0.768627 0.690196 0.490196
0.886275 0.678431 0.482353
0.992157 0.662745 0.482353
1.000000 0.650980 0.486275
0.133333 0.835294 0.478431
0.235294 0.823529 0.474510
0.349020 0.827451 0.486275
0.458824 0.823529 0.474510
0.603922 0.819608 0.462745
0.733333 0.815686 0.458824
0.870588 0.811765 0.454902
0.976471 0.788235 0.458824
1.000000 0.776471 0.466667
0.254902 0.937255 0.462745
0.309804 0.933333 0.466667
0.392157 0.937255 0.478431
0.494118 0.937255 0.474510
0.607843 0.937255 0.462745
0.733333 0.933333 0.466667
0.850980 0.921569 0.458824
0.976471 0.917647 0.450980
1.000000 0.894118 0.462745
0.309804 0.996078 0.458824
0.349020 1.000000 0.458824
0.407843 1.000000 0.454902
0.498039 1.000000 0.462745
0.600000 1.000000 0.458824
0.717647 1.000000 0.450980
0.847059 0.996078 0.458824
0.968627 1.000000 0.458824
0.996078 1.000000 0.458824
0.262745 0.047059 0.658824
0.290196 0.031373 0.650980
0.380392 0.000000 0.654902
0.482353 0.000000 0.658824
0.611765 0.000000 0.650980
0.745098 0.003922 0.650980
0.886275 0.000000 0.635294
0.996078 0.000000 0.619608
1.000000 0.003922 0.596078
0.227451 0.121569 0.643137
0.286275 0.101961 0.650980
0.368627 0.090196 0.647059
0.482353 0.035294 0.650980
0.607843 0.000000 0.650980
0.745098 0.000000 0.635294
0.886275 0.000000 0.635294
1.000000 0.003922 0.623529
1.000000 0.003922 0.607843
0.168627 0.215686 0.647059
0.227451 0.211765 0.654902
0.337255 0.203922 0.647059
0.458824 0.188235 0.643137
0.603922 0.172549 0.654902
0.745098 0.129412 0.650980
0.894118 0.082353 0.631373
1.000000 0.066667 0.615686
1.000000 0.101961 0.596078
0.039216 0.364706 0.631373
0.164706 0.356863 0.654902
0.294118 0.349020 0.643137
0.439216 0.345098 0.635294
0.592157 0.341176 0.639216
0.752941 0.325490 0.635294
0.890196 0.321569 0.615686
0.996078 0.329412 0.607843
0.992157 0.341176 0.592157
0.003922 0.529412 0.643137
0.117647 0.525490 0.639216
0.278431 0.533333 0.643137
0.443137 0.525490 0.631373
0.596078 0.521569 0.631373
0.752941 0.513725 0.635294
0.886275 0.517647 0.619608
0.992157 0.525490 0.611765
1.000000 0.525490 0.607843
0.019608 0.705882 0.639216
0.172549 0.701961 0.643137
0.329412 0.698039 0.635294
0.458824 0.698039 0.635294
0.611765 0.694118 0.627451
0.749020 0.678431 0.623529
0.866667 0.674510 0.615686
0.980392 0.670588 0.611765
0.996078 0.670588 0.615686
0.149020 0.819608 0.611765
0.227451 0.819608 0.603922
0.352941 0.819608 0.607843
0.482353 0.811765 0.607843
0.615686 0.811765 0.611765
0.737255 0.811765 0.596078
0.862745 0.800000 0.596078
0.968627 0.796078 0.603922
0.992157 0.784314 0.588235
0.325490 0.929412 0.592157
0.372549 0.937255 0.596078
0.443137 0.925490 0.611765
0.529412 0.929412 0.603922
0.627451 0.921569 0.600000
0.733333 0.921569 0.592157
0.847059 0.917647 0.588235
0.980392 0.913725 0.592157
0.996078 0.905882 0.592157
0.439216 0.996078 0.596078
0.466667 0.992157 0.603922
0.494118 1.000000 0.603922
0.541176 1.000000 0.588235
0.627451 1.000000 0.592157
0.737255 1.000000 0.584314
0.854902 1.000000 0.588235
0.972549 1.000000 0.592157
1.000000 0.996078 0.592157
0.278431 0.000000 0.760784
0.313725 0.000000 0.756863
0.384314 0.003922 0.760784
0.494118 0.000000 0.768627
0.611765 0.003922 0.756863
0.733333 0.000000 0.756863
0.882353 0.000000 0.752941
1.000000 0.000000 0.745098
1.000000 0.000000 0.729412
0.250980 0.086275 0.752941
0.294118 0.086275 0.745098
0.372549 0.062745 0.764706
0.482353 0.000000 0.752941
0.603922 0.003922 0.745098
0.745098 0.003922 0.752941
0.886275 0.000000 0.752941
1.000000 0.000000 0.745098
0.996078 0.000000 0.721569
0.196078 0.200000 0.749020
0.250980 0.192157 0.745098
0.345098 0.192157 0.760784
0.462745 0.180392 0.752941
0.603922 0.152941 0.760784
0.741176 0.109804 0.752941
0.874510 0.054902 0.756863
1.000000 0.007843 0.737255
1.000000 0.086275 0.717647
0.090196 0.345098 0.752941
0.180392 0.341176 0.756863
0.305882 0.341176 0.752941
0.447059 0.333333 0.749020
0.592157 0.325490 0.752941
0.737255 0.321569 0.752941
0.882353 0.309804 0.737255
0.996078 0.317647 0.737255
1.000000 0.333333 0.721569
0.062745 0.509804 0.745098
0.176471 0.513725 0.752941
0.309804 0.505882 0.737255
0.454902 0.513725 0.745098
0.603922 0.509804 0.745098
0.741176 0.505882 0.749020
0.886275 0.501961 0.741176
0.988235 0.513725 0.721569
0.996078 0.521569 0.721569
0.156863 0.678431 0.745098
0.223529 0.674510 0.745098
0.349020 0.674510 0.737255
0.474510 0.674510 0.741176
0.615686 0.666667 0.733333
0.749020 0.666667 0.733333
0.874510 0.666667 0.737255
0.984314 0.670588 0.721569
1.000000 0.678431 0.717647
0.196078 0.815686 0.725490
0.274510 0.815686 0.725490
0.368627 0.815686 0.725490
0.498039 0.807843 0.725490
0.619608 0.811765 0.725490
0.749020 0.807843 0.725490
0.866667 0.800000 0.721569
0.968627 0.803922 0.717647
1.000000 0.800000 0.725490
0.333333 0.929412 0.705882
0.368627 0.933333 0.701961
0.439216 0.921569 0.705882
0.549020 0.917647 0.709804
0.654902 0.921569 0.721569
0.764706 0.921569 0.725490
0.862745 0.913725 0.705882
0.968627 0.917647 0.713725
0.996078 0.909804 0.713725
0.450980 1.000000 0.705882
0.482353 0.992157 0.701961
0.521569 1.000000 0.698039
0.603922 1.000000 0.717647
0.682353 1.000000 0.713725
0.760784 0.996078 0.705882
0.866667 1.000000 0.701961
0.968627 1.000000 0.705882
1.000000 1.000000 0.709804
0.286275 0.000000 0.854902
0.317647 0.000000 0.858824
0.392157 0.000000 0.870588
0.490196 0.000000 0.862745
0.600000 0.000000 0.858824
0.729412 0.003922 0.858824
0.862745 0.003922 0.858824
0.992157 0.000000 0.850980
1.000000 0.000000 0.847059
0.266667 0.058824 0.850980
0.298039 0.054902 0.858824
0.372549 0.023529 0.854902
0.474510 0.000000 0.858824
0.588235 0.000000 0.858824
0.725490 0.000000 0.854902
0.858824 0.000000 0.854902
0.996078 0.000000 0.854902
0.992157 0.011765 0.843137
0.227451 0.188235 0.870588
0.262745 0.192157 0.866667
0.349020 0.180392 0.866667
0.466667 0.164706 0.862745
0.588235 0.141176 0.858824
0.721569 0.117647 0.847059
0.858824 0.070588 0.854902
0.988235 0.003922 0.854902
0.996078 0.031373 0.843137
0.149020 0.329412 0.866667
0.215686 0.329412 0.862745
0.317647 0.325490 0.854902
0.439216 0.333333 0.854902
0.572549 0.321569 0.854902
0.721569 0.313725 0.850980
0.858824 0.305882 0.847059
0.984314 0.309804 0.843137
1.000000 0.317647 0.839216
0.160784 0.494118 0.850980
0.227451 0.498039 0.854902
0.329412 0.501961 0.850980
0.454902 0.498039 0.850980
0.592157 0.494118 0.850980
0.725490 0.494118 0.854902
0.858824 0.494118 0.843137
0.984314 0.494118 0.850980
1.000000 0.509804 0.831373
0.219608 0.650980 0.850980
0.270588 0.654902 0.847059
0.372549 0.654902 0.843137
0.490196 0.654902 0.843137
0.615686 0.658824 0.839216
0.733333 0.666667 0.843137
0.862745 0.658824 0.839216
0.984314 0.662745 0.843137
1.000000 0.666667 0.819608
0.278431 0.780392 0.831373
0.333333 0.792157 0.827451
0.403922 0.788235 0.839216
0.517647 0.792157 0.839216
0.627451 0.792157 0.839216
0.749020 0.800000 0.835294
0.862745 0.800000 0.839216
0.964706 0.796078 0.823529
1.000000 0.803922 0.823529
0.364706 0.921569 0.835294
0.388235 0.921569 0.827451
0.462745 0.925490 0.831373
0.552941 0.921569 0.827451
0.650980 0.917647 0.827451
0.760784 0.917647 0.823529
0.866667 0.913725 0.827451
0.960784 0.913725 0.819608
1.000000 0.913725 0.819608
0.482353 1.000000 0.815686
0.498039 1.000000 0.807843
0.537255 1.000000 0.803922
0.611765 1.000000 0.807843
0.698039 0.996078 0.815686
0.780392 1.000000 0.815686
0.886275 1.000000 0.827451
0.976471 0.996078 0.835294
1.000000 0.996078 0.835294
0.286275 0.000000 0.956863
0.309804 0.000000 0.956863
0.384314 0.000000 0.960784
0.474510 0.000000 0.960784
0.580392 0.000000 0.956863
0.709804 0.000000 0.956863
0.831373 0.000000 0.952941
0.952941 0.000000 0.949020
1.000000 0.000000 0.949020
0.262745 0.027451 0.952941
0.301961 0.015686 0.956863
0.360784 0.003922 0.956863
0.466667 0.000000 0.956863
0.584314 0.000000 0.956863
0.698039 0.000000 0.949020
0.823529 0.003922 0.952941
0.960784 0.000000 0.952941
1.000000 0.007843 0.952941
0.223529 0.164706 0.960784
0.270588 0.176471 0.952941
0.345098 0.164706 0.937255
0.458824 0.156863 0.956863
0.568627 0.141176 0.952941
0.694118 0.109804 0.956863
0.827451 0.082353 0.952941
0.956863 0.050980 0.952941
1.000000 0.066667 0.952941
0.164706 0.321569 0.949020
0.219608 0.317647 0.952941
0.317647 0.313725 0.952941
0.435294 0.313725 0.952941
0.560784 0.317647 0.956863
0.686275 0.305882 0.952941
0.823529 0.305882 0.949020
0.952941 0.305882 0.949020
1.000000 0.321569 0.949020
0.184314 0.486275 0.941176
0.250980 0.486275 0.956863
0.341176 0.482353 0.952941
0.450980 0.486275 0.952941
0.576471 0.486275 0.945098
0.698039 0.482353 0.949020
0.831373 0.490196 0.949020
0.956863 0.490196 0.945098
1.000000 0.494118 0.941176
0.266667 0.627451 0.952941
0.305882 0.627451 0.949020
0.392157 0.639216 0.949020
0.494118 0.647059 0.949020
0.611765 0.647059 0.949020
0.725490 0.643137 0.945098
0.839216 0.650980 0.941176
0.952941 0.654902 0.945098
1.000000 0.662745 0.956863
0.329412 0.768627 0.949020
0.368627 0.772549 0.941176
0.443137 0.772549 0.945098
0.529412 0.776471 0.945098
0.631373 0.776471 0.941176
0.745098 0.780392 0.941176
0.847059 0.784314 0.937255
0.956863 0.792157 0.933333
0.996078 0.792157 0.933333
0.415686 0.905882 0.929412
0.443137 0.901961 0.941176
0.501961 0.898039 0.937255
0.572549 0.894118 0.937255
0.670588 0.898039 0.941176
0.756863 0.901961 0.925490
0.862745 0.905882 0.929412
0.952941 0.909804 0.933333
1.000000 0.913725 0.921569
0.494118 1.000000 0.929412
0.505882 1.000000 0.929412
0.556863 1.000000 0.929412
0.619608 1.000000 0.925490
0.698039 1.000000 0.929412
0.792157 1.000000 0.929412
0.890196 0.996078 0.921569
0.980392 1.000000 0.921569
0.996078 1.000000 0.921569
