app/src/main/assets/cube/Christmas 1.cube
TITLE "Christmas LUT #1"
#LUT size
LUT_3D_SIZE 5
#LUT data points
0.082353 0.086275 0.101961
0.215686 0.090196 0.101961
0.431373 0.090196 0.121569
0.776471 0.058824 0.137255
1.000000 0.000000 0.164706
0.027451 0.235294 0.117647
0.211765 0.227451 0.121569
0.447059 0.247059 0.133333
0.776471 0.270588 0.145098
1.000000 0.274510 0.164706
0.000000 0.541176 0.101961
0.125490 0.552941 0.101961
0.509804 0.549020 0.098039
0.796078 0.545098 0.129412
1.000000 0.552941 0.215686
0.000000 0.839216 0.086275
0.000000 0.839216 0.090196
0.458824 0.835294 0.098039
0.780392 0.823529 0.109804
1.000000 0.819608 0.200000
0.003922 0.996078 0.298039
0.258824 0.996078 0.317647
0.501961 1.000000 0.325490
0.737255 1.000000 0.345098
0.945098 1.000000 0.384314
0.050980 0.082353 0.274510
0.211765 0.086275 0.282353
0.447059 0.062745 0.294118
0.784314 0.003922 0.329412
1.000000 0.000000 0.313725
0.003922 0.231373 0.286275
0.180392 0.227451 0.290196
0.462745 0.219608 0.309804
0.788235 0.188235 0.309804
1.000000 0.223529 0.337255
0.000000 0.533333 0.321569
0.000000 0.541176 0.309804
0.474510 0.537255 0.290196
0.792157 0.537255 0.325490
0.992157 0.552941 0.372549
0.003922 0.831373 0.317647
0.000000 0.835294 0.317647
0.431373 0.827451 0.325490
0.776471 0.823529 0.337255
1.000000 0.807843 0.380392
0.180392 0.992157 0.427451
0.313725 1.000000 0.443137
0.529412 1.000000 0.450980
0.760784 1.000000 0.462745
0.956863 1.000000 0.498039
0.000000 0.043137 0.615686
0.262745 0.011765 0.623529
0.525490 0.000000 0.631373
0.803922 0.003922 0.627451
1.000000 0.000000 0.619608
0.003922 0.219608 0.623529
0.121569 0.215686 0.631373
0.498039 0.184314 0.635294
0.815686 0.137255 0.631373
1.000000 0.164706 0.619608
0.003922 0.537255 0.639216
0.000000 0.541176 0.654902
0.466667 0.533333 0.643137
0.811765 0.525490 0.631373
0.996078 0.596078 0.650980
0.011765 0.827451 0.623529
0.000000 0.835294 0.623529
0.494118 0.835294 0.627451
0.792157 0.823529 0.639216
0.996078 0.819608 0.666667
0.423529 1.000000 0.650980
0.521569 1.000000 0.666667
0.647059 1.000000 0.658824
0.811765 1.000000 0.662745
0.964706 1.000000 0.682353
0.000000 0.000000 0.870588
0.250980 0.000000 0.866667
0.498039 0.000000 0.870588
0.760784 0.000000 0.866667
0.992157 0.000000 0.901961
0.000000 0.188235 0.854902
0.133333 0.184314 0.866667
0.478431 0.168627 0.870588
0.749020 0.145098 0.866667
1.000000 0.113725 0.901961
0.000000 0.490196 0.862745
0.000000 0.494118 0.858824
0.470588 0.505882 0.870588
0.768627 0.513725 0.866667
0.996078 0.529412 0.882353
0.000000 0.780392 0.870588
0.203922 0.776471 0.866667
0.541176 0.784314 0.866667
0.811765 0.807843 0.862745
0.992157 0.823529 0.858824
0.360784 0.996078 0.835294
0.454902 1.000000 0.835294
0.643137 1.000000 0.831373
0.878431 1.000000 0.874510
0.984314 0.996078 0.874510
0.000000 0.000000 0.996078
0.184314 0.000000 0.996078
0.435294 0.000000 1.000000
0.670588 0.000000 1.000000
0.921569 0.000000 1.000000
0.000000 0.196078 0.996078
0.149020 0.188235 1.000000
0.427451 0.196078 1.000000
0.674510 0.207843 1.000000
0.921569 0.258824 1.000000
0.188235 0.498039 0.996078
0.286275 0.494118 1.000000
0.490196 0.505882 0.996078
0.725490 0.525490 1.000000
0.937255 0.560784 0.984314
0.478431 0.749020 1.000000
0.541176 0.760784 1.000000
0.682353 0.780392 1.000000
0.827451 0.800000 1.000000
0.972549 0.819608 0.996078
0.552941 0.992157 0.996078
0.607843 1.000000 1.000000
0.725490 1.000000 1.000000
0.890196 1.000000 0.996078
1.000000 1.000000 1.000000
