app/src/main/assets/cube/Christmas 4.cube
TITLE "Christmas LUT #4"
#LUT size
LUT_3D_SIZE 9
#LUT data points
0.000000 0.000000 0.000000
0.156863 0.000000 0.003922
0.321569 0.000000 0.015686
0.474510 0.000000 0.027451
0.619608 0.000000 0.058824
0.772549 0.000000 0.109804
0.905882 0.066667 0.160784
1.000000 0.145098 0.211765
0.996078 0.231373 0.262745
0.039216 0.137255 0.011765
0.184314 0.133333 0.007843
0.333333 0.133333 0.027451
0.478431 0.133333 0.054902
0.619608 0.141176 0.082353
0.764706 0.160784 0.129412
0.890196 0.188235 0.172549
1.000000 0.211765 0.223529
1.000000 0.270588 0.266667
0.086275 0.294118 0.011765
0.203922 0.290196 0.007843
0.333333 0.298039 0.003922
0.486275 0.298039 0.054902
0.627451 0.309804 0.125490
0.776471 0.313725 0.164706
0.898039 0.333333 0.200000
0.996078 0.345098 0.243137
1.000000 0.372549 0.294118
0.098039 0.458824 0.031373
0.203922 0.454902 0.015686
0.337255 0.450980 0.027451
0.478431 0.450980 0.035294
0.627451 0.450980 0.094118
0.764706 0.462745 0.180392
0.878431 0.462745 0.227451
1.000000 0.474510 0.266667
1.000000 0.482353 0.313725
0.039216 0.607843 0.054902
0.172549 0.611765 0.070588
0.313725 0.615686 0.066667
0.458824 0.607843 0.070588
0.611765 0.600000 0.078431
0.752941 0.596078 0.121569
0.874510 0.600000 0.215686
0.992157 0.611765 0.309804
1.000000 0.615686 0.360784
0.000000 0.756863 0.121569
0.145098 0.749020 0.121569
0.298039 0.752941 0.121569
0.443137 0.745098 0.125490
0.592157 0.737255 0.121569
0.737255 0.733333 0.137255
0.866667 0.721569 0.160784
0.980392 0.721569 0.250980
1.000000 0.725490 0.380392
0.000000 0.850980 0.168627
0.164706 0.858824 0.156863
0.294118 0.854902 0.164706
0.435294 0.854902 0.164706
0.564706 0.850980 0.164706
0.701961 0.843137 0.168627
0.831373 0.839216 0.164706
0.968627 0.831373 0.180392
0.996078 0.823529 0.301961
0.133333 0.952941 0.207843
0.203922 0.968627 0.231373
0.301961 0.964706 0.215686
0.439216 0.960784 0.219608
0.556863 0.956863 0.223529
0.678431 0.952941 0.223529
0.803922 0.952941 0.235294
0.945098 0.941176 0.243137
1.000000 0.941176 0.282353
0.235294 1.000000 0.274510
0.282353 1.000000 0.290196
0.356863 0.996078 0.294118
0.439216 1.000000 0.294118
0.549020 1.000000 0.282353
0.658824 1.000000 0.298039
0.776471 1.000000 0.305882
0.898039 1.000000 0.325490
0.992157 1.000000 0.341176
0.000000 0.003922 0.176471
0.168627 0.000000 0.176471
0.325490 0.000000 0.172549
0.478431 0.000000 0.192157
0.611765 0.000000 0.211765
0.760784 0.007843 0.239216
0.894118 0.090196 0.258824
1.000000 0.164706 0.282353
1.000000 0.235294 0.321569
0.007843 0.133333 0.176471
0.180392 0.125490 0.176471
0.325490 0.125490 0.184314
0.462745 0.133333 0.196078
0.607843 0.141176 0.215686
0.756863 0.164706 0.239216
0.882353 0.188235 0.250980
0.996078 0.231373 0.294118
0.996078 0.282353 0.333333
0.047059 0.294118 0.188235
0.188235 0.290196 0.184314
0.337255 0.294118 0.176471
0.474510 0.298039 0.207843
0.615686 0.305882 0.239216
0.756863 0.321569 0.254902
0.886275 0.329412 0.274510
1.000000 0.345098 0.309804
1.000000 0.380392 0.337255
0.047059 0.443137 0.184314
0.176471 0.454902 0.180392
0.325490 0.447059 0.184314
0.462745 0.443137 0.184314
0.607843 0.454902 0.200000
0.752941 0.462745 0.270588
0.886275 0.474510 0.298039
0.988235 0.482353 0.325490
1.000000 0.490196 0.356863
0.003922 0.596078 0.192157
0.152941 0.603922 0.196078
0.301961 0.603922 0.188235
0.454902 0.607843 0.192157
0.603922 0.596078 0.200000
0.741176 0.592157 0.211765
0.874510 0.596078 0.290196
0.992157 0.607843 0.360784
1.000000 0.615686 0.400000
0.007843 0.737255 0.215686
0.133333 0.737255 0.211765
0.294118 0.737255 0.211765
0.439216 0.745098 0.215686
0.584314 0.729412 0.211765
0.725490 0.725490 0.215686
0.854902 0.717647 0.223529
0.972549 0.717647 0.309804
0.992157 0.729412 0.411765
0.000000 0.847059 0.223529
0.149020 0.847059 0.219608
0.286275 0.850980 0.231373
0.423529 0.843137 0.223529
0.564706 0.843137 0.231373
0.694118 0.839216 0.223529
0.827451 0.843137 0.235294
0.964706 0.823529 0.243137
1.000000 0.815686 0.349020
0.141176 0.952941 0.262745
0.219608 0.956863 0.278431
0.305882 0.960784 0.274510
0.435294 0.952941 0.278431
0.552941 0.956863 0.270588
0.682353 0.941176 0.274510
0.800000 0.945098 0.286275
0.945098 0.941176 0.282353
1.000000 0.937255 0.290196
0.247059 0.996078 0.313725
0.278431 1.000000 0.317647
0.360784 0.996078 0.317647
0.447059 1.000000 0.317647
0.545098 1.000000 0.329412
0.670588 0.996078 0.329412
0.780392 1.000000 0.337255
0.894118 1.000000 0.352941
0.992157 1.000000 0.376471
0.023529 0.000000 0.345098
0.176471 0.003922 0.345098
0.337255 0.000000 0.341176
0.474510 0.003922 0.352941
0.615686 0.000000 0.349020
0.760784 0.003922 0.368627
0.886275 0.125490 0.372549
0.996078 0.203922 0.392157
0.996078 0.282353 0.439216
0.007843 0.121569 0.349020
0.172549 0.117647 0.349020
0.337255 0.101961 0.345098
0.478431 0.090196 0.345098
0.611765 0.121569 0.349020
0.752941 0.160784 0.360784
0.878431 0.215686 0.376471
0.992157 0.266667 0.400000
1.000000 0.317647 0.427451
0.031373 0.290196 0.345098
0.168627 0.290196 0.360784
0.325490 0.282353 0.345098
0.466667 0.294118 0.352941
0.611765 0.313725 0.364706
0.749020 0.325490 0.376471
0.878431 0.337255 0.388235
1.000000 0.364706 0.407843
0.996078 0.403922 0.439216
0.015686 0.447059 0.333333
0.160784 0.447059 0.333333
0.321569 0.450980 0.345098
0.462745 0.447059 0.333333
0.607843 0.447059 0.360784
0.745098 0.466667 0.380392
0.874510 0.478431 0.407843
0.988235 0.490196 0.423529
0.996078 0.513725 0.454902
0.000000 0.600000 0.333333
0.113725 0.596078 0.341176
0.301961 0.603922 0.337255
0.443137 0.596078 0.333333
0.596078 0.592157 0.329412
0.741176 0.592157 0.349020
0.866667 0.600000 0.407843
0.988235 0.611765 0.454902
1.000000 0.623529 0.486275
0.000000 0.741176 0.349020
0.133333 0.741176 0.345098
0.286275 0.737255 0.333333
0.439216 0.737255 0.345098
0.588235 0.729412 0.337255
0.721569 0.729412 0.341176
0.858824 0.717647 0.349020
0.968627 0.725490 0.423529
0.996078 0.741176 0.513725
0.027451 0.847059 0.337255
0.160784 0.847059 0.341176
0.294118 0.847059 0.345098
0.431373 0.843137 0.341176
0.564706 0.843137 0.341176
0.694118 0.835294 0.341176
0.835294 0.835294 0.349020
0.956863 0.831373 0.356863
1.000000 0.827451 0.447059
0.180392 0.956863 0.372549
0.223529 0.956863 0.364706
0.313725 0.960784 0.364706
0.435294 0.952941 0.372549
0.560784 0.952941 0.372549
0.682353 0.941176 0.356863
0.800000 0.949020 0.372549
0.933333 0.941176 0.380392
0.996078 0.933333 0.388235
0.266667 1.000000 0.415686
0.305882 1.000000 0.403922
0.372549 0.996078 0.400000
0.458824 0.996078 0.407843
0.560784 1.000000 0.407843
0.670588 1.000000 0.403922
0.788235 1.000000 0.419608
0.894118 1.000000 0.435294
0.996078 1.000000 0.443137
0.078431 0.000000 0.501961
0.196078 0.003922 0.498039
0.341176 0.003922 0.501961
0.474510 0.000000 0.505882
0.623529 0.000000 0.501961
0.760784 0.000000 0.490196
0.882353 0.007843 0.474510
0.996078 0.176471 0.505882
1.000000 0.290196 0.521569
0.043137 0.105882 0.482353
0.184314 0.101961 0.505882
0.333333 0.086275 0.498039
0.474510 0.070588 0.498039
0.615686 0.066667 0.494118
0.749020 0.078431 0.486275
0.878431 0.164706 0.490196
0.988235 0.247059 0.505882
0.992157 0.341176 0.521569
0.023529 0.278431 0.498039
0.168627 0.274510 0.490196
0.321569 0.270588 0.490196
0.474510 0.274510 0.498039
0.615686 0.274510 0.490196
0.741176 0.294118 0.494118
0.870588 0.333333 0.498039
0.988235 0.376471 0.529412
0.992157 0.443137 0.549020
0.000000 0.447059 0.486275
0.149020 0.450980 0.490196
0.305882 0.447059 0.501961
0.454902 0.439216 0.494118
0.596078 0.447059 0.490196
0.725490 0.458824 0.501961
0.858824 0.482353 0.525490
0.968627 0.509804 0.541176
1.000000 0.537255 0.560784
0.000000 0.600000 0.490196
0.121569 0.603922 0.494118
0.290196 0.603922 0.498039
0.439216 0.596078 0.490196
0.603922 0.588235 0.482353
0.729412 0.603922 0.521569
0.858824 0.619608 0.545098
0.956863 0.631373 0.576471
1.000000 0.643137 0.592157
0.000000 0.741176 0.490196
0.156863 0.737255 0.494118
0.301961 0.733333 0.486275
0.443137 0.733333 0.494118
0.592157 0.733333 0.494118
0.721569 0.725490 0.490196
0.847059 0.721569 0.498039
0.964706 0.741176 0.564706
1.000000 0.756863 0.627451
0.125490 0.843137 0.478431
0.211765 0.850980 0.486275
0.321569 0.843137 0.486275
0.435294 0.847059 0.486275
0.576471 0.835294 0.482353
0.698039 0.843137 0.478431
0.831373 0.831373 0.486275
0.949020 0.831373 0.486275
0.988235 0.839216 0.560784
0.219608 0.956863 0.482353
0.278431 0.949020 0.498039
0.364706 0.949020 0.494118
0.462745 0.952941 0.494118
0.568627 0.949020 0.498039
0.694118 0.949020 0.494118
0.800000 0.945098 0.498039
0.929412 0.941176 0.490196
1.000000 0.929412 0.498039
0.313725 1.000000 0.501961
0.352941 0.996078 0.505882
0.407843 0.996078 0.505882
0.478431 0.996078 0.517647
0.584314 1.000000 0.513725
0.682353 1.000000 0.509804
0.792157 1.000000 0.525490
0.901961 1.000000 0.537255
0.988235 1.000000 0.541176
0.101961 0.003922 0.654902
0.200000 0.000000 0.647059
0.337255 0.000000 0.643137
0.462745 0.000000 0.643137
0.615686 0.000000 0.647059
0.752941 0.000000 0.647059
0.870588 0.003922 0.619608
0.988235 0.003922 0.611765
0.996078 0.215686 0.619608
0.082353 0.086275 0.635294
0.192157 0.078431 0.627451
0.321569 0.070588 0.643137
0.462745 0.062745 0.643137
0.603922 0.035294 0.635294
0.745098 0.019608 0.631373
0.878431 0.074510 0.619608
0.992157 0.164706 0.615686
1.000000 0.270588 0.611765
0.000000 0.262745 0.643137
0.172549 0.266667 0.643137
0.305882 0.266667 0.643137
0.458824 0.262745 0.643137
0.615686 0.262745 0.647059
0.752941 0.262745 0.631373
0.878431 0.282353 0.623529
0.980392 0.329412 0.627451
1.000000 0.400000 0.643137
0.000000 0.427451 0.647059
0.145098 0.431373 0.639216
0.301961 0.431373 0.643137
0.439216 0.427451 0.635294
0.592157 0.423529 0.635294
0.733333 0.431373 0.635294
0.862745 0.447059 0.627451
0.972549 0.482353 0.639216
1.000000 0.525490 0.647059
0.000000 0.588235 0.631373
0.125490 0.596078 0.650980
0.286275 0.592157 0.639216
0.443137 0.592157 0.635294
0.588235 0.588235 0.635294
0.721569 0.592157 0.635294
0.835294 0.611765 0.639216
0.952941 0.635294 0.662745
0.996078 0.662745 0.682353
0.007843 0.737255 0.643137
0.156863 0.737255 0.635294
0.301961 0.733333 0.627451
0.443137 0.733333 0.635294
0.592157 0.725490 0.631373
0.713725 0.721569 0.627451
0.854902 0.729412 0.670588
0.949020 0.756863 0.690196
0.996078 0.768627 0.713725
0.117647 0.843137 0.615686
0.203922 0.847059 0.611765
0.321569 0.850980 0.623529
0.454902 0.843137 0.627451
0.576471 0.843137 0.619608
0.701961 0.831373 0.615686
0.831373 0.831373 0.619608
0.952941 0.835294 0.631373
0.992157 0.854902 0.698039
0.235294 0.949020 0.607843
0.309804 0.952941 0.615686
0.403922 0.945098 0.611765
0.494118 0.949020 0.623529
0.588235 0.945098 0.631373
0.701961 0.941176 0.627451
0.823529 0.937255 0.623529
0.925490 0.941176 0.611765
1.000000 0.937255 0.631373
0.376471 1.000000 0.627451
0.407843 1.000000 0.619608
0.450980 1.000000 0.623529
0.517647 1.000000 0.627451
0.603922 1.000000 0.623529
0.701961 1.000000 0.635294
0.800000 1.000000 0.627451
0.901961 1.000000 0.639216
0.992157 1.000000 0.647059
0.109804 0.000000 0.776471
0.188235 0.000000 0.768627
0.317647 0.000000 0.764706
0.443137 0.000000 0.768627
0.588235 0.000000 0.768627
0.725490 0.003922 0.772549
0.862745 0.000000 0.760784
0.984314 0.000000 0.756863
1.000000 0.023529 0.737255
0.090196 0.074510 0.749020
0.184314 0.074510 0.752941
0.305882 0.066667 0.768627
0.447059 0.058824 0.768627
0.572549 0.047059 0.764706
0.725490 0.043137 0.768627
0.854902 0.050980 0.760784
0.980392 0.109804 0.741176
0.996078 0.164706 0.741176
0.062745 0.258824 0.772549
0.176471 0.254902 0.768627
0.298039 0.254902 0.764706
0.439216 0.254902 0.764706
0.576471 0.258824 0.764706
0.717647 0.258824 0.768627
0.862745 0.262745 0.760784
0.976471 0.282353 0.741176
1.000000 0.313725 0.737255
0.019608 0.411765 0.756863
0.160784 0.415686 0.776471
0.298039 0.415686 0.760784
0.431373 0.419608 0.760784
0.576471 0.427451 0.768627
0.713725 0.423529 0.764706
0.850980 0.419608 0.756863
0.972549 0.443137 0.752941
1.000000 0.466667 0.741176
0.015686 0.572549 0.768627
0.152941 0.572549 0.752941
0.294118 0.568627 0.768627
0.443137 0.576471 0.764706
0.584314 0.572549 0.756863
0.717647 0.568627 0.760784
0.850980 0.568627 0.756863
0.968627 0.580392 0.752941
1.000000 0.627451 0.752941
0.098039 0.717647 0.760784
0.192157 0.717647 0.760784
0.313725 0.717647 0.752941
0.443137 0.717647 0.764706
0.580392 0.713725 0.760784
0.713725 0.705882 0.749020
0.839216 0.717647 0.749020
0.945098 0.745098 0.764706
1.000000 0.764706 0.784314
0.105882 0.843137 0.745098
0.192157 0.835294 0.741176
0.305882 0.839216 0.745098
0.439216 0.839216 0.745098
0.584314 0.839216 0.752941
0.701961 0.835294 0.737255
0.823529 0.831373 0.745098
0.937255 0.850980 0.768627
0.984314 0.870588 0.815686
0.243137 0.941176 0.737255
0.294118 0.949020 0.737255
0.368627 0.945098 0.729412
0.470588 0.945098 0.733333
0.596078 0.941176 0.741176
0.705882 0.941176 0.737255
0.819608 0.937255 0.741176
0.929412 0.937255 0.741176
1.000000 0.933333 0.752941
0.368627 1.000000 0.725490
0.388235 1.000000 0.725490
0.447059 1.000000 0.721569
0.564706 1.000000 0.741176
0.639216 1.000000 0.745098
0.725490 1.000000 0.745098
0.819608 1.000000 0.745098
0.901961 1.000000 0.745098
0.984314 1.000000 0.745098
0.117647 0.000000 0.878431
0.188235 0.000000 0.878431
0.301961 0.003922 0.878431
0.423529 0.000000 0.882353
0.568627 0.000000 0.882353
0.694118 0.003922 0.878431
0.831373 0.000000 0.878431
0.960784 0.003922 0.874510
1.000000 0.003922 0.866667
0.098039 0.070588 0.870588
0.188235 0.074510 0.874510
0.298039 0.066667 0.874510
0.431373 0.062745 0.878431
0.564706 0.062745 0.874510
0.698039 0.074510 0.882353
0.827451 0.090196 0.870588
0.960784 0.109804 0.866667
1.000000 0.152941 0.870588
0.098039 0.254902 0.882353
0.176471 0.254902 0.886275
0.294118 0.247059 0.874510
0.427451 0.254902 0.878431
0.560784 0.258824 0.870588
0.694118 0.258824 0.870588
0.823529 0.270588 0.874510
0.964706 0.278431 0.878431
1.000000 0.298039 0.858824
0.121569 0.403922 0.874510
0.188235 0.407843 0.874510
0.298039 0.411765 0.874510
0.431373 0.411765 0.874510
0.564706 0.419608 0.874510
0.690196 0.419608 0.874510
0.823529 0.419608 0.870588
0.964706 0.427451 0.882353
0.996078 0.439216 0.862745
0.125490 0.556863 0.866667
0.203922 0.552941 0.874510
0.317647 0.556863 0.870588
0.443137 0.564706 0.878431
0.572549 0.560784 0.870588
0.690196 0.564706 0.862745
0.827451 0.564706 0.866667
0.949020 0.560784 0.874510
1.000000 0.584314 0.866667
0.180392 0.694118 0.866667
0.239216 0.698039 0.870588
0.337255 0.694118 0.870588
0.450980 0.698039 0.870588
0.576471 0.698039 0.870588
0.705882 0.701961 0.866667
0.823529 0.701961 0.862745
0.945098 0.701961 0.854902
1.000000 0.721569 0.854902
0.211765 0.823529 0.870588
0.247059 0.823529 0.854902
0.349020 0.823529 0.866667
0.470588 0.823529 0.866667
0.588235 0.823529 0.862745
0.709804 0.827451 0.866667
0.827451 0.827451 0.858824
0.929412 0.839216 0.862745
0.996078 0.870588 0.882353
0.254902 0.945098 0.854902
0.305882 0.949020 0.854902
0.368627 0.941176 0.858824
0.478431 0.941176 0.854902
0.596078 0.941176 0.854902
0.709804 0.941176 0.854902
0.823529 0.937255 0.850980
0.929412 0.937255 0.854902
1.000000 0.941176 0.890196
0.388235 1.000000 0.835294
0.403922 1.000000 0.831373
0.470588 1.000000 0.839216
0.541176 1.000000 0.835294
0.627451 1.000000 0.835294
0.741176 1.000000 0.843137
0.843137 1.000000 0.854902
0.913725 1.000000 0.850980
1.000000 1.000000 0.866667
0.105882 0.003922 0.980392
0.176471 0.000000 0.976471
0.286275 0.003922 0.972549
0.411765 0.000000 0.980392
0.545098 0.000000 0.976471
0.666667 0.000000 0.976471
0.800000 0.000000 0.980392
0.921569 0.023529 0.968627
0.996078 0.101961 0.968627
0.105882 0.070588 0.976471
0.184314 0.078431 0.976471
0.290196 0.070588 0.976471
0.415686 0.078431 0.976471
0.541176 0.090196 0.972549
0.670588 0.101961 0.976471
0.792157 0.129412 0.972549
0.921569 0.152941 0.968627
1.000000 0.192157 0.972549
0.125490 0.250980 0.968627
0.188235 0.247059 0.980392
0.290196 0.258824 0.980392
0.415686 0.250980 0.976471
0.541176 0.262745 0.976471
0.658824 0.270588 0.968627
0.800000 0.286275 0.968627
0.925490 0.298039 0.972549
1.000000 0.305882 0.964706
0.152941 0.407843 0.972549
0.223529 0.403922 0.972549
0.309804 0.407843 0.972549
0.427451 0.407843 0.972549
0.556863 0.411765 0.968627
0.670588 0.419608 0.968627
0.800000 0.419608 0.964706
0.921569 0.431373 0.972549
0.996078 0.439216 0.964706
0.223529 0.545098 0.968627
0.286275 0.549020 0.960784
0.352941 0.552941 0.964706
0.454902 0.549020 0.964706
0.564706 0.552941 0.972549
0.682353 0.552941 0.964706
0.800000 0.560784 0.968627
0.913725 0.568627 0.968627
1.000000 0.572549 0.960784
0.258824 0.674510 0.964706
0.298039 0.674510 0.964706
0.372549 0.678431 0.968627
0.474510 0.686275 0.968627
0.584314 0.690196 0.960784
0.698039 0.701961 0.964706
0.811765 0.698039 0.960784
0.921569 0.698039 0.964706
1.000000 0.698039 0.956863
0.301961 0.800000 0.960784
0.341176 0.807843 0.964706
0.400000 0.800000 0.956863
0.498039 0.807843 0.960784
0.600000 0.811765 0.960784
0.709804 0.819608 0.964706
0.827451 0.819608 0.964706
0.929412 0.823529 0.952941
1.000000 0.831373 0.960784
0.341176 0.925490 0.952941
0.368627 0.921569 0.956863
0.435294 0.921569 0.960784
0.517647 0.921569 0.956863
0.615686 0.925490 0.952941
0.721569 0.929412 0.952941
0.823529 0.933333 0.945098
0.929412 0.933333 0.949020
1.000000 0.949020 0.960784
0.419608 0.996078 0.956863
0.427451 1.000000 0.949020
0.486275 0.996078 0.949020
0.549020 1.000000 0.941176
0.654902 1.000000 0.952941
0.756863 1.000000 0.949020
0.858824 1.000000 0.952941
0.949020 1.000000 0.952941
1.000000 1.000000 0.968627
0.117647 0.000000 0.996078
0.180392 0.000000 1.000000
0.286275 0.000000 1.000000
0.396078 0.000000 1.000000
0.517647 0.000000 1.000000
0.639216 0.007843 1.000000
0.756863 0.074510 0.996078
0.878431 0.125490 0.992157
1.000000 0.168627 1.000000
0.121569 0.101961 0.992157
0.184314 0.101961 0.992157
0.286275 0.101961 1.000000
0.396078 0.109804 1.000000
0.525490 0.125490 1.000000
0.635294 0.145098 1.000000
0.760784 0.172549 1.000000
0.882353 0.211765 1.000000
0.992157 0.231373 0.996078
0.160784 0.250980 1.000000
0.215686 0.258824 1.000000
0.305882 0.254902 1.000000
0.403922 0.262745 1.000000
0.525490 0.266667 1.000000
0.650980 0.282353 1.000000
0.760784 0.301961 0.996078
0.874510 0.317647 0.992157
0.992157 0.337255 0.996078
0.223529 0.400000 1.000000
0.258824 0.403922 0.996078
0.329412 0.407843 1.000000
0.431373 0.407843 0.996078
0.541176 0.411765 1.000000
0.647059 0.419608 0.996078
0.760784 0.427451 0.996078
0.878431 0.439216 1.000000
0.988235 0.450980 1.000000
0.305882 0.552941 1.000000
0.313725 0.545098 1.000000
0.376471 0.545098 0.996078
0.462745 0.545098 0.996078
0.560784 0.549020 1.000000
0.662745 0.549020 1.000000
0.780392 0.556863 1.000000
0.882353 0.568627 1.000000
1.000000 0.580392 0.996078
0.364706 0.670588 1.000000
0.388235 0.670588 1.000000
0.447059 0.674510 0.996078
0.517647 0.682353 1.000000
0.600000 0.682353 1.000000
0.694118 0.682353 1.000000
0.796078 0.690196 1.000000
0.898039 0.698039 1.000000
0.996078 0.705882 1.000000
0.403922 0.796078 1.000000
0.427451 0.784314 1.000000
0.478431 0.792157 1.000000
0.545098 0.792157 1.000000
0.631373 0.800000 1.000000
0.729412 0.811765 0.996078
0.823529 0.815686 1.000000
0.913725 0.823529 0.996078
0.988235 0.823529 1.000000
0.450980 0.905882 1.000000
0.466667 0.905882 0.992157
0.509804 0.909804 1.000000
0.576471 0.905882 1.000000
0.658824 0.917647 1.000000
0.752941 0.921569 0.988235
0.847059 0.929412 0.996078
0.937255 0.945098 0.996078
0.996078 0.952941 1.000000
0.505882 1.000000 0.996078
0.521569 1.000000 1.000000
0.556863 1.000000 0.992157
0.619608 1.000000 1.000000
0.694118 1.000000 1.000000
0.792157 1.000000 1.000000
0.898039 1.000000 0.996078
0.980392 1.000000 1.000000
1.000000 1.000000 0.992157
