app/src/main/assets/cube/Christmas 1.cube
TITLE "Christmas LUT #1"
#LUT size
LUT_3D_SIZE 9
#LUT data points
0.082353 0.086275 0.101961
0.133333 0.086275 0.094118
0.215686 0.090196 0.101961
0.298039 0.094118 0.109804
0.431373 0.090196 0.121569
0.592157 0.082353 0.129412
0.776471 0.058824 0.137255
0.945098 0.000000 0.137255
1.000000 0.000000 0.164706
0.058824 0.152941 0.098039
0.129412 0.141176 0.098039
0.203922 0.149020 0.113725
0.309804 0.141176 0.117647
0.419608 0.149020 0.121569
0.592157 0.152941 0.137255
0.760784 0.152941 0.137255
0.917647 0.133333 0.141176
1.000000 0.129412 0.168627
0.027451 0.235294 0.117647
0.113725 0.227451 0.117647
0.211765 0.227451 0.121569
0.301961 0.235294 0.125490
0.447059 0.247059 0.133333
0.607843 0.270588 0.133333
0.776471 0.270588 0.145098
0.945098 0.278431 0.149020
1.000000 0.274510 0.164706
0.000000 0.364706 0.129412
0.003922 0.360784 0.121569
0.203922 0.368627 0.121569
0.329412 0.376471 0.125490
0.462745 0.380392 0.133333
0.615686 0.384314 0.149020
0.764706 0.396078 0.145098
0.929412 0.403922 0.156863
1.000000 0.407843 0.180392
0.000000 0.541176 0.101961
0.000000 0.552941 0.101961
0.125490 0.552941 0.101961
0.333333 0.549020 0.090196
0.509804 0.549020 0.098039
0.647059 0.549020 0.094118
0.796078 0.545098 0.129412
0.941176 0.549020 0.172549
1.000000 0.552941 0.215686
0.000000 0.737255 0.062745
0.007843 0.737255 0.074510
0.000000 0.737255 0.050980
0.301961 0.721569 0.070588
0.490196 0.721569 0.062745
0.666667 0.713725 0.078431
0.815686 0.705882 0.074510
0.949020 0.690196 0.141176
1.000000 0.690196 0.239216
0.000000 0.839216 0.086275
0.000000 0.843137 0.090196
0.000000 0.839216 0.090196
0.247059 0.850980 0.098039
0.458824 0.835294 0.098039
0.631373 0.831373 0.113725
0.780392 0.823529 0.109804
0.929412 0.823529 0.129412
1.000000 0.819608 0.200000
0.000000 0.949020 0.180392
0.000000 0.964706 0.200000
0.000000 0.956863 0.215686
0.286275 0.952941 0.219608
0.462745 0.949020 0.219608
0.615686 0.945098 0.215686
0.760784 0.937255 0.235294
0.894118 0.933333 0.250980
0.988235 0.945098 0.290196
0.003922 0.996078 0.298039
0.090196 1.000000 0.329412
0.258824 0.996078 0.317647
0.372549 1.000000 0.325490
0.501961 1.000000 0.325490
0.619608 1.000000 0.333333
0.737255 1.000000 0.345098
0.854902 1.000000 0.364706
0.945098 1.000000 0.384314
0.070588 0.090196 0.168627
0.133333 0.086275 0.172549
0.211765 0.098039 0.176471
0.305882 0.101961 0.188235
0.435294 0.078431 0.200000
0.611765 0.000000 0.196078
0.772549 0.003922 0.200000
0.933333 0.000000 0.203922
1.000000 0.000000 0.227451
0.054902 0.145098 0.176471
0.125490 0.141176 0.184314
0.196078 0.145098 0.180392
0.290196 0.141176 0.184314
0.439216 0.141176 0.188235
0.588235 0.125490 0.188235
0.760784 0.094118 0.196078
0.917647 0.058824 0.207843
0.996078 0.070588 0.211765
0.019608 0.231373 0.180392
0.090196 0.231373 0.192157
0.192157 0.231373 0.188235
0.301961 0.231373 0.192157
0.447059 0.243137 0.192157
0.607843 0.247059 0.196078
0.772549 0.247059 0.200000
0.937255 0.243137 0.211765
1.000000 0.247059 0.227451
0.003922 0.349020 0.192157
0.000000 0.356863 0.188235
0.168627 0.360784 0.176471
0.301961 0.360784 0.192157
0.450980 0.364706 0.180392
0.600000 0.376471 0.200000
0.768627 0.392157 0.203922
0.921569 0.392157 0.215686
1.000000 0.396078 0.235294
0.000000 0.529412 0.160784
0.007843 0.537255 0.168627
0.000000 0.545098 0.164706
0.317647 0.541176 0.168627
0.478431 0.545098 0.168627
0.635294 0.537255 0.176471
0.780392 0.541176 0.192157
0.937255 0.541176 0.235294
1.000000 0.537255 0.258824
0.000000 0.717647 0.160784
0.003922 0.713725 0.160784
0.003922 0.713725 0.160784
0.266667 0.705882 0.164706
0.482353 0.713725 0.164706
0.639216 0.701961 0.172549
0.807843 0.698039 0.168627
0.937255 0.686275 0.203922
0.996078 0.686275 0.282353
0.003922 0.835294 0.160784
0.007843 0.839216 0.172549
0.000000 0.835294 0.176471
0.211765 0.835294 0.188235
0.454902 0.831373 0.196078
0.619608 0.823529 0.184314
0.776471 0.819608 0.203922
0.925490 0.823529 0.200000
1.000000 0.815686 0.266667
0.000000 0.945098 0.250980
0.007843 0.952941 0.270588
0.000000 0.956863 0.270588
0.290196 0.949020 0.270588
0.462745 0.949020 0.274510
0.615686 0.945098 0.266667
0.752941 0.937255 0.286275
0.890196 0.929412 0.298039
0.996078 0.937255 0.329412
0.000000 1.000000 0.341176
0.086275 1.000000 0.337255
0.247059 1.000000 0.352941
0.376471 1.000000 0.352941
0.494118 1.000000 0.364706
0.627451 0.996078 0.372549
0.749020 1.000000 0.388235
0.854902 0.996078 0.400000
0.949020 0.996078 0.415686
0.050980 0.082353 0.274510
0.117647 0.086275 0.286275
0.211765 0.086275 0.282353
0.301961 0.094118 0.274510
0.447059 0.062745 0.294118
0.607843 0.000000 0.321569
0.784314 0.003922 0.329412
0.949020 0.000000 0.329412
1.000000 0.000000 0.313725
0.015686 0.145098 0.282353
0.105882 0.137255 0.278431
0.203922 0.141176 0.286275
0.305882 0.149020 0.286275
0.450980 0.121569 0.313725
0.607843 0.074510 0.317647
0.772549 0.000000 0.313725
0.945098 0.000000 0.317647
0.996078 0.003922 0.321569
0.003922 0.231373 0.286275
0.047059 0.235294 0.290196
0.180392 0.227451 0.290196
0.317647 0.227451 0.290196
0.462745 0.219608 0.309804
0.631373 0.200000 0.305882
0.788235 0.188235 0.309804
0.949020 0.188235 0.321569
1.000000 0.223529 0.337255
0.000000 0.356863 0.290196
0.003922 0.360784 0.301961
0.113725 0.356863 0.298039
0.305882 0.360784 0.294118
0.450980 0.360784 0.298039
0.611765 0.364706 0.305882
0.784314 0.368627 0.313725
0.933333 0.376471 0.321569
1.000000 0.392157 0.341176
0.000000 0.533333 0.321569
0.003922 0.533333 0.313725
0.000000 0.541176 0.309804
0.254902 0.545098 0.305882
0.474510 0.537255 0.290196
0.635294 0.533333 0.301961
0.792157 0.537255 0.325490
0.937255 0.537255 0.349020
0.992157 0.552941 0.372549
0.003922 0.717647 0.325490
0.003922 0.721569 0.313725
0.000000 0.717647 0.309804
0.219608 0.709804 0.317647
0.462745 0.705882 0.309804
0.643137 0.701961 0.298039
0.807843 0.690196 0.305882
0.937255 0.686275 0.345098
0.996078 0.690196 0.400000
0.003922 0.831373 0.317647
0.003922 0.831373 0.325490
0.000000 0.835294 0.317647
0.196078 0.827451 0.317647
0.431373 0.827451 0.325490
0.619608 0.823529 0.325490
0.776471 0.823529 0.337255
0.929412 0.827451 0.345098
1.000000 0.807843 0.380392
0.003922 0.941176 0.380392
0.000000 0.945098 0.388235
0.062745 0.956863 0.388235
0.313725 0.945098 0.396078
0.482353 0.949020 0.392157
0.627451 0.937255 0.376471
0.756863 0.929412 0.392157
0.890196 0.929412 0.407843
0.992157 0.933333 0.427451
0.180392 0.992157 0.427451
0.235294 0.992157 0.431373
0.313725 1.000000 0.443137
0.423529 1.000000 0.439216
0.529412 1.000000 0.450980
0.654902 1.000000 0.454902
0.760784 1.000000 0.462745
0.870588 1.000000 0.486275
0.956863 1.000000 0.498039
0.019608 0.082353 0.427451
0.121569 0.070588 0.431373
0.243137 0.066667 0.439216
0.360784 0.047059 0.435294
0.478431 0.007843 0.439216
0.631373 0.000000 0.462745
0.803922 0.000000 0.474510
0.956863 0.000000 0.478431
0.996078 0.003922 0.462745
0.000000 0.145098 0.439216
0.070588 0.133333 0.435294
0.227451 0.121569 0.439216
0.341176 0.113725 0.443137
0.462745 0.101961 0.435294
0.623529 0.019608 0.450980
0.792157 0.000000 0.470588
0.956863 0.000000 0.470588
0.996078 0.000000 0.458824
0.003922 0.239216 0.450980
0.003922 0.239216 0.450980
0.152941 0.227451 0.447059
0.329412 0.219608 0.450980
0.486275 0.203922 0.450980
0.650980 0.192157 0.470588
0.803922 0.172549 0.478431
0.956863 0.160784 0.470588
0.996078 0.215686 0.486275
0.000000 0.368627 0.454902
0.000000 0.380392 0.447059
0.000000 0.372549 0.458824
0.278431 0.364706 0.454902
0.470588 0.352941 0.462745
0.635294 0.349020 0.462745
0.800000 0.349020 0.462745
0.937255 0.372549 0.478431
1.000000 0.403922 0.494118
0.000000 0.537255 0.474510
0.007843 0.537255 0.478431
0.003922 0.545098 0.482353
0.243137 0.545098 0.482353
0.462745 0.533333 0.470588
0.639216 0.529412 0.474510
0.788235 0.537255 0.490196
0.933333 0.549020 0.498039
1.000000 0.564706 0.521569
0.000000 0.721569 0.498039
0.000000 0.713725 0.494118
0.000000 0.717647 0.490196
0.207843 0.713725 0.494118
0.462745 0.709804 0.486275
0.647059 0.705882 0.490196
0.807843 0.690196 0.478431
0.929412 0.690196 0.513725
1.000000 0.705882 0.549020
0.000000 0.831373 0.470588
0.000000 0.839216 0.482353
0.000000 0.831373 0.498039
0.270588 0.827451 0.490196
0.466667 0.827451 0.494118
0.631373 0.827451 0.494118
0.784314 0.819608 0.501961
0.929412 0.827451 0.498039
1.000000 0.819608 0.545098
0.000000 0.945098 0.525490
0.149020 0.937255 0.521569
0.278431 0.945098 0.525490
0.411765 0.941176 0.537255
0.541176 0.933333 0.545098
0.654902 0.933333 0.533333
0.784314 0.929412 0.525490
0.898039 0.929412 0.533333
0.996078 0.933333 0.556863
0.345098 1.000000 0.552941
0.376471 0.996078 0.552941
0.435294 1.000000 0.552941
0.486275 1.000000 0.545098
0.592157 1.000000 0.556863
0.682353 1.000000 0.560784
0.784314 0.996078 0.560784
0.874510 1.000000 0.572549
0.956863 1.000000 0.580392
0.000000 0.043137 0.615686
0.121569 0.031373 0.619608
0.262745 0.011765 0.623529
0.392157 0.000000 0.619608
0.525490 0.000000 0.631373
0.662745 0.003922 0.623529
0.803922 0.003922 0.627451
0.949020 0.000000 0.627451
1.000000 0.000000 0.619608
0.000000 0.125490 0.607843
0.015686 0.113725 0.607843
0.219608 0.101961 0.619608
0.364706 0.082353 0.623529
0.513725 0.015686 0.611765
0.647059 0.000000 0.615686
0.792157 0.003922 0.623529
0.960784 0.000000 0.619608
1.000000 0.000000 0.619608
0.003922 0.219608 0.623529
0.000000 0.219608 0.639216
0.121569 0.215686 0.631373
0.333333 0.207843 0.635294
0.498039 0.184314 0.635294
0.654902 0.164706 0.627451
0.815686 0.137255 0.631373
0.956863 0.113725 0.623529
1.000000 0.164706 0.619608
0.003922 0.376471 0.627451
0.003922 0.376471 0.627451
0.003922 0.360784 0.635294
0.262745 0.349020 0.635294
0.466667 0.341176 0.627451
0.639216 0.341176 0.631373
0.807843 0.337255 0.627451
0.956863 0.341176 0.611765
1.000000 0.372549 0.607843
0.003922 0.537255 0.639216
0.000000 0.541176 0.650980
0.000000 0.541176 0.654902
0.219608 0.537255 0.650980
0.466667 0.533333 0.643137
0.643137 0.529412 0.639216
0.811765 0.525490 0.631373
0.937255 0.549020 0.627451
0.996078 0.596078 0.650980
0.000000 0.721569 0.658824
0.000000 0.717647 0.654902
0.000000 0.709804 0.650980
0.223529 0.713725 0.658824
0.466667 0.705882 0.643137
0.654902 0.698039 0.635294
0.796078 0.694118 0.635294
0.925490 0.705882 0.654902
0.992157 0.717647 0.670588
0.011765 0.827451 0.623529
0.000000 0.839216 0.615686
0.000000 0.835294 0.623529
0.266667 0.831373 0.623529
0.494118 0.835294 0.627451
0.654902 0.819608 0.631373
0.792157 0.823529 0.639216
0.929412 0.823529 0.639216
0.996078 0.819608 0.666667
0.007843 0.945098 0.588235
0.007843 0.945098 0.611765
0.278431 0.941176 0.623529
0.458824 0.937255 0.635294
0.592157 0.933333 0.654902
0.698039 0.933333 0.650980
0.800000 0.933333 0.643137
0.905882 0.929412 0.654902
1.000000 0.933333 0.658824
0.423529 1.000000 0.650980
0.482353 1.000000 0.662745
0.521569 1.000000 0.666667
0.576471 1.000000 0.654902
0.647059 1.000000 0.658824
0.725490 1.000000 0.654902
0.811765 1.000000 0.662745
0.890196 1.000000 0.670588
0.964706 1.000000 0.682353
0.003922 0.000000 0.745098
0.121569 0.003922 0.756863
0.262745 0.000000 0.760784
0.396078 0.000000 0.760784
0.525490 0.000000 0.756863
0.650980 0.000000 0.760784
0.800000 0.000000 0.764706
0.956863 0.000000 0.768627
1.000000 0.003922 0.756863
0.000000 0.101961 0.749020
0.027451 0.101961 0.749020
0.219608 0.078431 0.745098
0.372549 0.039216 0.752941
0.509804 0.000000 0.749020
0.650980 0.000000 0.760784
0.800000 0.003922 0.749020
0.956863 0.000000 0.756863
1.000000 0.000000 0.768627
0.000000 0.207843 0.764706
0.003922 0.203922 0.756863
0.125490 0.196078 0.768627
0.333333 0.184314 0.752941
0.482353 0.176471 0.756863
0.639216 0.156863 0.756863
0.792157 0.121569 0.764706
0.956863 0.066667 0.764706
0.996078 0.109804 0.737255
0.000000 0.352941 0.756863
0.000000 0.349020 0.749020
0.000000 0.333333 0.752941
0.270588 0.337255 0.752941
0.462745 0.333333 0.752941
0.623529 0.337255 0.756863
0.784314 0.325490 0.745098
0.956863 0.325490 0.764706
1.000000 0.349020 0.741176
0.000000 0.513725 0.764706
0.007843 0.513725 0.768627
0.000000 0.513725 0.756863
0.243137 0.509804 0.764706
0.458824 0.513725 0.760784
0.627451 0.517647 0.756863
0.796078 0.521569 0.764706
0.952941 0.521569 0.768627
1.000000 0.545098 0.737255
0.000000 0.674510 0.768627
0.000000 0.674510 0.768627
0.000000 0.682353 0.776471
0.282353 0.674510 0.768627
0.478431 0.682353 0.764706
0.654902 0.682353 0.756863
0.800000 0.686275 0.764706
0.933333 0.694118 0.756863
0.996078 0.717647 0.741176
0.000000 0.827451 0.768627
0.000000 0.831373 0.768627
0.000000 0.831373 0.772549
0.258824 0.827451 0.760784
0.494118 0.823529 0.764706
0.666667 0.819608 0.749020
0.796078 0.811765 0.752941
0.913725 0.823529 0.760784
1.000000 0.831373 0.768627
0.000000 0.937255 0.737255
0.000000 0.941176 0.733333
0.227451 0.937255 0.737255
0.392157 0.933333 0.733333
0.556863 0.937255 0.729412
0.717647 0.925490 0.752941
0.819608 0.925490 0.756863
0.917647 0.921569 0.764706
0.996078 0.929412 0.760784
0.301961 1.000000 0.709804
0.333333 1.000000 0.705882
0.400000 1.000000 0.709804
0.537255 0.996078 0.717647
0.701961 1.000000 0.749020
0.772549 1.000000 0.772549
0.847059 1.000000 0.760784
0.909804 1.000000 0.776471
0.980392 1.000000 0.780392
0.000000 0.000000 0.870588
0.109804 0.007843 0.882353
0.250980 0.000000 0.866667
0.372549 0.003922 0.870588
0.498039 0.000000 0.870588
0.631373 0.000000 0.878431
0.760784 0.000000 0.866667
0.901961 0.000000 0.874510
0.992157 0.000000 0.901961
0.003922 0.062745 0.858824
0.023529 0.074510 0.870588
0.223529 0.043137 0.866667
0.360784 0.007843 0.866667
0.494118 0.003922 0.858824
0.627451 0.000000 0.870588
0.760784 0.000000 0.866667
0.898039 0.000000 0.874510
1.000000 0.000000 0.886275
0.000000 0.188235 0.854902
0.000000 0.192157 0.866667
0.133333 0.184314 0.866667
0.329412 0.180392 0.866667
0.478431 0.168627 0.870588
0.619608 0.156863 0.870588
0.749020 0.145098 0.866667
0.901961 0.133333 0.870588
1.000000 0.113725 0.901961
0.000000 0.333333 0.870588
0.000000 0.325490 0.866667
0.011765 0.325490 0.862745
0.282353 0.329412 0.862745
0.458824 0.337255 0.874510
0.603922 0.337255 0.866667
0.756863 0.333333 0.870588
0.898039 0.349020 0.870588
1.000000 0.341176 0.886275
0.000000 0.490196 0.862745
0.000000 0.490196 0.854902
0.000000 0.494118 0.858824
0.305882 0.505882 0.866667
0.470588 0.505882 0.870588
0.623529 0.509804 0.870588
0.768627 0.513725 0.866667
0.905882 0.517647 0.870588
0.996078 0.529412 0.882353
0.000000 0.650980 0.866667
0.003922 0.658824 0.874510
0.117647 0.647059 0.874510
0.337255 0.654902 0.870588
0.513725 0.658824 0.866667
0.666667 0.674510 0.874510
0.792157 0.674510 0.870588
0.909804 0.678431 0.866667
1.000000 0.686275 0.854902
0.000000 0.780392 0.870588
0.007843 0.776471 0.870588
0.203922 0.776471 0.866667
0.392157 0.788235 0.866667
0.541176 0.784314 0.866667
0.686275 0.800000 0.870588
0.811765 0.807843 0.862745
0.921569 0.815686 0.850980
0.992157 0.823529 0.858824
0.003922 0.925490 0.898039
0.098039 0.925490 0.890196
0.274510 0.925490 0.870588
0.427451 0.929412 0.878431
0.564706 0.933333 0.870588
0.690196 0.929412 0.858824
0.827451 0.921569 0.858824
0.917647 0.929412 0.862745
1.000000 0.929412 0.874510
0.360784 0.996078 0.835294
0.392157 1.000000 0.827451
0.454902 1.000000 0.835294
0.545098 1.000000 0.839216
0.643137 1.000000 0.831373
0.756863 1.000000 0.839216
0.878431 1.000000 0.874510
0.933333 1.000000 0.874510
0.984314 0.996078 0.874510
0.003922 0.000000 0.972549
0.074510 0.000000 0.980392
0.219608 0.000000 0.960784
0.345098 0.000000 0.968627
0.470588 0.000000 0.968627
0.592157 0.003922 0.972549
0.721569 0.000000 0.972549
0.847059 0.000000 0.968627
0.980392 0.000000 0.968627
0.003922 0.058824 0.964706
0.003922 0.043137 0.964706
0.192157 0.031373 0.972549
0.333333 0.003922 0.968627
0.462745 0.000000 0.968627
0.588235 0.000000 0.968627
0.721569 0.000000 0.964706
0.854902 0.000000 0.960784
0.988235 0.000000 0.968627
0.000000 0.180392 0.964706
0.000000 0.188235 0.964706
0.149020 0.184314 0.972549
0.313725 0.180392 0.968627
0.443137 0.176471 0.964706
0.584314 0.172549 0.980392
0.717647 0.172549 0.968627
0.850980 0.180392 0.964706
0.976471 0.207843 0.968627
0.000000 0.329412 0.960784
0.003922 0.329412 0.972549
0.086275 0.329412 0.968627
0.298039 0.333333 0.972549
0.454902 0.337255 0.964706
0.592157 0.341176 0.964706
0.725490 0.349020 0.972549
0.850980 0.360784 0.972549
0.980392 0.380392 0.976471
0.000000 0.490196 0.960784
0.011765 0.494118 0.968627
0.219608 0.501961 0.972549
0.356863 0.498039 0.968627
0.482353 0.509804 0.968627
0.615686 0.509804 0.968627
0.749020 0.521569 0.964706
0.866667 0.525490 0.968627
0.984314 0.545098 0.976471
0.101961 0.627451 0.968627
0.168627 0.635294 0.956863
0.301961 0.639216 0.964706
0.431373 0.647059 0.968627
0.560784 0.662745 0.964706
0.670588 0.670588 0.952941
0.780392 0.670588 0.960784
0.886275 0.682353 0.964706
0.988235 0.694118 0.956863
0.239216 0.756863 0.949020
0.290196 0.760784 0.968627
0.368627 0.760784 0.956863
0.490196 0.772549 0.968627
0.607843 0.780392 0.964706
0.717647 0.792157 0.960784
0.815686 0.807843 0.960784
0.901961 0.803922 0.956863
1.000000 0.827451 0.968627
0.368627 0.890196 0.956863
0.396078 0.886275 0.956863
0.454902 0.886275 0.952941
0.545098 0.886275 0.960784
0.643137 0.890196 0.956863
0.741176 0.894118 0.952941
0.835294 0.905882 0.952941
0.925490 0.921569 0.952941
0.996078 0.929412 0.952941
0.435294 0.996078 0.972549
0.450980 1.000000 0.972549
0.505882 0.996078 0.980392
0.576471 0.996078 0.964706
0.650980 1.000000 0.964706
0.760784 1.000000 0.960784
0.854902 0.996078 0.941176
0.949020 0.996078 0.956863
0.996078 0.996078 0.964706
0.000000 0.000000 0.996078
0.007843 0.000000 0.996078
0.184314 0.000000 0.996078
0.313725 0.000000 1.000000
0.435294 0.000000 1.000000
0.552941 0.003922 1.000000
0.670588 0.000000 1.000000
0.800000 0.000000 1.000000
0.921569 0.000000 1.000000
0.003922 0.050980 1.000000
0.000000 0.054902 0.996078
0.168627 0.047059 1.000000
0.305882 0.031373 1.000000
0.431373 0.011765 1.000000
0.552941 0.000000 1.000000
0.674510 0.003922 1.000000
0.796078 0.027451 1.000000
0.913725 0.101961 1.000000
0.000000 0.196078 0.996078
0.003922 0.184314 1.000000
0.149020 0.188235 1.000000
0.290196 0.192157 1.000000
0.427451 0.196078 1.000000
0.549020 0.200000 1.000000
0.674510 0.207843 1.000000
0.803922 0.223529 0.992157
0.921569 0.258824 1.000000
0.000000 0.329412 0.988235
0.007843 0.333333 0.992157
0.168627 0.333333 1.000000
0.313725 0.329412 0.996078
0.447059 0.341176 0.996078
0.564706 0.349020 0.992157
0.690196 0.356863 1.000000
0.815686 0.376471 1.000000
0.921569 0.411765 1.000000
0.188235 0.498039 0.996078
0.211765 0.498039 1.000000
0.286275 0.494118 1.000000
0.392157 0.501961 0.996078
0.490196 0.505882 0.996078
0.611765 0.509804 1.000000
0.725490 0.525490 1.000000
0.843137 0.537255 1.000000
0.937255 0.560784 0.984314
0.396078 0.654902 0.996078
0.419608 0.654902 1.000000
0.478431 0.666667 1.000000
0.552941 0.674510 1.000000
0.600000 0.654902 1.000000
0.678431 0.662745 0.996078
0.772549 0.674510 0.992157
0.870588 0.686275 1.000000
0.964706 0.701961 1.000000
0.478431 0.749020 1.000000
0.498039 0.764706 1.000000
0.541176 0.760784 1.000000
0.596078 0.776471 1.000000
0.682353 0.780392 1.000000
0.768627 0.796078 1.000000
0.827451 0.800000 1.000000
0.913725 0.811765 1.000000
0.972549 0.819608 0.996078
0.541176 0.882353 1.000000
0.537255 0.886275 1.000000
0.584314 0.882353 1.000000
0.635294 0.886275 0.996078
0.709804 0.894118 1.000000
0.784314 0.901961 0.996078
0.870588 0.921569 0.996078
0.941176 0.929412 0.996078
0.984314 0.941176 1.000000
0.552941 0.992157 0.996078
0.572549 0.996078 0.996078
0.607843 1.000000 1.000000
0.654902 1.000000 1.000000
0.725490 1.000000 1.000000
0.807843 1.000000 1.000000
0.890196 1.000000 0.996078
0.968627 1.000000 1.000000
1.000000 1.000000 1.000000
