app/src/main/assets/cube/Christmas 8.cube
TITLE "Christmas LUT #8"
#LUT size
LUT_3D_SIZE 5
#LUT data points
0.000000 0.000000 0.007843
0.266667 0.000000 0.000000
0.568627 0.003922 0.000000
0.894118 0.000000 0.000000
0.996078 0.000000 0.000000
0.015686 0.258824 0.000000
0.278431 0.258824 0.000000
0.576471 0.266667 0.000000
0.894118 0.278431 0.007843
1.000000 0.258824 0.000000
0.003922 0.568627 0.000000
0.309804 0.564706 0.000000
0.600000 0.568627 0.000000
0.894118 0.572549 0.000000
1.000000 0.556863 0.003922
0.007843 0.862745 0.003922
0.301961 0.854902 0.000000
0.592157 0.847059 0.000000
0.866667 0.847059 0.000000
1.000000 0.819608 0.000000
0.172549 1.000000 0.000000
0.313725 1.000000 0.000000
0.556863 1.000000 0.003922
0.800000 1.000000 0.000000
1.000000 0.996078 0.003922
0.027451 0.003922 0.247059
0.290196 0.000000 0.247059
0.588235 0.000000 0.250980
0.909804 0.000000 0.235294
0.996078 0.003922 0.219608
0.000000 0.270588 0.250980
0.294118 0.262745 0.254902
0.596078 0.250980 0.243137
0.913725 0.239216 0.239216
0.996078 0.239216 0.211765
0.000000 0.588235 0.207843
0.282353 0.580392 0.196078
0.611765 0.580392 0.196078
0.905882 0.576471 0.200000
0.992157 0.549020 0.188235
0.000000 0.862745 0.133333
0.278431 0.862745 0.133333
0.588235 0.858824 0.125490
0.874510 0.850980 0.121569
1.000000 0.811765 0.149020
0.188235 1.000000 0.168627
0.333333 0.996078 0.152941
0.556863 1.000000 0.160784
0.796078 1.000000 0.180392
1.000000 0.996078 0.215686
0.090196 0.003922 0.541176
0.321569 0.003922 0.556863
0.600000 0.000000 0.549020
0.913725 0.000000 0.560784
1.000000 0.003922 0.529412
0.000000 0.250980 0.556863
0.290196 0.239216 0.552941
0.607843 0.215686 0.560784
0.917647 0.200000 0.560784
0.996078 0.219608 0.521569
0.000000 0.580392 0.545098
0.243137 0.576471 0.549020
0.607843 0.572549 0.545098
0.898039 0.572549 0.549020
1.000000 0.564706 0.537255
0.007843 0.862745 0.521569
0.254902 0.858824 0.513725
0.588235 0.854902 0.513725
0.874510 0.850980 0.513725
1.000000 0.819608 0.525490
0.329412 0.996078 0.517647
0.392157 1.000000 0.501961
0.592157 1.000000 0.517647
0.819608 0.996078 0.529412
1.000000 1.000000 0.545098
0.137255 0.000000 0.839216
0.329412 0.000000 0.847059
0.600000 0.000000 0.839216
0.898039 0.000000 0.850980
0.996078 0.000000 0.815686
0.000000 0.223529 0.847059
0.301961 0.223529 0.847059
0.596078 0.200000 0.843137
0.886275 0.172549 0.843137
1.000000 0.203922 0.819608
0.000000 0.549020 0.839216
0.262745 0.545098 0.835294
0.596078 0.549020 0.847059
0.878431 0.549020 0.843137
1.000000 0.576471 0.811765
0.000000 0.854902 0.831373
0.317647 0.850980 0.843137
0.615686 0.854902 0.835294
0.866667 0.847059 0.835294
1.000000 0.854902 0.831373
0.427451 1.000000 0.788235
0.501961 1.000000 0.784314
0.678431 1.000000 0.811765
0.858824 1.000000 0.819608
0.996078 1.000000 0.827451
0.141176 0.003922 0.996078
0.313725 0.000000 1.000000
0.552941 0.000000 0.996078
0.811765 0.000000 1.000000
1.000000 0.003922 1.000000
0.113725 0.215686 0.996078
0.301961 0.219608 1.000000
0.552941 0.211765 1.000000
0.811765 0.211765 1.000000
1.000000 0.231373 1.000000
0.196078 0.529412 0.996078
0.333333 0.525490 1.000000
0.580392 0.525490 1.000000
0.815686 0.537255 1.000000
1.000000 0.556863 1.000000
0.349020 0.796078 1.000000
0.439216 0.792157 1.000000
0.650980 0.807843 1.000000
0.854902 0.835294 0.996078
0.988235 0.839216 0.992157
0.529412 1.000000 0.996078
0.592157 1.000000 0.996078
0.729412 0.996078 1.000000
0.898039 1.000000 0.988235
1.000000 1.000000 1.000000
