app/src/main/assets/cube/Christmas 8.cube
TITLE "Christmas LUT #8"
#LUT size
LUT_3D_SIZE 9
#LUT data points
0.000000 0.000000 0.007843
0.117647 0.000000 0.000000
0.266667 0.000000 0.000000
0.411765 0.000000 0.000000
0.568627 0.003922 0.000000
0.729412 0.000000 0.003922
0.894118 0.000000 0.000000
0.996078 0.000000 0.000000
0.996078 0.000000 0.000000
0.011765 0.125490 0.007843
0.125490 0.121569 0.000000
0.274510 0.133333 0.000000
0.427451 0.129412 0.003922
0.584314 0.121569 0.003922
0.745098 0.113725 0.000000
0.901961 0.101961 0.000000
0.992157 0.090196 0.000000
1.000000 0.090196 0.000000
0.015686 0.258824 0.000000
0.141176 0.262745 0.000000
0.278431 0.258824 0.000000
0.423529 0.262745 0.003922
0.576471 0.266667 0.000000
0.737255 0.274510 0.000000
0.894118 0.278431 0.007843
0.992157 0.266667 0.003922
1.000000 0.258824 0.000000
0.011765 0.415686 0.003922
0.152941 0.415686 0.000000
0.305882 0.419608 0.003922
0.447059 0.419608 0.000000
0.596078 0.423529 0.003922
0.756863 0.423529 0.003922
0.905882 0.427451 0.000000
1.000000 0.423529 0.000000
0.996078 0.415686 0.000000
0.003922 0.568627 0.000000
0.156863 0.560784 0.000000
0.309804 0.564706 0.000000
0.454902 0.568627 0.003922
0.600000 0.568627 0.000000
0.749020 0.572549 0.003922
0.894118 0.572549 0.000000
1.000000 0.564706 0.007843
1.000000 0.556863 0.003922
0.000000 0.705882 0.000000
0.149020 0.705882 0.000000
0.298039 0.709804 0.000000
0.443137 0.709804 0.000000
0.600000 0.717647 0.003922
0.749020 0.713725 0.000000
0.882353 0.717647 0.000000
0.996078 0.701961 0.000000
1.000000 0.678431 0.003922
0.007843 0.862745 0.003922
0.152941 0.858824 0.000000
0.301961 0.854902 0.000000
0.447059 0.854902 0.000000
0.592157 0.847059 0.000000
0.737255 0.854902 0.000000
0.866667 0.847059 0.000000
0.996078 0.839216 0.007843
1.000000 0.819608 0.000000
0.066667 0.960784 0.000000
0.164706 0.956863 0.000000
0.294118 0.960784 0.000000
0.439216 0.952941 0.000000
0.572549 0.956863 0.003922
0.709804 0.949020 0.003922
0.831373 0.952941 0.000000
0.968627 0.949020 0.007843
0.996078 0.937255 0.000000
0.172549 1.000000 0.000000
0.227451 1.000000 0.000000
0.313725 1.000000 0.000000
0.431373 1.000000 0.000000
0.556863 1.000000 0.003922
0.678431 1.000000 0.000000
0.800000 1.000000 0.000000
0.913725 1.000000 0.000000
1.000000 0.996078 0.003922
0.003922 0.003922 0.113725
0.129412 0.000000 0.113725
0.278431 0.000000 0.117647
0.427451 0.000000 0.113725
0.584314 0.000000 0.101961
0.745098 0.000000 0.098039
0.905882 0.000000 0.078431
1.000000 0.000000 0.047059
1.000000 0.000000 0.023529
0.007843 0.129412 0.109804
0.149020 0.137255 0.109804
0.282353 0.121569 0.113725
0.439216 0.109804 0.101961
0.592157 0.098039 0.101961
0.760784 0.086275 0.086275
0.909804 0.062745 0.066667
1.000000 0.047059 0.047059
1.000000 0.054902 0.027451
0.003922 0.274510 0.090196
0.145098 0.266667 0.101961
0.286275 0.270588 0.086275
0.435294 0.266667 0.098039
0.588235 0.266667 0.078431
0.749020 0.262745 0.050980
0.905882 0.266667 0.035294
0.996078 0.258824 0.007843
0.996078 0.250980 0.007843
0.000000 0.431373 0.058824
0.137255 0.427451 0.054902
0.301961 0.427451 0.047059
0.454902 0.423529 0.035294
0.615686 0.431373 0.015686
0.764706 0.431373 0.011765
0.909804 0.431373 0.000000
1.000000 0.419608 0.000000
1.000000 0.407843 0.000000
0.000000 0.580392 0.000000
0.133333 0.580392 0.000000
0.294118 0.576471 0.000000
0.454902 0.584314 0.000000
0.615686 0.576471 0.000000
0.760784 0.580392 0.000000
0.901961 0.580392 0.000000
1.000000 0.564706 0.000000
0.992157 0.549020 0.000000
0.003922 0.717647 0.011765
0.117647 0.713725 0.000000
0.294118 0.717647 0.000000
0.447059 0.721569 0.000000
0.600000 0.717647 0.000000
0.752941 0.721569 0.000000
0.894118 0.713725 0.000000
1.000000 0.705882 0.003922
0.988235 0.686275 0.000000
0.000000 0.866667 0.000000
0.141176 0.862745 0.000000
0.294118 0.858824 0.000000
0.447059 0.854902 0.000000
0.596078 0.850980 0.000000
0.737255 0.854902 0.000000
0.870588 0.854902 0.000000
1.000000 0.831373 0.003922
1.000000 0.811765 0.000000
0.058824 0.960784 0.000000
0.164706 0.964706 0.000000
0.294118 0.956863 0.003922
0.431373 0.956863 0.003922
0.564706 0.956863 0.000000
0.713725 0.952941 0.000000
0.831373 0.952941 0.000000
0.968627 0.949020 0.000000
1.000000 0.945098 0.007843
0.176471 1.000000 0.000000
0.227451 1.000000 0.000000
0.329412 0.996078 0.000000
0.435294 1.000000 0.003922
0.560784 1.000000 0.000000
0.678431 1.000000 0.000000
0.800000 1.000000 0.000000
0.917647 1.000000 0.007843
1.000000 1.000000 0.003922
0.027451 0.003922 0.247059
0.141176 0.007843 0.247059
0.290196 0.000000 0.247059
0.431373 0.000000 0.254902
0.588235 0.000000 0.250980
0.749020 0.003922 0.254902
0.909804 0.000000 0.235294
1.000000 0.000000 0.219608
0.996078 0.003922 0.219608
0.000000 0.117647 0.258824
0.137255 0.113725 0.254902
0.290196 0.109804 0.254902
0.439216 0.098039 0.262745
0.603922 0.062745 0.254902
0.764706 0.000000 0.239216
0.913725 0.003922 0.239216
0.996078 0.000000 0.243137
1.000000 0.000000 0.215686
0.000000 0.270588 0.250980
0.145098 0.274510 0.247059
0.294118 0.262745 0.254902
0.439216 0.262745 0.243137
0.596078 0.250980 0.243137
0.756863 0.247059 0.239216
0.913725 0.239216 0.239216
0.996078 0.239216 0.211765
0.996078 0.239216 0.211765
0.000000 0.435294 0.239216
0.086275 0.431373 0.231373
0.294118 0.427451 0.231373
0.454902 0.423529 0.231373
0.619608 0.423529 0.231373
0.764706 0.419608 0.223529
0.913725 0.419608 0.219608
0.996078 0.407843 0.211765
1.000000 0.396078 0.207843
0.000000 0.588235 0.207843
0.023529 0.576471 0.207843
0.282353 0.580392 0.196078
0.443137 0.576471 0.196078
0.611765 0.580392 0.196078
0.764706 0.576471 0.184314
0.905882 0.576471 0.200000
1.000000 0.560784 0.200000
0.992157 0.549020 0.188235
0.007843 0.729412 0.156863
0.011765 0.733333 0.160784
0.274510 0.717647 0.152941
0.439216 0.729412 0.160784
0.603922 0.721569 0.149020
0.752941 0.721569 0.152941
0.890196 0.717647 0.137255
1.000000 0.701961 0.160784
1.000000 0.682353 0.168627
0.000000 0.862745 0.133333
0.094118 0.854902 0.129412
0.278431 0.862745 0.133333
0.439216 0.854902 0.125490
0.588235 0.858824 0.125490
0.741176 0.854902 0.125490
0.874510 0.850980 0.121569
1.000000 0.847059 0.129412
1.000000 0.811765 0.149020
0.023529 0.964706 0.090196
0.156863 0.964706 0.101961
0.286275 0.960784 0.090196
0.435294 0.960784 0.094118
0.568627 0.960784 0.098039
0.705882 0.952941 0.117647
0.835294 0.952941 0.121569
0.972549 0.952941 0.117647
1.000000 0.929412 0.133333
0.188235 1.000000 0.168627
0.243137 1.000000 0.156863
0.333333 0.996078 0.152941
0.447059 1.000000 0.152941
0.556863 1.000000 0.160784
0.686275 1.000000 0.164706
0.796078 1.000000 0.180392
0.913725 1.000000 0.196078
1.000000 0.996078 0.215686
0.062745 0.000000 0.388235
0.160784 0.000000 0.380392
0.298039 0.000000 0.392157
0.439216 0.000000 0.400000
0.592157 0.003922 0.396078
0.752941 0.000000 0.403922
0.905882 0.000000 0.396078
1.000000 0.000000 0.388235
1.000000 0.000000 0.360784
0.000000 0.109804 0.400000
0.137255 0.105882 0.400000
0.294118 0.094118 0.396078
0.447059 0.062745 0.396078
0.607843 0.019608 0.400000
0.768627 0.000000 0.407843
0.909804 0.000000 0.400000
1.000000 0.000000 0.388235
1.000000 0.000000 0.368627
0.000000 0.266667 0.396078
0.121569 0.250980 0.388235
0.290196 0.247059 0.403922
0.443137 0.247059 0.396078
0.603922 0.243137 0.403922
0.760784 0.231373 0.392157
0.917647 0.211765 0.396078
1.000000 0.219608 0.380392
1.000000 0.223529 0.364706
0.000000 0.431373 0.396078
0.094118 0.415686 0.400000
0.282353 0.427451 0.400000
0.450980 0.415686 0.388235
0.611765 0.419608 0.400000
0.764706 0.407843 0.388235
0.913725 0.407843 0.388235
1.000000 0.403922 0.384314
1.000000 0.403922 0.380392
0.003922 0.584314 0.396078
0.000000 0.588235 0.380392
0.239216 0.580392 0.380392
0.435294 0.580392 0.368627
0.615686 0.580392 0.364706
0.768627 0.572549 0.380392
0.898039 0.572549 0.376471
1.000000 0.552941 0.368627
1.000000 0.537255 0.368627
0.000000 0.721569 0.337255
0.000000 0.725490 0.345098
0.231373 0.725490 0.345098
0.419608 0.721569 0.345098
0.600000 0.725490 0.345098
0.756863 0.721569 0.349020
0.894118 0.713725 0.345098
0.996078 0.698039 0.352941
0.996078 0.678431 0.356863
0.000000 0.866667 0.349020
0.000000 0.858824 0.325490
0.247059 0.858824 0.329412
0.427451 0.858824 0.337255
0.584314 0.858824 0.337255
0.733333 0.858824 0.337255
0.878431 0.850980 0.333333
1.000000 0.839216 0.345098
1.000000 0.807843 0.333333
0.003922 0.968627 0.337255
0.133333 0.964706 0.329412
0.282353 0.956863 0.321569
0.431373 0.960784 0.317647
0.564706 0.956863 0.325490
0.705882 0.949020 0.325490
0.839216 0.956863 0.337255
0.964706 0.952941 0.337255
0.992157 0.937255 0.317647
0.243137 0.996078 0.356863
0.270588 1.000000 0.337255
0.349020 1.000000 0.341176
0.447059 1.000000 0.349020
0.564706 1.000000 0.345098
0.694118 1.000000 0.356863
0.800000 1.000000 0.360784
0.917647 1.000000 0.372549
1.000000 1.000000 0.372549
0.090196 0.003922 0.541176
0.184314 0.000000 0.545098
0.321569 0.003922 0.556863
0.458824 0.000000 0.552941
0.600000 0.000000 0.549020
0.764706 0.000000 0.560784
0.913725 0.000000 0.560784
1.000000 0.000000 0.541176
1.000000 0.003922 0.529412
0.031373 0.098039 0.560784
0.168627 0.086275 0.560784
0.309804 0.066667 0.556863
0.466667 0.019608 0.556863
0.619608 0.003922 0.564706
0.776471 0.003922 0.560784
0.921569 0.000000 0.560784
1.000000 0.003922 0.533333
1.000000 0.003922 0.521569
0.000000 0.250980 0.556863
0.098039 0.243137 0.560784
0.290196 0.239216 0.552941
0.454902 0.227451 0.556863
0.607843 0.215686 0.560784
0.772549 0.207843 0.549020
0.917647 0.200000 0.560784
1.000000 0.207843 0.537255
0.996078 0.219608 0.521569
0.000000 0.419608 0.568627
0.011765 0.423529 0.549020
0.258824 0.407843 0.552941
0.443137 0.400000 0.564706
0.619608 0.396078 0.556863
0.772549 0.403922 0.549020
0.913725 0.400000 0.556863
1.000000 0.407843 0.545098
1.000000 0.419608 0.537255
0.000000 0.580392 0.545098
0.003922 0.572549 0.545098
0.243137 0.576471 0.549020
0.427451 0.572549 0.545098
0.607843 0.572549 0.545098
0.756863 0.572549 0.549020
0.898039 0.572549 0.549020
1.000000 0.568627 0.541176
1.000000 0.564706 0.537255
0.000000 0.725490 0.529412
0.000000 0.725490 0.529412
0.203922 0.725490 0.517647
0.415686 0.721569 0.525490
0.584314 0.729412 0.525490
0.760784 0.721569 0.529412
0.894118 0.709804 0.529412
0.996078 0.701961 0.537255
0.996078 0.686275 0.517647
0.007843 0.862745 0.521569
0.007843 0.858824 0.517647
0.254902 0.858824 0.513725
0.427451 0.854902 0.505882
0.588235 0.854902 0.513725
0.737255 0.854902 0.517647
0.874510 0.850980 0.513725
0.996078 0.835294 0.513725
1.000000 0.819608 0.525490
0.141176 0.960784 0.501961
0.200000 0.956863 0.490196
0.313725 0.960784 0.498039
0.450980 0.956863 0.494118
0.580392 0.960784 0.505882
0.709804 0.956863 0.505882
0.843137 0.949020 0.505882
0.960784 0.949020 0.505882
1.000000 0.933333 0.509804
0.329412 0.996078 0.517647
0.337255 1.000000 0.509804
0.392157 1.000000 0.501961
0.494118 1.000000 0.517647
0.592157 1.000000 0.517647
0.701961 1.000000 0.521569
0.819608 0.996078 0.529412
0.921569 1.000000 0.525490
1.000000 1.000000 0.545098
0.129412 0.000000 0.705882
0.211765 0.000000 0.705882
0.333333 0.000000 0.709804
0.466667 0.000000 0.705882
0.619608 0.000000 0.709804
0.764706 0.000000 0.713725
0.917647 0.000000 0.717647
1.000000 0.000000 0.701961
1.000000 0.000000 0.674510
0.062745 0.066667 0.717647
0.192157 0.062745 0.717647
0.325490 0.031373 0.729412
0.474510 0.000000 0.717647
0.619608 0.000000 0.717647
0.776471 0.000000 0.717647
0.921569 0.000000 0.709804
0.992157 0.000000 0.701961
0.996078 0.003922 0.666667
0.000000 0.239216 0.698039
0.113725 0.239216 0.721569
0.294118 0.235294 0.701961
0.462745 0.219608 0.717647
0.611765 0.207843 0.721569
0.776471 0.188235 0.713725
0.909804 0.180392 0.717647
1.000000 0.192157 0.686275
1.000000 0.211765 0.674510
0.000000 0.407843 0.725490
0.003922 0.407843 0.717647
0.254902 0.400000 0.713725
0.443137 0.392157 0.713725
0.611765 0.384314 0.713725
0.768627 0.384314 0.717647
0.917647 0.380392 0.701961
1.000000 0.403922 0.698039
0.996078 0.423529 0.678431
0.000000 0.572549 0.725490
0.000000 0.560784 0.698039
0.247059 0.568627 0.713725
0.431373 0.564706 0.713725
0.600000 0.560784 0.705882
0.760784 0.556863 0.709804
0.901961 0.564706 0.701961
1.000000 0.572549 0.686275
0.996078 0.592157 0.674510
0.000000 0.725490 0.698039
0.000000 0.717647 0.698039
0.235294 0.725490 0.701961
0.415686 0.725490 0.705882
0.596078 0.721569 0.701961
0.752941 0.717647 0.698039
0.878431 0.717647 0.694118
0.992157 0.721569 0.701961
1.000000 0.717647 0.694118
0.000000 0.862745 0.682353
0.074510 0.858824 0.678431
0.286275 0.858824 0.682353
0.454902 0.858824 0.682353
0.611765 0.858824 0.690196
0.749020 0.854902 0.694118
0.870588 0.850980 0.694118
0.980392 0.843137 0.694118
1.000000 0.839216 0.690196
0.203922 0.968627 0.670588
0.270588 0.960784 0.666667
0.364706 0.952941 0.662745
0.498039 0.952941 0.666667
0.627451 0.952941 0.686275
0.737255 0.952941 0.686275
0.847059 0.952941 0.682353
0.964706 0.945098 0.678431
1.000000 0.933333 0.674510
0.415686 1.000000 0.678431
0.423529 1.000000 0.666667
0.490196 0.996078 0.674510
0.560784 1.000000 0.670588
0.639216 1.000000 0.674510
0.733333 1.000000 0.674510
0.835294 0.996078 0.686275
0.925490 1.000000 0.682353
0.996078 1.000000 0.694118
0.137255 0.000000 0.839216
0.207843 0.000000 0.850980
0.329412 0.000000 0.847059
0.470588 0.003922 0.850980
0.600000 0.000000 0.839216
0.745098 0.000000 0.847059
0.898039 0.000000 0.850980
1.000000 0.000000 0.839216
0.996078 0.000000 0.815686
0.105882 0.035294 0.850980
0.188235 0.031373 0.854902
0.321569 0.003922 0.850980
0.466667 0.000000 0.847059
0.592157 0.000000 0.843137
0.749020 0.000000 0.850980
0.894118 0.000000 0.847059
0.996078 0.000000 0.835294
0.996078 0.000000 0.823529
0.000000 0.223529 0.847059
0.141176 0.231373 0.850980
0.301961 0.223529 0.847059
0.454902 0.211765 0.850980
0.596078 0.200000 0.843137
0.745098 0.184314 0.850980
0.886275 0.172549 0.843137
1.000000 0.164706 0.843137
1.000000 0.203922 0.819608
0.007843 0.384314 0.854902
0.031373 0.380392 0.843137
0.270588 0.384314 0.847059
0.439216 0.388235 0.850980
0.592157 0.384314 0.847059
0.745098 0.376471 0.854902
0.898039 0.376471 0.843137
1.000000 0.384314 0.843137
0.996078 0.403922 0.823529
0.000000 0.549020 0.839216
0.000000 0.552941 0.831373
0.262745 0.545098 0.835294
0.435294 0.549020 0.847059
0.596078 0.549020 0.847059
0.737255 0.549020 0.839216
0.878431 0.549020 0.843137
1.000000 0.556863 0.839216
1.000000 0.576471 0.811765
0.000000 0.701961 0.831373
0.023529 0.701961 0.835294
0.274510 0.698039 0.839216
0.435294 0.701961 0.839216
0.603922 0.705882 0.835294
0.745098 0.705882 0.839216
0.886275 0.713725 0.850980
0.988235 0.709804 0.827451
0.988235 0.721569 0.811765
0.000000 0.854902 0.831373
0.164706 0.847059 0.839216
0.317647 0.850980 0.843137
0.470588 0.847059 0.839216
0.615686 0.854902 0.835294
0.752941 0.850980 0.839216
0.866667 0.847059 0.835294
0.980392 0.843137 0.827451
1.000000 0.854902 0.831373
0.266667 0.956863 0.807843
0.298039 0.964706 0.819608
0.392157 0.960784 0.807843
0.517647 0.956863 0.807843
0.627451 0.956863 0.815686
0.752941 0.956863 0.815686
0.854902 0.949020 0.815686
0.964706 0.945098 0.819608
1.000000 0.937255 0.819608
0.427451 1.000000 0.788235
0.454902 0.996078 0.792157
0.501961 1.000000 0.784314
0.592157 1.000000 0.800000
0.678431 1.000000 0.811765
0.776471 1.000000 0.815686
0.858824 1.000000 0.819608
0.933333 1.000000 0.823529
0.996078 1.000000 0.827451
0.137255 0.000000 0.960784
0.203922 0.003922 0.956863
0.321569 0.003922 0.956863
0.447059 0.000000 0.960784
0.584314 0.000000 0.956863
0.721569 0.000000 0.956863
0.858824 0.003922 0.964706
0.980392 0.000000 0.960784
1.000000 0.003922 0.960784
0.101961 0.023529 0.960784
0.188235 0.011765 0.956863
0.313725 0.000000 0.960784
0.447059 0.000000 0.960784
0.580392 0.000000 0.964706
0.721569 0.000000 0.956863
0.858824 0.000000 0.960784
1.000000 0.000000 0.964706
1.000000 0.007843 0.952941
0.035294 0.223529 0.960784
0.160784 0.219608 0.952941
0.294118 0.219608 0.956863
0.431373 0.207843 0.956863
0.576471 0.200000 0.964706
0.721569 0.196078 0.960784
0.858824 0.192157 0.964706
0.988235 0.184314 0.964706
1.000000 0.188235 0.960784
0.003922 0.376471 0.972549
0.137255 0.376471 0.968627
0.282353 0.376471 0.964706
0.431373 0.376471 0.960784
0.568627 0.372549 0.949020
0.709804 0.372549 0.956863
0.858824 0.376471 0.964706
0.988235 0.384314 0.964706
1.000000 0.388235 0.956863
0.000000 0.525490 0.960784
0.149020 0.533333 0.960784
0.301961 0.529412 0.952941
0.439216 0.533333 0.956863
0.580392 0.537255 0.949020
0.717647 0.537255 0.960784
0.850980 0.541176 0.952941
0.980392 0.545098 0.949020
1.000000 0.560784 0.945098
0.086275 0.678431 0.949020
0.192157 0.678431 0.952941
0.317647 0.682353 0.945098
0.458824 0.682353 0.945098
0.607843 0.690196 0.945098
0.737255 0.698039 0.945098
0.854902 0.701961 0.949020
0.976471 0.709804 0.949020
1.000000 0.717647 0.937255
0.215686 0.815686 0.949020
0.270588 0.815686 0.937255
0.372549 0.823529 0.945098
0.498039 0.823529 0.949020
0.627451 0.827451 0.949020
0.749020 0.831373 0.945098
0.862745 0.847059 0.945098
0.960784 0.843137 0.945098
1.000000 0.850980 0.933333
0.313725 0.952941 0.949020
0.356863 0.945098 0.941176
0.423529 0.949020 0.945098
0.529412 0.945098 0.937255
0.631373 0.945098 0.933333
0.752941 0.941176 0.941176
0.858824 0.945098 0.937255
0.956863 0.941176 0.937255
1.000000 0.949020 0.945098
0.474510 0.996078 0.913725
0.478431 0.996078 0.913725
0.525490 1.000000 0.913725
0.600000 1.000000 0.917647
0.694118 1.000000 0.921569
0.788235 1.000000 0.921569
0.878431 1.000000 0.929412
0.952941 0.996078 0.941176
1.000000 0.996078 0.945098
0.141176 0.003922 0.996078
0.203922 0.000000 1.000000
0.313725 0.000000 1.000000
0.427451 0.000000 0.996078
0.552941 0.000000 0.996078
0.686275 0.003922 1.000000
0.811765 0.000000 1.000000
0.945098 0.000000 1.000000
1.000000 0.003922 1.000000
0.125490 0.031373 0.996078
0.192157 0.015686 1.000000
0.305882 0.003922 1.000000
0.431373 0.000000 1.000000
0.556863 0.003922 1.000000
0.686275 0.000000 1.000000
0.815686 0.003922 1.000000
0.945098 0.000000 0.992157
1.000000 0.000000 0.996078
0.113725 0.215686 0.996078
0.180392 0.215686 0.996078
0.301961 0.219608 1.000000
0.419608 0.211765 1.000000
0.552941 0.211765 1.000000
0.686275 0.211765 1.000000
0.811765 0.211765 1.000000
0.941176 0.215686 1.000000
1.000000 0.231373 1.000000
0.125490 0.368627 0.992157
0.196078 0.368627 1.000000
0.305882 0.364706 1.000000
0.427451 0.368627 1.000000
0.556863 0.376471 1.000000
0.678431 0.376471 0.996078
0.803922 0.384314 0.996078
0.937255 0.388235 1.000000
0.996078 0.407843 1.000000
0.196078 0.529412 0.996078
0.247059 0.521569 1.000000
0.333333 0.525490 1.000000
0.450980 0.525490 1.000000
0.580392 0.525490 1.000000
0.690196 0.529412 0.992157
0.815686 0.537255 1.000000
0.937255 0.549020 1.000000
1.000000 0.556863 1.000000
0.247059 0.654902 1.000000
0.298039 0.654902 1.000000
0.384314 0.666667 1.000000
0.498039 0.674510 1.000000
0.611765 0.682353 1.000000
0.717647 0.682353 0.992157
0.831373 0.698039 1.000000
0.941176 0.701961 1.000000
1.000000 0.709804 1.000000
0.349020 0.796078 1.000000
0.376471 0.788235 1.000000
0.439216 0.792157 1.000000
0.537255 0.796078 1.000000
0.650980 0.807843 1.000000
0.756863 0.823529 0.996078
0.854902 0.835294 0.996078
0.941176 0.831373 0.988235
0.988235 0.839216 0.992157
0.431373 0.905882 1.000000
0.450980 0.905882 1.000000
0.509804 0.909804 1.000000
0.588235 0.909804 0.996078
0.678431 0.917647 0.992157
0.776471 0.921569 0.996078
0.870588 0.933333 0.996078
0.952941 0.945098 1.000000
0.996078 0.949020 0.996078
0.529412 1.000000 0.996078
0.549020 1.000000 1.000000
0.592157 1.000000 0.996078
0.662745 1.000000 1.000000
0.729412 0.996078 1.000000
0.819608 1.000000 0.992157
0.898039 1.000000 0.988235
0.968627 1.000000 1.000000
1.000000 1.000000 1.000000
