app/src/main/assets/cube/Christmas 5.cube
TITLE "Christmas LUT #5"
#LUT size
LUT_3D_SIZE 5
#LUT data points
0.101961 0.086275 0.074510
0.282353 0.090196 0.070588
0.486275 0.086275 0.078431
0.713725 0.094118 0.082353
0.976471 0.066667 0.058824
0.121569 0.270588 0.086275
0.278431 0.262745 0.078431
0.482353 0.250980 0.086275
0.713725 0.254902 0.082353
0.972549 0.250980 0.039216
0.129412 0.470588 0.058824
0.266667 0.466667 0.062745
0.474510 0.470588 0.047059
0.721569 0.478431 0.035294
0.988235 0.486275 0.000000
0.007843 0.733333 0.000000
0.235294 0.721569 0.000000
0.482353 0.725490 0.000000
0.745098 0.729412 0.000000
0.984314 0.737255 0.000000
0.000000 0.996078 0.000000
0.160784 0.988235 0.003922
0.470588 0.992157 0.000000
0.741176 0.996078 0.000000
1.000000 1.000000 0.000000
0.113725 0.086275 0.258824
0.286275 0.098039 0.262745
0.490196 0.105882 0.258824
0.721569 0.070588 0.258824
0.980392 0.000000 0.239216
0.141176 0.266667 0.254902
0.290196 0.258824 0.250980
0.478431 0.258824 0.254902
0.725490 0.247059 0.243137
0.984314 0.231373 0.227451
0.082353 0.478431 0.243137
0.258824 0.478431 0.239216
0.482353 0.474510 0.235294
0.721569 0.482353 0.235294
0.980392 0.482353 0.219608
0.000000 0.733333 0.188235
0.200000 0.729412 0.188235
0.486275 0.729412 0.192157
0.741176 0.737255 0.172549
0.992157 0.733333 0.149020
0.003922 0.988235 0.000000
0.043137 1.000000 0.000000
0.454902 0.992157 0.000000
0.741176 0.996078 0.000000
1.000000 1.000000 0.000000
0.129412 0.086275 0.486275
0.270588 0.094118 0.498039
0.490196 0.074510 0.498039
0.725490 0.019608 0.501961
0.992157 0.000000 0.490196
0.105882 0.243137 0.501961
0.274510 0.239216 0.494118
0.486275 0.231373 0.498039
0.729412 0.219608 0.501961
0.984314 0.152941 0.486275
0.007843 0.478431 0.482353
0.223529 0.470588 0.490196
0.470588 0.466667 0.490196
0.733333 0.462745 0.482353
0.984314 0.447059 0.474510
0.000000 0.737255 0.470588
0.000000 0.733333 0.458824
0.427451 0.741176 0.462745
0.737255 0.737255 0.454902
1.000000 0.725490 0.443137
0.000000 1.000000 0.388235
0.003922 0.996078 0.396078
0.388235 0.996078 0.392157
0.717647 0.996078 0.384314
0.996078 1.000000 0.388235
0.117647 0.078431 0.764706
0.266667 0.070588 0.756863
0.498039 0.019608 0.760784
0.733333 0.000000 0.756863
0.996078 0.000000 0.764706
0.019608 0.223529 0.764706
0.235294 0.215686 0.772549
0.494118 0.207843 0.768627
0.729412 0.180392 0.764706
1.000000 0.082353 0.768627
0.000000 0.466667 0.772549
0.098039 0.458824 0.760784
0.435294 0.439216 0.760784
0.733333 0.427451 0.764706
1.000000 0.419608 0.749020
0.000000 0.729412 0.764706
0.000000 0.733333 0.760784
0.419608 0.725490 0.772549
0.737255 0.733333 0.764706
1.000000 0.745098 0.760784
0.007843 1.000000 0.749020
0.000000 1.000000 0.717647
0.349020 1.000000 0.717647
0.721569 1.000000 0.725490
0.996078 1.000000 0.725490
0.066667 0.023529 1.000000
0.258824 0.003922 1.000000
0.482353 0.000000 1.000000
0.733333 0.000000 1.000000
0.996078 0.000000 1.000000
0.000000 0.203922 1.000000
0.219608 0.200000 1.000000
0.470588 0.188235 0.996078
0.729412 0.141176 1.000000
1.000000 0.000000 0.980392
0.000000 0.423529 1.000000
0.000000 0.415686 0.996078
0.411765 0.411765 1.000000
0.713725 0.403922 1.000000
1.000000 0.364706 1.000000
0.000000 0.701961 1.000000
0.003922 0.698039 1.000000
0.396078 0.698039 1.000000
0.709804 0.701961 0.996078
1.000000 0.694118 1.000000
0.000000 0.984314 0.996078
0.000000 0.980392 1.000000
0.415686 0.984314 1.000000
0.776471 0.984314 1.000000
1.000000 0.996078 1.000000
