app/src/main/assets/cube/Christmas 7.cube
TITLE "Christmas LUT #7"
#LUT size
LUT_3D_SIZE 25
#LUT data points
0.133333 0.129412 0.121569
0.141176 0.125490 0.113725
0.152941 0.133333 0.121569
0.164706 0.133333 0.125490
0.180392 0.125490 0.121569
0.207843 0.129412 0.125490
0.227451 0.125490 0.121569
0.258824 0.125490 0.121569
0.282353 0.133333 0.129412
0.317647 0.129412 0.113725
0.364706 0.129412 0.125490
0.415686 0.125490 0.121569
0.466667 0.121569 0.113725
0.517647 0.125490 0.117647
0.568627 0.121569 0.117647
0.619608 0.117647 0.105882
0.682353 0.109804 0.109804
0.733333 0.109804 0.098039
0.788235 0.101961 0.090196
0.847059 0.094118 0.090196
0.898039 0.082353 0.074510
0.949020 0.078431 0.066667
0.996078 0.070588 0.070588
1.000000 0.062745 0.058824
0.992157 0.054902 0.043137
0.137255 0.133333 0.117647
0.137255 0.141176 0.121569
0.149020 0.133333 0.129412
0.168627 0.137255 0.125490
0.192157 0.137255 0.125490
0.207843 0.137255 0.129412
0.219608 0.137255 0.117647
0.247059 0.137255 0.121569
0.278431 0.141176 0.125490
0.317647 0.141176 0.129412
0.364706 0.137255 0.129412
0.415686 0.137255 0.121569
0.466667 0.141176 0.117647
0.521569 0.141176 0.113725
0.572549 0.137255 0.109804
0.631373 0.133333 0.109804
0.682353 0.129412 0.101961
0.733333 0.129412 0.098039
0.792157 0.121569 0.090196
0.850980 0.117647 0.090196
0.901961 0.113725 0.082353
0.952941 0.101961 0.066667
0.992157 0.098039 0.062745
1.000000 0.090196 0.050980
0.996078 0.082353 0.054902
0.137255 0.149020 0.121569
0.141176 0.152941 0.117647
0.156863 0.145098 0.125490
0.164706 0.152941 0.125490
0.180392 0.145098 0.117647
0.200000 0.149020 0.117647
0.219608 0.152941 0.125490
0.254902 0.145098 0.129412
0.286275 0.149020 0.125490
0.321569 0.152941 0.125490
0.364706 0.149020 0.121569
0.415686 0.152941 0.117647
0.458824 0.152941 0.113725
0.505882 0.152941 0.117647
0.572549 0.156863 0.105882
0.627451 0.152941 0.109804
0.682353 0.149020 0.101961
0.737255 0.149020 0.094118
0.796078 0.145098 0.090196
0.850980 0.137255 0.086275
0.901961 0.133333 0.078431
0.949020 0.125490 0.066667
1.000000 0.121569 0.050980
0.996078 0.121569 0.054902
0.992157 0.121569 0.039216
0.137255 0.168627 0.125490
0.145098 0.160784 0.105882
0.156863 0.160784 0.129412
0.160784 0.160784 0.121569
0.180392 0.164706 0.129412
0.196078 0.160784 0.125490
0.227451 0.160784 0.121569
0.258824 0.164706 0.117647
0.290196 0.164706 0.121569
0.321569 0.164706 0.117647
0.364706 0.172549 0.117647
0.415686 0.172549 0.121569
0.458824 0.176471 0.121569
0.521569 0.172549 0.109804
0.572549 0.172549 0.113725
0.627451 0.176471 0.101961
0.682353 0.176471 0.094118
0.741176 0.172549 0.098039
0.796078 0.172549 0.090196
0.850980 0.164706 0.082353
0.894118 0.164706 0.074510
0.945098 0.160784 0.062745
0.992157 0.164706 0.058824
0.996078 0.156863 0.047059
0.992157 0.152941 0.043137
0.137255 0.180392 0.125490
0.141176 0.184314 0.121569
0.145098 0.176471 0.117647
0.168627 0.176471 0.121569
0.184314 0.176471 0.117647
0.207843 0.180392 0.117647
0.227451 0.180392 0.117647
0.250980 0.184314 0.121569
0.290196 0.180392 0.125490
0.329412 0.184314 0.121569
0.368627 0.184314 0.113725
0.415686 0.192157 0.117647
0.462745 0.196078 0.105882
0.513725 0.200000 0.101961
0.572549 0.203922 0.105882
0.627451 0.203922 0.101961
0.678431 0.203922 0.090196
0.733333 0.203922 0.086275
0.792157 0.200000 0.078431
0.847059 0.200000 0.074510
0.898039 0.200000 0.058824
0.945098 0.200000 0.058824
0.988235 0.196078 0.047059
1.000000 0.192157 0.035294
1.000000 0.192157 0.035294
0.133333 0.200000 0.125490
0.141176 0.200000 0.125490
0.152941 0.203922 0.125490
0.160784 0.207843 0.121569
0.188235 0.200000 0.125490
0.207843 0.203922 0.125490
0.227451 0.207843 0.121569
0.258824 0.211765 0.125490
0.298039 0.211765 0.121569
0.333333 0.215686 0.121569
0.376471 0.219608 0.121569
0.427451 0.227451 0.121569
0.486275 0.231373 0.121569
0.533333 0.235294 0.109804
0.596078 0.231373 0.101961
0.650980 0.231373 0.090196
0.698039 0.243137 0.090196
0.745098 0.239216 0.082353
0.800000 0.239216 0.066667
0.854902 0.239216 0.062745
0.909804 0.239216 0.058824
0.952941 0.239216 0.043137
0.996078 0.235294 0.035294
1.000000 0.231373 0.027451
1.000000 0.231373 0.015686
0.129412 0.227451 0.113725
0.156863 0.227451 0.125490
0.164706 0.227451 0.113725
0.168627 0.231373 0.125490
0.184314 0.235294 0.125490
0.207843 0.235294 0.113725
0.235294 0.231373 0.113725
0.266667 0.231373 0.117647
0.298039 0.231373 0.113725
0.341176 0.247059 0.113725
0.380392 0.247059 0.109804
0.435294 0.254902 0.121569
0.474510 0.258824 0.105882
0.537255 0.266667 0.105882
0.592157 0.274510 0.105882
0.643137 0.270588 0.082353
0.690196 0.274510 0.078431
0.749020 0.278431 0.074510
0.803922 0.282353 0.062745
0.854902 0.282353 0.050980
0.905882 0.278431 0.035294
0.952941 0.278431 0.027451
0.996078 0.274510 0.023529
1.000000 0.274510 0.011765
0.992157 0.274510 0.000000
0.137255 0.258824 0.125490
0.152941 0.258824 0.121569
0.160784 0.262745 0.117647
0.176471 0.254902 0.109804
0.200000 0.262745 0.121569
0.215686 0.262745 0.121569
0.243137 0.266667 0.125490
0.278431 0.262745 0.125490
0.305882 0.270588 0.117647
0.345098 0.274510 0.117647
0.388235 0.282353 0.113725
0.439216 0.290196 0.105882
0.494118 0.298039 0.098039
0.537255 0.294118 0.094118
0.592157 0.305882 0.090196
0.643137 0.309804 0.086275
0.698039 0.313725 0.074510
0.745098 0.317647 0.062745
0.800000 0.317647 0.050980
0.847059 0.325490 0.031373
0.901961 0.325490 0.019608
0.949020 0.321569 0.015686
0.992157 0.321569 0.007843
1.000000 0.313725 0.000000
1.000000 0.313725 0.019608
0.129412 0.301961 0.109804
0.145098 0.298039 0.121569
0.149020 0.298039 0.105882
0.172549 0.305882 0.105882
0.200000 0.301961 0.117647
0.227451 0.305882 0.113725
0.254902 0.301961 0.113725
0.290196 0.301961 0.117647
0.313725 0.305882 0.113725
0.356863 0.309804 0.113725
0.400000 0.317647 0.101961
0.443137 0.325490 0.090196
0.486275 0.329412 0.086275
0.541176 0.341176 0.086275
0.592157 0.345098 0.082353
0.650980 0.349020 0.066667
0.698039 0.356863 0.054902
0.752941 0.356863 0.043137
0.796078 0.356863 0.027451
0.847059 0.352941 0.011765
0.898039 0.356863 0.000000
0.949020 0.356863 0.007843
0.988235 0.356863 0.003922
1.000000 0.352941 0.000000
1.000000 0.349020 0.000000
0.133333 0.345098 0.101961
0.145098 0.349020 0.098039
0.160784 0.341176 0.090196
0.172549 0.345098 0.098039
0.200000 0.352941 0.098039
0.231373 0.349020 0.098039
0.262745 0.349020 0.098039
0.294118 0.349020 0.105882
0.329412 0.352941 0.101961
0.356863 0.352941 0.098039
0.400000 0.360784 0.090196
0.443137 0.364706 0.086275
0.501961 0.368627 0.078431
0.552941 0.372549 0.066667
0.600000 0.380392 0.054902
0.650980 0.384314 0.050980
0.701961 0.392157 0.031373
0.749020 0.396078 0.019608
0.800000 0.392157 0.003922
0.850980 0.396078 0.000000
0.898039 0.400000 0.000000
0.945098 0.400000 0.000000
0.996078 0.403922 0.000000
1.000000 0.396078 0.000000
1.000000 0.396078 0.000000
0.121569 0.407843 0.086275
0.137255 0.407843 0.082353
0.160784 0.411765 0.082353
0.180392 0.407843 0.078431
0.211765 0.407843 0.074510
0.239216 0.403922 0.074510
0.274510 0.407843 0.070588
0.313725 0.411765 0.082353
0.349020 0.407843 0.074510
0.388235 0.411765 0.074510
0.419608 0.411765 0.070588
0.458824 0.415686 0.062745
0.513725 0.423529 0.047059
0.556863 0.431373 0.035294
0.607843 0.435294 0.023529
0.662745 0.443137 0.015686
0.709804 0.443137 0.007843
0.764706 0.443137 0.003922
0.815686 0.447059 0.003922
0.858824 0.443137 0.003922
0.905882 0.447059 0.000000
0.956863 0.447059 0.000000
1.000000 0.447059 0.000000
1.000000 0.443137 0.000000
0.996078 0.439216 0.000000
0.129412 0.450980 0.058824
0.137255 0.454902 0.050980
0.149020 0.458824 0.047059
0.180392 0.458824 0.050980
0.203922 0.462745 0.047059
0.250980 0.458824 0.050980
0.286275 0.454902 0.043137
0.313725 0.458824 0.047059
0.356863 0.462745 0.043137
0.392157 0.462745 0.023529
0.435294 0.466667 0.027451
0.474510 0.458824 0.027451
0.517647 0.466667 0.019608
0.556863 0.470588 0.003922
0.615686 0.478431 0.007843
0.662745 0.486275 0.000000
0.713725 0.486275 0.003922
0.760784 0.486275 0.000000
0.811765 0.490196 0.000000
0.862745 0.486275 0.003922
0.913725 0.490196 0.003922
0.960784 0.490196 0.007843
1.000000 0.490196 0.003922
1.000000 0.482353 0.000000
0.992157 0.486275 0.015686
0.113725 0.501961 0.000000
0.113725 0.509804 0.000000
0.137255 0.509804 0.007843
0.172549 0.513725 0.000000
0.211765 0.505882 0.000000
0.247059 0.509804 0.000000
0.282353 0.517647 0.000000
0.317647 0.513725 0.000000
0.360784 0.517647 0.000000
0.396078 0.513725 0.003922
0.439216 0.517647 0.003922
0.486275 0.513725 0.003922
0.529412 0.517647 0.000000
0.568627 0.513725 0.000000
0.615686 0.521569 0.000000
0.666667 0.521569 0.000000
0.721569 0.525490 0.000000
0.764706 0.533333 0.000000
0.815686 0.533333 0.000000
0.862745 0.533333 0.003922
0.909804 0.533333 0.000000
0.952941 0.529412 0.000000
0.992157 0.537255 0.000000
1.000000 0.533333 0.000000
1.000000 0.525490 0.003922
0.082353 0.560784 0.000000
0.113725 0.549020 0.000000
0.129412 0.568627 0.003922
0.172549 0.560784 0.003922
0.203922 0.564706 0.003922
0.243137 0.564706 0.000000
0.282353 0.564706 0.000000
0.321569 0.564706 0.000000
0.360784 0.564706 0.000000
0.411765 0.564706 0.003922
0.454902 0.560784 0.000000
0.494118 0.564706 0.000000
0.533333 0.560784 0.003922
0.580392 0.560784 0.000000
0.623529 0.564706 0.000000
0.670588 0.564706 0.003922
0.721569 0.572549 0.003922
0.772549 0.576471 0.000000
0.815686 0.580392 0.000000
0.858824 0.580392 0.000000
0.909804 0.580392 0.000000
0.949020 0.580392 0.000000
0.996078 0.572549 0.000000
0.996078 0.568627 0.000000
1.000000 0.568627 0.003922
0.062745 0.607843 0.000000
0.098039 0.611765 0.000000
0.121569 0.611765 0.007843
0.156863 0.615686 0.003922
0.196078 0.615686 0.000000
0.243137 0.619608 0.000000
0.282353 0.611765 0.000000
0.325490 0.615686 0.000000
0.368627 0.607843 0.000000
0.407843 0.619608 0.000000
0.454902 0.611765 0.000000
0.505882 0.611765 0.000000
0.537255 0.615686 0.000000
0.588235 0.615686 0.003922
0.631373 0.611765 0.000000
0.678431 0.615686 0.000000
0.721569 0.619608 0.000000
0.772549 0.619608 0.003922
0.815686 0.619608 0.003922
0.866667 0.623529 0.000000
0.921569 0.611765 0.003922
0.964706 0.615686 0.003922
0.996078 0.615686 0.000000
1.000000 0.611765 0.000000
1.000000 0.611765 0.000000
0.023529 0.678431 0.000000
0.066667 0.678431 0.003922
0.105882 0.678431 0.000000
0.156863 0.682353 0.003922
0.196078 0.682353 0.000000
0.235294 0.682353 0.000000
0.286275 0.678431 0.000000
0.333333 0.670588 0.000000
0.376471 0.678431 0.000000
0.415686 0.678431 0.000000
0.466667 0.678431 0.003922
0.505882 0.670588 0.003922
0.560784 0.670588 0.000000
0.603922 0.674510 0.000000
0.647059 0.670588 0.000000
0.698039 0.674510 0.000000
0.737255 0.674510 0.000000
0.796078 0.678431 0.003922
0.835294 0.678431 0.000000
0.874510 0.670588 0.000000
0.909804 0.666667 0.000000
0.960784 0.666667 0.000000
1.000000 0.662745 0.003922
1.000000 0.658824 0.000000
1.000000 0.662745 0.000000
0.000000 0.721569 0.000000
0.043137 0.725490 0.000000
0.090196 0.725490 0.011765
0.141176 0.725490 0.000000
0.192157 0.725490 0.000000
0.231373 0.725490 0.000000
0.278431 0.725490 0.003922
0.333333 0.725490 0.003922
0.368627 0.721569 0.000000
0.419608 0.729412 0.000000
0.466667 0.717647 0.000000
0.521569 0.721569 0.003922
0.556863 0.721569 0.000000
0.603922 0.721569 0.000000
0.647059 0.725490 0.000000
0.698039 0.721569 0.000000
0.741176 0.717647 0.003922
0.792157 0.721569 0.000000
0.831373 0.721569 0.000000
0.874510 0.717647 0.000000
0.917647 0.713725 0.000000
0.964706 0.713725 0.000000
1.000000 0.709804 0.000000
0.992157 0.705882 0.000000
1.000000 0.698039 0.000000
0.000000 0.768627 0.000000
0.031373 0.768627 0.000000
0.082353 0.772549 0.000000
0.133333 0.768627 0.000000
0.184314 0.772549 0.003922
0.231373 0.768627 0.007843
0.282353 0.764706 0.000000
0.321569 0.764706 0.000000
0.372549 0.764706 0.000000
0.423529 0.768627 0.000000
0.466667 0.764706 0.000000
0.509804 0.768627 0.000000
0.556863 0.764706 0.000000
0.596078 0.764706 0.003922
0.647059 0.764706 0.003922
0.694118 0.760784 0.000000
0.741176 0.764706 0.003922
0.788235 0.760784 0.000000
0.835294 0.764706 0.003922
0.874510 0.760784 0.007843
0.917647 0.760784 0.003922
0.960784 0.752941 0.000000
0.992157 0.745098 0.000000
1.000000 0.745098 0.007843
1.000000 0.745098 0.003922
0.000000 0.807843 0.000000
0.015686 0.811765 0.011765
0.078431 0.807843 0.000000
0.133333 0.815686 0.000000
0.184314 0.807843 0.000000
0.227451 0.811765 0.003922
0.270588 0.811765 0.000000
0.321569 0.811765 0.003922
0.372549 0.811765 0.003922
0.423529 0.811765 0.007843
0.466667 0.811765 0.003922
0.505882 0.811765 0.003922
0.545098 0.811765 0.000000
0.600000 0.807843 0.000000
0.643137 0.807843 0.000000
0.690196 0.803922 0.000000
0.737255 0.807843 0.000000
0.784314 0.803922 0.003922
0.827451 0.800000 0.000000
0.870588 0.800000 0.000000
0.921569 0.800000 0.000000
0.949020 0.800000 0.000000
1.000000 0.792157 0.000000
1.000000 0.788235 0.000000
0.996078 0.784314 0.011765
0.000000 0.854902 0.000000
0.019608 0.858824 0.003922
0.086275 0.850980 0.000000
0.141176 0.850980 0.000000
0.192157 0.854902 0.003922
0.227451 0.850980 0.000000
0.278431 0.858824 0.000000
0.321569 0.854902 0.000000
0.372549 0.858824 0.003922
0.415686 0.850980 0.000000
0.466667 0.858824 0.003922
0.509804 0.850980 0.003922
0.556863 0.850980 0.007843
0.600000 0.850980 0.000000
0.647059 0.847059 0.000000
0.686275 0.847059 0.000000
0.733333 0.850980 0.000000
0.772549 0.847059 0.000000
0.823529 0.843137 0.000000
0.866667 0.850980 0.000000
0.901961 0.843137 0.000000
0.949020 0.843137 0.003922
0.992157 0.839216 0.000000
1.000000 0.831373 0.000000
1.000000 0.827451 0.000000
0.039216 0.901961 0.000000
0.074510 0.905882 0.000000
0.117647 0.901961 0.000000
0.156863 0.901961 0.000000
0.196078 0.901961 0.003922
0.239216 0.905882 0.007843
0.286275 0.901961 0.003922
0.337255 0.894118 0.007843
0.376471 0.898039 0.000000
0.415686 0.898039 0.000000
0.470588 0.898039 0.000000
0.513725 0.894118 0.003922
0.560784 0.898039 0.000000
0.600000 0.894118 0.003922
0.650980 0.890196 0.000000
0.694118 0.882353 0.000000
0.729412 0.890196 0.000000
0.780392 0.886275 0.000000
0.823529 0.890196 0.000000
0.866667 0.886275 0.003922
0.901961 0.882353 0.000000
0.952941 0.886275 0.000000
0.992157 0.882353 0.003922
0.992157 0.878431 0.000000
1.000000 0.870588 0.003922
0.066667 0.933333 0.000000
0.090196 0.929412 0.000000
0.133333 0.933333 0.003922
0.176471 0.933333 0.000000
0.215686 0.937255 0.003922
0.247059 0.933333 0.000000
0.294118 0.933333 0.003922
0.341176 0.933333 0.000000
0.376471 0.937255 0.003922
0.419608 0.929412 0.000000
0.470588 0.937255 0.003922
0.509804 0.929412 0.003922
0.552941 0.933333 0.003922
0.600000 0.929412 0.003922
0.643137 0.929412 0.000000
0.690196 0.925490 0.003922
0.733333 0.921569 0.003922
0.780392 0.925490 0.000000
0.819608 0.925490 0.000000
0.866667 0.921569 0.000000
0.905882 0.921569 0.000000
0.945098 0.921569 0.000000
0.988235 0.921569 0.000000
1.000000 0.921569 0.000000
1.000000 0.917647 0.027451
0.125490 0.972549 0.000000
0.145098 0.968627 0.007843
0.164706 0.972549 0.000000
0.200000 0.968627 0.003922
0.231373 0.972549 0.000000
0.266667 0.972549 0.003922
0.309804 0.968627 0.007843
0.345098 0.964706 0.003922
0.388235 0.968627 0.003922
0.427451 0.968627 0.003922
0.474510 0.968627 0.000000
0.509804 0.964706 0.000000
0.556863 0.964706 0.000000
0.596078 0.964706 0.000000
0.635294 0.968627 0.000000
0.682353 0.964706 0.000000
0.725490 0.960784 0.000000
0.764706 0.960784 0.000000
0.811765 0.964706 0.000000
0.850980 0.960784 0.000000
0.898039 0.956863 0.003922
0.941176 0.956863 0.003922
0.980392 0.952941 0.058824
1.000000 0.949020 0.074510
0.992157 0.956863 0.113725
0.176471 1.000000 0.000000
0.188235 1.000000 0.003922
0.215686 0.996078 0.003922
0.235294 1.000000 0.000000
0.258824 1.000000 0.000000
0.294118 1.000000 0.000000
0.333333 1.000000 0.000000
0.364706 1.000000 0.000000
0.403922 0.996078 0.000000
0.443137 0.996078 0.000000
0.478431 1.000000 0.000000
0.521569 1.000000 0.000000
0.556863 1.000000 0.003922
0.603922 1.000000 0.019608
0.647059 1.000000 0.039216
0.690196 1.000000 0.062745
0.729412 0.996078 0.074510
0.768627 0.996078 0.086275
0.811765 0.996078 0.101961
0.858824 0.992157 0.125490
0.898039 0.992157 0.145098
0.941176 0.992157 0.160784
0.988235 0.984314 0.176471
0.992157 0.988235 0.188235
1.000000 0.980392 0.219608
0.243137 1.000000 0.101961
0.258824 1.000000 0.113725
0.266667 0.996078 0.113725
0.278431 1.000000 0.129412
0.305882 0.996078 0.133333
0.333333 1.000000 0.137255
0.356863 1.000000 0.133333
0.396078 1.000000 0.149020
0.427451 0.996078 0.145098
0.462745 1.000000 0.160784
0.501961 0.996078 0.156863
0.545098 1.000000 0.164706
0.576471 1.000000 0.176471
0.615686 1.000000 0.172549
0.666667 1.000000 0.188235
0.709804 1.000000 0.203922
0.749020 1.000000 0.211765
0.788235 0.996078 0.227451
0.835294 1.000000 0.239216
0.878431 1.000000 0.239216
0.917647 0.996078 0.266667
0.960784 1.000000 0.282353
0.996078 1.000000 0.294118
1.000000 1.000000 0.309804
1.000000 1.000000 0.317647
0.129412 0.129412 0.137255
0.145098 0.129412 0.133333
0.152941 0.129412 0.129412
0.164706 0.133333 0.125490
0.184314 0.129412 0.129412
0.200000 0.129412 0.129412
0.215686 0.133333 0.121569
0.250980 0.133333 0.125490
0.282353 0.129412 0.133333
0.317647 0.129412 0.129412
0.364706 0.129412 0.129412
0.407843 0.125490 0.129412
0.458824 0.121569 0.125490
0.513725 0.121569 0.129412
0.568627 0.113725 0.125490
0.619608 0.105882 0.125490
0.690196 0.105882 0.113725
0.741176 0.094118 0.109804
0.788235 0.086275 0.098039
0.847059 0.082353 0.098039
0.898039 0.070588 0.094118
0.949020 0.058824 0.086275
0.996078 0.050980 0.078431
1.000000 0.043137 0.074510
1.000000 0.031373 0.062745
0.137255 0.133333 0.117647
0.149020 0.133333 0.129412
0.145098 0.141176 0.133333
0.160784 0.141176 0.125490
0.180392 0.137255 0.129412
0.207843 0.137255 0.129412
0.231373 0.137255 0.129412
0.247059 0.137255 0.125490
0.278431 0.141176 0.133333
0.321569 0.145098 0.133333
0.356863 0.141176 0.129412
0.411765 0.137255 0.129412
0.462745 0.137255 0.121569
0.525490 0.137255 0.117647
0.576471 0.129412 0.125490
0.635294 0.129412 0.109804
0.682353 0.125490 0.109804
0.737255 0.117647 0.105882
0.792157 0.113725 0.098039
0.847059 0.105882 0.098039
0.898039 0.098039 0.094118
0.949020 0.090196 0.082353
0.996078 0.086275 0.086275
0.996078 0.074510 0.062745
1.000000 0.070588 0.062745
0.137255 0.141176 0.149020
0.145098 0.149020 0.129412
0.152941 0.149020 0.141176
0.172549 0.152941 0.129412
0.180392 0.141176 0.133333
0.207843 0.156863 0.133333
0.223529 0.156863 0.125490
0.254902 0.145098 0.129412
0.286275 0.149020 0.125490
0.325490 0.156863 0.133333
0.368627 0.152941 0.133333
0.415686 0.145098 0.125490
0.470588 0.145098 0.121569
0.521569 0.149020 0.125490
0.580392 0.145098 0.117647
0.627451 0.145098 0.117647
0.686275 0.141176 0.113725
0.737255 0.137255 0.105882
0.792157 0.129412 0.101961
0.847059 0.129412 0.098039
0.901961 0.125490 0.090196
0.949020 0.121569 0.086275
0.992157 0.113725 0.082353
1.000000 0.109804 0.074510
0.996078 0.105882 0.043137
0.129412 0.168627 0.137255
0.133333 0.160784 0.129412
0.149020 0.172549 0.133333
0.180392 0.152941 0.129412
0.184314 0.164706 0.141176
0.196078 0.160784 0.141176
0.231373 0.164706 0.137255
0.254902 0.164706 0.133333
0.282353 0.164706 0.125490
0.321569 0.164706 0.125490
0.368627 0.164706 0.121569
0.415686 0.164706 0.117647
0.466667 0.164706 0.125490
0.521569 0.168627 0.125490
0.568627 0.168627 0.121569
0.627451 0.172549 0.113725
0.682353 0.164706 0.105882
0.737255 0.164706 0.105882
0.796078 0.160784 0.101961
0.850980 0.164706 0.090196
0.890196 0.156863 0.082353
0.952941 0.149020 0.074510
0.992157 0.149020 0.066667
0.996078 0.149020 0.066667
1.000000 0.145098 0.058824
0.129412 0.176471 0.129412
0.145098 0.176471 0.117647
0.152941 0.176471 0.129412
0.168627 0.184314 0.129412
0.176471 0.176471 0.129412
0.203922 0.180392 0.133333
0.223529 0.184314 0.137255
0.250980 0.180392 0.133333
0.294118 0.184314 0.137255
0.333333 0.184314 0.133333
0.376471 0.192157 0.121569
0.415686 0.192157 0.117647
0.474510 0.196078 0.117647
0.517647 0.196078 0.113725
0.576471 0.200000 0.113725
0.631373 0.196078 0.117647
0.682353 0.196078 0.101961
0.741176 0.196078 0.105882
0.792157 0.196078 0.101961
0.843137 0.192157 0.090196
0.898039 0.188235 0.074510
0.949020 0.192157 0.070588
0.988235 0.188235 0.058824
1.000000 0.180392 0.050980
0.996078 0.176471 0.047059
0.133333 0.200000 0.129412
0.145098 0.203922 0.129412
0.152941 0.203922 0.133333
0.172549 0.207843 0.133333
0.188235 0.200000 0.125490
0.211765 0.200000 0.125490
0.235294 0.203922 0.129412
0.266667 0.207843 0.133333
0.298039 0.207843 0.137255
0.329412 0.207843 0.125490
0.376471 0.215686 0.129412
0.423529 0.219608 0.125490
0.478431 0.227451 0.117647
0.525490 0.231373 0.109804
0.588235 0.235294 0.101961
0.643137 0.235294 0.098039
0.686275 0.239216 0.098039
0.741176 0.231373 0.090196
0.792157 0.235294 0.086275
0.850980 0.231373 0.078431
0.905882 0.235294 0.066667
0.956863 0.231373 0.058824
1.000000 0.227451 0.058824
1.000000 0.223529 0.047059
1.000000 0.231373 0.035294
0.137255 0.223529 0.133333
0.149020 0.223529 0.137255
0.156863 0.227451 0.125490
0.172549 0.219608 0.125490
0.196078 0.227451 0.137255
0.211765 0.227451 0.129412
0.223529 0.235294 0.129412
0.274510 0.227451 0.125490
0.301961 0.235294 0.125490
0.337255 0.239216 0.121569
0.384314 0.247059 0.129412
0.423529 0.247059 0.117647
0.470588 0.258824 0.117647
0.529412 0.262745 0.109804
0.588235 0.266667 0.109804
0.647059 0.274510 0.101961
0.694118 0.274510 0.094118
0.749020 0.274510 0.090196
0.800000 0.274510 0.074510
0.850980 0.274510 0.070588
0.901961 0.270588 0.054902
0.956863 0.270588 0.047059
1.000000 0.270588 0.047059
1.000000 0.270588 0.031373
0.996078 0.266667 0.035294
0.129412 0.262745 0.117647
0.141176 0.262745 0.129412
0.164706 0.258824 0.125490
0.172549 0.254902 0.125490
0.203922 0.258824 0.129412
0.215686 0.262745 0.121569
0.243137 0.266667 0.133333
0.274510 0.262745 0.125490
0.305882 0.266667 0.125490
0.345098 0.274510 0.125490
0.388235 0.278431 0.121569
0.431373 0.286275 0.109804
0.482353 0.294118 0.101961
0.537255 0.301961 0.105882
0.584314 0.305882 0.094118
0.639216 0.305882 0.090196
0.698039 0.309804 0.086275
0.745098 0.313725 0.074510
0.800000 0.313725 0.062745
0.843137 0.313725 0.047059
0.898039 0.317647 0.043137
0.949020 0.313725 0.031373
0.996078 0.317647 0.007843
1.000000 0.309804 0.011765
1.000000 0.309804 0.011765
0.133333 0.298039 0.117647
0.149020 0.294118 0.121569
0.149020 0.298039 0.113725
0.164706 0.305882 0.117647
0.200000 0.301961 0.117647
0.215686 0.301961 0.109804
0.250980 0.301961 0.121569
0.278431 0.309804 0.125490
0.309804 0.305882 0.117647
0.352941 0.313725 0.121569
0.396078 0.317647 0.109804
0.447059 0.325490 0.109804
0.494118 0.337255 0.105882
0.541176 0.341176 0.094118
0.588235 0.337255 0.086275
0.647059 0.341176 0.082353
0.698039 0.349020 0.074510
0.745098 0.352941 0.054902
0.796078 0.352941 0.039216
0.850980 0.360784 0.039216
0.890196 0.356863 0.027451
0.945098 0.360784 0.007843
0.992157 0.349020 0.000000
1.000000 0.352941 0.000000
0.996078 0.352941 0.000000
0.129412 0.345098 0.121569
0.141176 0.352941 0.117647
0.152941 0.349020 0.109804
0.172549 0.345098 0.105882
0.207843 0.349020 0.109804
0.231373 0.349020 0.113725
0.254902 0.349020 0.105882
0.294118 0.356863 0.113725
0.329412 0.352941 0.109804
0.360784 0.356863 0.101961
0.400000 0.360784 0.090196
0.443137 0.364706 0.094118
0.501961 0.372549 0.094118
0.541176 0.376471 0.078431
0.596078 0.376471 0.074510
0.647059 0.384314 0.066667
0.694118 0.392157 0.047059
0.749020 0.392157 0.035294
0.800000 0.396078 0.023529
0.854902 0.400000 0.011765
0.905882 0.400000 0.000000
0.952941 0.396078 0.000000
0.992157 0.396078 0.000000
0.996078 0.392157 0.000000
0.996078 0.392157 0.000000
0.117647 0.403922 0.086275
0.133333 0.403922 0.090196
0.156863 0.411765 0.098039
0.176471 0.407843 0.094118
0.200000 0.400000 0.090196
0.239216 0.407843 0.094118
0.270588 0.407843 0.086275
0.309804 0.407843 0.090196
0.341176 0.411765 0.090196
0.380392 0.411765 0.078431
0.419608 0.411765 0.086275
