app/src/main/assets/cube/District04.cube
# LUT by SparkleStock. Enhanced with VOXCOLOR algorithms.
LUT_3D_SIZE 32
0.050794 0.062515 0.101587
0.061712 0.063744 0.103761
0.072630 0.064973 0.105936
0.083548 0.066202 0.108110
0.094466 0.067431 0.110284
0.105384 0.068660 0.112458
0.140289 0.071858 0.112505
0.179991 0.075450 0.112127
0.219694 0.079042 0.111749
0.259396 0.082634 0.111371
0.299098 0.086226 0.110993
0.345197 0.089125 0.109859
0.394494 0.091677 0.108346
0.443791 0.094230 0.106834
0.493088 0.096782 0.105321
0.542384 0.099334 0.103809
0.581000 0.100989 0.102674
0.608933 0.101745 0.101918
0.636866 0.102501 0.101162
0.664800 0.103257 0.100406
0.692733 0.104014 0.099649
0.714286 0.104581 0.099067
0.723077 0.104770 0.098830
0.731868 0.104959 0.098594
0.740659 0.105148 0.098358
0.749451 0.105337 0.098121
0.756958 0.105495 0.097916
0.758045 0.105495 0.097869
0.759132 0.105495 0.097822
0.760219 0.105495 0.097775
0.761306 0.105495 0.097727
0.762393 0.105495 0.097680
0.052353 0.078774 0.110000
0.062155 0.079116 0.111534
0.071958 0.079457 0.113068
0.081760 0.079799 0.114602
0.091562 0.080140 0.116136
0.101364 0.080482 0.117669
0.134924 0.083113 0.117519
0.173236 0.086202 0.117031
0.211547 0.089291 0.116543
0.249859 0.092380 0.116055
0.288171 0.095469 0.115567
0.334257 0.097907 0.114256
0.384231 0.100020 0.112533
0.434205 0.102134 0.110810
0.484179 0.104247 0.109087
0.534153 0.106360 0.107364
0.573600 0.107621 0.105983
0.602522 0.108030 0.104943
0.631443 0.108438 0.103903
0.660364 0.108847 0.102863
0.689286 0.109255 0.101824
0.711680 0.109530 0.101009
0.721020 0.109536 0.100645
0.730360 0.109542 0.100280
0.739700 0.109548 0.099916
0.749040 0.109554 0.099551
0.757022 0.109549 0.099228
0.758209 0.109485 0.099107
0.759397 0.109421 0.098987
0.760585 0.109356 0.098866
0.761773 0.109292 0.098746
0.762960 0.109228 0.098625
0.053913 0.095033 0.118413
0.062599 0.094487 0.119307
0.071285 0.093942 0.120200
0.079971 0.093396 0.121094
0.088657 0.092850 0.121987
0.097343 0.092304 0.122881
0.129559 0.094368 0.122532
0.166480 0.096954 0.121934
0.203401 0.099540 0.121336
0.240322 0.102126 0.120739
0.277244 0.104711 0.120141
0.323318 0.106689 0.118653
0.373969 0.108363 0.116720
0.424620 0.110037 0.114786
0.475270 0.111712 0.112853
0.525921 0.113386 0.110920
0.566201 0.114253 0.109291
0.596111 0.114314 0.107968
0.626020 0.114375 0.106645
0.655929 0.114436 0.105321
0.685839 0.114497 0.103998
0.709074 0.114479 0.102951
0.718963 0.114302 0.102459
0.728852 0.114125 0.101966
0.738741 0.113948 0.101474
0.748630 0.113771 0.100982
0.757086 0.113603 0.100539
0.758374 0.113475 0.100345
0.759662 0.113347 0.100152
0.760951 0.113218 0.099958
0.762239 0.113090 0.099764
0.763528 0.112962 0.099571
0.055473 0.111292 0.126827
0.063043 0.109859 0.127080
0.070613 0.108426 0.127333
0.078183 0.106993 0.127586
0.085753 0.105560 0.127839
0.093323 0.104126 0.128092
0.124193 0.105623 0.127545
0.159724 0.107706 0.126837
0.195255 0.109788 0.126130
0.230785 0.111871 0.125422
0.266316 0.113954 0.124715
0.312378 0.115471 0.123050
0.363706 0.116706 0.120906
0.415034 0.117941 0.118763
0.466362 0.119176 0.116619
0.517690 0.120411 0.114475
0.558802 0.120885 0.112600
0.589699 0.120599 0.110993
0.620597 0.120312 0.109386
0.651494 0.120026 0.107779
0.682391 0.119739 0.106172
0.706469 0.119428 0.104894
0.716907 0.119068 0.104273
0.727344 0.118708 0.103653
0.737782 0.118348 0.103032
0.748220 0.117989 0.102412
0.757150 0.117657 0.101850
0.758539 0.117465 0.101583
0.759928 0.117273 0.101316
0.761317 0.117080 0.101050
0.762706 0.116888 0.100783
0.764095 0.116696 0.100516
0.057033 0.127551 0.135240
0.063486 0.125231 0.134852
0.069940 0.122910 0.134465
0.076394 0.120590 0.134078
0.082848 0.118269 0.133691
0.089302 0.115949 0.133303
0.118828 0.116878 0.132558
0.152968 0.118458 0.131741
0.187108 0.120037 0.130923
0.221249 0.121617 0.130106
0.255389 0.123196 0.129289
0.301439 0.124253 0.127447
0.353444 0.125049 0.125093
0.405448 0.125845 0.122739
0.457453 0.126641 0.120385
0.509458 0.127437 0.118031
0.551403 0.127518 0.115908
0.583288 0.126883 0.114018
0.615173 0.126249 0.112127
0.647059 0.125615 0.110237
0.678944 0.124981 0.108346
0.703863 0.124377 0.106836
0.714850 0.123834 0.106088
0.725837 0.123291 0.105339
0.736823 0.122749 0.104590
0.747810 0.122206 0.103842
0.757214 0.121711 0.103161
0.758703 0.121455 0.102821
0.760193 0.121199 0.102481
0.761683 0.120942 0.102141
0.763172 0.120686 0.101801
0.764662 0.120430 0.101461
0.058592 0.143810 0.143653
0.063930 0.140602 0.142625
0.069268 0.137395 0.141598
0.074606 0.134187 0.140570
0.079944 0.130979 0.139542
0.085282 0.127771 0.138515
0.113463 0.128133 0.137571
0.146212 0.129210 0.136644
0.178962 0.130286 0.135717
0.211712 0.131362 0.134790
0.244462 0.132439 0.133863
0.290499 0.133036 0.131844
0.343181 0.133392 0.129280
0.395863 0.133749 0.126715
0.448545 0.134106 0.124151
0.501226 0.134463 0.121586
0.544004 0.134150 0.119217
0.576877 0.133168 0.117043
0.609750 0.132186 0.114869
0.642623 0.131204 0.112694
0.675497 0.130223 0.110520
0.701257 0.129326 0.108779
0.712793 0.128600 0.107902
0.724329 0.127875 0.107025
0.735864 0.127149 0.106149
0.747400 0.126423 0.105272
0.757278 0.125765 0.104472
0.758868 0.125445 0.104059
0.760458 0.125125 0.103646
0.762049 0.124804 0.103233
0.763639 0.124484 0.102820
0.765229 0.124164 0.102407
0.059364 0.171492 0.156871
0.064143 0.167717 0.155539
0.068921 0.163941 0.154206
0.073699 0.160166 0.152873
0.078477 0.156391 0.151541
0.083256 0.152616 0.150208
0.109550 0.152192 0.148735
0.140147 0.152437 0.147233
0.170743 0.152683 0.145731
0.201340 0.152928 0.144229
0.231937 0.153174 0.142728
0.277922 0.153582 0.140397
0.331601 0.154071 0.137653
0.385280 0.154560 0.134909
0.438959 0.155050 0.132164
0.492638 0.155539 0.129420
0.536583 0.155013 0.126765
0.570795 0.153470 0.124201
0.605007 0.151927 0.121636
0.639219 0.150384 0.119072
0.673431 0.148841 0.116507
0.700279 0.147372 0.114407
0.712402 0.146052 0.113234
0.724525 0.144731 0.112062
0.736647 0.143411 0.110890
0.748770 0.142090 0.109717
0.759160 0.140887 0.108659
0.760889 0.140266 0.108173
0.762618 0.139646 0.107686
0.764347 0.139025 0.107200
0.766076 0.138405 0.106713
0.767805 0.137784 0.106227
0.059979 0.201457 0.171050
0.064309 0.197179 0.169480
0.068639 0.192901 0.167910
0.072969 0.188623 0.166339
0.077299 0.184345 0.164769
0.081629 0.180066 0.163198
0.105927 0.178811 0.161129
0.134219 0.178160 0.158959
0.162510 0.177509 0.156790
0.190802 0.176858 0.154620
0.219094 0.176207 0.152450
0.265017 0.176481 0.149782
0.319757 0.177217 0.146863
0.374497 0.177953 0.143945
0.429237 0.178690 0.141027
0.483977 0.179426 0.138109
0.529158 0.178721 0.135162
0.564778 0.176574 0.132186
0.600399 0.174428 0.129209
0.636020 0.172281 0.126233
0.671641 0.170134 0.123257
0.699627 0.168037 0.120772
0.712344 0.166040 0.119271
0.725061 0.164043 0.117769
0.737778 0.162045 0.116267
0.750496 0.160048 0.114765
0.761406 0.158222 0.113420
0.763281 0.157254 0.112861
0.765157 0.156286 0.112301
0.767032 0.155318 0.111742
0.768907 0.154350 0.111182
0.770783 0.153381 0.110623
0.060593 0.231423 0.185230
0.064475 0.226642 0.183422
0.068357 0.221860 0.181613
0.072239 0.217079 0.179805
0.076120 0.212298 0.177997
0.080002 0.207516 0.176189
0.102304 0.205430 0.173523
0.128291 0.203882 0.170685
0.154277 0.202335 0.167848
0.180263 0.200787 0.165011
0.206250 0.199240 0.162173
0.252113 0.199379 0.159166
0.307914 0.200363 0.156074
0.363715 0.201346 0.152982
0.419516 0.202330 0.149890
0.475317 0.203313 0.146798
0.521733 0.202430 0.143558
0.558762 0.199679 0.140170
0.595792 0.196929 0.136782
0.632821 0.194178 0.133395
0.669851 0.191428 0.130007
0.698974 0.188702 0.127138
0.712286 0.186028 0.125307
0.725598 0.183354 0.123476
0.738910 0.180680 0.121645
0.752222 0.178005 0.119813
0.763652 0.175558 0.118182
0.765673 0.174242 0.117549
0.767695 0.172926 0.116917
0.769717 0.171610 0.116284
0.771739 0.170294 0.115651
0.773760 0.168979 0.115018
0.061208 0.261389 0.199409
0.064641 0.256104 0.197363
0.068075 0.250820 0.195317
0.071508 0.245535 0.193271
0.074942 0.240251 0.191225
0.078375 0.234966 0.189179
0.098682 0.232049 0.185917
0.122363 0.229605 0.182411
0.146044 0.227161 0.178906
0.169725 0.224717 0.175401
0.193406 0.222273 0.171896
0.239208 0.222278 0.168550
0.296070 0.223509 0.165284
0.352933 0.224739 0.162019
0.409795 0.225970 0.158753
0.466657 0.227200 0.155487
0.514308 0.226138 0.151954
0.552746 0.222784 0.148155
0.591184 0.219430 0.144355
0.629622 0.216075 0.140556
0.668061 0.212721 0.136756
0.698322 0.209368 0.133503
0.712228 0.206017 0.131343
0.726135 0.202665 0.129182
0.740041 0.199314 0.127022
0.753948 0.195963 0.124862
0.765898 0.192893 0.122944
0.768066 0.191230 0.122238
0.770234 0.189566 0.121532
0.772402 0.187903 0.120826
0.774570 0.186239 0.120120
0.776738 0.184576 0.119414
0.061822 0.291355 0.213589
0.064807 0.285567 0.211305
0.067793 0.279779 0.209021
0.070778 0.273992 0.206737
0.073763 0.268204 0.204453
0.076749 0.262416 0.202169
0.095059 0.258668 0.198311
0.116435 0.255327 0.194138
0.137811 0.251987 0.189965
0.159187 0.248646 0.185792
0.180562 0.245306 0.181619
0.226303 0.245177 0.177935
0.284227 0.246655 0.174495
0.342150 0.248132 0.171055
0.400074 0.249609 0.167616
0.457997 0.251087 0.164176
0.506882 0.249847 0.160351
0.546730 0.245889 0.156140
0.586577 0.241931 0.151928
0.626424 0.237973 0.147717
0.666271 0.234014 0.143506
0.697669 0.230033 0.139869
0.712170 0.226005 0.137379
0.726671 0.221977 0.134889
0.741172 0.217949 0.132399
0.755673 0.213920 0.129910
0.768143 0.210228 0.127705
0.770458 0.208217 0.126926
0.772772 0.206206 0.126147
0.775087 0.204195 0.125368
0.777401 0.202184 0.124589
0.779716 0.200173 0.123810
0.062689 0.323494 0.229375
0.065323 0.317795 0.227103
0.067958 0.312096 0.224831
0.070592 0.306397 0.222560
0.073227 0.300698 0.220288
0.075862 0.294998 0.218016
0.092381 0.291031 0.213964
0.111677 0.287410 0.209557
0.130973 0.283789 0.205149
0.150269 0.280168 0.200741
0.169565 0.276547 0.196333
0.214605 0.276253 0.192183
0.272516 0.277624 0.188160
0.330428 0.278995 0.184138
0.388339 0.280366 0.180116
0.446250 0.281736 0.176094
0.496248 0.280519 0.171772
0.538334 0.276713 0.167149
0.580419 0.272908 0.162526
0.622504 0.269102 0.157904
0.664590 0.265297 0.153281
0.697701 0.261305 0.149229
0.712863 0.256941 0.146318
0.728026 0.252578 0.143408
0.743189 0.248214 0.140497
0.758352 0.243851 0.137586
0.771403 0.239824 0.135004
0.773894 0.237484 0.134060
0.776385 0.235143 0.133116
0.778877 0.232803 0.132172
0.781368 0.230463 0.131229
0.783859 0.228122 0.130285
0.063681 0.356721 0.245965
0.066014 0.351406 0.243830
0.068347 0.346091 0.241696
0.070679 0.340776 0.239561
0.073012 0.335462 0.237427
0.075345 0.330147 0.235292
0.090175 0.326266 0.231248
0.107504 0.322672 0.226822
0.124833 0.319079 0.222396
0.142163 0.315485 0.217970
0.159492 0.311891 0.213544
0.203510 0.311418 0.208862
0.260872 0.312505 0.204054
0.318235 0.313593 0.199245
0.375597 0.314680 0.194436
0.432960 0.315767 0.189627
0.484010 0.314673 0.184706
0.528748 0.311398 0.179671
0.573486 0.308123 0.174637
0.618225 0.304848 0.169602
0.662963 0.301573 0.164568
0.698074 0.297880 0.160086
0.713932 0.293352 0.156709
0.729790 0.288824 0.153332
0.745648 0.284295 0.149954
0.761506 0.279767 0.146577
0.775169 0.275550 0.143571
0.777852 0.272890 0.142417
0.780535 0.270229 0.141262
0.783219 0.267569 0.140108
0.785902 0.264908 0.138954
0.788586 0.262247 0.137800
0.064674 0.389948 0.262555
0.066705 0.385018 0.260557
0.068735 0.380087 0.258560
0.070766 0.375156 0.256563
0.072797 0.370225 0.254565
0.074828 0.365295 0.252568
0.087969 0.361501 0.248532
0.103331 0.357935 0.244087
0.118694 0.354369 0.239643
0.134056 0.350802 0.235198
0.149419 0.347236 0.230754
0.192415 0.346583 0.225542
0.249229 0.347387 0.219947
0.306042 0.348190 0.214351
0.362856 0.348994 0.208756
0.419669 0.349797 0.203160
0.471771 0.348827 0.197639
0.519163 0.346082 0.192193
0.566554 0.343338 0.186747
0.613945 0.340594 0.181301
0.661336 0.337849 0.175855
0.698448 0.334455 0.170943
0.715001 0.329762 0.167099
0.731554 0.325069 0.163256
0.748108 0.320376 0.159412
0.764661 0.315684 0.155568
0.778934 0.311276 0.152138
0.781810 0.308295 0.150773
0.784686 0.305315 0.149409
0.787561 0.302334 0.148044
0.790437 0.299353 0.146679
0.793312 0.296372 0.145315
0.065666 0.423175 0.279145
0.067395 0.418629 0.277284
0.069124 0.414082 0.275424
0.070853 0.409536 0.273564
0.072582 0.404989 0.271704
0.074311 0.400443 0.269844
0.085762 0.396736 0.265815
0.099158 0.393197 0.261352
0.112554 0.389658 0.256890
0.125949 0.386120 0.252427
0.139345 0.382581 0.247964
0.181320 0.381748 0.242222
0.237585 0.382268 0.235840
0.293849 0.382788 0.229458
0.350114 0.383308 0.223075
0.406379 0.383828 0.216693
0.459533 0.382981 0.210573
0.509577 0.380767 0.204715
0.559621 0.378553 0.198858
0.609665 0.376339 0.193000
0.659709 0.374125 0.187142
0.698821 0.371030 0.181800
0.716070 0.366173 0.177490
0.733318 0.361315 0.173180
0.750567 0.356458 0.168869
0.767815 0.351600 0.164559
0.782700 0.347002 0.160705
0.785768 0.343701 0.159130
0.788836 0.340400 0.157555
0.791903 0.337099 0.155980
0.794971 0.333798 0.154405
0.798039 0.330497 0.152830
0.066659 0.456402 0.295734
0.068086 0.452240 0.294012
0.069513 0.448078 0.292289
0.070940 0.443915 0.290566
0.072367 0.439753 0.288843
0.073794 0.435591 0.287120
0.083556 0.431971 0.283099
0.094985 0.428460 0.278618
0.106414 0.424948 0.274137
0.117843 0.421437 0.269656
0.129272 0.417926 0.265175
0.170225 0.416913 0.258902
0.225941 0.417149 0.251733
0.281657 0.417385 0.244564
0.337372 0.417622 0.237395
0.393088 0.417858 0.230226
0.447295 0.417135 0.223507
0.499991 0.415451 0.217237
0.552688 0.413768 0.210968
0.605385 0.412085 0.204699
0.658082 0.410402 0.198429
0.699195 0.407606 0.192657
0.717139 0.402583 0.187880
0.735082 0.397561 0.183104
0.753026 0.392539 0.178327
0.770970 0.387517 0.173550
0.786466 0.382728 0.169272
0.789726 0.379107 0.167487
0.792986 0.375486 0.165701
0.796246 0.371865 0.163916
0.799505 0.368244 0.162130
0.802765 0.364622 0.160345
0.067911 0.483839 0.310268
0.069123 0.480116 0.308710
0.070336 0.476393 0.307152
0.071548 0.472670 0.305594
0.072760 0.468947 0.304035
0.073972 0.465223 0.302477
0.082425 0.461902 0.298605
0.092326 0.458660 0.294271
0.102227 0.455419 0.289936
0.112128 0.452177 0.285601
0.122029 0.448936 0.281267
0.160800 0.448053 0.274817
0.214004 0.448348 0.267310
0.267209 0.448644 0.259802
0.320414 0.448940 0.252295
0.373618 0.449236 0.244787
0.428383 0.448874 0.237739
0.484707 0.447854 0.231149
0.541031 0.446834 0.224560
0.597355 0.445814 0.217970
0.653679 0.444794 0.211380
0.697588 0.442476 0.205195
0.716666 0.437564 0.199819
0.735744 0.432651 0.194443
0.754822 0.427739 0.189067
0.773900 0.422826 0.183691
0.790383 0.418119 0.178862
0.793890 0.414439 0.176766
0.797397 0.410758 0.174669
0.800903 0.407077 0.172573
0.804410 0.403397 0.170476
0.807917 0.399716 0.168380
0.069424 0.505487 0.322746
0.070508 0.502257 0.321380
0.071592 0.499028 0.320014
0.072676 0.495799 0.318648
0.073760 0.492570 0.317282
0.074844 0.489340 0.315916
0.082368 0.486528 0.312335
0.091181 0.483799 0.308311
0.099994 0.481070 0.304288
0.108806 0.478341 0.300264
0.117619 0.475611 0.296241
0.153044 0.475167 0.289968
0.201775 0.475865 0.282570
0.250506 0.476564 0.275172
0.299238 0.477262 0.267775
0.347969 0.477960 0.260377
0.402797 0.478197 0.253269
0.463723 0.477973 0.246451
0.524648 0.477749 0.239632
0.585574 0.477525 0.232814
0.646499 0.477301 0.225996
0.694000 0.475642 0.219414
0.714652 0.471114 0.213306
0.735303 0.466586 0.207199
0.755955 0.462057 0.201091
0.776607 0.457529 0.194983
0.794451 0.453176 0.189475
0.798260 0.449696 0.186967
0.802068 0.446217 0.184459
0.805877 0.442738 0.181951
0.809685 0.439259 0.179443
0.813494 0.435779 0.176935
0.070936 0.527134 0.335224
0.071892 0.524399 0.334050
0.072848 0.521663 0.332876
0.073804 0.518928 0.331702
0.074760 0.516193 0.330528
0.075716 0.513458 0.329354
0.082312 0.511154 0.326065
0.090036 0.508937 0.322352
0.097760 0.506721 0.318639
0.105484 0.504504 0.314927
0.113208 0.502287 0.311214
0.145288 0.502282 0.305118
0.189546 0.503383 0.297830
0.233804 0.504483 0.290542
0.278061 0.505584 0.283254
0.322319 0.506685 0.275967
0.377212 0.507521 0.268799
0.442739 0.508093 0.261752
0.508266 0.508665 0.254705
0.573793 0.509237 0.247658
0.639320 0.509808 0.240611
0.690413 0.508808 0.233633
0.712638 0.504664 0.226794
0.734863 0.500520 0.219954
0.757088 0.496376 0.213114
0.779313 0.492232 0.206275
0.798519 0.488232 0.200088
0.802629 0.484954 0.197169
0.806740 0.481676 0.194249
0.810850 0.478398 0.191329
0.814961 0.475120 0.188410
0.819071 0.471842 0.185490
0.072449 0.548781 0.347702
0.073277 0.546540 0.346720
0.074104 0.544298 0.345738
0.074932 0.542057 0.344756
0.075760 0.539816 0.343774
0.076588 0.537575 0.342792
0.082256 0.535781 0.339794
0.088891 0.534076 0.336393
0.095526 0.532372 0.332991
0.102162 0.530667 0.329590
0.108797 0.528962 0.326188
0.137532 0.529396 0.320269
0.177316 0.530900 0.313091
0.217101 0.532403 0.305913
0.256885 0.533906 0.298734
0.296670 0.535410 0.291556
0.351626 0.536845 0.284329
0.421755 0.538213 0.277054
0.491883 0.539580 0.269778
0.562012 0.540948 0.262502
0.632140 0.542316 0.255227
0.686825 0.541974 0.247852
0.710624 0.538214 0.240281
0.734422 0.534454 0.232709
0.758221 0.530695 0.225138
0.782019 0.526935 0.217566
0.802587 0.523289 0.210702
0.806999 0.520212 0.207370
0.811411 0.517135 0.204039
0.815824 0.514059 0.200707
0.820236 0.510982 0.197376
0.824648 0.507905 0.194045
0.073961 0.570428 0.360180
0.074661 0.568681 0.359390
0.075361 0.566934 0.358600
0.076061 0.565186 0.357810
0.076760 0.563439 0.357021
0.077460 0.561692 0.356231
0.082199 0.560407 0.353524
0.087746 0.559215 0.350433
0.093293 0.558022 0.347343
0.098839 0.556830 0.344252
0.104386 0.555638 0.341162
0.129776 0.556511 0.335419
0.165087 0.558417 0.328351
0.200398 0.560323 0.321283
0.235709 0.562228 0.314214
0.271021 0.564134 0.307146
0.326041 0.566169 0.299860
0.400771 0.568332 0.292355
0.475501 0.570496 0.284851
0.550231 0.572659 0.277346
0.624961 0.574823 0.269842
0.683238 0.575140 0.262071
0.708610 0.571765 0.253768
0.733982 0.568389 0.245465
0.759353 0.565013 0.237161
0.784725 0.561638 0.228858
0.806654 0.558345 0.221315
0.811369 0.555470 0.217572
0.816083 0.552594 0.213829
0.820797 0.549719 0.210086
0.825511 0.546843 0.206343
0.830226 0.543968 0.202600
0.075584 0.588861 0.371665
0.076177 0.587520 0.371040
0.076770 0.586178 0.370415
0.077363 0.584836 0.369790
0.077956 0.583495 0.369164
0.078549 0.582153 0.368539
0.082534 0.581251 0.366055
0.087196 0.580437 0.363200
0.091858 0.579622 0.360344
0.096521 0.578808 0.357488
0.101183 0.577994 0.354633
0.123776 0.579152 0.349029
0.155333 0.581295 0.342053
0.186891 0.583439 0.335076
0.218448 0.585583 0.328099
0.250006 0.587726 0.321122
0.304089 0.590188 0.313781
0.380697 0.592967 0.306075
0.457305 0.595747 0.298369
0.533913 0.598526 0.290664
0.610521 0.601306 0.282958
0.671097 0.602218 0.274917
0.699607 0.599394 0.266205
0.728116 0.596570 0.257493
0.756626 0.593747 0.248781
0.785136 0.590923 0.240069
0.809758 0.588132 0.232101
0.814941 0.585507 0.227852
0.820125 0.582881 0.223603
0.825309 0.580256 0.219354
0.830493 0.577630 0.215104
0.835677 0.575005 0.210855
0.077427 0.600867 0.381165
0.077956 0.599754 0.380650
0.078485 0.598641 0.380134
0.079014 0.597528 0.379619
0.079543 0.596415 0.379104
0.080073 0.595301 0.378588
0.083650 0.594529 0.376191
0.087836 0.593825 0.373418
0.092023 0.593120 0.370645
0.096210 0.592416 0.367871
0.100397 0.591711 0.365098
0.121287 0.592845 0.359559
0.150531 0.594897 0.352637
0.179774 0.596949 0.345715
0.209017 0.599001 0.338793
0.238260 0.601054 0.331871
0.289401 0.603597 0.324484
0.362442 0.606633 0.316632
0.435482 0.609669 0.308780
0.508523 0.612704 0.300928
0.581564 0.615740 0.293076
0.641849 0.617118 0.285016
0.676625 0.615182 0.276542
0.711401 0.613246 0.268068
0.746177 0.611309 0.259594
0.780953 0.609373 0.251120
0.810932 0.607380 0.243234
0.816920 0.605102 0.238290
0.822909 0.602824 0.233345
0.828898 0.600546 0.228401
0.834887 0.598268 0.223456
0.840876 0.595990 0.218512
0.079271 0.612872 0.390665
0.079736 0.611987 0.390260
0.080201 0.611103 0.389854
0.080666 0.610219 0.389449
0.081131 0.609334 0.389043
0.081596 0.608450 0.388637
0.084766 0.607807 0.386327
0.088477 0.607213 0.383636
0.092188 0.606618 0.380945
0.095899 0.606023 0.378254
0.099610 0.605429 0.375563
0.118799 0.606538 0.370088
0.145728 0.608498 0.363221
0.172656 0.610459 0.356354
0.199585 0.612420 0.349487
0.226514 0.614381 0.342620
0.274714 0.617007 0.335187
0.344187 0.620299 0.327189
0.413660 0.623590 0.319190
0.483133 0.626882 0.311192
0.552606 0.630174 0.303194
0.612602 0.632019 0.295116
0.653644 0.630970 0.286880
0.694686 0.629921 0.278643
0.735729 0.628872 0.270407
0.776771 0.627823 0.262171
0.812106 0.626627 0.254367
0.818899 0.624697 0.248728
0.825693 0.622767 0.243088
0.832487 0.620836 0.237448
0.839281 0.618906 0.231809
0.846075 0.616976 0.226169
0.081114 0.624877 0.400165
0.081515 0.624221 0.399870
0.081916 0.623566 0.399574
0.082317 0.622910 0.399278
0.082718 0.622254 0.398982
0.083119 0.621599 0.398687
0.085882 0.621086 0.396463
0.089117 0.620601 0.393855
0.092352 0.620116 0.391246
0.095588 0.619631 0.388637
0.098823 0.619146 0.386028
0.116311 0.620231 0.380617
0.140925 0.622100 0.373805
0.165539 0.623969 0.366993
0.190153 0.625838 0.360181
0.214768 0.627708 0.353369
0.260027 0.630416 0.345890
0.325932 0.633964 0.337745
0.391837 0.637512 0.329601
0.457743 0.641060 0.321456
0.523648 0.644608 0.313311
0.583354 0.646919 0.305215
0.630663 0.646758 0.297217
0.677972 0.646596 0.289218
0.725280 0.646434 0.281220
0.772589 0.646273 0.273222
0.813280 0.645874 0.265501
0.820878 0.644292 0.259166
0.828477 0.642709 0.252831
0.836076 0.641127 0.246496
0.843675 0.639544 0.240161
0.851274 0.637961 0.233826
0.082957 0.636882 0.409666
0.083294 0.636455 0.409480
0.083631 0.636028 0.409294
0.083968 0.635601 0.409108
0.084305 0.635174 0.408922
0.084642 0.634748 0.408736
0.086998 0.634364 0.406599
0.089757 0.633989 0.404073
0.092517 0.633614 0.401547
0.095277 0.633239 0.399020
0.098036 0.632864 0.396494
0.113823 0.633924 0.391147
0.136122 0.635702 0.384389
0.158422 0.637479 0.377632
0.180722 0.639257 0.370875
0.203022 0.641035 0.364118
0.245340 0.643826 0.356593
0.307678 0.647630 0.348302
0.370015 0.651434 0.340011
0.432352 0.655238 0.331720
0.494690 0.659042 0.323429
0.554106 0.661820 0.315315
0.607682 0.662546 0.307554
0.661257 0.663271 0.299794
0.714832 0.663997 0.292033
0.768407 0.664723 0.284272
0.814454 0.665122 0.276634
0.822857 0.663887 0.269603
0.831261 0.662652 0.262573
0.839665 0.661417 0.255543
0.848069 0.660182 0.248513
0.856473 0.658947 0.241483
0.084541 0.647714 0.418362
0.084838 0.647505 0.418262
0.085135 0.647296 0.418161
0.085432 0.647087 0.418060
0.085730 0.646878 0.417960
0.086027 0.646669 0.417859
0.088021 0.646408 0.415817
0.090353 0.646137 0.413387
0.092686 0.645865 0.410956
0.095019 0.645594 0.408526
0.097352 0.645323 0.406096
0.111576 0.646368 0.400842
0.131745 0.648071 0.394176
0.151915 0.649774 0.387510
0.172085 0.651477 0.380844
0.192255 0.653180 0.374179
0.231792 0.656042 0.366635
0.290698 0.660064 0.358212
0.349603 0.664086 0.349790
0.408508 0.668108 0.341368
0.467414 0.672131 0.332946
0.526321 0.675310 0.324812
0.585231 0.676806 0.317256
0.644141 0.678302 0.309700
0.703050 0.679798 0.302143
0.761960 0.681293 0.294587
0.812669 0.682387 0.287021
0.822369 0.681474 0.279407
0.832068 0.680561 0.271793
0.841768 0.679648 0.264179
0.851468 0.678734 0.256565
0.861168 0.677821 0.248950
0.084824 0.652676 0.423041
0.085204 0.652632 0.422904
0.085583 0.652588 0.422767
0.085963 0.652544 0.422630
0.086343 0.652499 0.422493
0.086722 0.652455 0.422355
0.088577 0.652283 0.420444
0.090727 0.652085 0.418179
0.092877 0.651886 0.415913
0.095026 0.651688 0.413648
0.097176 0.651490 0.411382
0.110534 0.652565 0.406366
0.129497 0.654278 0.399974
0.148459 0.655990 0.393583
0.167421 0.657702 0.387192
0.186383 0.659414 0.380800
0.223940 0.662295 0.373366
0.280092 0.666344 0.364889
0.336244 0.670394 0.356412
0.392396 0.674443 0.347935
0.448548 0.678493 0.339457
0.505844 0.681752 0.331299
