app/src/main/assets/cube/District04.cube
# LUT by SparkleStock. Enhanced with VOXCOLOR algorithms.
LUT_3D_SIZE 8
DOMAIN_MIN 0.000000 0.000000 0.000000
DOMAIN_MAX 0.903226 0.903226 0.903226
0.050794 0.062515 0.101587
0.094466 0.067431 0.110284
0.219694 0.079042 0.111749
0.394494 0.091677 0.108346
0.581000 0.100989 0.102674
0.692733 0.104014 0.099649
0.740659 0.105148 0.098358
0.759132 0.105495 0.097822
0.057033 0.127551 0.135240
0.082848 0.118269 0.133691
0.187108 0.120037 0.130923
0.353444 0.125049 0.125093
0.551403 0.127518 0.115908
0.678944 0.124981 0.108346
0.736823 0.122749 0.104590
0.760193 0.121199 0.102481
0.060593 0.231423 0.185230
0.076120 0.212298 0.177997
0.154277 0.202335 0.167848
0.307914 0.200363 0.156074
0.521733 0.202430 0.143558
0.669851 0.191428 0.130007
0.738910 0.180680 0.121645
0.767695 0.172926 0.116917
0.063681 0.356721 0.245965
0.073012 0.335462 0.237427
0.124833 0.319079 0.222396
0.260872 0.312505 0.204054
0.484010 0.314673 0.184706
0.662963 0.301573 0.164568
0.745648 0.284295 0.149954
0.780535 0.270229 0.141262
0.067911 0.483839 0.310268
0.072760 0.468947 0.304035
0.102227 0.455419 0.289936
0.214004 0.448348 0.267310
0.428383 0.448874 0.237739
0.653679 0.444794 0.211380
0.754822 0.427739 0.189067
0.797397 0.410758 0.174669
0.073961 0.570428 0.360180
0.076760 0.563439 0.357021
0.093293 0.558022 0.347343
0.165087 0.558417 0.328351
0.326041 0.566169 0.299860
0.624961 0.574823 0.269842
0.759353 0.565013 0.237161
0.816083 0.552594 0.213829
0.081114 0.624877 0.400165
0.082718 0.622254 0.398982
0.092352 0.620116 0.391246
0.140925 0.622100 0.373805
0.260027 0.630416 0.345890
0.523648 0.644608 0.313311
0.725280 0.646434 0.281220
0.828477 0.642709 0.252831
0.085108 0.657639 0.427721
0.086956 0.658121 0.427025
0.093067 0.657907 0.420870
0.127248 0.660484 0.405773
0.216088 0.668548 0.380097
0.429681 0.684855 0.345969
0.666160 0.693779 0.315338
0.813913 0.696045 0.285003
0.055709 0.081421 0.208972
0.086940 0.084287 0.200544
0.204807 0.090221 0.187891
0.379521 0.098551 0.171912
0.573035 0.107459 0.154312
0.690623 0.109313 0.140895
0.741477 0.110374 0.133968
0.761577 0.110233 0.130255
0.060924 0.139431 0.227549
0.080077 0.126060 0.208082
0.163331 0.123241 0.191928
0.315728 0.125478 0.174835
0.519859 0.127968 0.154840
0.667193 0.125280 0.137112
0.733910 0.122673 0.127381
0.760023 0.120314 0.121826
0.065533 0.240528 0.254895
0.078010 0.213268 0.233124
0.137030 0.200701 0.216655
0.272293 0.198032 0.199412
0.481997 0.198991 0.177657
0.653411 0.187653 0.153284
0.734143 0.175827 0.138058
0.767006 0.167050 0.129307
0.069609 0.363948 0.292065
0.077618 0.332561 0.273663
0.117836 0.313890 0.257983
0.236948 0.307341 0.239600
0.446400 0.308448 0.215094
0.645070 0.295655 0.185193
0.739824 0.276532 0.163262
0.779569 0.261003 0.150093
0.073382 0.488212 0.337139
0.077177 0.465571 0.324910
0.101080 0.447780 0.310225
0.200318 0.439345 0.289427
0.398937 0.440740 0.260973
0.636075 0.438822 0.228944
0.747950 0.419677 0.200091
0.795262 0.400691 0.181306
0.077822 0.573484 0.376658
0.079341 0.563506 0.369882
0.092972 0.555776 0.359671
0.157591 0.554135 0.341129
0.307998 0.560051 0.312593
0.608107 0.568262 0.281891
0.751268 0.558760 0.245579
0.812631 0.545709 0.219309
0.082876 0.626859 0.410155
0.083918 0.622796 0.406130
0.091851 0.619893 0.398246
0.135369 0.621029 0.381600
0.246209 0.628050 0.354120
0.507356 0.641363 0.321120
0.716878 0.642402 0.287913
0.824971 0.638219 0.257945
0.086815 0.659865 0.434380
0.087228 0.657911 0.430682
0.092503 0.657802 0.425350
0.123087 0.660747 0.412027
0.204460 0.668021 0.387011
0.412944 0.683144 0.351845
0.656283 0.691225 0.321008
0.810129 0.693586 0.289958
0.059152 0.101666 0.342873
0.080533 0.102794 0.331212
0.180338 0.105197 0.308199
0.350890 0.109964 0.277762
0.562854 0.116604 0.244564
0.687852 0.118324 0.218993
0.740942 0.118189 0.203286
0.761867 0.117577 0.194490
0.062512 0.153688 0.354979
0.075829 0.138064 0.323459
0.140450 0.133818 0.299657
0.280837 0.134523 0.274548
0.491255 0.135140 0.243176
0.656405 0.132535 0.211915
0.731418 0.129031 0.191994
0.760831 0.125850 0.180254
0.070646 0.254515 0.370415
0.079758 0.224300 0.337405
0.121819 0.207713 0.313535
0.235709 0.200506 0.289696
0.431301 0.197308 0.259472
0.627837 0.185237 0.221123
0.724906 0.172488 0.193815
0.765137 0.162118 0.176785
0.077904 0.378605 0.389195
0.084196 0.343923 0.363773
0.112171 0.317982 0.341402
0.204836 0.303397 0.317901
0.382178 0.298469 0.289177
0.605803 0.285124 0.247287
0.723258 0.264899 0.212229
0.774760 0.247244 0.189214
0.081155 0.501350 0.410414
0.084446 0.475817 0.394228
0.103101 0.449840 0.375413
0.178689 0.432481 0.353520
0.338223 0.427984 0.327054
0.589410 0.427259 0.288124
0.726175 0.406998 0.247236
0.788835 0.386057 0.218745
0.084192 0.583645 0.429381
0.085221 0.572083 0.419102
0.095825 0.559044 0.405785
0.146520 0.550371 0.387171
0.271261 0.549897 0.362070
0.560079 0.558058 0.331218
0.725524 0.548795 0.288682
0.803515 0.534813 0.255635
0.087270 0.633511 0.447524
0.087844 0.628637 0.439847
0.093755 0.622874 0.429420
0.127892 0.620062 0.413324
0.220558 0.623308 0.389708
0.467846 0.636432 0.357921
0.693182 0.637344 0.323851
0.814946 0.632292 0.291278
0.090134 0.664394 0.462005
0.089974 0.661782 0.454989
0.093662 0.660185 0.447100
0.117160 0.661124 0.434100
0.184487 0.666394 0.412661
0.379993 0.681231 0.378703
0.634056 0.689474 0.349029
0.799614 0.691367 0.318046
0.061436 0.118130 0.460829
0.075743 0.118258 0.454280
0.155177 0.119358 0.431297
0.315612 0.121778 0.391820
0.540089 0.125442 0.341166
0.681858 0.128796 0.307592
0.738557 0.127937 0.285063
0.760022 0.126923 0.272304
0.062906 0.164102 0.472325
0.071727 0.148819 0.441866
0.121551 0.144711 0.419728
0.249942 0.145028 0.391287
0.460826 0.144840 0.349276
0.644665 0.142859 0.307643
0.727406 0.139186 0.279308
0.759889 0.135786 0.262486
0.073253 0.262396 0.485571
0.079062 0.233922 0.452218
0.108821 0.215133 0.426800
0.203635 0.204790 0.400266
0.381465 0.199645 0.365700
0.599496 0.187195 0.317901
0.712670 0.174561 0.280791
0.761127 0.163892 0.256755
0.084003 0.388531 0.497260
0.087973 0.355446 0.470944
0.106714 0.324265 0.444504
0.174621 0.302407 0.418199
0.316844 0.291928 0.389510
0.557062 0.277406 0.342337
0.699570 0.256679 0.296846
0.766254 0.237720 0.264718
0.089609 0.516740 0.504839
0.091972 0.490724 0.487017
0.106591 0.458145 0.465309
0.158022 0.430804 0.442340
0.273190 0.416301 0.417922
0.523193 0.413840 0.380055
0.691009 0.391848 0.329640
0.776143 0.367952 0.290672
0.091085 0.597754 0.505961
0.091961 0.585454 0.494320
0.100560 0.567759 0.478846
0.136997 0.551004 0.460568
0.231439 0.540905 0.439730
0.490281 0.546413 0.412982
0.683709 0.537644 0.366007
0.786779 0.522577 0.324831
0.092856 0.643910 0.507571
0.093240 0.638570 0.498144
0.097855 0.630178 0.485646
0.122421 0.622508 0.470238
0.193548 0.619611 0.451390
0.412168 0.630733 0.424583
0.655147 0.632899 0.391370
0.796586 0.627384 0.355805
0.094589 0.671621 0.509632
0.094364 0.669085 0.500941
0.096829 0.665903 0.490363
0.113018 0.664032 0.477254
0.164144 0.665996 0.459993
0.336208 0.679364 0.430851
0.599730 0.689461 0.404300
0.780708 0.691602 0.374486
0.062949 0.127796 0.534609
0.072810 0.127777 0.536091
0.135525 0.129418 0.524756
0.279745 0.130976 0.486074
0.500419 0.132152 0.420581
0.670803 0.138141 0.383697
0.734191 0.138255 0.359563
0.756654 0.137207 0.346186
0.062973 0.167144 0.548356
0.068920 0.154746 0.533024
0.108354 0.151130 0.521735
0.223428 0.151889 0.495425
0.425511 0.153385 0.446129
0.630499 0.152622 0.399443
0.720906 0.150289 0.368399
0.755990 0.147639 0.350327
0.072186 0.257973 0.566249
0.075199 0.234633 0.545599
0.098078 0.216939 0.527688
0.179028 0.207478 0.505145
0.340076 0.205037 0.472208
0.572866 0.193843 0.422940
0.698939 0.182998 0.383147
0.754737 0.174237 0.357172
0.085184 0.385268 0.583352
0.086464 0.356700 0.563565
0.100513 0.326101 0.541049
0.152436 0.302885 0.518678
0.267966 0.290798 0.495440
0.509097 0.276075 0.453694
0.672699 0.255791 0.406216
0.754625 0.237381 0.370444
0.096602 0.526076 0.594698
0.097335 0.500817 0.578265
0.109237 0.466654 0.558268
0.143537 0.433155 0.536602
0.223606 0.408298 0.514213
0.449639 0.401488 0.488762
0.646771 0.376928 0.437592
0.756847 0.349432 0.392411
0.096925 0.611829 0.590222
0.097615 0.599465 0.580394
0.105596 0.580015 0.566113
0.132059 0.557171 0.549389
0.200442 0.536439 0.531807
0.410553 0.535163 0.514203
0.629879 0.527091 0.469433
0.761856 0.510918 0.423166
0.098199 0.656259 0.580988
0.098661 0.650683 0.573174
0.103165 0.641351 0.561219
0.121100 0.629776 0.547193
0.173241 0.619507 0.532274
0.349498 0.625197 0.514680
0.605557 0.629959 0.486148
0.769069 0.624882 0.449193
0.099269 0.681070 0.572237
0.099181 0.678631 0.564664
0.101440 0.674809 0.553799
0.112649 0.670671 0.541244
0.149635 0.668551 0.527332
0.288805 0.678084 0.507202
0.555258 0.691679 0.486440
0.752692 0.695600 0.459449
0.064461 0.132333 0.562401
0.071542 0.132168 0.566664
0.122560 0.134077 0.561635
0.249764 0.136258 0.531869
0.456789 0.137763 0.473310
0.653227 0.140239 0.418130
0.728642 0.144036 0.397046
0.754855 0.144940 0.387815
0.063168 0.165827 0.575708
0.067808 0.156115 0.569164
0.099666 0.152872 0.564889
0.199821 0.153704 0.546164
0.385748 0.156196 0.503547
0.612597 0.156453 0.444457
0.713576 0.156764 0.416217
0.752486 0.155693 0.401862
0.070649 0.246964 0.594199
0.072543 0.227378 0.584088
0.089661 0.210328 0.575330
0.158605 0.200654 0.560840
0.305153 0.199503 0.533966
0.548467 0.195949 0.482040
0.686080 0.189064 0.445982
0.747897 0.182656 0.423894
0.083026 0.366039 0.614401
0.083365 0.342036 0.604538
0.092435 0.312793 0.591819
0.134837 0.289614 0.577396
0.237786 0.278722 0.559622
0.473133 0.273263 0.523574
0.649980 0.257147 0.483388
0.741850 0.241551 0.453393
0.095980 0.506335 0.632571
0.096524 0.486506 0.624206
0.104358 0.454511 0.611701
0.130858 0.421482 0.596025
0.198325 0.396871 0.578443
0.399069 0.392229 0.561864
0.610125 0.369203 0.524583
0.735400 0.343607 0.489160
0.100401 0.615653 0.640682
0.100563 0.605319 0.634390
0.107105 0.585923 0.625074
0.129620 0.561066 0.612311
0.186025 0.535962 0.596858
0.348864 0.526088 0.584160
0.578167 0.517378 0.560172
0.731447 0.500258 0.527819
0.100772 0.664376 0.636230
0.100838 0.659319 0.631669
0.105133 0.650149 0.624261
0.121431 0.637776 0.614141
0.165416 0.624703 0.602263
0.302635 0.621512 0.593163
0.553864 0.627414 0.580266
0.732819 0.623438 0.552787
0.100892 0.688913 0.628241
0.100879 0.686719 0.623997
0.103427 0.683384 0.617323
0.114086 0.679087 0.608323
0.145920 0.675272 0.597822
0.256832 0.679640 0.589813
0.508514 0.695727 0.579802
0.715967 0.702865 0.559562
0.065343 0.134665 0.572705
0.070863 0.134354 0.577187
0.115118 0.136099 0.574693
0.230400 0.138393 0.550133
0.424249 0.140228 0.497609
0.628322 0.141752 0.437428
0.719504 0.145493 0.412868
0.753544 0.147245 0.402514
0.063465 0.164743 0.584963
0.067733 0.156774 0.581811
0.094795 0.153663 0.580087
0.184085 0.154290 0.565386
0.355414 0.157034 0.528383
0.583156 0.157567 0.468202
0.701958 0.158828 0.436382
0.750730 0.158536 0.421246
0.069859 0.237852 0.603096
0.071421 0.220666 0.597169
0.084908 0.204037 0.592197
0.145290 0.194132 0.581808
0.279222 0.193285 0.559282
0.516567 0.192185 0.508743
0.671686 0.189478 0.472085
0.744163 0.185536 0.451071
0.081512 0.348523 0.623926
0.081290 0.326914 0.618113
0.087251 0.298565 0.610198
0.122717 0.274991 0.600399
0.214746 0.263221 0.586375
0.438525 0.260077 0.552752
0.631127 0.251745 0.515956
0.734097 0.241227 0.489841
0.094662 0.484464 0.644209
0.094792 0.466689 0.639739
0.099794 0.436085 0.631932
0.119549 0.402178 0.621156
0.175538 0.374162 0.607992
0.360248 0.367984 0.593742
0.584235 0.354515 0.563363
0.721349 0.335919 0.535077
0.100132 0.602833 0.657956
0.100673 0.593419 0.654708
0.106006 0.574227 0.649174
0.123583 0.548314 0.640547
0.168719 0.520499 0.629102
0.306100 0.505785 0.619016
0.542467 0.500824 0.604653
0.708978 0.485838 0.582698
0.101125 0.662375 0.660277
0.101499 0.658837 0.658619
0.105307 0.650582 0.655040
0.118945 0.638084 0.649128
0.155542 0.623268 0.641199
0.270390 0.614779 0.634286
0.513137 0.620187 0.630156
0.701924 0.617164 0.614944
0.101213 0.692416 0.657691
0.101354 0.691601 0.656370
0.103610 0.689369 0.653482
0.113056 0.685590 0.648773
0.140974 0.681130 0.642612
0.236261 0.681347 0.637820
0.472350 0.697143 0.638481
0.685189 0.706850 0.630570
0.065997 0.136043 0.577053
0.070675 0.135744 0.580926
0.110866 0.137567 0.579221
0.217992 0.139939 0.557527
0.401415 0.141776 0.509381
0.606269 0.143020 0.449474
0.709738 0.146444 0.420965
0.751845 0.148263 0.408309
0.063917 0.164066 0.587823
0.067741 0.156766 0.586176
0.091884 0.153720 0.585193
0.173801 0.154192 0.572385
0.333954 0.156864 0.539100
0.557557 0.157622 0.481049
0.689438 0.159104 0.446156
0.747842 0.159322 0.429189
0.069480 0.231811 0.604810
0.070913 0.216304 0.601496
0.082310 0.199930 0.598009
0.137296 0.189642 0.589295
0.262540 0.188484 0.569279
0.492632 0.188097 0.520672
0.658488 0.187240 0.482492
0.739727 0.185051 0.461164
0.080468 0.336578 0.625390
0.080184 0.316934 0.622435
0.084488 0.289202 0.616730
0.115820 0.265018 0.608976
0.200963 0.251816 0.596964
0.416438 0.248070 0.564113
0.616773 0.243337 0.527360
0.727179 0.236695 0.502899
0.093633 0.468745 0.646745
0.093562 0.452054 0.644719
0.097017 0.422363 0.639297
0.112308 0.387616 0.631212
0.160424 0.356296 0.620786
0.336551 0.346078 0.606379
0.566064 0.336583 0.577205
0.710447 0.323995 0.552516
0.099702 0.590169 0.663389
0.100570 0.581344 0.661980
0.104807 0.562031 0.658528
0.118280 0.535003 0.652440
0.154811 0.504759 0.643867
0.275838 0.485296 0.635495
0.514916 0.478316 0.623222
0.691280 0.466128 0.606432
0.100789 0.657554 0.670345
0.101652 0.654888 0.670075
0.105149 0.646826 0.668549
0.116234 0.633690 0.665297
0.146192 0.617094 0.660303
0.244504 0.604215 0.654970
0.476537 0.605937 0.653906
0.674887 0.603871 0.646528
0.101029 0.693042 0.672603
0.101379 0.692896 0.672538
0.103575 0.691139 0.671696
0.111744 0.687452 0.669850
0.135655 0.682324 0.667064
0.218661 0.679515 0.664397
0.436147 0.692142 0.669939
0.655114 0.703466 0.670941
