app/src/main/assets/cube/District03.cube
# LUT by SparkleStock. Enhanced with VOXCOLOR algorithms.
LUT_3D_SIZE 32
0.082051 0.062515 0.140659
0.091032 0.063650 0.140801
0.100012 0.064784 0.140943
0.108992 0.065918 0.141085
0.117972 0.067053 0.141227
0.126953 0.068187 0.141368
0.152712 0.069715 0.142258
0.181827 0.071322 0.143298
0.210942 0.072929 0.144338
0.240057 0.074536 0.145378
0.269172 0.076143 0.146418
0.304053 0.077813 0.147836
0.341817 0.079515 0.149443
0.379582 0.081216 0.151050
0.417346 0.082918 0.152657
0.455110 0.084619 0.154264
0.486541 0.086250 0.155705
0.511639 0.087810 0.156981
0.536736 0.089369 0.158258
0.561834 0.090929 0.159534
0.586931 0.092489 0.160810
0.606688 0.093734 0.161802
0.615763 0.094348 0.162228
0.624838 0.094962 0.162653
0.633912 0.095577 0.163078
0.642987 0.096191 0.163504
0.650754 0.096735 0.163866
0.651983 0.096924 0.163914
0.653212 0.097113 0.163961
0.654441 0.097302 0.164008
0.655670 0.097491 0.164055
0.656899 0.097680 0.164103
0.083895 0.078396 0.148694
0.092143 0.078597 0.148470
0.100391 0.078799 0.148246
0.108640 0.079000 0.148022
0.116888 0.079201 0.147798
0.125137 0.079402 0.147574
0.149981 0.080577 0.148205
0.178145 0.081946 0.149007
0.206308 0.083315 0.149809
0.234472 0.084684 0.150611
0.262635 0.086054 0.151413
0.297401 0.087370 0.152611
0.335467 0.088660 0.154008
0.373533 0.089950 0.155404
0.411600 0.091239 0.156801
0.449666 0.092529 0.158197
0.481573 0.093762 0.159424
0.507320 0.094937 0.160480
0.533067 0.096113 0.161537
0.558814 0.097289 0.162594
0.584560 0.098464 0.163650
0.604921 0.099385 0.164466
0.614508 0.099799 0.164800
0.624095 0.100212 0.165134
0.633682 0.100625 0.165468
0.643269 0.101038 0.165802
0.651465 0.101379 0.166066
0.652703 0.101358 0.165986
0.653941 0.101336 0.165905
0.655179 0.101315 0.165824
0.656417 0.101294 0.165743
0.657655 0.101272 0.165662
0.085738 0.094277 0.156729
0.093255 0.093545 0.156139
0.100771 0.092813 0.155549
0.108288 0.092082 0.154959
0.115804 0.091350 0.154369
0.123321 0.090618 0.153779
0.147250 0.091439 0.154151
0.174463 0.092570 0.154715
0.201675 0.093701 0.155279
0.228887 0.094833 0.155843
0.256099 0.095964 0.156407
0.290749 0.096926 0.157386
0.329117 0.097805 0.158572
0.367485 0.098683 0.159759
0.405853 0.099561 0.160945
0.444221 0.100439 0.162131
0.476604 0.101274 0.163143
0.503000 0.102065 0.163980
0.529397 0.102857 0.164817
0.555793 0.103648 0.165654
0.582190 0.104439 0.166491
0.603154 0.105037 0.167130
0.613253 0.105249 0.167372
0.623353 0.105461 0.167614
0.633452 0.105673 0.167857
0.643551 0.105885 0.168099
0.652175 0.106023 0.168266
0.653422 0.105791 0.168058
0.654670 0.105560 0.167849
0.655917 0.105328 0.167640
0.657164 0.105096 0.167431
0.658411 0.104864 0.167222
0.087581 0.110158 0.164764
0.094366 0.108493 0.163808
0.101151 0.106828 0.162852
0.107935 0.105163 0.161896
0.114720 0.103498 0.160940
0.121505 0.101833 0.159984
0.144520 0.102300 0.160097
0.170781 0.103194 0.160423
0.197041 0.104087 0.160750
0.223302 0.104981 0.161076
0.249563 0.105874 0.161402
0.284097 0.106483 0.162161
0.322767 0.106950 0.163137
0.361437 0.107416 0.164113
0.400107 0.107883 0.165089
0.438777 0.108349 0.166065
0.471635 0.108786 0.166861
0.498681 0.109193 0.167479
0.525727 0.109600 0.168096
0.552773 0.110007 0.168714
0.579819 0.110414 0.169331
0.601387 0.110689 0.169793
0.611998 0.110700 0.169944
0.622610 0.110711 0.170095
0.633222 0.110721 0.170246
0.643833 0.110732 0.170397
0.652886 0.110667 0.170467
0.654142 0.110225 0.170130
0.655398 0.109783 0.169793
0.656655 0.109341 0.169456
0.657911 0.108899 0.169119
0.659167 0.108456 0.168782
0.089425 0.126039 0.172799
0.095477 0.123441 0.171477
0.101530 0.120843 0.170155
0.107583 0.118245 0.168834
0.113636 0.115647 0.167512
0.119689 0.113049 0.166190
0.141789 0.113162 0.166043
0.167099 0.113818 0.166132
0.192408 0.114473 0.166220
0.217717 0.115129 0.166308
0.243027 0.115784 0.166397
0.277445 0.116040 0.166937
0.316416 0.116094 0.167702
0.355388 0.116149 0.168467
0.394360 0.116204 0.169233
0.433332 0.116259 0.169998
0.466666 0.116298 0.170580
0.494361 0.116321 0.170978
0.522057 0.116344 0.171376
0.549752 0.116367 0.171774
0.577448 0.116389 0.172172
0.599620 0.116341 0.172457
0.610744 0.116151 0.172516
0.621867 0.115960 0.172576
0.632991 0.115769 0.172635
0.644115 0.115579 0.172695
0.653596 0.115311 0.172667
0.654862 0.114659 0.172202
0.656127 0.114006 0.171737
0.657393 0.113354 0.171272
0.658658 0.112701 0.170807
0.659924 0.112049 0.170341
0.091268 0.141920 0.180834
0.096589 0.138389 0.179146
0.101910 0.134857 0.177459
0.107231 0.131326 0.175771
0.112552 0.127795 0.174083
0.117873 0.124264 0.172395
0.139058 0.124024 0.171989
0.163416 0.124441 0.171840
0.187774 0.124859 0.171691
0.212133 0.125277 0.171541
0.236491 0.125695 0.171392
0.270792 0.125596 0.171712
0.310066 0.125239 0.172267
0.349340 0.124883 0.172822
0.388614 0.124526 0.173377
0.427888 0.124169 0.173932
0.461697 0.123810 0.174298
0.490042 0.123449 0.174477
0.518387 0.123087 0.174655
0.546732 0.122726 0.174834
0.575077 0.122365 0.175012
0.597853 0.121993 0.175120
0.609489 0.121601 0.175088
0.621125 0.121209 0.175056
0.632761 0.120818 0.175024
0.644397 0.120426 0.174992
0.654307 0.119955 0.174867
0.655581 0.119092 0.174274
0.656856 0.118230 0.173680
0.658131 0.117367 0.173087
0.659405 0.116504 0.172494
0.660680 0.115641 0.171901
0.093032 0.168317 0.196156
0.097850 0.164295 0.194163
0.102668 0.160273 0.192170
0.107486 0.156251 0.190178
0.112304 0.152229 0.188185
0.117122 0.148207 0.186192
0.137386 0.147172 0.185093
0.160739 0.146734 0.184172
0.184093 0.146297 0.183251
0.207446 0.145859 0.182330
0.230799 0.145421 0.181409
0.265115 0.145048 0.181195
0.304912 0.144706 0.181333
0.344708 0.144365 0.181472
0.384505 0.144023 0.181611
0.424302 0.143682 0.181750
0.458701 0.143035 0.181730
0.487703 0.142084 0.181551
0.516706 0.141132 0.181373
0.545708 0.140181 0.181195
0.574710 0.139230 0.181016
0.598066 0.138288 0.180826
0.610131 0.137368 0.180611
0.622196 0.136447 0.180396
0.634260 0.135526 0.180181
0.646325 0.134605 0.179966
0.656609 0.133662 0.179676
0.657992 0.132612 0.179016
0.659375 0.131561 0.178356
0.660758 0.130511 0.177696
0.662141 0.129460 0.177036
0.663524 0.128410 0.176376
0.094781 0.196818 0.212935
0.099142 0.192393 0.210649
0.103502 0.187968 0.208364
0.107863 0.183544 0.206078
0.112223 0.179119 0.203793
0.116584 0.174695 0.201507
0.135926 0.172777 0.199627
0.158263 0.171360 0.197828
0.180601 0.169944 0.196029
0.202939 0.168528 0.194230
0.225277 0.167111 0.192431
0.259632 0.166478 0.191619
0.299996 0.166238 0.191300
0.340360 0.165997 0.190981
0.380724 0.165756 0.190663
0.421088 0.165515 0.190344
0.456100 0.164603 0.189903
0.485761 0.163021 0.189341
0.515422 0.161438 0.188778
0.545083 0.159855 0.188216
0.574743 0.158273 0.187653
0.598676 0.156713 0.187139
0.611152 0.155197 0.186723
0.623629 0.153681 0.186307
0.636105 0.152166 0.185891
0.648581 0.150650 0.185474
0.659230 0.149182 0.185008
0.660741 0.147949 0.184293
0.662252 0.146715 0.183578
0.663763 0.145482 0.182863
0.665274 0.144248 0.182148
0.666785 0.143015 0.181433
0.096530 0.225318 0.229714
0.100433 0.220491 0.227135
0.104336 0.215664 0.224557
0.108239 0.210837 0.221979
0.112143 0.206010 0.219401
0.116046 0.201183 0.216823
0.134465 0.198382 0.214162
0.155787 0.195987 0.211485
0.177110 0.193592 0.208807
0.198432 0.191196 0.206130
0.219755 0.188801 0.203453
0.254149 0.187909 0.202043
0.295081 0.187769 0.201267
0.336012 0.187629 0.200491
0.376943 0.187488 0.199715
0.417874 0.187348 0.198939
0.453499 0.186171 0.198077
0.483819 0.183957 0.197130
0.514138 0.181743 0.196184
0.544458 0.179530 0.195237
0.574777 0.177316 0.194290
0.599286 0.175137 0.193453
0.612174 0.173026 0.192835
0.625062 0.170916 0.192218
0.637950 0.168806 0.191600
0.650838 0.166696 0.190983
0.661851 0.164702 0.190340
0.663490 0.163285 0.189570
0.665129 0.161869 0.188800
0.666768 0.160452 0.188030
0.668407 0.159036 0.187260
0.670046 0.157619 0.186490
0.098279 0.253819 0.246493
0.101725 0.248589 0.243622
0.105170 0.243359 0.240751
0.108616 0.238130 0.237880
0.112062 0.232900 0.235009
0.115507 0.227671 0.232138
0.133004 0.223987 0.228696
0.153311 0.220613 0.225141
0.173618 0.217239 0.221585
0.193925 0.213865 0.218030
0.214232 0.210491 0.214474
0.248667 0.209340 0.212467
0.290165 0.209300 0.211233
0.331663 0.209261 0.210000
0.373162 0.209221 0.208767
0.414660 0.209181 0.207533
0.450898 0.207739 0.206251
0.481876 0.204894 0.204920
0.512854 0.202049 0.203589
0.543832 0.199204 0.202258
0.574811 0.196359 0.200927
0.599896 0.193561 0.199766
0.613195 0.190856 0.198948
0.626495 0.188151 0.198129
0.639795 0.185446 0.197310
0.653094 0.182742 0.196491
0.664472 0.180221 0.195672
0.666239 0.178622 0.194847
0.668006 0.177022 0.194022
0.669773 0.175423 0.193197
0.671540 0.173824 0.192372
0.673307 0.172224 0.191548
0.100028 0.282319 0.263271
0.103016 0.276687 0.260108
0.106004 0.271055 0.256944
0.108993 0.265423 0.253780
0.111981 0.259791 0.250617
0.114969 0.254159 0.247453
0.131544 0.249592 0.243231
0.150835 0.245240 0.238797
0.170127 0.240887 0.234364
0.189418 0.236534 0.229930
0.208710 0.232181 0.225496
0.243184 0.230771 0.222891
0.285250 0.230831 0.221200
0.327315 0.230892 0.219509
0.369380 0.230953 0.217818
0.411446 0.231014 0.216128
0.448297 0.229307 0.214425
0.479934 0.225831 0.212709
0.511571 0.222354 0.210994
0.543207 0.218878 0.209279
0.574844 0.215402 0.207564
0.600506 0.211985 0.206080
0.614217 0.208685 0.205060
0.627928 0.205386 0.204040
0.641640 0.202087 0.203020
0.655351 0.198787 0.202000
0.667093 0.195741 0.201003
0.668988 0.193958 0.200124
0.670883 0.192176 0.199244
0.672778 0.190394 0.198364
0.674673 0.188611 0.197485
0.676569 0.186829 0.196605
0.101839 0.313719 0.282697
0.104462 0.308215 0.279546
0.107084 0.302710 0.276394
0.109707 0.297206 0.273243
0.112329 0.291702 0.270091
0.114951 0.286198 0.266940
0.130258 0.281494 0.262588
0.148101 0.276948 0.257995
0.165944 0.272403 0.253403
0.183787 0.267858 0.248811
0.201630 0.263313 0.244219
0.236106 0.261577 0.240784
0.278897 0.261244 0.237928
0.321688 0.260912 0.235073
0.364479 0.260580 0.232217
0.407270 0.260247 0.229361
0.445128 0.258302 0.226804
0.478051 0.254743 0.224546
0.510975 0.251185 0.222288
0.543898 0.247626 0.220030
0.576822 0.244068 0.217772
0.603463 0.240468 0.215837
0.617537 0.236788 0.214549
0.631611 0.233107 0.213261
0.645685 0.229427 0.211972
0.659759 0.225746 0.210684
0.671831 0.222349 0.209448
0.673891 0.220365 0.208470
0.675951 0.218381 0.207493
0.678010 0.216398 0.206516
0.680070 0.214414 0.205538
0.682130 0.212431 0.204561
0.103683 0.346567 0.303446
0.105985 0.341457 0.300460
0.108287 0.336346 0.297473
0.110589 0.331235 0.294486
0.112892 0.326125 0.291499
0.115194 0.321014 0.288512
0.129059 0.316542 0.284355
0.145238 0.312199 0.279964
0.161416 0.307855 0.275573
0.177594 0.303511 0.271182
0.193772 0.299167 0.266791
0.228229 0.297071 0.262411
0.271825 0.296098 0.258037
0.315422 0.295126 0.253663
0.359018 0.294153 0.249289
0.402614 0.293180 0.244914
0.441674 0.291010 0.241287
0.476199 0.287644 0.238407
0.510723 0.284278 0.235527
0.545248 0.280911 0.232647
0.579772 0.277545 0.229767
0.607593 0.273982 0.227317
0.622005 0.270027 0.225726
0.636418 0.266072 0.224136
0.650831 0.262117 0.222546
0.665243 0.258162 0.220956
0.677628 0.254501 0.219448
0.679871 0.252307 0.218352
0.682113 0.250113 0.217255
0.684356 0.247919 0.216159
0.686599 0.245725 0.215063
0.688842 0.243531 0.213967
0.105526 0.379416 0.324196
0.107508 0.374699 0.321373
0.109490 0.369982 0.318551
0.111472 0.365264 0.315729
0.113454 0.360547 0.312907
0.115436 0.355830 0.310085
0.127861 0.351591 0.306123
0.142374 0.347449 0.301933
0.156888 0.343306 0.297743
0.171401 0.339164 0.293554
0.185914 0.335021 0.289364
0.220353 0.332565 0.284039
0.264754 0.330952 0.278146
0.309155 0.329339 0.272253
0.353556 0.327726 0.266360
0.397958 0.326113 0.260467
0.438221 0.323719 0.255770
0.474346 0.320545 0.252268
0.510472 0.317370 0.248766
0.546597 0.314196 0.245263
0.582723 0.311022 0.241761
0.611723 0.307496 0.238796
0.626474 0.303266 0.236904
0.641225 0.299037 0.235012
0.655976 0.294807 0.233119
0.670728 0.290578 0.231227
0.683424 0.286653 0.229448
0.685850 0.284248 0.228233
0.688276 0.281844 0.227018
0.690702 0.279440 0.225803
0.693127 0.277035 0.224587
0.695553 0.274631 0.223372
0.107369 0.412265 0.344945
0.109031 0.407941 0.342287
0.110693 0.403617 0.339630
0.112355 0.399293 0.336972
0.114017 0.394969 0.334315
0.115679 0.390645 0.331657
0.126663 0.386640 0.327891
0.139511 0.382699 0.323902
0.152359 0.378758 0.319914
0.165208 0.374817 0.315925
0.178056 0.370875 0.311936
0.212476 0.368059 0.305666
0.257683 0.365806 0.298255
0.302889 0.363552 0.290843
0.348095 0.361299 0.283432
0.393301 0.359046 0.276020
0.434768 0.356428 0.270253
0.472494 0.353445 0.266128
0.510220 0.350463 0.262004
0.547946 0.347481 0.257880
0.585673 0.344499 0.253756
0.615853 0.341009 0.250275
0.630943 0.336505 0.248081
0.646033 0.332002 0.245887
0.661122 0.327498 0.243693
0.676212 0.322994 0.241499
0.689221 0.318805 0.239448
0.691830 0.316190 0.238114
0.694439 0.313575 0.236780
0.697047 0.310960 0.235446
0.699656 0.308346 0.234112
0.702265 0.305731 0.232778
0.109213 0.445114 0.365694
0.110554 0.441183 0.363201
0.111896 0.437253 0.360708
0.113238 0.433322 0.358215
0.114579 0.429392 0.355723
0.115921 0.425461 0.353230
0.125464 0.421689 0.349658
0.136648 0.417949 0.345871
0.147831 0.414209 0.342084
0.159015 0.410469 0.338296
0.170198 0.406729 0.334509
0.204600 0.403553 0.327293
0.250611 0.400660 0.318363
0.296622 0.397766 0.309433
0.342634 0.394872 0.300504
0.388645 0.391978 0.291574
0.431314 0.389136 0.284735
0.470641 0.386346 0.279989
0.509969 0.383556 0.275243
0.549296 0.380766 0.270497
0.588623 0.377976 0.265750
0.619984 0.374523 0.261754
0.635412 0.369745 0.259258
0.650840 0.364966 0.256762
0.666268 0.360188 0.254267
0.681696 0.355410 0.251771
0.695018 0.350957 0.249449
0.697810 0.348132 0.247996
0.700601 0.345307 0.246543
0.703393 0.342481 0.245090
0.706185 0.339656 0.243637
0.708976 0.336831 0.242184
0.110820 0.472811 0.384032
0.111937 0.469320 0.381755
0.113055 0.465828 0.379477
0.114172 0.462337 0.377199
0.115290 0.458845 0.374921
0.116408 0.455354 0.372643
0.124804 0.451918 0.369302
0.134656 0.448494 0.365748
0.144509 0.445069 0.362194
0.154361 0.441645 0.358640
0.164214 0.438221 0.355086
0.197394 0.435193 0.347722
0.242239 0.432363 0.338454
0.287084 0.429533 0.329185
0.331929 0.426703 0.319917
0.376774 0.423873 0.310649
0.420333 0.421224 0.303140
0.462606 0.418754 0.297392
0.504879 0.416284 0.291644
0.547151 0.413814 0.285896
0.589424 0.411344 0.280149
0.622982 0.408100 0.275331
0.639110 0.403308 0.272373
0.655238 0.398516 0.269415
0.671366 0.393724 0.266457
0.687494 0.388932 0.263499
0.701435 0.384454 0.260771
0.704441 0.381546 0.259190
0.707448 0.378639 0.257609
0.710454 0.375731 0.256028
0.713461 0.372824 0.254446
0.716468 0.369916 0.252865
0.112190 0.495356 0.399961
0.113180 0.492350 0.397948
0.114169 0.489343 0.395936
0.115159 0.486336 0.393923
0.116148 0.483330 0.391910
0.117138 0.480323 0.389898
0.124682 0.477327 0.386822
0.133537 0.474332 0.383533
0.142393 0.471338 0.380244
0.151248 0.468343 0.376956
0.160103 0.465349 0.373667
0.190860 0.462976 0.366953
0.232567 0.460915 0.358526
0.274274 0.458854 0.350099
0.315981 0.456792 0.341672
0.357688 0.454731 0.333246
0.401823 0.452690 0.325468
0.448387 0.450668 0.318338
0.494950 0.448646 0.311209
0.541513 0.446624 0.304080
0.588076 0.444603 0.296950
0.624848 0.441740 0.291004
0.642037 0.437195 0.287424
0.659226 0.432650 0.283844
0.676415 0.428105 0.280264
0.693604 0.423560 0.276684
0.708471 0.419295 0.273415
0.711725 0.416434 0.271697
0.714978 0.413572 0.269978
0.718232 0.410710 0.268260
0.721485 0.407848 0.266542
0.724739 0.404986 0.264823
0.113561 0.517901 0.415889
0.114422 0.515380 0.414142
0.115284 0.512858 0.412394
0.116145 0.510336 0.410647
0.117007 0.507814 0.408900
0.117868 0.505292 0.407152
0.124560 0.502735 0.404342
0.132418 0.500171 0.401318
0.140276 0.497606 0.398295
0.148135 0.495042 0.395272
0.155993 0.492477 0.392248
0.184325 0.490760 0.386184
0.222894 0.489467 0.378598
0.261464 0.488175 0.371013
0.300033 0.486882 0.363428
0.338603 0.485589 0.355843
0.383314 0.484156 0.347795
0.434168 0.482582 0.339284
0.485021 0.481009 0.330773
0.535875 0.479435 0.322263
0.586729 0.477862 0.313752
0.626714 0.475380 0.306678
0.644965 0.471082 0.302476
0.663215 0.466784 0.298274
0.681465 0.462486 0.294072
0.699715 0.458188 0.289870
0.715507 0.454137 0.286059
0.719008 0.451321 0.284203
0.722508 0.448505 0.282348
0.726009 0.445689 0.280492
0.729510 0.442873 0.278637
0.733010 0.440057 0.276781
0.114932 0.540447 0.431817
0.115665 0.538410 0.430335
0.116398 0.536373 0.428853
0.117132 0.534336 0.427371
0.117865 0.532299 0.425889
0.118598 0.530262 0.424407
0.124438 0.528144 0.421862
0.131299 0.526009 0.419104
0.138160 0.523875 0.416345
0.145021 0.521740 0.413587
0.151882 0.519606 0.410829
0.177790 0.518544 0.405414
0.213222 0.518020 0.398670
0.248654 0.517495 0.391927
0.284085 0.516971 0.385183
0.319517 0.516446 0.378440
0.364805 0.515622 0.370122
0.419949 0.514496 0.360230
0.475093 0.513371 0.350338
0.530237 0.512246 0.340446
0.585381 0.511121 0.330554
0.628581 0.509020 0.322351
0.647892 0.504969 0.317527
0.667203 0.500918 0.312703
0.686515 0.496867 0.307879
0.705826 0.492816 0.303055
0.722544 0.488979 0.298703
0.726291 0.486208 0.296710
0.730039 0.483438 0.294717
0.733786 0.480668 0.292725
0.737534 0.477897 0.290732
0.741282 0.475127 0.288739
0.116302 0.562992 0.447745
0.116908 0.561440 0.446528
0.117513 0.559888 0.445312
0.118118 0.558336 0.444095
0.118724 0.556783 0.442878
0.119329 0.555231 0.441662
0.124316 0.553552 0.439382
0.130180 0.551848 0.436889
0.136044 0.550143 0.434396
0.141908 0.548438 0.431903
0.147772 0.546734 0.429410
0.171256 0.546328 0.424645
0.203549 0.546572 0.418743
0.235843 0.546816 0.412841
0.268137 0.547060 0.406939
0.300431 0.547304 0.401037
0.346295 0.547088 0.392449
0.405730 0.546411 0.381176
0.465164 0.545734 0.369902
0.524599 0.545057 0.358629
0.584033 0.544380 0.347356
0.630447 0.542660 0.338025
0.650819 0.538856 0.332579
0.671192 0.535052 0.327133
0.691564 0.531248 0.321686
0.711937 0.527444 0.316240
0.729580 0.523820 0.311347
0.733574 0.521096 0.309217
0.737569 0.518371 0.307087
0.741564 0.515646 0.304957
0.745558 0.512922 0.302827
0.749553 0.510197 0.300697
0.117578 0.582339 0.462035
0.118068 0.581156 0.461041
0.118557 0.579973 0.460047
0.119047 0.578789 0.459052
0.119536 0.577606 0.458058
0.120026 0.576423 0.457064
0.124313 0.575070 0.454992
0.129359 0.573682 0.452703
0.134406 0.572295 0.450415
0.139453 0.570907 0.448126
0.144499 0.569520 0.445837
0.165881 0.569547 0.441547
0.195431 0.570282 0.436254
0.224980 0.571017 0.430962
0.254530 0.571752 0.425670
0.284079 0.572487 0.420378
0.329654 0.572742 0.411726
0.391253 0.572516 0.399715
0.452852 0.572290 0.387704
0.514452 0.572065 0.375693
0.576051 0.571839 0.363681
0.624695 0.570580 0.353631
0.647428 0.567255 0.347502
0.670161 0.563930 0.341372
0.692893 0.560604 0.335243
0.715626 0.557279 0.329114
0.735301 0.554069 0.323623
0.739689 0.551432 0.321322
0.744077 0.548796 0.319022
0.748465 0.546160 0.316721
0.752853 0.543524 0.314420
0.757241 0.540888 0.312119
0.118666 0.595289 0.473047
0.119064 0.594243 0.472191
0.119461 0.593197 0.471334
0.119859 0.592152 0.470477
0.120257 0.591106 0.469620
0.120655 0.590060 0.468763
0.124546 0.588805 0.466782
0.129135 0.587509 0.464576
0.133724 0.586213 0.462369
0.138314 0.584918 0.460163
0.142903 0.583622 0.457957
0.162827 0.583637 0.453791
0.190419 0.584308 0.448645
0.218011 0.584979 0.443500
0.245603 0.585649 0.438354
0.273195 0.586320 0.433208
0.316747 0.586772 0.424904
0.376261 0.587003 0.413442
0.435775 0.587235 0.401979
0.495288 0.587467 0.390517
0.554802 0.587699 0.379054
0.603708 0.587059 0.369101
0.631399 0.584676 0.362167
0.659090 0.582293 0.355233
0.686781 0.579910 0.348299
0.714472 0.577526 0.341365
0.738393 0.575130 0.335163
0.743468 0.572668 0.332625
0.748542 0.570206 0.330086
0.753616 0.567743 0.327547
0.758690 0.565281 0.325009
0.763764 0.562819 0.322470
0.119753 0.608240 0.484060
0.120059 0.607331 0.483340
0.120366 0.606422 0.482621
0.120672 0.605514 0.481901
0.120978 0.604605 0.481181
0.121285 0.603696 0.480462
0.124779 0.602541 0.478572
0.128911 0.601337 0.476448
0.133043 0.600132 0.474324
0.137175 0.598928 0.472200
0.141307 0.597723 0.470077
0.159773 0.597726 0.466036
0.185407 0.598333 0.461036
0.211042 0.598940 0.456037
0.236676 0.599547 0.451038
0.262310 0.600153 0.446038
0.303841 0.600801 0.438082
0.361269 0.601491 0.427168
0.418697 0.602180 0.416255
0.476125 0.602869 0.405341
0.533553 0.603558 0.394428
0.582721 0.603537 0.384572
0.615370 0.602096 0.376833
0.648020 0.600656 0.369094
0.680669 0.599215 0.361355
0.713318 0.597774 0.353615
0.741485 0.596192 0.346703
0.747246 0.593903 0.343927
0.753006 0.591615 0.341151
0.758766 0.589326 0.338374
0.764526 0.587038 0.335598
0.770286 0.584749 0.332821
0.120840 0.621190 0.495073
0.121055 0.620419 0.494490
0.121270 0.619647 0.493908
0.121485 0.618876 0.493325
0.121700 0.618104 0.492743
0.121915 0.617333 0.492161
0.125012 0.616277 0.490362
0.128687 0.615164 0.488321
0.132361 0.614051 0.486279
0.136036 0.612938 0.484238
0.139710 0.611825 0.482196
0.156719 0.611816 0.478280
0.180396 0.612358 0.473427
0.204072 0.612901 0.468574
0.227749 0.613444 0.463721
0.251425 0.613987 0.458868
0.290935 0.614831 0.451259
0.346277 0.615978 0.440895
0.401619 0.617125 0.430530
0.456961 0.618271 0.420165
0.512304 0.619418 0.409801
0.561734 0.620016 0.400043
0.599342 0.619517 0.391499
0.636949 0.619019 0.382955
0.674556 0.618520 0.374410
0.712164 0.618022 0.365866
0.744577 0.617254 0.358244
0.751024 0.615139 0.355229
0.757470 0.613024 0.352215
0.763916 0.610909 0.349201
0.770363 0.608795 0.346186
0.776809 0.606680 0.343172
0.121927 0.634141 0.506085
0.122050 0.633507 0.505640
0.122174 0.632872 0.505195
0.122297 0.632238 0.504750
0.122421 0.631604 0.504305
0.122544 0.630969 0.503859
0.125246 0.630012 0.502152
0.128463 0.628991 0.500193
0.131680 0.627969 0.498234
0.134897 0.626948 0.496275
0.138114 0.625926 0.494316
0.153665 0.625905 0.490525
0.175384 0.626384 0.485818
0.197103 0.626863 0.481112
0.218822 0.627341 0.476405
0.240541 0.627820 0.471698
0.278028 0.628861 0.464437
0.331285 0.630465 0.454621
0.384541 0.632069 0.444806
0.437798 0.633673 0.434990
0.491054 0.635277 0.425174
0.540747 0.636494 0.415514
0.583313 0.636938 0.406164
0.625878 0.637382 0.396815
0.668444 0.637825 0.387466
0.711009 0.638269 0.378117
0.747669 0.638315 0.369784
0.754802 0.636374 0.366532
0.761934 0.634434 0.363280
0.769067 0.632493 0.360027
0.776199 0.630552 0.356775
0.783331 0.628611 0.353523
0.122904 0.645823 0.516176
0.122955 0.645311 0.515844
0.123007 0.644798 0.515512
0.123059 0.644286 0.515179
0.123111 0.643774 0.514847
0.123163 0.643262 0.514514
0.125509 0.642394 0.512891
0.128315 0.641454 0.511010
0.131120 0.640515 0.509128
0.133925 0.639576 0.507247
0.136731 0.638637 0.505365
0.150939 0.638610 0.501710
0.170848 0.639040 0.497168
0.190757 0.639470 0.492626
0.210666 0.639900 0.488084
0.230575 0.640330 0.483542
0.266135 0.641545 0.476633
0.317347 0.643546 0.467355
0.368559 0.645546 0.458077
0.419771 0.647546 0.448800
0.470983 0.649547 0.439522
0.520728 0.651291 0.429985
0.567540 0.652525 0.419928
0.614352 0.653758 0.409872
0.661163 0.654992 0.399815
0.707975 0.656225 0.389758
0.748342 0.656962 0.380783
0.756484 0.655213 0.377217
0.764625 0.653464 0.373651
0.772767 0.651715 0.370085
0.780909 0.649967 0.366519
0.789050 0.648218 0.362952
0.123329 0.651164 0.521659
0.123408 0.650697 0.521317
0.123488 0.650231 0.520976
0.123567 0.649764 0.520634
0.123646 0.649298 0.520293
0.123725 0.648831 0.519951
0.125924 0.648001 0.518372
0.128546 0.647099 0.516546
0.131169 0.646196 0.514719
0.133791 0.645293 0.512893
0.136414 0.644391 0.511066
0.149847 0.644395 0.507600
0.168686 0.644852 0.503314
0.187524 0.645310 0.499028
0.206363 0.645767 0.494743
0.225202 0.646224 0.490457
0.259308 0.647499 0.483917
0.308681 0.649591 0.475125
0.358054 0.651683 0.466332
0.407427 0.653775 0.457539
0.456801 0.655866 0.448747
0.505549 0.657681 0.439459
