app/src/main/assets/cube/District01.cube
# LUT by SparkleStock. Enhanced with VOXCOLOR algorithms.
LUT_3D_SIZE 5
DOMAIN_MIN 0.000000 0.000000 0.000000
DOMAIN_MAX 0.903226 0.903226 0.903226
0.066422 0.074237 0.148474
0.249848 0.092560 0.145417
0.564236 0.119390 0.135744
0.752830 0.140628 0.127559
0.793871 0.147765 0.125172
0.072141 0.229099 0.232487
0.175718 0.206638 0.205383
0.494280 0.208579 0.166245
0.736796 0.206278 0.142554
0.793717 0.197298 0.134865
0.085108 0.431754 0.365174
0.123368 0.407479 0.338673
0.390368 0.385035 0.241816
0.723828 0.372140 0.171577
0.803838 0.347999 0.155647
0.095892 0.576139 0.462641
0.106690 0.570116 0.451313
0.235925 0.564289 0.380013
0.674484 0.551749 0.216786
0.819687 0.534281 0.181643
0.101729 0.638166 0.508378
0.107111 0.638389 0.501382
0.175647 0.634694 0.453061
0.475757 0.633096 0.310847
0.796952 0.628501 0.206024
0.076545 0.132294 0.353665
0.203650 0.136350 0.322643
0.532394 0.152888 0.253327
0.745391 0.164258 0.199445
0.790099 0.166716 0.183855
0.076595 0.255311 0.390334
0.140242 0.221028 0.338504
0.418875 0.217575 0.273903
0.714280 0.213010 0.203160
0.790631 0.201478 0.173693
0.088473 0.450647 0.451126
0.113361 0.408444 0.413960
0.322408 0.383606 0.331547
0.684678 0.370157 0.228599
0.797373 0.339334 0.183508
0.096590 0.588940 0.503245
0.104544 0.575624 0.487490
0.206481 0.563076 0.426997
0.629478 0.548259 0.258641
0.808603 0.529144 0.198745
0.102723 0.647607 0.530524
0.105540 0.642759 0.520102
0.157185 0.639684 0.482113
0.436169 0.636116 0.341359
0.784668 0.628909 0.217858
0.090976 0.177731 0.508866
0.168150 0.181924 0.496183
0.477684 0.191800 0.410946
0.729352 0.205097 0.321576
0.774084 0.202536 0.288254
0.085698 0.280762 0.545391
0.121249 0.248964 0.507525
0.347123 0.248546 0.452351
0.678057 0.247740 0.347790
0.773370 0.234812 0.290352
0.094533 0.477033 0.596213
0.109177 0.428107 0.559811
0.230127 0.390894 0.507212
0.592645 0.381686 0.404496
0.770372 0.346566 0.309449
0.103485 0.621442 0.615883
0.107769 0.601984 0.597576
0.165801 0.573261 0.561547
0.501125 0.559174 0.441065
0.770486 0.536124 0.318472
0.106411 0.670515 0.610166
0.108030 0.664553 0.595460
0.135896 0.656898 0.570802
0.352666 0.654810 0.470563
0.745331 0.645586 0.310315
0.096719 0.198180 0.559738
0.147828 0.203472 0.559979
0.405682 0.213768 0.494633
0.710826 0.221679 0.383517
0.764695 0.227511 0.358981
0.091526 0.279636 0.595630
0.113873 0.256629 0.581191
0.292429 0.256979 0.546312
0.645964 0.270151 0.444245
0.756429 0.268367 0.391037
0.097803 0.460292 0.655559
0.105419 0.422258 0.637191
0.185042 0.384071 0.605798
0.519733 0.391199 0.541665
0.737722 0.371577 0.454171
0.109382 0.640118 0.701706
0.112949 0.619021 0.689638
0.155418 0.580616 0.662997
0.381980 0.562295 0.617361
0.713738 0.555456 0.529106
0.112838 0.692919 0.699017
0.114742 0.688786 0.691891
0.135934 0.680779 0.676834
0.285753 0.681199 0.648286
0.677914 0.684094 0.527456
0.097255 0.205199 0.568813
0.140238 0.208277 0.570124
0.367550 0.217736 0.517296
0.678119 0.225663 0.407044
0.761438 0.231314 0.371438
0.093035 0.274101 0.600367
0.111076 0.254756 0.592062
0.264072 0.252715 0.564341
0.605283 0.266439 0.469427
0.750235 0.273077 0.410501
0.097764 0.437524 0.657334
0.103272 0.403366 0.646265
0.163524 0.361328 0.623585
0.477190 0.364929 0.565009
0.724167 0.370615 0.490311
0.108919 0.620354 0.710813
0.111888 0.602395 0.704846
0.138407 0.562267 0.688904
0.319763 0.535649 0.656263
0.684220 0.545615 0.597688
0.114732 0.696725 0.730562
0.117527 0.695164 0.728750
0.135217 0.688253 0.723934
0.258235 0.683092 0.707862
0.627540 0.701192 0.662182
