app/src/main/assets/cube/District02.cube
# LUT by SparkleStock. Enhanced with VOXCOLOR algorithms.
LUT_3D_SIZE 8
DOMAIN_MIN 0.000000 0.000000 0.000000
DOMAIN_MAX 0.903226 0.903226 0.903226
0.031258 0.089866 0.144567
0.098940 0.097617 0.142109
0.245768 0.110993 0.146481
0.426051 0.124479 0.151853
0.598023 0.134452 0.154524
0.703328 0.141447 0.156036
0.755225 0.145921 0.157864
0.777392 0.148048 0.159345
0.033715 0.169081 0.176328
0.076516 0.162049 0.170943
0.205303 0.164789 0.171144
0.382561 0.170445 0.172930
0.568566 0.173831 0.173131
0.687777 0.172190 0.169227
0.749553 0.170347 0.167103
0.776751 0.168442 0.164528
0.035236 0.274544 0.228713
0.061240 0.258639 0.219882
0.165608 0.249822 0.211721
0.334199 0.248192 0.206206
0.537814 0.250719 0.203185
0.673417 0.240547 0.194385
0.745747 0.229897 0.187704
0.778569 0.221741 0.181480
0.037079 0.393257 0.290378
0.051874 0.375790 0.280876
0.125705 0.361084 0.267128
0.278468 0.353352 0.254297
0.499062 0.352348 0.244733
0.659158 0.341249 0.231920
0.743854 0.324823 0.221002
0.783234 0.311204 0.211779
0.040151 0.510213 0.350238
0.047464 0.498180 0.344231
0.088112 0.486563 0.331684
0.215423 0.475685 0.314687
0.441187 0.466487 0.295809
0.641369 0.463474 0.280965
0.742840 0.447908 0.266659
0.790625 0.432336 0.255134
0.044878 0.590941 0.389751
0.048677 0.585495 0.387111
0.071817 0.580567 0.379174
0.153717 0.577825 0.365227
0.322617 0.577098 0.347135
0.602716 0.571158 0.337560
0.736778 0.563155 0.320230
0.799127 0.553516 0.306558
0.049919 0.646619 0.418079
0.051914 0.644100 0.416365
0.065904 0.641426 0.410081
0.121116 0.640690 0.397791
0.245350 0.642366 0.380257
0.497176 0.641305 0.366437
0.693367 0.638099 0.359540
0.801265 0.633744 0.350938
0.053283 0.680799 0.438229
0.054844 0.680634 0.436875
0.063455 0.679765 0.431798
0.101763 0.680365 0.421123
0.193809 0.683528 0.404558
0.399450 0.687401 0.386573
0.627498 0.686537 0.383154
0.778584 0.685267 0.379100
0.033337 0.116712 0.255544
0.079943 0.119048 0.243718
0.220312 0.127008 0.231777
0.405157 0.137701 0.220231
0.588051 0.148131 0.209472
0.699797 0.152638 0.199861
0.753499 0.155478 0.195687
0.776148 0.157251 0.193619
0.033160 0.178510 0.272083
0.062476 0.167875 0.252571
0.172652 0.166772 0.236996
0.342592 0.170446 0.223876
0.540795 0.174602 0.211738
0.677437 0.173759 0.198298
0.745967 0.172245 0.191192
0.775177 0.170213 0.186527
0.035053 0.280240 0.296183
0.054282 0.257248 0.276412
0.139453 0.246321 0.261585
0.294840 0.244056 0.248359
0.503118 0.245478 0.233990
0.659600 0.236500 0.215874
0.741438 0.225989 0.203599
0.777460 0.217274 0.195232
0.038201 0.399270 0.329732
0.050442 0.372403 0.313908
0.111077 0.355520 0.300447
0.249858 0.347718 0.286429
0.464986 0.345653 0.269683
0.643986 0.335049 0.248819
0.738829 0.317782 0.231685
0.782028 0.303045 0.219732
0.041950 0.514397 0.370657
0.047856 0.495570 0.360367
0.083077 0.479686 0.347246
0.199524 0.467909 0.331205
0.412789 0.460767 0.312575
0.626068 0.457712 0.293010
0.736493 0.440683 0.273172
0.788082 0.423740 0.258674
0.045945 0.593807 0.401095
0.048791 0.585760 0.396212
0.068803 0.578592 0.387895
0.144362 0.574194 0.373865
0.305267 0.572507 0.354789
0.588492 0.566184 0.342532
0.729373 0.557700 0.323032
0.795266 0.547139 0.307681
0.049523 0.647924 0.424860
0.051300 0.644447 0.421905
0.063341 0.641014 0.415667
0.113974 0.639686 0.403600
0.231789 0.640890 0.385527
0.483095 0.639390 0.369271
0.686050 0.634765 0.360511
0.797232 0.629315 0.350725
0.053417 0.682555 0.442620
0.053345 0.680356 0.440020
0.061098 0.679632 0.435662
0.096322 0.680978 0.426018
0.182143 0.684322 0.409454
0.384516 0.687326 0.389165
0.618960 0.685133 0.383827
0.774833 0.683053 0.378870
0.038631 0.139139 0.372012
0.070588 0.139377 0.362431
0.193815 0.145606 0.343510
0.375472 0.155139 0.318434
0.574629 0.164873 0.291058
0.691985 0.167825 0.270219
0.746922 0.168668 0.257867
0.770039 0.169521 0.250949
0.035923 0.190569 0.382763
0.056496 0.177162 0.357446
0.145642 0.176197 0.337313
0.304815 0.180834 0.316051
0.514073 0.185458 0.290313
0.664348 0.185303 0.265225
0.738700 0.183381 0.249355
0.770113 0.180677 0.239513
0.036529 0.287833 0.398954
0.051528 0.261610 0.371113
0.115385 0.248178 0.350372
0.252057 0.243698 0.329808
0.458405 0.243264 0.304578
0.636047 0.235066 0.273598
0.730449 0.224939 0.251147
0.772397 0.215816 0.236618
0.038943 0.407214 0.416096
0.049670 0.376622 0.393522
0.094102 0.353573 0.374015
0.210071 0.339876 0.354022
0.407507 0.334177 0.330216
0.610168 0.323253 0.296851
0.723213 0.306217 0.268750
0.776073 0.290940 0.249984
0.042125 0.525475 0.431099
0.047393 0.502559 0.416720
0.076021 0.478662 0.400891
0.171930 0.459974 0.383155
0.355335 0.449924 0.362414
0.586136 0.445338 0.333484
0.716827 0.427599 0.303643
0.780387 0.409474 0.282710
0.046321 0.604087 0.443753
0.048501 0.593735 0.435055
0.064704 0.581184 0.424391
0.127372 0.571000 0.409358
0.267226 0.565243 0.389629
0.548610 0.558415 0.371894
0.706325 0.548757 0.346192
0.784468 0.536805 0.326035
0.049368 0.654914 0.454939
0.050868 0.650575 0.448608
0.060234 0.644303 0.440114
0.101695 0.639695 0.427462
0.203780 0.638497 0.409969
0.447434 0.637062 0.390594
0.664285 0.630877 0.378101
0.786173 0.623970 0.365112
0.052817 0.687595 0.464507
0.052903 0.685133 0.458988
0.058571 0.682748 0.452349
0.086725 0.682373 0.442179
0.160191 0.684870 0.426784
0.353006 0.688079 0.404893
0.598042 0.684763 0.397193
0.763980 0.681599 0.390556
0.044460 0.156280 0.467344
0.066611 0.155908 0.464118
0.169154 0.161701 0.447008
0.341712 0.170710 0.415121
0.553826 0.179898 0.372567
0.681086 0.183692 0.344117
0.737389 0.183180 0.325791
0.760581 0.182935 0.315319
0.040484 0.199453 0.477962
0.055188 0.185530 0.455684
0.125701 0.185474 0.439124
0.272306 0.192191 0.415444
0.486043 0.199508 0.378840
0.649197 0.200591 0.344611
0.728125 0.198397 0.321434
0.761234 0.195244 0.307211
0.039475 0.289815 0.496489
0.050804 0.264556 0.468856
0.097682 0.250029 0.447161
0.215986 0.245016 0.423644
0.413490 0.246057 0.392737
0.608858 0.239553 0.351929
0.714431 0.230479 0.320828
0.762095 0.221730 0.300846
0.040316 0.409243 0.511024
0.048930 0.379358 0.486727
0.080723 0.352020 0.462845
0.174056 0.333512 0.438961
0.347031 0.325539 0.412595
0.567931 0.315041 0.370541
0.699715 0.298791 0.332420
0.763883 0.283608 0.306505
0.042312 0.535746 0.514343
0.046946 0.510546 0.497436
0.070508 0.480007 0.478802
0.144166 0.453458 0.458549
0.290444 0.436901 0.435377
0.530524 0.429637 0.400671
0.685793 0.410337 0.359874
0.766537 0.390581 0.329802
0.046240 0.617370 0.510202
0.047984 0.605197 0.499135
0.061393 0.587685 0.485974
0.110330 0.570452 0.470057
0.223969 0.557373 0.450973
0.489417 0.549074 0.428284
0.669539 0.537523 0.393951
0.767021 0.523584 0.365781
0.049303 0.665965 0.507032
0.050448 0.660834 0.498367
0.057946 0.651964 0.487424
0.089823 0.643084 0.474089
0.172228 0.636962 0.457909
0.395074 0.635140 0.436054
0.628901 0.627467 0.417726
0.767527 0.618789 0.398918
0.052072 0.696118 0.506074
0.052719 0.693950 0.498435
0.056912 0.689999 0.488798
0.077606 0.686983 0.477258
0.135762 0.686833 0.463000
0.308733 0.690380 0.440292
0.564377 0.686561 0.429059
0.744665 0.682224 0.419405
0.048974 0.167836 0.524841
0.064757 0.167025 0.526537
0.148479 0.172042 0.517692
0.307662 0.180472 0.487138
0.523226 0.189957 0.435097
0.668106 0.196898 0.402860
0.727056 0.196606 0.383384
0.749980 0.195647 0.372459
0.045327 0.201989 0.537563
0.055747 0.190233 0.525321
0.112781 0.189840 0.516802
0.245962 0.198087 0.495284
0.454540 0.210593 0.453717
0.632763 0.214101 0.414213
0.715507 0.212607 0.388541
0.749576 0.209824 0.373414
0.043274 0.282412 0.560489
0.050574 0.261584 0.542676
0.087938 0.247970 0.526654
0.191622 0.245144 0.506454
0.374468 0.251964 0.477213
0.582837 0.249692 0.432854
0.695841 0.242857 0.398581
0.747247 0.235655 0.377047
0.042688 0.400234 0.584101
0.047981 0.374067 0.565653
0.073733 0.347351 0.544125
0.150365 0.328798 0.522542
0.297963 0.321934 0.499861
0.526246 0.314689 0.457627
0.672051 0.300014 0.414673
0.745834 0.285822 0.384494
0.043479 0.537279 0.599095
0.046985 0.511618 0.582700
0.067848 0.479107 0.563408
0.123452 0.447625 0.541910
0.235222 0.423590 0.517850
0.469718 0.413955 0.485759
0.647230 0.392374 0.437157
0.746359 0.370852 0.398006
0.045961 0.629095 0.588203
0.047371 0.615836 0.578088
0.059766 0.595990 0.564045
0.098435 0.572844 0.548246
0.187935 0.550455 0.531193
0.420108 0.539120 0.506713
0.622852 0.524964 0.464763
0.743690 0.508466 0.427398
0.049149 0.678748 0.575019
0.049868 0.672900 0.566965
0.057046 0.663060 0.555250
0.082089 0.650487 0.541950
0.146119 0.637674 0.527462
0.334026 0.633875 0.505395
0.582765 0.624928 0.480565
0.741467 0.614278 0.454085
0.051485 0.707340 0.564941
0.052189 0.705190 0.557555
0.056452 0.700953 0.546395
0.072028 0.695776 0.533779
0.115574 0.691513 0.520140
0.258404 0.694438 0.498386
0.519718 0.691057 0.482532
0.716459 0.685721 0.468342
0.051999 0.174264 0.546772
0.063977 0.173014 0.549931
0.133525 0.177073 0.546075
0.276034 0.184881 0.521656
0.482451 0.194440 0.473001
0.653530 0.200941 0.427883
0.720506 0.204113 0.410651
0.744570 0.204625 0.403013
0.047913 0.201830 0.559933
0.056113 0.192242 0.553574
0.102487 0.191330 0.549968
0.219995 0.198171 0.533887
0.415785 0.210326 0.496795
0.616468 0.218720 0.445997
0.706143 0.220445 0.421984
0.741768 0.219368 0.410045
0.045317 0.271934 0.583505
0.050861 0.254275 0.573265
0.079954 0.240227 0.563730
0.169614 0.235740 0.549278
0.338269 0.242837 0.524248
0.561346 0.251901 0.476202
0.681589 0.250032 0.443671
0.735977 0.245548 0.424694
0.044329 0.379730 0.609984
0.047913 0.357826 0.599392
0.066765 0.331605 0.585417
0.130862 0.312222 0.569734
0.263675 0.306468 0.550851
0.495702 0.311664 0.512653
0.649729 0.302965 0.472745
0.728709 0.292140 0.445315
0.044826 0.513391 0.632443
0.046822 0.493253 0.623352
0.061877 0.462899 0.610748
0.106558 0.432020 0.594242
0.203304 0.408936 0.573713
0.426841 0.404334 0.549087
0.613630 0.386787 0.506015
0.721411 0.367728 0.470742
0.045991 0.630381 0.640286
0.046684 0.617661 0.633848
0.057837 0.597072 0.623751
0.092268 0.571639 0.610234
0.170088 0.545371 0.593497
0.365692 0.528985 0.572969
0.578355 0.511515 0.538040
0.716315 0.492401 0.502013
0.048472 0.686792 0.632541
0.048795 0.680463 0.626901
0.055612 0.670279 0.618748
0.078611 0.656927 0.608207
0.134551 0.642004 0.595399
0.288703 0.631566 0.580004
0.536531 0.621560 0.557014
0.709505 0.609145 0.527392
0.050460 0.716555 0.622628
0.050995 0.714188 0.617537
0.055218 0.710416 0.610097
0.069778 0.705505 0.600452
0.107822 0.700347 0.588841
0.223862 0.698957 0.575576
0.473082 0.697371 0.557196
0.680291 0.692014 0.537804
0.053448 0.177541 0.554524
0.063694 0.175120 0.558415
0.123821 0.178440 0.556828
0.252970 0.186033 0.536634
0.448119 0.195863 0.492704
0.630152 0.202657 0.442878
0.711455 0.207179 0.422138
0.742185 0.207996 0.413742
0.049045 0.201814 0.568124
0.056533 0.193472 0.564555
0.096232 0.191804 0.562922
0.201908 0.197355 0.549887
0.384726 0.208895 0.516995
0.590923 0.218565 0.464681
0.695435 0.222873 0.436290
0.738566 0.223141 0.423140
0.045769 0.264028 0.591305
0.051233 0.248628 0.584390
0.075202 0.234269 0.577821
0.154639 0.228486 0.566552
0.310646 0.234852 0.544812
0.533731 0.246427 0.497237
0.668653 0.250336 0.462659
0.730894 0.249218 0.443540
0.044134 0.362804 0.618119
0.047922 0.343484 0.610986
0.062533 0.317710 0.600939
0.117347 0.297175 0.589000
0.237458 0.289815 0.573117
0.464329 0.297305 0.536411
0.632688 0.298190 0.497953
0.720074 0.293217 0.472216
0.044324 0.490336 0.642966
0.046521 0.472839 0.637630
0.058058 0.443607 0.629125
0.093703 0.411303 0.616741
0.176302 0.384595 0.599911
0.389010 0.379825 0.577170
0.589780 0.374127 0.538549
0.707353 0.362607 0.506896
0.045757 0.613962 0.657103
0.046500 0.603145 0.653627
0.055482 0.582555 0.647785
0.083132 0.555372 0.638647
0.147527 0.526010 0.625557
0.319441 0.506546 0.607556
0.544838 0.494303 0.578083
0.695836 0.478206 0.546886
0.048202 0.684102 0.658417
0.048423 0.678814 0.656676
0.054328 0.669106 0.652604
0.073875 0.655241 0.646049
0.121473 0.638458 0.636813
0.254670 0.624159 0.623737
0.499128 0.614475 0.604337
0.682177 0.601417 0.579126
0.050066 0.721297 0.655763
0.050297 0.719319 0.653923
0.054138 0.716173 0.650389
0.067253 0.711619 0.644957
0.100899 0.705934 0.637442
0.201941 0.701408 0.627091
0.436474 0.700512 0.612827
0.649700 0.695541 0.596389
0.054275 0.179267 0.557801
0.063680 0.176717 0.561484
0.117721 0.179352 0.561224
0.237211 0.186268 0.544039
0.422721 0.195894 0.503906
0.609090 0.203444 0.453067
0.702215 0.208814 0.428341
0.740301 0.210190 0.418173
0.049897 0.201222 0.570809
0.056898 0.194211 0.568619
0.092375 0.192089 0.567843
0.189741 0.196459 0.556537
0.362162 0.207049 0.526622
0.568389 0.217281 0.475335
0.684623 0.223046 0.443373
0.735622 0.224560 0.428433
0.046287 0.258315 0.592699
0.051767 0.245210 0.588117
0.072658 0.230799 0.582849
0.145584 0.223980 0.573020
0.292842 0.229453 0.553360
0.512678 0.241303 0.506812
0.657283 0.248006 0.469914
0.726448 0.249212 0.449923
0.044221 0.351166 0.619019
0.048381 0.334311 0.614476
0.060591 0.309018 0.606341
0.109819 0.287499 0.596167
0.221902 0.278408 0.582016
0.443679 0.285293 0.545503
0.620015 0.290693 0.506181
0.713523 0.289813 0.480881
0.044119 0.474111 0.645099
0.046731 0.458441 0.642001
0.056291 0.430130 0.635719
0.085919 0.396449 0.625709
0.158659 0.365891 0.611118
0.364577 0.358789 0.588144
0.573265 0.358618 0.549815
0.697671 0.353126 0.519843
0.045742 0.599078 0.661931
0.046805 0.589589 0.660344
0.054107 0.569101 0.656991
0.076204 0.540557 0.650795
0.129834 0.508261 0.640793
0.284400 0.484256 0.624892
0.518096 0.472781 0.596147
0.679951 0.460611 0.567354
0.048152 0.677869 0.669011
0.048540 0.673486 0.669186
0.053647 0.663935 0.667657
0.069759 0.649275 0.664117
0.109505 0.630465 0.658052
0.225885 0.611800 0.647143
0.463677 0.599928 0.629867
0.657006 0.587739 0.608211
0.049943 0.722265 0.672842
0.050014 0.719974 0.672196
0.053493 0.716993 0.671073
0.064913 0.712510 0.668939
0.093995 0.706195 0.665124
0.182627 0.699013 0.657516
0.399922 0.696194 0.647081
0.619851 0.692243 0.634146
