app/src/main/assets/cube/District03.cube
# LUT by SparkleStock. Enhanced with VOXCOLOR algorithms.
LUT_3D_SIZE 8
DOMAIN_MIN 0.000000 0.000000 0.000000
DOMAIN_MAX 0.903226 0.903226 0.903226
0.082051 0.062515 0.140659
0.117972 0.067053 0.141227
0.210942 0.072929 0.144338
0.341817 0.079515 0.149443
0.486541 0.086250 0.155705
0.586931 0.092489 0.160810
0.633912 0.095577 0.163078
0.653212 0.097113 0.163961
0.089425 0.126039 0.172799
0.113636 0.115647 0.167512
0.192408 0.114473 0.166220
0.316416 0.116094 0.167702
0.466666 0.116298 0.170580
0.577448 0.116389 0.172172
0.632991 0.115769 0.172635
0.656127 0.114006 0.171737
0.096530 0.225318 0.229714
0.112143 0.206010 0.219401
0.177110 0.193592 0.208807
0.295081 0.187769 0.201267
0.453499 0.186171 0.198077
0.574777 0.177316 0.194290
0.637950 0.168806 0.191600
0.665129 0.161869 0.188800
0.103683 0.346567 0.303446
0.112892 0.326125 0.291499
0.161416 0.307855 0.275573
0.271825 0.296098 0.258037
0.441674 0.291010 0.241287
0.579772 0.277545 0.229767
0.650831 0.262117 0.222546
0.682113 0.250113 0.217255
0.110820 0.472811 0.384032
0.115290 0.458845 0.374921
0.144509 0.445069 0.362194
0.242239 0.432363 0.338454
0.420333 0.421224 0.303140
0.589424 0.411344 0.280149
0.671366 0.393724 0.266457
0.707448 0.378639 0.257609
0.116302 0.562992 0.447745
0.118724 0.556783 0.442878
0.136044 0.550143 0.434396
0.203549 0.546572 0.418743
0.346295 0.547088 0.392449
0.584033 0.544380 0.347356
0.691564 0.531248 0.321686
0.737569 0.518371 0.307087
0.120840 0.621190 0.495073
0.121700 0.618104 0.492743
0.132361 0.614051 0.486279
0.180396 0.612358 0.473427
0.290935 0.614831 0.451259
0.512304 0.619418 0.409801
0.674556 0.618520 0.374410
0.757470 0.613024 0.352215
0.123754 0.656505 0.527142
0.124181 0.654822 0.525739
0.131218 0.651877 0.520310
0.166524 0.650664 0.509460
0.252480 0.653453 0.491202
0.442618 0.662186 0.457971
0.634921 0.667936 0.417446
0.752275 0.667738 0.387464
0.083942 0.076884 0.206263
0.108007 0.080104 0.200975
0.197208 0.083315 0.195536
0.330937 0.088083 0.192139
0.482614 0.094800 0.191651
0.586370 0.099868 0.190901
0.633912 0.102883 0.189876
0.653291 0.104486 0.189325
0.087363 0.130747 0.232255
0.105838 0.119264 0.215674
0.171870 0.116214 0.205289
0.288317 0.116849 0.199317
0.443593 0.117700 0.195996
0.568506 0.117980 0.192980
0.629899 0.117419 0.190452
0.654606 0.115303 0.187743
0.096634 0.230319 0.276698
0.108856 0.204608 0.254468
0.161189 0.192045 0.240020
0.267758 0.187037 0.229513
0.424440 0.184154 0.220105
0.562267 0.175161 0.211190
0.633781 0.166027 0.204313
0.663860 0.157935 0.198706
0.106275 0.353886 0.335903
0.113076 0.323084 0.314343
0.153332 0.304037 0.298112
0.252655 0.293690 0.281484
0.414109 0.287648 0.261654
0.566650 0.273923 0.244799
0.646383 0.256882 0.232105
0.681141 0.242674 0.223155
0.112808 0.479416 0.403463
0.116003 0.456649 0.388350
0.141590 0.438467 0.373542
0.230685 0.425554 0.351396
0.397558 0.417252 0.319517
0.576829 0.408089 0.292634
0.666487 0.388299 0.273368
0.705771 0.370146 0.260780
0.117559 0.567987 0.459272
0.119045 0.557510 0.451917
0.134116 0.548829 0.442217
0.196217 0.543692 0.426373
0.331212 0.542370 0.400398
0.570404 0.540266 0.354247
0.685520 0.527117 0.326025
0.735207 0.512490 0.309087
0.120876 0.623355 0.501867
0.121802 0.618645 0.497823
0.130921 0.614365 0.491077
0.174569 0.612226 0.478736
0.278444 0.613263 0.457229
0.498585 0.617301 0.415468
0.667487 0.616084 0.377525
0.754235 0.609719 0.353076
0.123584 0.657499 0.531423
0.123553 0.653880 0.526998
0.129656 0.652401 0.523049
0.161479 0.652632 0.514616
0.241050 0.654749 0.497301
0.427566 0.661943 0.463677
0.625628 0.667102 0.420998
0.748096 0.667280 0.389640
0.087439 0.095136 0.289409
0.103796 0.096313 0.285420
0.180156 0.098410 0.273738
0.311253 0.102380 0.260855
0.476362 0.108236 0.251127
0.585248 0.112652 0.244211
0.633731 0.114643 0.237854
0.653349 0.115462 0.234047
0.088153 0.140998 0.313919
0.101105 0.128019 0.289505
0.154185 0.125419 0.274441
0.263383 0.127017 0.263389
0.424546 0.128315 0.252766
0.561421 0.128259 0.243546
0.627852 0.126834 0.235373
0.654518 0.124189 0.228852
0.096426 0.240685 0.356284
0.106145 0.212298 0.324521
0.145927 0.196876 0.304362
0.238621 0.190094 0.289208
0.388795 0.187049 0.274211
0.544117 0.177830 0.258085
0.626606 0.167515 0.243979
0.661485 0.158051 0.233130
0.106517 0.368315 0.407710
0.112859 0.333569 0.378721
0.143110 0.307291 0.355638
0.224546 0.291221 0.334829
0.367768 0.283674 0.313330
0.538341 0.269906 0.288560
0.633891 0.251193 0.267057
0.676514 0.234559 0.251398
0.114325 0.497797 0.459832
0.117232 0.470978 0.440210
0.137621 0.443348 0.419074
0.210250 0.422226 0.395200
0.352785 0.411013 0.367527
0.543256 0.402093 0.333985
0.650463 0.380394 0.305500
0.700078 0.359310 0.285416
0.118862 0.583617 0.500065
0.119999 0.570972 0.489546
0.131594 0.556482 0.476253
0.182905 0.544600 0.458722
0.300645 0.538020 0.433997
0.536372 0.535565 0.389236
0.667112 0.521843 0.354416
0.727780 0.505241 0.330816
0.121652 0.633979 0.530083
0.122493 0.628434 0.523422
0.129130 0.621256 0.514557
0.164853 0.615426 0.501664
0.255585 0.613224 0.481726
0.469726 0.616614 0.443047
0.650533 0.614598 0.401237
0.746570 0.607036 0.372083
0.124260 0.664735 0.551269
0.124165 0.661013 0.544993
0.128235 0.657964 0.539271
0.153625 0.656372 0.530656
0.222258 0.657217 0.515447
0.401484 0.663548 0.484679
0.608801 0.668122 0.440548
0.740386 0.667988 0.406558
0.091441 0.111284 0.365599
0.103199 0.111644 0.366404
0.164774 0.114099 0.355075
0.288003 0.117605 0.335521
0.461299 0.121552 0.313189
0.581894 0.126748 0.303029
0.632959 0.128036 0.293092
0.652996 0.128034 0.286853
0.090508 0.150133 0.390671
0.099334 0.137490 0.366631
0.141339 0.136232 0.353125
0.242139 0.139442 0.339473
0.404340 0.142015 0.320257
0.554029 0.142296 0.306046
0.625571 0.140400 0.293647
0.654329 0.137480 0.284388
0.096858 0.245762 0.435359
0.103946 0.218801 0.402641
0.133634 0.201951 0.380439
0.212987 0.194614 0.362316
0.353218 0.193724 0.343432
0.524065 0.185534 0.321665
0.617883 0.175160 0.302274
0.658548 0.165477 0.287715
0.106507 0.377085 0.486836
0.111696 0.342999 0.456296
0.133542 0.311369 0.427842
0.197340 0.290354 0.403397
0.319165 0.282217 0.382252
0.503271 0.270106 0.353331
0.616891 0.251261 0.325438
0.670072 0.233520 0.304265
0.115900 0.517883 0.533636
0.118430 0.488948 0.511374
0.134366 0.453354 0.484988
0.189347 0.423045 0.458846
0.302718 0.405389 0.434169
0.496306 0.397618 0.400696
0.625969 0.375103 0.365159
0.690807 0.351302 0.337187
0.120559 0.604325 0.560317
0.121517 0.590688 0.547895
0.130477 0.570957 0.531532
0.170018 0.551364 0.512375
0.265795 0.536899 0.489438
0.487811 0.532391 0.451546
0.638707 0.518376 0.410893
0.716076 0.499667 0.378512
0.123227 0.650593 0.576509
0.123882 0.644786 0.568249
0.128867 0.634979 0.557289
0.156055 0.624841 0.543721
0.229807 0.617724 0.526053
0.429384 0.618875 0.494337
0.624655 0.616021 0.450862
0.734482 0.607107 0.415928
0.125439 0.677495 0.586999
0.125485 0.674377 0.580021
0.128266 0.669712 0.571892
0.146707 0.665612 0.562311
0.201313 0.664063 0.549574
0.366644 0.668574 0.524348
0.584245 0.672765 0.482046
0.728359 0.672166 0.445693
0.094962 0.121446 0.417756
0.104269 0.123032 0.423592
0.154178 0.126907 0.420080
0.265362 0.130053 0.399307
0.434763 0.131613 0.363315
0.575044 0.138455 0.352221
0.631296 0.140246 0.342769
0.652154 0.140082 0.336804
0.093279 0.153946 0.443285
0.099937 0.144257 0.428667
0.133950 0.144171 0.422574
0.224436 0.148668 0.409106
0.379615 0.153605 0.381757
0.544599 0.155476 0.363936
0.622167 0.154381 0.351187
0.653130 0.151798 0.342285
0.098322 0.239662 0.489934
0.102321 0.217514 0.466665
0.125486 0.202614 0.448861
0.193820 0.197598 0.431723
0.322099 0.201093 0.411737
0.504663 0.196533 0.387344
0.608724 0.188343 0.367595
0.655383 0.180318 0.353305
0.107402 0.371490 0.547573
0.109567 0.341084 0.522817
0.126250 0.310510 0.495651
0.177208 0.289748 0.471948
0.280004 0.282782 0.453360
0.468375 0.275553 0.426927
0.598419 0.259348 0.398697
0.663036 0.242885 0.376239
0.117541 0.528437 0.603747
0.119013 0.498527 0.581779
0.132199 0.460667 0.555134
0.173185 0.425251 0.528557
0.260212 0.400675 0.504857
0.444352 0.395973 0.481789
0.596324 0.374777 0.445629
0.678509 0.349444 0.413064
0.122657 0.624064 0.627172
0.123323 0.609989 0.615341
0.131471 0.588170 0.598546
0.161671 0.562989 0.579032
0.235869 0.539682 0.557924
0.432134 0.531174 0.532292
0.603530 0.518150 0.491621
0.700972 0.498099 0.452692
0.125477 0.669865 0.634283
0.125838 0.664052 0.626593
0.130823 0.653608 0.615125
0.151330 0.640514 0.601637
0.207846 0.627727 0.586559
0.382969 0.624385 0.564934
0.591789 0.621214 0.525457
0.718310 0.611370 0.486565
0.126889 0.693993 0.635588
0.127060 0.691373 0.629102
0.130194 0.686889 0.620077
0.143318 0.681500 0.610247
0.183509 0.676754 0.599739
0.327207 0.677855 0.582128
0.553082 0.681975 0.546877
0.711903 0.681296 0.510374
0.096664 0.125984 0.440632
0.104800 0.128155 0.447785
0.147317 0.132719 0.449012
0.246413 0.137085 0.433594
0.404892 0.139779 0.399486
0.563323 0.142377 0.373755
0.628454 0.146144 0.367841
0.651818 0.147376 0.365638
0.095127 0.153800 0.464697
0.100501 0.145829 0.456383
0.128855 0.146362 0.455359
0.208141 0.151370 0.446839
0.350882 0.157385 0.422763
0.531409 0.160904 0.392685
0.617422 0.161916 0.382075
0.651629 0.160754 0.376625
0.099487 0.228819 0.509571
0.102008 0.210004 0.494140
0.119916 0.195735 0.482378
0.178266 0.190777 0.470672
0.294948 0.196125 0.454936
0.485713 0.200711 0.425241
0.599538 0.197169 0.408267
0.651662 0.191766 0.397294
0.107604 0.349486 0.566650
0.108347 0.324651 0.550223
0.119843 0.295549 0.530044
0.161686 0.275046 0.511820
0.253342 0.270350 0.497067
0.439678 0.274806 0.472329
0.581368 0.265334 0.448946
0.654870 0.253024 0.430804
0.117175 0.503066 0.626227
0.117693 0.480356 0.612785
0.126421 0.445236 0.593136
0.158963 0.410566 0.570805
0.233729 0.387167 0.548929
0.403794 0.388173 0.531493
0.568627 0.373563 0.503776
0.663911 0.353433 0.478355
0.123902 0.630162 0.667655
0.124179 0.616489 0.658798
0.131084 0.593901 0.645292
0.156817 0.566558 0.627691
0.219901 0.539639 0.607190
0.386680 0.526301 0.587757
0.569029 0.518295 0.563932
0.683555 0.502631 0.537393
0.127599 0.683160 0.679474
0.127290 0.676710 0.673927
0.131926 0.666144 0.665426
0.150429 0.652535 0.654194
0.199375 0.637924 0.640759
0.345464 0.629506 0.626749
0.557555 0.628117 0.604008
0.699029 0.620494 0.574565
0.128713 0.707727 0.681322
0.128497 0.705319 0.677154
0.131751 0.701797 0.670902
0.144124 0.697185 0.663051
0.179095 0.692205 0.654183
0.296895 0.690841 0.645468
0.521007 0.695149 0.624527
0.692504 0.695798 0.595641
0.096947 0.128946 0.449328
0.104888 0.130604 0.457068
0.142545 0.134587 0.460055
0.232369 0.138831 0.447816
0.380215 0.141989 0.416995
0.542890 0.144367 0.386142
0.621089 0.147935 0.377930
0.651066 0.149131 0.375079
0.095801 0.153785 0.472784
0.100960 0.146624 0.467397
0.125813 0.146828 0.468028
0.196935 0.151501 0.461809
0.328354 0.157817 0.440838
0.507875 0.161532 0.408017
0.608048 0.163847 0.394814
0.650430 0.163517 0.389061
0.099808 0.220766 0.515355
0.101949 0.203494 0.503481
0.116648 0.189060 0.494179
0.168141 0.183564 0.485176
0.275128 0.189131 0.472620
0.460654 0.196001 0.442656
0.588038 0.197793 0.424916
0.648674 0.195439 0.414694
0.107226 0.331696 0.570165
0.107606 0.308887 0.557400
0.115840 0.280110 0.540655
0.151055 0.258659 0.525653
0.233205 0.252830 0.513779
0.411195 0.260465 0.490661
0.565758 0.261036 0.469686
0.648397 0.254987 0.454182
0.116199 0.478342 0.629348
0.116681 0.457988 0.619779
0.122390 0.423957 0.604076
0.147316 0.387730 0.584923
0.209881 0.360514 0.565168
0.368696 0.362699 0.550257
0.546130 0.361078 0.528499
0.652289 0.350140 0.508346
0.123438 0.614341 0.676339
0.123773 0.602364 0.670523
0.129066 0.580017 0.660306
0.149072 0.551167 0.645913
0.200489 0.521191 0.628320
0.347594 0.505199 0.611506
0.539205 0.504380 0.595199
0.666345 0.494558 0.576474
0.128136 0.682463 0.697501
0.127916 0.677064 0.695187
0.131980 0.667144 0.689895
0.147445 0.653297 0.681741
0.188469 0.637180 0.671071
0.313986 0.625406 0.658815
0.526602 0.624378 0.644662
0.680528 0.620312 0.626788
0.130109 0.714560 0.706356
0.129561 0.712836 0.705266
0.132621 0.710269 0.702220
0.143802 0.706451 0.697550
0.174342 0.701582 0.691591
0.275364 0.698198 0.684645
0.494394 0.701918 0.674374
0.675764 0.706113 0.658557
0.097255 0.131285 0.452629
0.105116 0.132291 0.460807
0.139575 0.135911 0.464566
0.222586 0.139870 0.454220
0.361551 0.142743 0.426114
0.523708 0.145231 0.394102
0.612179 0.148416 0.382902
0.648975 0.149384 0.378034
0.096151 0.153411 0.475645
0.101108 0.147326 0.471652
0.123794 0.147285 0.472566
0.189383 0.151336 0.467282
0.312302 0.157305 0.448539
0.487614 0.161002 0.416140
0.597808 0.163573 0.400457
0.647741 0.163879 0.393525
0.099587 0.215051 0.515976
0.102069 0.199737 0.506649
0.114736 0.185169 0.497920
0.161832 0.178936 0.489629
0.262525 0.184209 0.478965
0.442098 0.191359 0.449811
0.577380 0.195124 0.430579
0.644544 0.194692 0.420073
0.106451 0.319455 0.568513
0.107534 0.298608 0.558804
0.113770 0.270112 0.543446
0.144617 0.247750 0.529453
0.220653 0.240468 0.518902
0.392610 0.247773 0.496267
0.553251 0.252463 0.474970
0.641698 0.250580 0.460432
0.115296 0.460485 0.626831
0.116249 0.441474 0.619825
0.120354 0.408370 0.606427
0.139736 0.370867 0.588848
0.192894 0.339751 0.569707
0.345505 0.339566 0.554832
0.528644 0.343259 0.533730
0.641671 0.339172 0.516170
0.122749 0.598259 0.675864
0.123617 0.587823 0.672234
0.127627 0.565631 0.663958
0.142697 0.535325 0.651444
0.184305 0.502321 0.635664
0.315971 0.482509 0.619806
0.512515 0.481655 0.603935
0.650016 0.476808 0.588835
0.127665 0.676709 0.703095
0.128031 0.672478 0.702565
0.131532 0.662851 0.699102
0.143681 0.648169 0.692892
0.176809 0.629908 0.684159
0.284682 0.614360 0.672868
0.494460 0.611322 0.661522
0.660012 0.610367 0.650977
0.130595 0.716243 0.718205
0.130076 0.714787 0.718350
0.132930 0.712556 0.717126
0.142437 0.708805 0.714687
0.168078 0.703393 0.711035
0.255053 0.698114 0.705265
0.463916 0.700582 0.699794
0.654805 0.707411 0.693440
