app/src/main/assets/cube/District05.cube
# LUT by SparkleStock. Enhanced with VOXCOLOR algorithms.
LUT_3D_SIZE 5
DOMAIN_MIN 0.000000 0.000000 0.000000
DOMAIN_MAX 0.903226 0.903226 0.903226
0.035165 0.035165 0.101587
0.187861 0.054205 0.096176
0.539982 0.096884 0.069613
0.774501 0.131671 0.059553
0.814116 0.139950 0.058892
0.043751 0.173390 0.174414
0.125662 0.150186 0.156745
0.447610 0.168776 0.111659
0.746790 0.189933 0.078672
0.807039 0.188110 0.072147
0.043357 0.407539 0.301351
0.081979 0.374343 0.281653
0.336737 0.367255 0.211444
0.716061 0.374967 0.125333
0.810931 0.356999 0.107854
0.048746 0.598747 0.419812
0.062720 0.589826 0.411845
0.211598 0.596130 0.369495
0.661252 0.623297 0.216938
0.824246 0.605586 0.163891
0.054559 0.680373 0.486857
0.062319 0.678369 0.485678
0.150894 0.682888 0.457794
0.486453 0.713181 0.342254
0.808041 0.737059 0.224716
0.050880 0.084966 0.354941
0.159931 0.087067 0.306010
0.511458 0.109872 0.171489
0.766531 0.134677 0.102395
0.808961 0.139069 0.093934
0.045827 0.205074 0.363461
0.099515 0.160506 0.308430
0.370819 0.162144 0.221606
0.721633 0.176689 0.125425
0.806353 0.174768 0.099084
0.046263 0.434216 0.398375
0.074566 0.375626 0.362252
0.273644 0.351721 0.302588
0.675718 0.355589 0.183690
0.807162 0.333170 0.134711
0.048905 0.613941 0.460867
0.059909 0.595772 0.445083
0.181921 0.587848 0.409456
0.612437 0.606804 0.265382
0.813366 0.589138 0.185400
0.055388 0.686340 0.510476
0.059532 0.681859 0.501326
0.130672 0.683914 0.480973
0.451516 0.709133 0.374648
0.797353 0.730511 0.243520
0.067911 0.136500 0.552696
0.140042 0.137312 0.530948
0.461993 0.139015 0.354448
0.752409 0.151913 0.183694
0.798320 0.151647 0.161996
0.059897 0.239436 0.569335
0.093877 0.197535 0.528761
0.310780 0.185126 0.434786
0.686918 0.185271 0.240980
0.795573 0.178294 0.180227
0.056451 0.482102 0.597746
0.075207 0.413602 0.557845
0.200692 0.355033 0.507987
0.585160 0.334788 0.366050
0.790814 0.303538 0.250939
0.055283 0.655861 0.589900
0.062862 0.631017 0.570501
0.146882 0.594790 0.543198
0.502218 0.586992 0.457726
0.786380 0.568280 0.319745
0.061347 0.709795 0.591641
0.063362 0.702729 0.576121
0.109391 0.696589 0.558931
0.385727 0.710200 0.497249
0.767752 0.729015 0.356970
0.075245 0.161944 0.610650
0.127301 0.164549 0.605428
0.390624 0.163539 0.467535
0.733909 0.161420 0.240338
0.790353 0.164923 0.208632
0.068586 0.242560 0.634079
0.093469 0.215063 0.622587
0.270119 0.204306 0.560930
0.656147 0.198129 0.342387
0.783176 0.193758 0.252461
0.066434 0.467541 0.683078
0.077999 0.417811 0.667141
0.170273 0.359777 0.637680
0.513762 0.334924 0.522815
0.768272 0.299696 0.365919
0.073317 0.690890 0.709125
0.078435 0.666020 0.698059
0.142898 0.619532 0.678104
0.406671 0.581295 0.643091
0.748820 0.553093 0.536984
0.078877 0.737205 0.691999
0.079704 0.732126 0.683562
0.115759 0.724344 0.670173
0.336788 0.725602 0.656129
0.726993 0.737423 0.575500
0.078365 0.166978 0.616976
0.120728 0.168274 0.614334
0.352921 0.167902 0.496500
0.695170 0.164331 0.274543
0.786770 0.165809 0.216146
0.070862 0.236244 0.638994
0.092749 0.213677 0.633992
0.245487 0.203099 0.587606
0.614206 0.197571 0.387704
0.777440 0.195466 0.270262
0.068754 0.438494 0.688245
0.077898 0.395923 0.679329
0.150435 0.336031 0.658902
0.474895 0.309623 0.555932
0.755791 0.290894 0.396898
0.077387 0.668432 0.724026
0.082531 0.648986 0.722059
0.126249 0.602199 0.714298
0.348625 0.554872 0.689210
0.723315 0.527398 0.591787
0.092042 0.747500 0.729139
0.093467 0.744383 0.728317
0.123445 0.738309 0.727351
0.305041 0.733761 0.721935
0.695131 0.742528 0.696529
