app/src/main/assets/cube/District05.cube
# LUT by SparkleStock. Enhanced with VOXCOLOR algorithms.
LUT_3D_SIZE 32
0.035165 0.035165 0.101587
0.048635 0.037055 0.101965
0.062106 0.038946 0.102344
0.075576 0.040837 0.102722
0.089046 0.042727 0.103100
0.102517 0.044618 0.103478
0.142534 0.049147 0.100193
0.187861 0.054205 0.096176
0.233188 0.059262 0.092158
0.278514 0.064319 0.088141
0.323841 0.069377 0.084123
0.375501 0.075757 0.080389
0.430328 0.082800 0.076797
0.485155 0.089842 0.073205
0.539982 0.096884 0.069613
0.594809 0.103927 0.066021
0.636709 0.109740 0.063776
0.665682 0.114325 0.062878
0.694655 0.118910 0.061980
0.723628 0.123494 0.061082
0.752602 0.128079 0.060184
0.774501 0.131671 0.059553
0.782252 0.133278 0.059459
0.790004 0.134885 0.059364
0.797755 0.136492 0.059270
0.805506 0.138099 0.059175
0.812131 0.139478 0.059081
0.813124 0.139714 0.058986
0.814116 0.139950 0.058892
0.815109 0.140187 0.058797
0.816101 0.140423 0.058703
0.817094 0.140659 0.058608
0.036961 0.051235 0.110048
0.048977 0.052073 0.110124
0.060993 0.052912 0.110200
0.073009 0.053750 0.110276
0.085024 0.054589 0.110353
0.097040 0.055428 0.110429
0.135169 0.059355 0.107033
0.178519 0.063900 0.102942
0.221870 0.068445 0.098851
0.265221 0.072990 0.094761
0.308572 0.077535 0.090670
0.360232 0.083507 0.086564
0.416047 0.090193 0.082450
0.471861 0.096878 0.078337
0.527676 0.103564 0.074223
0.583491 0.110250 0.070110
0.626548 0.115775 0.067426
0.656848 0.120140 0.066171
0.687148 0.124505 0.064916
0.717447 0.128870 0.063661
0.747747 0.133236 0.062407
0.770698 0.136623 0.061502
0.778953 0.138056 0.061298
0.787207 0.139490 0.061093
0.795462 0.140923 0.060889
0.803716 0.142356 0.060685
0.810762 0.143574 0.060485
0.811764 0.143719 0.060308
0.812765 0.143864 0.060131
0.813767 0.144009 0.059954
0.814769 0.144154 0.059777
0.815771 0.144299 0.059601
0.038757 0.067305 0.118508
0.049318 0.067091 0.118282
0.059880 0.066878 0.118057
0.070441 0.066664 0.117831
0.081002 0.066451 0.117605
0.091564 0.066237 0.117380
0.127803 0.069563 0.113872
0.169178 0.073595 0.109708
0.210552 0.077628 0.105545
0.251927 0.081661 0.101381
0.293302 0.085693 0.097217
0.344962 0.091257 0.092739
0.401765 0.097586 0.088104
0.458568 0.103915 0.083469
0.515371 0.110244 0.078834
0.572174 0.116572 0.074199
0.616388 0.121810 0.071076
0.648014 0.125955 0.069464
0.679640 0.130101 0.067853
0.711266 0.134246 0.066241
0.742892 0.138392 0.064629
0.766896 0.141575 0.063450
0.775653 0.142835 0.063136
0.784411 0.144094 0.062822
0.793169 0.145354 0.062508
0.801926 0.146613 0.062194
0.809393 0.147671 0.061889
0.810404 0.147725 0.061630
0.811415 0.147778 0.061371
0.812425 0.147831 0.061112
0.813436 0.147885 0.060852
0.814447 0.147938 0.060593
0.040553 0.083375 0.126968
0.049660 0.082109 0.126441
0.058767 0.080844 0.125913
0.067873 0.079578 0.125386
0.076980 0.078313 0.124858
0.086087 0.077047 0.124331
0.120437 0.079770 0.120712
0.159836 0.083291 0.116475
0.199235 0.086811 0.112238
0.238634 0.090331 0.108001
0.278033 0.093852 0.103764
0.329693 0.099007 0.098914
0.387484 0.104979 0.093757
0.445274 0.110951 0.088601
0.503065 0.116923 0.083445
0.560856 0.122895 0.078288
0.606228 0.127844 0.074726
0.639180 0.131770 0.072757
0.672133 0.135696 0.070789
0.705085 0.139622 0.068821
0.738038 0.143548 0.066852
0.763093 0.146528 0.065399
0.772354 0.147613 0.064975
0.781615 0.148699 0.064551
0.790876 0.149784 0.064127
0.800136 0.150870 0.063703
0.808024 0.151768 0.063293
0.809044 0.151730 0.062952
0.810064 0.151692 0.062610
0.811084 0.151654 0.062269
0.812104 0.151616 0.061927
0.813124 0.151577 0.061586
0.042349 0.099445 0.135429
0.050001 0.097127 0.134599
0.057654 0.094810 0.133770
0.065306 0.092492 0.132940
0.072958 0.090175 0.132111
0.080610 0.087857 0.131282
0.113072 0.089978 0.127552
0.150494 0.092986 0.123241
0.187917 0.095994 0.118931
0.225340 0.099002 0.114621
0.262763 0.102010 0.110311
0.314423 0.106757 0.105089
0.373202 0.112372 0.099411
0.431981 0.117987 0.093733
0.490760 0.123603 0.088055
0.549538 0.129218 0.082377
0.596067 0.133879 0.078376
0.630346 0.137585 0.076051
0.664625 0.141292 0.073726
0.698904 0.144998 0.071400
0.733183 0.148705 0.069075
0.759291 0.151480 0.067347
0.769055 0.152391 0.066814
0.778819 0.153303 0.066280
0.788583 0.154215 0.065747
0.798347 0.155127 0.065213
0.806655 0.155865 0.064698
0.807684 0.155735 0.064274
0.808713 0.155606 0.063850
0.809742 0.155476 0.063426
0.810771 0.155346 0.063002
0.811800 0.155217 0.062578
0.044145 0.115515 0.143889
0.050343 0.112145 0.142758
0.056541 0.108776 0.141626
0.062738 0.105406 0.140495
0.068936 0.102037 0.139364
0.075134 0.098667 0.138233
0.105706 0.100185 0.134391
0.141153 0.102681 0.130008
0.176600 0.105177 0.125624
0.212047 0.107673 0.121241
0.247494 0.110169 0.116858
0.299154 0.114507 0.111264
0.358920 0.119765 0.105064
0.418687 0.125024 0.098865
0.478454 0.130282 0.092666
0.538221 0.135541 0.086466
0.585907 0.139914 0.082026
0.621512 0.143400 0.079344
0.657118 0.146887 0.076662
0.692723 0.150374 0.073980
0.728329 0.153861 0.071298
0.755488 0.156432 0.069296
0.765755 0.157170 0.068653
0.776022 0.157908 0.068009
0.786289 0.158646 0.067366
0.796557 0.159383 0.066722
0.805285 0.159962 0.066102
0.806324 0.159741 0.065596
0.807362 0.159519 0.065089
0.808400 0.159298 0.064583
0.809439 0.159077 0.064077
0.810477 0.158856 0.063571
0.044129 0.143283 0.158533
0.049734 0.139265 0.157100
0.055339 0.135248 0.155667
0.060943 0.131230 0.154234
0.066548 0.127213 0.152800
0.072153 0.123195 0.151367
0.100439 0.123721 0.147332
0.133262 0.125156 0.142776
0.166085 0.126591 0.138221
0.198908 0.128025 0.133665
0.231731 0.129460 0.129109
0.282789 0.133292 0.122887
0.342964 0.138324 0.115830
0.403140 0.143355 0.108774
0.463315 0.148387 0.101718
0.523491 0.153418 0.094662
0.572345 0.157487 0.089477
0.609880 0.160595 0.086164
0.647414 0.163702 0.082851
0.684948 0.166809 0.079538
0.722482 0.169916 0.076225
0.751189 0.172110 0.073735
0.762241 0.172476 0.072890
0.773293 0.172842 0.072045
0.784346 0.173208 0.071201
0.795398 0.173574 0.070356
0.804799 0.173801 0.069557
0.805946 0.173336 0.068983
0.807092 0.172871 0.068410
0.808239 0.172406 0.067837
0.809386 0.171941 0.067264
0.810532 0.171476 0.066690
0.043751 0.173390 0.174414
0.048935 0.168805 0.172679
0.054119 0.164221 0.170944
0.059303 0.159636 0.169209
0.064487 0.155051 0.167474
0.069671 0.150467 0.165739
0.095592 0.149922 0.161493
0.125662 0.150186 0.156745
0.155731 0.150450 0.151997
0.185801 0.150714 0.147250
0.215870 0.150977 0.142502
0.266205 0.154286 0.135599
0.326673 0.159116 0.127619
0.387141 0.163946 0.119639
0.447610 0.168776 0.111659
0.508078 0.173606 0.103679
0.558104 0.177369 0.097689
0.597687 0.180065 0.093690
0.637270 0.182760 0.089691
0.676853 0.185456 0.085692
0.716437 0.188151 0.081692
0.746790 0.189933 0.078672
0.758684 0.189887 0.077607
0.770578 0.189842 0.076543
0.782472 0.189796 0.075479
0.794366 0.189750 0.074415
0.804490 0.189589 0.073422
0.805764 0.188849 0.072784
0.807039 0.188110 0.072147
0.808314 0.187370 0.071510
0.809588 0.186631 0.070872
0.810863 0.185892 0.070235
0.043373 0.203498 0.190295
0.048136 0.198346 0.188258
0.052899 0.193194 0.186221
0.057662 0.188042 0.184184
0.062425 0.182890 0.182147
0.067188 0.177738 0.180110
0.090745 0.176124 0.175654
0.118061 0.175217 0.170714
0.145377 0.174309 0.165774
0.172693 0.173402 0.160834
0.200009 0.172495 0.155895
0.249621 0.175279 0.148312
0.310382 0.179907 0.139408
0.371143 0.184536 0.130504
0.431904 0.189165 0.121600
0.492665 0.193794 0.112696
0.543862 0.197251 0.105901
0.585494 0.199534 0.101216
0.627127 0.201818 0.096531
0.668759 0.204102 0.091845
0.710391 0.206386 0.087160
0.742392 0.207756 0.083608
0.755127 0.207299 0.082325
0.767863 0.206842 0.081041
0.780598 0.206384 0.079757
0.793334 0.205927 0.078473
0.804180 0.205377 0.077287
0.805583 0.204363 0.076585
0.806986 0.203349 0.075884
0.808388 0.202335 0.075183
0.809791 0.201321 0.074481
0.811194 0.200307 0.073780
0.042995 0.233605 0.206176
0.047337 0.227886 0.203837
0.051679 0.222167 0.201498
0.056022 0.216448 0.199159
0.060364 0.210729 0.196821
0.064706 0.205010 0.194482
0.085899 0.202325 0.189815
0.110461 0.200247 0.184683
0.135023 0.198169 0.179551
0.159585 0.196091 0.174419
0.184148 0.194013 0.169287
0.233038 0.196272 0.161025
0.294091 0.200699 0.151197
0.355145 0.205127 0.141369
0.416199 0.209555 0.131541
0.477252 0.213982 0.121713
0.529620 0.217132 0.114113
0.573301 0.219004 0.108742
0.616983 0.220877 0.103370
0.660665 0.222749 0.097999
0.704346 0.224621 0.092627
0.737993 0.225580 0.088545
0.751570 0.224711 0.087042
0.765147 0.223842 0.085539
0.778724 0.222973 0.084035
0.792301 0.222104 0.082532
0.803871 0.221165 0.081152
0.805402 0.219876 0.080386
0.806932 0.218588 0.079621
0.808463 0.217300 0.078856
0.809994 0.216011 0.078090
0.811525 0.214723 0.077325
0.042617 0.263713 0.222057
0.046538 0.257426 0.219416
0.050460 0.251140 0.216775
0.054381 0.244854 0.214135
0.058303 0.238568 0.211494
0.062224 0.232282 0.208853
0.081052 0.228526 0.203976
0.102860 0.225277 0.198652
0.124669 0.222028 0.193328
0.146478 0.218779 0.188004
0.168287 0.215530 0.182680
0.216454 0.217265 0.173737
0.277800 0.221491 0.162985
0.339147 0.225718 0.152233
0.400493 0.229944 0.141481
0.461839 0.234170 0.130729
0.515378 0.237014 0.122325
0.561109 0.238474 0.116267
0.606839 0.239935 0.110210
0.652570 0.241396 0.104152
0.698301 0.242856 0.098095
0.733594 0.243403 0.093482
0.748013 0.242122 0.091759
0.762432 0.240842 0.090036
0.776851 0.239561 0.088314
0.791269 0.238280 0.086591
0.803561 0.236953 0.085017
0.805220 0.235390 0.084187
0.806879 0.233827 0.083358
0.808538 0.232264 0.082529
0.810197 0.230701 0.081699
0.811856 0.229139 0.080870
0.042648 0.298074 0.240805
0.046143 0.291843 0.238143
0.049637 0.285611 0.235481
0.053132 0.279380 0.232819
0.056627 0.273149 0.230157
0.060121 0.266917 0.227495
0.077198 0.262846 0.222734
0.096991 0.259207 0.217553
0.116784 0.255567 0.212372
0.136577 0.251928 0.207191
0.156370 0.248289 0.202011
0.203268 0.249511 0.192398
0.263718 0.253164 0.180570
0.324168 0.256817 0.168741
0.384618 0.260470 0.156913
0.445068 0.264123 0.145085
0.499368 0.266605 0.135506
0.547520 0.267917 0.128177
0.595672 0.269228 0.120848
0.643824 0.270539 0.113519
0.691976 0.271850 0.106190
0.729207 0.272185 0.100620
0.744595 0.270565 0.098567
0.759984 0.268946 0.096515
0.775372 0.267327 0.094463
0.790761 0.265708 0.092411
0.803893 0.264052 0.090557
0.805747 0.262215 0.089694
0.807601 0.260378 0.088831
0.809455 0.258541 0.087968
0.811309 0.256703 0.087105
0.813163 0.254866 0.086242
0.042885 0.334562 0.260987
0.045949 0.328697 0.258444
0.049014 0.322831 0.255901
0.052078 0.316966 0.253358
0.055143 0.311101 0.250814
0.058208 0.305235 0.248271
0.073840 0.301225 0.243789
0.091987 0.297586 0.238920
0.110134 0.293946 0.234050
0.128280 0.290307 0.229180
0.146427 0.286667 0.224310
0.191781 0.287384 0.214033
0.250740 0.290277 0.201052
0.309699 0.293171 0.188071
0.368657 0.296065 0.175090
0.427616 0.298959 0.162109
0.482475 0.301052 0.151172
0.533234 0.302345 0.142279
0.583993 0.303638 0.133385
0.634752 0.304931 0.124492
0.685512 0.306224 0.115598
0.724825 0.306445 0.108857
0.741247 0.304524 0.106421
0.757669 0.302603 0.103985
0.774091 0.300682 0.101548
0.790514 0.298761 0.099112
0.804546 0.296808 0.096935
0.806628 0.294697 0.096053
0.808711 0.292585 0.095172
0.810794 0.290473 0.094291
0.812877 0.288362 0.093410
0.814959 0.286250 0.092528
0.043121 0.371050 0.281169
0.045756 0.365551 0.278745
0.048390 0.360052 0.276321
0.051025 0.354552 0.273896
0.053660 0.349053 0.271472
0.056294 0.343553 0.269048
0.070483 0.339604 0.264845
0.086983 0.335964 0.260286
0.103483 0.332325 0.255727
0.119983 0.328686 0.251169
0.136483 0.325046 0.246610
0.180294 0.325256 0.235668
0.237762 0.327391 0.221534
0.295230 0.329525 0.207401
0.352697 0.331660 0.193267
0.410165 0.333794 0.179133
0.465582 0.335499 0.166838
0.518948 0.336773 0.156380
0.572314 0.338048 0.145922
0.625681 0.339323 0.135465
0.679047 0.340597 0.125007
0.720443 0.340706 0.117095
0.737899 0.338483 0.114275
0.755355 0.336260 0.111454
0.772811 0.334037 0.108633
0.790267 0.331814 0.105813
0.805198 0.329564 0.103312
0.807510 0.327178 0.102413
0.809821 0.324792 0.101513
0.812133 0.322406 0.100614
0.814444 0.320020 0.099714
0.816755 0.317634 0.098814
0.043357 0.407539 0.301351
0.045562 0.402405 0.299046
0.047767 0.397272 0.296740
0.049971 0.392138 0.294435
0.052176 0.387005 0.292130
0.054381 0.381871 0.289825
0.067126 0.377983 0.285901
0.081979 0.374343 0.281653
0.096832 0.370704 0.277405
0.111686 0.367064 0.273157
0.126539 0.363425 0.268910
0.168808 0.363129 0.257303
0.224784 0.364504 0.242017
0.280761 0.365879 0.226730
0.336737 0.367255 0.211444
0.392714 0.368630 0.196158
0.448689 0.369946 0.182504
0.504662 0.371202 0.170482
0.560635 0.372458 0.158460
0.616609 0.373715 0.146438
0.672582 0.374971 0.134416
0.716061 0.374967 0.125333
0.734551 0.372442 0.122128
0.753040 0.369917 0.118923
0.771530 0.367392 0.115718
0.790020 0.364867 0.112514
0.805851 0.362320 0.109690
0.808391 0.359659 0.108772
0.810931 0.356999 0.107854
0.813471 0.354338 0.106936
0.816011 0.351678 0.106018
0.818551 0.349017 0.105101
0.043594 0.444027 0.321533
0.045368 0.439259 0.319347
0.047143 0.434492 0.317160
0.048918 0.429724 0.314974
0.050693 0.424956 0.312787
0.052467 0.420189 0.310601
0.063769 0.416361 0.306956
0.076975 0.412722 0.303019
0.090182 0.409083 0.299083
0.103388 0.405443 0.295146
0.116595 0.401804 0.291209
0.157321 0.401001 0.278938
0.211806 0.401617 0.262499
0.266292 0.402233 0.246060
0.320777 0.402849 0.229621
0.375262 0.403465 0.213182
0.431795 0.404392 0.198170
0.490376 0.405630 0.184583
0.548957 0.406868 0.170997
0.607537 0.408106 0.157411
0.666118 0.409344 0.143825
0.711679 0.409228 0.133571
0.731203 0.406401 0.129982
0.750726 0.403574 0.126393
0.770249 0.400747 0.122804
0.789773 0.397921 0.119214
0.806503 0.395076 0.116068
0.809272 0.392141 0.115131
0.812041 0.389206 0.114195
0.814810 0.386271 0.113259
0.817579 0.383336 0.112323
0.820347 0.380401 0.111387
0.044161 0.475009 0.339777
0.045611 0.470731 0.337765
0.047061 0.466452 0.335752
0.048511 0.462174 0.333739
0.049961 0.457896 0.331727
0.051411 0.453618 0.329714
0.061511 0.450078 0.326384
0.073340 0.446685 0.322791
0.085170 0.443293 0.319197
0.097000 0.439901 0.315603
0.108830 0.436508 0.312010
0.147420 0.435697 0.299917
0.199389 0.436175 0.283574
0.251359 0.436654 0.267231
0.303329 0.437133 0.250888
0.355298 0.437612 0.234545
0.412003 0.438628 0.218611
0.473442 0.440181 0.203085
0.534882 0.441735 0.187560
0.596321 0.443289 0.172034
0.657760 0.444842 0.156508
0.705714 0.444890 0.144714
0.726696 0.441926 0.140384
0.747679 0.438962 0.136054
0.768661 0.435998 0.131724
0.789644 0.433034 0.127394
0.807635 0.430054 0.123617
0.810669 0.426991 0.122603
0.813703 0.423928 0.121589
0.816737 0.420865 0.120575
0.819771 0.417802 0.119561
0.822805 0.414739 0.118547
0.045059 0.500484 0.356083
0.046289 0.496819 0.354299
0.047520 0.493154 0.352516
0.048750 0.489489 0.350732
0.049980 0.485823 0.348948
0.051211 0.482158 0.347164
0.060352 0.479132 0.344185
0.071075 0.476233 0.340966
0.081798 0.473335 0.337747
0.092521 0.470437 0.334529
0.103244 0.467538 0.331310
0.139104 0.467215 0.320239
0.187534 0.468178 0.305241
0.235963 0.469142 0.290243
0.284392 0.470105 0.275244
0.332822 0.471069 0.260246
0.389311 0.472652 0.243827
0.453861 0.474855 0.225987
0.518411 0.477059 0.208147
0.582960 0.479262 0.190307
0.647510 0.481465 0.172467
0.698165 0.481955 0.158764
0.721032 0.479018 0.153336
0.743899 0.476082 0.147909
0.766766 0.473145 0.142481
0.789633 0.470209 0.137053
0.809245 0.467254 0.132338
0.812581 0.464209 0.131187
0.815917 0.461165 0.130036
0.819253 0.458120 0.128885
0.822589 0.455075 0.127733
0.825925 0.452030 0.126582
0.045957 0.525960 0.372390
0.046968 0.522908 0.370834
0.047979 0.519855 0.369279
0.048989 0.516803 0.367724
0.050000 0.513751 0.366169
0.051011 0.510698 0.364614
0.059193 0.508186 0.361985
0.068809 0.505781 0.359142
0.078425 0.503377 0.356298
0.088041 0.500973 0.353455
0.097657 0.498568 0.350611
0.130789 0.498732 0.340561
0.175678 0.500181 0.326908
0.220567 0.501629 0.313254
0.265456 0.503078 0.299601
0.310345 0.504526 0.285948
0.366620 0.506677 0.269044
0.434280 0.509529 0.248889
0.501940 0.512382 0.228735
0.569600 0.515235 0.208580
0.637260 0.518087 0.188426
0.690617 0.519019 0.172814
0.715368 0.516110 0.166288
0.740120 0.513201 0.159763
0.764871 0.510292 0.153237
0.789622 0.507383 0.146712
0.810855 0.504454 0.141059
0.814493 0.501428 0.139771
0.818131 0.498402 0.138482
0.821768 0.495375 0.137194
0.825406 0.492349 0.135906
0.829044 0.489322 0.134617
0.046855 0.551436 0.388696
0.047646 0.548996 0.387369
0.048438 0.546557 0.386043
0.049229 0.544117 0.384717
0.050020 0.541678 0.383390
0.050811 0.539238 0.382064
0.058034 0.537240 0.379786
0.066543 0.535329 0.377317
0.075053 0.533419 0.374849
0.083562 0.531509 0.372380
0.092071 0.529598 0.369912
0.122473 0.530250 0.360883
0.163822 0.532183 0.348575
0.205171 0.534117 0.336266
0.246520 0.536050 0.323957
0.287869 0.537983 0.311649
0.343928 0.540701 0.294260
0.414699 0.544203 0.271791
0.485469 0.547705 0.249322
0.556239 0.551207 0.226853
0.627009 0.554710 0.204384
0.683068 0.556084 0.186864
0.709704 0.553202 0.179240
0.736340 0.550321 0.171617
0.762976 0.547439 0.163994
0.789612 0.544557 0.156370
0.812465 0.541655 0.149780
0.816405 0.538647 0.148355
0.820344 0.535638 0.146929
0.824284 0.532630 0.145503
0.828224 0.529622 0.144078
0.832164 0.526614 0.142652
0.047753 0.576911 0.405002
0.048325 0.575085 0.403904
0.048896 0.573258 0.402807
0.049468 0.571432 0.401709
0.050040 0.569605 0.400611
0.050612 0.567779 0.399513
0.056876 0.566294 0.397586
0.064278 0.564877 0.395493
0.071680 0.563461 0.393399
0.079082 0.562045 0.391306
0.086484 0.560628 0.389212
0.114158 0.561768 0.381205
0.151966 0.564186 0.370242
0.189775 0.566604 0.359278
0.227583 0.569022 0.348314
0.265392 0.571441 0.337350
0.321237 0.574725 0.319476
0.395117 0.578877 0.294693
0.468998 0.583029 0.269910
0.542878 0.587180 0.245126
0.616759 0.591332 0.220343
0.675520 0.593148 0.200914
0.704040 0.590294 0.192192
0.732560 0.587440 0.183471
0.761081 0.584586 0.174750
0.789601 0.581732 0.166029
0.814075 0.578855 0.158501
0.818317 0.575865 0.156938
0.822558 0.572875 0.155376
0.826800 0.569885 0.153813
0.831041 0.566895 0.152250
0.835283 0.563906 0.150687
0.048746 0.598747 0.419812
0.049153 0.597394 0.418915
0.049560 0.596040 0.418019
0.049967 0.594686 0.417122
0.050374 0.593332 0.416226
0.050781 0.591978 0.415329
0.056245 0.590877 0.413664
0.062720 0.589826 0.411845
0.069195 0.588776 0.410026
0.075671 0.587725 0.408207
0.082146 0.586675 0.406388
0.107449 0.588108 0.399184
0.142165 0.590782 0.389288
0.176882 0.593456 0.379391
0.211598 0.596130 0.369495
0.246315 0.598805 0.359598
0.301129 0.602459 0.341651
0.376040 0.607092 0.315654
0.450951 0.611725 0.289657
0.525863 0.616359 0.263660
0.600774 0.620992 0.237663
0.661252 0.623297 0.216938
0.692865 0.620943 0.206756
0.724477 0.618588 0.196574
0.756089 0.616234 0.186393
0.787702 0.613880 0.176211
0.814830 0.611431 0.167431
0.819538 0.608509 0.165661
0.824246 0.605586 0.163891
0.828955 0.602663 0.162121
0.833663 0.599740 0.160351
0.838371 0.596818 0.158580
0.049927 0.613305 0.431628
0.050279 0.612143 0.430878
0.050632 0.610981 0.430128
0.050984 0.609820 0.429377
0.051336 0.608658 0.428627
0.051688 0.607496 0.427877
0.056670 0.606518 0.426297
0.062578 0.605578 0.424552
0.068486 0.604637 0.422806
0.074394 0.603696 0.421060
0.080302 0.602756 0.419314
0.103953 0.604091 0.412476
0.136474 0.606564 0.403092
0.168995 0.609037 0.393708
0.201516 0.611510 0.384323
0.234037 0.613983 0.374939
0.286189 0.617609 0.357742
0.357971 0.622389 0.332733
0.429754 0.627169 0.307724
0.501537 0.631949 0.282715
0.573319 0.636728 0.257706
0.633548 0.639612 0.236911
0.670667 0.638703 0.224543
0.707787 0.637795 0.212175
0.744906 0.636886 0.199807
0.782025 0.635977 0.187439
0.813876 0.634760 0.176779
0.819380 0.632002 0.174661
0.824884 0.629244 0.172543
0.830388 0.626486 0.170426
0.835892 0.623728 0.168308
0.841396 0.620970 0.166190
0.051109 0.627862 0.443444
0.051406 0.626893 0.442840
0.051703 0.625923 0.442236
0.052001 0.624953 0.441633
0.052298 0.623984 0.441029
0.052595 0.623014 0.440425
0.057096 0.622160 0.438931
0.062436 0.621329 0.437258
0.067777 0.620498 0.435586
0.073118 0.619667 0.433913
0.078459 0.618836 0.432241
0.100457 0.620074 0.425768
0.130782 0.622345 0.416896
0.161108 0.624617 0.408024
0.191433 0.626889 0.399152
0.221759 0.629161 0.390280
0.271249 0.632760 0.373834
0.339903 0.637686 0.349813
0.408557 0.642612 0.325792
0.477211 0.647538 0.301771
0.545865 0.652464 0.277749
0.605843 0.655927 0.256884
0.648470 0.656464 0.242329
0.691096 0.657001 0.227775
0.733723 0.657537 0.213221
0.776349 0.658074 0.198666
0.812921 0.658089 0.186127
0.819221 0.655496 0.183661
0.825521 0.652902 0.181196
0.831821 0.650309 0.178730
0.838121 0.647715 0.176265
0.844421 0.645122 0.173800
0.052290 0.642420 0.455260
0.052533 0.641642 0.454803
0.052775 0.640865 0.454345
0.053018 0.640087 0.453888
0.053260 0.639310 0.453431
0.053502 0.638532 0.452973
0.057521 0.637801 0.451564
0.062295 0.637080 0.449965
0.067068 0.636359 0.448365
0.071842 0.635638 0.446766
0.076616 0.634917 0.445167
0.096960 0.636057 0.439060
0.125090 0.638127 0.430701
0.153221 0.640198 0.422341
0.181351 0.642268 0.413981
0.209481 0.644339 0.405621
0.256308 0.647910 0.389925
0.321834 0.652983 0.366892
0.387359 0.658055 0.343859
0.452885 0.663128 0.320826
0.518410 0.668200 0.297793
0.578138 0.672243 0.276857
0.626272 0.674225 0.260116
0.674406 0.676207 0.243375
0.722539 0.678189 0.226635
0.770673 0.680171 0.209894
0.811967 0.681418 0.195474
0.819063 0.678989 0.192661
0.826158 0.676560 0.189848
0.833254 0.674132 0.187035
0.840350 0.671703 0.184222
0.847446 0.669274 0.181409
0.053472 0.656977 0.467076
0.053660 0.656392 0.466765
0.053847 0.655806 0.466454
0.054035 0.655221 0.466143
0.054222 0.654636 0.465832
0.054410 0.654050 0.465521
0.057946 0.653443 0.464197
0.062153 0.652832 0.462671
0.066359 0.652220 0.461145
0.070566 0.651609 0.459619
0.074773 0.650997 0.458093
0.093464 0.652040 0.452352
0.119399 0.653909 0.444505
0.145333 0.655778 0.436657
0.171268 0.657648 0.428810
0.197202 0.659517 0.420963
0.241368 0.663061 0.406016
0.303765 0.668280 0.383971
0.366162 0.673499 0.361926
0.428559 0.678718 0.339881
0.490956 0.683937 0.317836
0.550434 0.688558 0.296830
0.604074 0.691986 0.277903
0.657715 0.695413 0.258976
0.711356 0.698841 0.240049
0.764997 0.702268 0.221121
0.811012 0.704747 0.204822
0.818904 0.702483 0.201661
0.826796 0.700219 0.198501
0.834687 0.697955 0.195340
0.842579 0.695690 0.192179
0.850471 0.693426 0.189019
0.054465 0.669975 0.477687
0.054623 0.669562 0.477529
0.054782 0.669149 0.477370
0.054940 0.668736 0.477211
0.055099 0.668322 0.477053
0.055257 0.667909 0.476894
0.058362 0.667419 0.475662
0.062057 0.666912 0.474215
0.065751 0.666406 0.472768
0.069445 0.665900 0.471321
0.073139 0.665394 0.469875
0.090293 0.666351 0.464493
0.114177 0.668041 0.457144
0.138061 0.669730 0.449795
0.161945 0.671419 0.442446
0.185829 0.673109 0.435097
0.227480 0.676614 0.420894
0.286897 0.681935 0.399837
0.346315 0.687256 0.378780
0.405732 0.692577 0.357723
0.465150 0.697898 0.336666
0.524201 0.703003 0.315688
0.582518 0.707674 0.294869
0.640835 0.712346 0.274050
0.699151 0.717017 0.253230
0.757468 0.721689 0.232411
0.807587 0.725249 0.214455
0.816715 0.723250 0.210814
0.825843 0.721251 0.207173
0.834971 0.719252 0.203532
0.844100 0.717253 0.199891
0.853228 0.715255 0.196250
0.054512 0.675174 0.482272
0.054771 0.674834 0.482296
0.055030 0.674494 0.482321
0.055289 0.674154 0.482345
0.055549 0.673814 0.482369
0.055808 0.673474 0.482394
0.058731 0.673064 0.481284
0.062188 0.672641 0.479946
0.065644 0.672217 0.478609
0.069101 0.671793 0.477272
0.072557 0.671369 0.475935
0.088747 0.672305 0.470877
0.111305 0.673921 0.463958
0.133862 0.675537 0.457039
0.156420 0.677154 0.450120
0.178977 0.678770 0.443201
0.218848 0.682179 0.429707
0.276034 0.687381 0.409638
0.333219 0.692583 0.389569
0.390405 0.697785 0.369500
0.447591 0.702987 0.349430
0.505327 0.708092 0.328971
