app/src/main/assets/cube/District05.cube
# LUT by SparkleStock. Enhanced with VOXCOLOR algorithms.
LUT_3D_SIZE 8
DOMAIN_MIN 0.000000 0.000000 0.000000
DOMAIN_MAX 0.903226 0.903226 0.903226
0.035165 0.035165 0.101587
0.089046 0.042727 0.103100
0.233188 0.059262 0.092158
0.430328 0.082800 0.076797
0.636709 0.109740 0.063776
0.752602 0.128079 0.060184
0.797755 0.136492 0.059270
0.814116 0.139950 0.058892
0.042349 0.099445 0.135429
0.072958 0.090175 0.132111
0.187917 0.095994 0.118931
0.373202 0.112372 0.099411
0.596067 0.133879 0.078376
0.733183 0.148705 0.069075
0.788583 0.154215 0.065747
0.808713 0.155606 0.063850
0.043373 0.203498 0.190295
0.062425 0.182890 0.182147
0.145377 0.174309 0.165774
0.310382 0.179907 0.139408
0.543862 0.197251 0.105901
0.710391 0.206386 0.087160
0.780598 0.206384 0.079757
0.806986 0.203349 0.075884
0.042885 0.334562 0.260987
0.055143 0.311101 0.250814
0.110134 0.293946 0.234050
0.250740 0.290277 0.201052
0.482475 0.301052 0.151172
0.685512 0.306224 0.115598
0.774091 0.300682 0.101548
0.808711 0.292585 0.095172
0.044161 0.475009 0.339777
0.049961 0.457896 0.331727
0.085170 0.443293 0.319197
0.199389 0.436175 0.283574
0.412003 0.438628 0.218611
0.657760 0.444842 0.156508
0.768661 0.435998 0.131724
0.813703 0.423928 0.121589
0.047753 0.576911 0.405002
0.050040 0.569605 0.400611
0.071680 0.563461 0.393399
0.151966 0.564186 0.370242
0.321237 0.574725 0.319476
0.616759 0.591332 0.220343
0.761081 0.584586 0.174750
0.822558 0.572875 0.155376
0.052290 0.642420 0.455260
0.053260 0.639310 0.453431
0.067068 0.636359 0.448365
0.125090 0.638127 0.430701
0.256308 0.647910 0.389925
0.518410 0.668200 0.297793
0.722539 0.678189 0.226635
0.826158 0.676560 0.189848
0.054559 0.680373 0.486857
0.055998 0.679306 0.487686
0.065537 0.678027 0.484450
0.108432 0.679802 0.470772
0.210217 0.687744 0.438520
0.430031 0.708077 0.362195
0.664532 0.728623 0.277271
0.808041 0.737059 0.224716
0.043105 0.061444 0.243192
0.079130 0.063005 0.230068
0.215056 0.071984 0.185620
0.412587 0.089093 0.133984
0.625756 0.112265 0.093976
0.747796 0.128116 0.079406
0.795315 0.135138 0.074590
0.812018 0.137743 0.072992
0.041947 0.117088 0.253615
0.065464 0.101137 0.230674
0.160258 0.099523 0.197062
0.331523 0.109360 0.154931
0.559108 0.126602 0.110111
0.719142 0.141319 0.086887
0.785085 0.147535 0.077464
0.808886 0.149375 0.073167
0.043129 0.217689 0.271584
0.059193 0.186751 0.248138
0.124858 0.173518 0.225588
0.272537 0.175365 0.190884
0.501123 0.187686 0.140896
0.692493 0.197006 0.106650
0.776204 0.197653 0.091390
0.807865 0.194768 0.083873
0.044714 0.346217 0.307514
0.055249 0.310621 0.287794
0.100339 0.289907 0.272436
0.225715 0.284485 0.241252
0.444157 0.291658 0.186134
0.666708 0.297203 0.136160
0.768510 0.291255 0.113257
0.808823 0.282220 0.102250
0.045698 0.482657 0.364001
0.050865 0.456228 0.348897
0.080917 0.435958 0.335630
0.183336 0.426386 0.304971
0.381267 0.428934 0.246920
0.638989 0.436343 0.175006
0.761288 0.426215 0.141521
0.811857 0.412188 0.126348
0.047973 0.582217 0.418834
0.050420 0.570695 0.410675
0.068819 0.561655 0.402642
0.141952 0.559803 0.381417
0.301880 0.567690 0.334023
0.597355 0.583338 0.233236
0.751167 0.576743 0.181341
0.818531 0.563817 0.157807
0.051559 0.645018 0.463579
0.052821 0.640335 0.459473
0.064444 0.636344 0.453915
0.117204 0.636821 0.437772
0.241114 0.644721 0.399919
0.501734 0.663600 0.307966
0.713477 0.672940 0.232006
0.822031 0.670577 0.191616
0.055010 0.681697 0.494205
0.055208 0.679676 0.491069
0.063171 0.678450 0.488145
0.102160 0.680188 0.476899
0.197505 0.687276 0.447302
0.414613 0.705961 0.371662
0.655463 0.725257 0.283095
0.804064 0.732923 0.227608
0.053858 0.093615 0.393367
0.078869 0.093115 0.381365
0.195210 0.095466 0.330700
0.385450 0.104973 0.248777
0.612392 0.122147 0.154049
0.740580 0.134369 0.120000
0.790034 0.138860 0.107617
0.807627 0.140144 0.103114
0.049333 0.141764 0.395508
0.066742 0.122189 0.364610
0.140800 0.116371 0.328587
0.297387 0.121201 0.268736
0.528952 0.132972 0.183373
0.705162 0.144514 0.132265
0.778957 0.148837 0.110905
0.806046 0.149470 0.101824
0.047646 0.242845 0.404936
0.060677 0.206081 0.370865
0.109579 0.185345 0.342917
0.236125 0.179321 0.298058
0.450790 0.184626 0.226790
0.666137 0.189763 0.161089
0.766093 0.188716 0.128110
0.805253 0.184728 0.111829
0.047010 0.372490 0.418908
0.056307 0.330502 0.390842
0.090743 0.298693 0.368090
0.192887 0.281946 0.333568
0.383220 0.280801 0.276619
0.628776 0.282344 0.199478
0.753244 0.274841 0.155297
0.805310 0.264542 0.131656
0.046548 0.505895 0.436854
0.051417 0.475151 0.418304
0.076415 0.443736 0.400626
0.159557 0.422238 0.373931
0.326855 0.416611 0.328368
0.594685 0.422184 0.242596
0.741171 0.411000 0.188842
0.806420 0.395385 0.158999
0.048438 0.599277 0.467505
0.050739 0.585408 0.456539
0.065871 0.569754 0.444771
0.127094 0.559091 0.425409
0.266425 0.558312 0.387604
0.552613 0.570614 0.291874
0.727206 0.564840 0.225239
0.809765 0.551425 0.188257
0.051660 0.655707 0.496490
0.053002 0.649730 0.489223
0.062166 0.642477 0.480876
0.106382 0.638443 0.466496
0.215481 0.641498 0.436611
0.466822 0.657487 0.352938
0.692316 0.666386 0.269045
0.812161 0.663600 0.218921
0.055522 0.688662 0.518181
0.055679 0.685637 0.511637
0.061371 0.682888 0.506475
0.093519 0.682766 0.496736
0.177434 0.687807 0.473392
0.386773 0.704373 0.405229
0.636641 0.722571 0.313496
0.794326 0.729854 0.251740
0.064036 0.124117 0.514695
0.082618 0.123909 0.510060
0.176159 0.123426 0.469614
0.353400 0.126436 0.375491
0.590702 0.134705 0.237272
0.730648 0.144414 0.171888
0.783048 0.146728 0.149292
0.801698 0.146741 0.141562
0.058864 0.165362 0.517592
0.071771 0.146608 0.491134
0.129370 0.140137 0.463827
0.271265 0.141398 0.398203
0.499985 0.146777 0.283147
0.690720 0.154758 0.194161
0.770911 0.156588 0.158081
0.800642 0.155672 0.143624
0.054898 0.264126 0.531362
0.064745 0.228465 0.498502
0.101684 0.203921 0.471625
0.208901 0.191804 0.424297
0.404354 0.190816 0.341750
0.638056 0.190809 0.237217
0.752631 0.187219 0.183152
0.799302 0.181957 0.156979
0.052261 0.396770 0.541546
0.059480 0.354864 0.512638
0.085892 0.315295 0.485305
0.165903 0.288227 0.450646
0.324284 0.278092 0.397515
0.583414 0.273392 0.293218
0.731515 0.263007 0.224067
0.797830 0.251068 0.185261
0.051051 0.536284 0.540946
0.054910 0.503380 0.521374
0.075783 0.462886 0.499811
0.139022 0.428427 0.475333
0.270627 0.409382 0.440413
0.534276 0.408481 0.352923
0.710332 0.393967 0.275817
0.796456 0.375526 0.226512
0.051661 0.623983 0.543874
0.053357 0.608916 0.532092
0.065982 0.587582 0.517256
0.114941 0.567122 0.499526
0.229544 0.554050 0.472401
0.491663 0.558819 0.395559
0.691678 0.552435 0.313861
0.795928 0.537761 0.257848
0.054700 0.673235 0.552930
0.055630 0.666504 0.543922
0.062871 0.656337 0.532920
0.098314 0.647050 0.519829
0.189607 0.643025 0.498889
0.420938 0.653327 0.435435
0.660988 0.660866 0.347347
0.796447 0.657193 0.284519
0.058341 0.701223 0.561379
0.058463 0.697601 0.553001
0.062353 0.693253 0.544710
0.087308 0.690602 0.535246
0.157325 0.692334 0.519025
0.351544 0.705195 0.467359
0.608976 0.721848 0.378368
0.778393 0.728636 0.310033
0.071243 0.147324 0.584009
0.086149 0.148287 0.585777
0.159968 0.149596 0.561584
0.320174 0.148946 0.477638
0.556614 0.146861 0.330799
0.717838 0.155326 0.224506
0.775552 0.156900 0.190670
0.795275 0.156253 0.180310
0.066401 0.181964 0.591187
0.076722 0.168291 0.578852
0.124479 0.164180 0.564572
0.251984 0.163411 0.507516
0.468263 0.162649 0.389955
0.675504 0.167786 0.260186
0.761855 0.168135 0.209512
0.793606 0.166438 0.190353
0.062725 0.271985 0.610430
0.069501 0.244281 0.591929
0.100880 0.222748 0.574551
0.193969 0.209757 0.536668
0.369108 0.205287 0.460368
0.613127 0.201676 0.320628
0.738117 0.196159 0.247324
0.790805 0.190342 0.212793
0.060805 0.406478 0.633577
0.064817 0.370730 0.613719
0.087185 0.332836 0.591427
0.152156 0.303103 0.564265
0.284015 0.286862 0.520760
0.540635 0.276413 0.400731
0.707077 0.262489 0.309824
0.786875 0.248865 0.257510
0.060512 0.561839 0.650558
0.062385 0.528339 0.632407
0.080185 0.485886 0.610999
0.128097 0.443914 0.587662
0.228936 0.410933 0.557766
0.469427 0.400044 0.487715
0.672994 0.379368 0.391459
0.782035 0.356603 0.323277
0.059110 0.650928 0.634805
0.059769 0.635479 0.624700
0.070991 0.612266 0.610083
0.110594 0.585007 0.593957
0.202550 0.559225 0.574700
0.425448 0.552123 0.530097
0.648657 0.542438 0.441644
0.777330 0.524972 0.368109
0.061981 0.695121 0.626492
0.061951 0.688303 0.618543
0.068260 0.677192 0.607034
0.097065 0.663961 0.594720
0.171744 0.652145 0.580630
0.372675 0.653697 0.547646
0.622664 0.658179 0.466025
0.775317 0.652670 0.393300
0.065010 0.718188 0.621630
0.064425 0.714674 0.613679
0.067676 0.709747 0.603273
0.087178 0.705013 0.593234
0.143679 0.702735 0.582725
0.315378 0.710063 0.555408
0.574914 0.724230 0.480044
0.756728 0.730030 0.409188
0.074647 0.159612 0.606507
0.087795 0.160722 0.610325
0.149076 0.162800 0.593675
0.288949 0.162748 0.523439
0.507605 0.159675 0.390121
0.701762 0.160236 0.257774
0.769722 0.163053 0.216668
0.791189 0.163656 0.204223
0.070390 0.188544 0.615149
0.079747 0.178530 0.610302
0.119772 0.176133 0.602905
0.232506 0.176178 0.557472
0.433070 0.175208 0.453758
0.659645 0.173913 0.304508
0.753881 0.175281 0.243788
0.788122 0.174819 0.220843
0.066988 0.268088 0.635959
0.072791 0.246592 0.626693
0.098509 0.228119 0.617588
0.180830 0.216721 0.589910
0.343365 0.213312 0.525153
0.593041 0.208677 0.383501
0.726016 0.204406 0.297067
0.783128 0.199701 0.255308
0.065336 0.392701 0.662912
0.068413 0.365362 0.652657
0.085773 0.332118 0.639707
0.142300 0.304848 0.621305
0.263543 0.290232 0.586460
0.511590 0.281819 0.479062
0.687910 0.268108 0.374922
0.775823 0.254864 0.313213
0.066105 0.546379 0.688875
0.067496 0.522294 0.680088
0.080901 0.485366 0.667099
0.121456 0.445958 0.650473
0.211271 0.413388 0.626862
0.428315 0.401163 0.573038
0.643839 0.377695 0.470607
0.766285 0.353753 0.395699
0.070118 0.666059 0.696834
0.069956 0.652205 0.690200
0.079975 0.629589 0.680518
0.114837 0.601013 0.667808
0.193785 0.570883 0.651095
0.378958 0.552926 0.623740
0.609855 0.537824 0.555816
0.755989 0.517320 0.492543
0.073526 0.713155 0.688570
0.072617 0.706723 0.683770
0.078590 0.696083 0.676207
0.104703 0.682344 0.666735
0.170187 0.667749 0.655617
0.341684 0.660542 0.640523
0.586185 0.659940 0.590728
0.750369 0.651732 0.532160
0.076275 0.733904 0.679976
0.075057 0.731259 0.675108
0.078400 0.727268 0.668122
0.096241 0.722739 0.659927
0.145933 0.719125 0.651217
0.294927 0.721745 0.642234
0.543387 0.731847 0.600703
0.732388 0.735878 0.545298
0.075529 0.164496 0.614195
0.087531 0.165021 0.618476
0.141635 0.167135 0.605193
0.268900 0.167558 0.542609
0.473949 0.164839 0.419153
0.676400 0.163107 0.281854
0.759953 0.164750 0.230490
0.788958 0.165221 0.212447
0.072101 0.190891 0.623203
0.081389 0.182577 0.621521
0.116584 0.180669 0.616832
0.218762 0.180943 0.578452
0.405675 0.180231 0.486530
0.633840 0.177078 0.337862
0.743243 0.177815 0.263698
0.785639 0.177573 0.233327
0.069045 0.262351 0.643965
0.074852 0.244078 0.638343
0.096762 0.226816 0.632537
0.170732 0.216001 0.610520
0.321718 0.213357 0.554559
0.566600 0.208823 0.419116
0.713780 0.206303 0.323181
0.779236 0.203004 0.275078
0.067560 0.377685 0.671674
0.070442 0.354273 0.664849
0.084389 0.323134 0.655916
0.133827 0.296578 0.642103
0.244862 0.281957 0.612777
0.483902 0.274783 0.514185
0.672908 0.266016 0.407048
0.769301 0.255913 0.341518
0.068704 0.525761 0.700415
0.069964 0.505440 0.695124
0.080339 0.471327 0.686338
0.113758 0.432176 0.674190
0.192357 0.397172 0.655363
0.398163 0.384917 0.608643
0.624281 0.368518 0.509123
0.755891 0.349010 0.433491
0.074351 0.654930 0.715741
0.074568 0.643538 0.712471
0.082655 0.622581 0.707261
0.111030 0.594283 0.699329
0.177440 0.562614 0.687285
0.343047 0.540680 0.665316
0.581733 0.526780 0.605697
0.740323 0.506914 0.546453
0.080512 0.715845 0.715881
0.080381 0.710887 0.714376
0.086092 0.701767 0.710993
0.108835 0.688790 0.705997
0.165635 0.673345 0.699242
0.317483 0.661645 0.688381
0.557314 0.658037 0.655201
0.731103 0.649078 0.612880
0.085404 0.743339 0.712687
0.084821 0.741661 0.711067
0.088655 0.738899 0.707969
0.105360 0.735248 0.703982
0.150072 0.731471 0.699461
0.282528 0.731139 0.693958
0.520906 0.738535 0.675117
0.714943 0.742561 0.643153
0.078365 0.166978 0.616976
0.088074 0.167088 0.621245
0.136994 0.168904 0.609885
0.255846 0.169250 0.552684
0.451207 0.166627 0.437326
0.655042 0.164517 0.301040
0.750566 0.165822 0.240498
0.786770 0.165809 0.216146
0.073675 0.191153 0.625258
0.082416 0.183973 0.625164
0.114376 0.182020 0.621755
0.209112 0.182092 0.588037
0.385371 0.181592 0.505139
0.610760 0.178349 0.361642
0.732240 0.178485 0.277193
0.782796 0.178347 0.239650
0.070074 0.256993 0.645169
0.076081 0.241289 0.641896
0.095518 0.224474 0.637392
0.163948 0.213462 0.618329
0.306910 0.210989 0.568260
0.545649 0.206957 0.438844
0.702418 0.205021 0.336303
0.775150 0.202809 0.283220
0.068471 0.365901 0.672608
0.071727 0.345526 0.668222
0.083507 0.315498 0.660941
0.128394 0.288689 0.649027
0.232981 0.273133 0.622598
0.465413 0.265851 0.528302
0.661111 0.259440 0.418873
0.763437 0.252194 0.351384
0.069713 0.509445 0.702272
0.071372 0.491404 0.699102
0.079923 0.458963 0.692399
0.108030 0.419364 0.682589
0.178217 0.381372 0.666326
0.379132 0.366664 0.621087
0.610296 0.353457 0.521439
0.747590 0.338799 0.445953
0.075684 0.641506 0.720665
0.076856 0.632086 0.719554
0.083416 0.611918 0.716856
0.106166 0.583142 0.711802
0.162245 0.549605 0.702930
0.314717 0.523735 0.684042
0.559078 0.507401 0.624540
0.727855 0.489831 0.565305
0.083758 0.712676 0.726678
0.084594 0.708848 0.726945
0.089864 0.700413 0.726162
0.108685 0.687337 0.724301
0.156223 0.670605 0.720820
0.289875 0.655178 0.712328
0.526434 0.647667 0.685660
0.712055 0.638956 0.651098
0.092042 0.747500 0.729139
0.091185 0.745934 0.728770
0.094849 0.743786 0.728129
0.109605 0.740537 0.727536
0.148374 0.736311 0.726779
0.264772 0.733686 0.723302
0.492874 0.738371 0.714849
0.695131 0.742528 0.696529
