app/src/main/assets/cube/District02.cube
# LUT by SparkleStock. Enhanced with VOXCOLOR algorithms.
LUT_3D_SIZE 32
0.031258 0.089866 0.144567
0.048178 0.091804 0.143952
0.065099 0.093741 0.143338
0.082020 0.095679 0.142723
0.098940 0.097617 0.142109
0.115861 0.099555 0.141494
0.156060 0.103147 0.142889
0.200914 0.107070 0.144685
0.245768 0.110993 0.146481
0.290622 0.114916 0.148277
0.335476 0.118839 0.150073
0.380677 0.121880 0.151144
0.426051 0.124479 0.151853
0.471425 0.127079 0.152562
0.516799 0.129678 0.153271
0.562173 0.132278 0.153980
0.598023 0.134452 0.154524
0.624349 0.136201 0.154902
0.650675 0.137950 0.155280
0.677002 0.139698 0.155658
0.703328 0.141447 0.156036
0.724314 0.142944 0.156446
0.734617 0.143936 0.156918
0.744921 0.144929 0.157391
0.755225 0.145921 0.157864
0.765528 0.146914 0.158336
0.774367 0.147765 0.158777
0.775879 0.147907 0.159061
0.777392 0.148048 0.159345
0.778904 0.148190 0.159628
0.780417 0.148332 0.159912
0.781929 0.148474 0.160195
0.031872 0.109670 0.152507
0.047238 0.110683 0.151710
0.062603 0.111697 0.150912
0.077969 0.112711 0.150115
0.093334 0.113725 0.149317
0.108700 0.114739 0.148520
0.147846 0.117712 0.149640
0.191749 0.121077 0.151143
0.235652 0.124442 0.152646
0.279554 0.127807 0.154150
0.323457 0.131172 0.155653
0.368926 0.133764 0.156542
0.415178 0.135970 0.157122
0.461430 0.138177 0.157703
0.507683 0.140383 0.158284
0.553935 0.142589 0.158865
0.590659 0.144297 0.159175
0.617854 0.145506 0.159215
0.645049 0.146715 0.159255
0.672245 0.147924 0.159294
0.699440 0.149133 0.159334
0.721194 0.150148 0.159442
0.732065 0.150774 0.159686
0.742936 0.151401 0.159930
0.753807 0.152028 0.160174
0.764678 0.152654 0.160417
0.774006 0.153174 0.160622
0.775619 0.153161 0.160631
0.777232 0.153147 0.160641
0.778845 0.153133 0.160650
0.780458 0.153119 0.160659
0.782071 0.153106 0.160668
0.032487 0.129473 0.160447
0.046297 0.129563 0.159467
0.060107 0.129653 0.158487
0.073918 0.129743 0.157506
0.087728 0.129833 0.156526
0.101539 0.129923 0.155546
0.139633 0.132277 0.156391
0.182584 0.135084 0.157602
0.225536 0.137891 0.158812
0.268487 0.140698 0.160023
0.311438 0.143505 0.161233
0.357176 0.145649 0.161939
0.404306 0.147462 0.162392
0.451436 0.149275 0.162844
0.498567 0.151088 0.163297
0.545697 0.152900 0.163750
0.583295 0.154141 0.163827
0.611359 0.154811 0.163528
0.639423 0.155480 0.163229
0.667488 0.156149 0.162931
0.695552 0.156819 0.162632
0.718075 0.157352 0.162438
0.729513 0.157613 0.162453
0.740951 0.157873 0.162468
0.752389 0.158134 0.162483
0.763827 0.158395 0.162499
0.773644 0.158584 0.162467
0.775358 0.158415 0.162202
0.777072 0.158245 0.161937
0.778785 0.158076 0.161671
0.780499 0.157907 0.161406
0.782213 0.157738 0.161141
0.033101 0.149277 0.168388
0.045356 0.148443 0.167225
0.057611 0.147609 0.166061
0.069867 0.146775 0.164898
0.082122 0.145941 0.163735
0.094377 0.145107 0.162571
0.131420 0.146842 0.163142
0.173420 0.149091 0.164060
0.215419 0.151340 0.164978
0.257419 0.153589 0.165896
0.299419 0.155838 0.166814
0.345425 0.157534 0.167336
0.393434 0.158953 0.167661
0.441442 0.160373 0.167986
0.489451 0.161792 0.168310
0.537459 0.163212 0.168635
0.575930 0.163986 0.168479
0.604864 0.164116 0.167842
0.633797 0.164245 0.167204
0.662731 0.164375 0.166567
0.691665 0.164505 0.165930
0.714955 0.164556 0.165434
0.726960 0.164451 0.165220
0.738966 0.164345 0.165007
0.750971 0.164240 0.164793
0.762976 0.164135 0.164580
0.773283 0.163993 0.164312
0.775097 0.163669 0.163772
0.776912 0.163344 0.163232
0.778726 0.163019 0.162693
0.780540 0.162694 0.162153
0.782355 0.162370 0.161613
0.033715 0.169081 0.176328
0.044415 0.167323 0.174982
0.055116 0.165565 0.173636
0.065816 0.163807 0.172289
0.076516 0.162049 0.170943
0.087216 0.160291 0.169597
0.123206 0.161407 0.169893
0.164255 0.163098 0.170519
0.205303 0.164789 0.171144
0.246352 0.166480 0.171769
0.287400 0.168171 0.172394
0.333674 0.169419 0.172733
0.382561 0.170445 0.172930
0.431448 0.171471 0.173127
0.480335 0.172497 0.173323
0.529222 0.173523 0.173520
0.568566 0.173831 0.173131
0.598369 0.173421 0.172155
0.628171 0.173011 0.171179
0.657974 0.172601 0.170203
0.687777 0.172190 0.169227
0.711836 0.171760 0.168430
0.724408 0.171289 0.167987
0.736981 0.170818 0.167545
0.749553 0.170347 0.167103
0.762125 0.169875 0.166661
0.772921 0.169403 0.166157
0.774836 0.168923 0.165343
0.776751 0.168442 0.164528
0.778666 0.167962 0.163714
0.780581 0.167482 0.162900
0.782496 0.167001 0.162086
0.034330 0.188885 0.184269
0.043475 0.186203 0.182740
0.052620 0.183521 0.181210
0.061765 0.180839 0.179681
0.070910 0.178157 0.178152
0.080054 0.175476 0.176623
0.114993 0.175973 0.176645
0.155090 0.177105 0.176977
0.195187 0.178238 0.177309
0.235284 0.179371 0.177642
0.275381 0.180504 0.177974
0.321924 0.181303 0.178131
0.371689 0.181936 0.178199
0.421454 0.182569 0.178268
0.471219 0.183202 0.178337
0.520984 0.183834 0.178405
0.561202 0.183676 0.177782
0.591874 0.182726 0.176468
0.622545 0.181776 0.175154
0.653217 0.180826 0.173840
0.683889 0.179876 0.172525
0.708716 0.178964 0.171426
0.721856 0.178127 0.170755
0.734995 0.177290 0.170084
0.748135 0.176453 0.169413
0.761275 0.175616 0.168742
0.772560 0.174812 0.168002
0.774576 0.174177 0.166913
0.776591 0.173541 0.165824
0.778607 0.172905 0.164736
0.780623 0.172269 0.163647
0.782638 0.171633 0.162559
0.034669 0.216409 0.198275
0.042853 0.213237 0.196525
0.051037 0.210066 0.194774
0.059222 0.206895 0.193024
0.067406 0.203723 0.191274
0.075591 0.200552 0.189523
0.108820 0.200274 0.188915
0.147059 0.200574 0.188536
0.185297 0.200875 0.188156
0.223536 0.201175 0.187776
0.261774 0.201475 0.187397
0.308466 0.202055 0.187185
0.359383 0.202775 0.187057
0.410301 0.203495 0.186929
0.461219 0.204214 0.186800
0.512136 0.204934 0.186672
0.553457 0.204553 0.185801
0.585181 0.203071 0.184186
0.616904 0.201589 0.182572
0.648628 0.200107 0.180957
0.680352 0.198625 0.179343
0.706077 0.197162 0.177946
0.719807 0.195738 0.176985
0.733536 0.194314 0.176025
0.747266 0.192890 0.175064
0.760996 0.191466 0.174104
0.772800 0.190128 0.173094
0.774977 0.189223 0.171838
0.777154 0.188317 0.170581
0.779331 0.187411 0.169325
0.781509 0.186506 0.168069
0.783686 0.185600 0.166812
0.034952 0.245476 0.213494
0.042295 0.241903 0.211515
0.049638 0.238329 0.209536
0.056980 0.234755 0.207557
0.064323 0.231181 0.205578
0.071666 0.227607 0.203599
0.103055 0.226523 0.202290
0.139254 0.225936 0.201114
0.175452 0.225349 0.199939
0.211651 0.224762 0.198763
0.247850 0.224175 0.197587
0.294666 0.224581 0.196970
0.346791 0.225483 0.196632
0.398916 0.226386 0.196293
0.451041 0.227288 0.195955
0.503167 0.228191 0.195616
0.545635 0.227636 0.194493
0.578448 0.225623 0.192586
0.611260 0.223611 0.190678
0.644072 0.221598 0.188771
0.676884 0.219586 0.186864
0.703534 0.217559 0.185171
0.717858 0.215504 0.183909
0.732182 0.213449 0.182647
0.746507 0.211393 0.181384
0.760831 0.209338 0.180122
0.773160 0.207426 0.178836
0.775511 0.206227 0.177433
0.777862 0.205029 0.176031
0.780213 0.203830 0.174628
0.782564 0.202632 0.173225
0.784915 0.201434 0.171822
0.035236 0.274544 0.228713
0.041737 0.270568 0.226506
0.048238 0.266591 0.224298
0.054739 0.262615 0.222090
0.061240 0.258639 0.219882
0.067742 0.254662 0.217675
0.097291 0.252771 0.215664
0.131449 0.251297 0.213692
0.165608 0.249822 0.211721
0.199766 0.248348 0.209750
0.233925 0.246874 0.207778
0.280866 0.247106 0.206755
0.334199 0.248192 0.206206
0.387532 0.249277 0.205658
0.440864 0.250363 0.205109
0.494197 0.251448 0.204560
0.537814 0.250719 0.203185
0.571715 0.248176 0.200985
0.605616 0.245633 0.198785
0.639516 0.243090 0.196585
0.673417 0.240547 0.194385
0.700991 0.237956 0.192397
0.715910 0.235270 0.190832
0.730829 0.232583 0.189268
0.745747 0.229897 0.187704
0.760666 0.227210 0.186140
0.773519 0.224723 0.184578
0.776044 0.223232 0.183029
0.778569 0.221741 0.181480
0.781094 0.220250 0.179931
0.783619 0.218758 0.178382
0.786144 0.217267 0.176832
0.035519 0.303612 0.243932
0.041179 0.299233 0.241496
0.046838 0.294854 0.239060
0.052498 0.290475 0.236623
0.058158 0.286096 0.234187
0.063817 0.281718 0.231750
0.091526 0.279020 0.229038
0.123644 0.276658 0.226271
0.155763 0.274296 0.223504
0.187881 0.271935 0.220736
0.220000 0.269573 0.217969
0.267066 0.269631 0.216541
0.321607 0.270900 0.215781
0.376147 0.272168 0.215022
0.430687 0.273437 0.214263
0.485227 0.274705 0.213503
0.529992 0.273803 0.211877
0.564982 0.270729 0.209385
0.599971 0.267655 0.206892
0.634961 0.264582 0.204399
0.669950 0.261508 0.201906
0.698448 0.258353 0.199622
0.713961 0.255035 0.197756
0.729475 0.251718 0.195890
0.744988 0.248400 0.194024
0.760502 0.245082 0.192157
0.773879 0.242020 0.190320
0.776578 0.240236 0.188624
0.779277 0.238453 0.186929
0.781975 0.236669 0.185233
0.784674 0.234885 0.183538
0.787372 0.233101 0.181843
0.035803 0.332680 0.259152
0.040621 0.327898 0.256486
0.045439 0.323117 0.253821
0.050257 0.318335 0.251156
0.055075 0.313554 0.248491
0.059893 0.308773 0.245826
0.085761 0.305268 0.242413
0.115840 0.302019 0.238849
0.145918 0.298770 0.235286
0.175997 0.295521 0.231723
0.206075 0.292272 0.228160
0.253267 0.292157 0.226326
0.309014 0.293608 0.225356
0.364762 0.295060 0.224386
0.420510 0.296511 0.223417
0.476258 0.297963 0.222447
0.522171 0.296886 0.220569
0.558249 0.293282 0.217784
0.594327 0.289678 0.214998
0.630405 0.286073 0.212213
0.666483 0.282469 0.209427
0.695905 0.278750 0.206848
0.712013 0.274801 0.204679
0.728121 0.270852 0.202511
0.744229 0.266903 0.200343
0.760337 0.262954 0.198175
0.774239 0.259318 0.196062
0.777111 0.257241 0.194220
0.779984 0.255164 0.192378
0.782856 0.253088 0.190536
0.785729 0.251011 0.188694
0.788601 0.248935 0.186853
0.036370 0.362724 0.274686
0.040572 0.358028 0.272091
0.044774 0.353332 0.269496
0.048976 0.348636 0.266901
0.053178 0.343940 0.264306
0.057380 0.339244 0.261711
0.080958 0.335558 0.258073
0.108411 0.332074 0.254226
0.135864 0.328591 0.250379
0.163317 0.325107 0.246533
0.190770 0.321623 0.242686
0.237664 0.321096 0.240381
0.294278 0.322047 0.238847
0.350891 0.322999 0.237314
0.407505 0.323950 0.235780
0.464119 0.324901 0.234246
0.511363 0.323688 0.231973
0.549237 0.320309 0.228962
0.587111 0.316930 0.225951
0.624985 0.313552 0.222940
0.662860 0.310173 0.219929
0.693691 0.306506 0.217116
0.710436 0.302261 0.214701
0.727182 0.298017 0.212286
0.743927 0.293772 0.209871
0.760672 0.289527 0.207456
0.775150 0.285600 0.205119
0.778288 0.283261 0.203174
0.781425 0.280923 0.201228
0.784563 0.278584 0.199283
0.787701 0.276245 0.197337
0.790839 0.273906 0.195392
0.037079 0.393257 0.290378
0.040778 0.388890 0.288002
0.044477 0.384524 0.285627
0.048176 0.380157 0.283251
0.051874 0.375790 0.280876
0.055573 0.371424 0.278501
0.076635 0.367869 0.274876
0.101170 0.364477 0.271002
0.125705 0.361084 0.267128
0.150240 0.357692 0.263254
0.174775 0.354299 0.259380
0.221159 0.353242 0.256572
0.278468 0.353352 0.254297
0.335777 0.353461 0.252022
0.393086 0.353571 0.249747
0.450395 0.353681 0.247472
0.499062 0.352348 0.244733
0.539086 0.349574 0.241530
0.579110 0.346799 0.238327
0.619134 0.344024 0.235123
0.659158 0.341249 0.231920
0.691642 0.337941 0.228906
0.709046 0.333569 0.226272
0.726450 0.329196 0.223637
0.743854 0.324823 0.221002
0.761258 0.320450 0.218368
0.776336 0.316376 0.215834
0.779785 0.313790 0.213807
0.783234 0.311204 0.211779
0.786682 0.308618 0.209751
0.790131 0.306032 0.207723
0.793580 0.303446 0.205695
0.037788 0.423790 0.306070
0.040984 0.419753 0.303914
0.044179 0.415715 0.301758
0.047375 0.411678 0.299602
0.050571 0.407641 0.297446
0.053766 0.403603 0.295290
0.072313 0.400180 0.291680
0.093930 0.396879 0.287778
0.115546 0.393578 0.283876
0.137163 0.390277 0.279975
0.158780 0.386976 0.276073
0.204655 0.385388 0.272762
0.262659 0.384656 0.269746
0.320663 0.383924 0.266730
0.378668 0.383192 0.263715
0.436672 0.382461 0.260699
0.486761 0.381009 0.257493
0.528935 0.378838 0.254098
0.571108 0.376667 0.250702
0.613282 0.374496 0.247307
0.655456 0.372325 0.243912
0.689593 0.369377 0.240697
0.707655 0.364876 0.237842
0.725718 0.360375 0.234988
0.743781 0.355874 0.232134
0.761843 0.351374 0.229280
0.777522 0.347151 0.226550
0.781282 0.344318 0.224440
0.785042 0.341485 0.222329
0.788802 0.338652 0.220219
0.792561 0.335820 0.218109
0.796321 0.332987 0.215999
0.038497 0.454323 0.321761
0.041190 0.450615 0.319825
0.043882 0.446907 0.317889
0.046575 0.443199 0.315952
0.049267 0.439491 0.314016
0.051960 0.435783 0.312080
0.067991 0.432490 0.308483
0.086689 0.429281 0.304554
0.105388 0.426071 0.300625
0.124086 0.422862 0.296696
0.142784 0.419653 0.292767
0.188150 0.417534 0.288952
0.246850 0.415960 0.285196
0.305549 0.414387 0.281439
0.364249 0.412814 0.277682
0.422948 0.411240 0.273925
0.474460 0.409670 0.270253
0.518783 0.408102 0.266666
0.563107 0.406535 0.263078
0.607430 0.404968 0.259491
0.651754 0.403400 0.255903
0.687543 0.400812 0.252487
0.706265 0.396184 0.249413
0.724986 0.391555 0.246339
0.743707 0.386926 0.243266
0.762429 0.382297 0.240192
0.778708 0.377926 0.237265
0.782779 0.374846 0.235073
0.786850 0.371767 0.232880
0.790921 0.368687 0.230688
0.794992 0.365607 0.228495
0.799063 0.362527 0.226303
0.039206 0.484856 0.337453
0.041395 0.481477 0.335736
0.043585 0.478098 0.334020
0.045774 0.474720 0.332303
0.047964 0.471341 0.330586
0.050153 0.467962 0.328869
0.063668 0.464801 0.325286
0.079448 0.461683 0.321330
0.095229 0.458565 0.317373
0.111009 0.455447 0.313417
0.126789 0.452329 0.309460
0.171646 0.449680 0.305143
0.231041 0.447265 0.300645
0.290435 0.444850 0.296147
0.349830 0.442435 0.291650
0.409225 0.440020 0.287152
0.462159 0.438330 0.283013
0.508632 0.437367 0.279233
0.555106 0.436403 0.275454
0.601579 0.435440 0.271674
0.648052 0.434476 0.267895
0.685494 0.432248 0.264277
0.704874 0.427491 0.260984
0.724254 0.422734 0.257690
0.743634 0.417977 0.254397
0.763014 0.413220 0.251104
0.779895 0.408702 0.247980
0.784276 0.405375 0.245706
0.788658 0.402048 0.243431
0.793040 0.398721 0.241156
0.797422 0.395394 0.238881
0.801804 0.392067 0.236606
0.040151 0.510213 0.350238
0.041979 0.507205 0.348736
0.043807 0.504197 0.347235
0.045635 0.501189 0.345733
0.047464 0.498180 0.344231
0.049292 0.495172 0.342729
0.060925 0.492286 0.339304
0.074518 0.489424 0.335494
0.088112 0.486563 0.331684
0.101706 0.483701 0.327874
0.115300 0.480839 0.324063
0.158068 0.478205 0.319551
0.215423 0.475685 0.314687
0.272778 0.473164 0.309824
0.330132 0.470644 0.304960
0.387487 0.468124 0.300096
0.441187 0.466487 0.295809
0.491233 0.465734 0.292098
0.541278 0.464981 0.288387
0.591324 0.464227 0.284676
0.641369 0.463474 0.280965
0.681544 0.461466 0.277308
0.701976 0.456947 0.273758
0.722408 0.452428 0.270209
0.742840 0.447908 0.266659
0.763272 0.443389 0.263110
0.781093 0.439063 0.259766
0.785859 0.435699 0.257450
0.790625 0.432336 0.255134
0.795391 0.428973 0.252818
0.800157 0.425609 0.250502
0.804923 0.422246 0.248186
0.041333 0.530395 0.360117
0.042941 0.527799 0.358825
0.044550 0.525202 0.357534
0.046158 0.522606 0.356242
0.047767 0.520009 0.354951
0.049375 0.517413 0.353660
0.059760 0.514946 0.350536
0.071899 0.512505 0.347046
0.084038 0.510064 0.343556
0.096178 0.507623 0.340066
0.108317 0.505182 0.336576
0.147417 0.503109 0.332177
0.199996 0.501220 0.327322
0.252576 0.499331 0.322468
0.305155 0.497441 0.317613
0.357735 0.495552 0.312759
0.411545 0.494140 0.308640
0.466585 0.493204 0.305259
0.521625 0.492268 0.301877
0.576666 0.491331 0.298495
0.631706 0.490395 0.295114
0.675692 0.488466 0.291578
0.697570 0.484551 0.287736
0.719447 0.480635 0.283894
0.741324 0.476720 0.280052
0.763202 0.472805 0.276210
0.782303 0.469010 0.272622
0.787527 0.465821 0.270306
0.792750 0.462631 0.267990
0.797974 0.459442 0.265674
0.803197 0.456252 0.263358
0.808421 0.453062 0.261042
0.042514 0.550577 0.369995
0.043903 0.548392 0.368914
0.045292 0.546207 0.367833
0.046681 0.544022 0.366752
0.048070 0.541838 0.365671
0.049459 0.539653 0.364590
0.058595 0.537605 0.361768
0.069280 0.535585 0.358599
0.079965 0.533565 0.355429
0.090649 0.531545 0.352259
0.101334 0.529524 0.349089
0.136765 0.528013 0.344802
0.184570 0.526755 0.339957
0.232374 0.525497 0.335112
0.280178 0.524239 0.330266
0.327983 0.522981 0.325421
0.381902 0.521793 0.321472
0.441937 0.520674 0.318420
0.501973 0.519554 0.315367
0.562008 0.518435 0.312315
0.622043 0.517316 0.309262
0.669841 0.515466 0.305849
0.693163 0.512155 0.301714
0.716486 0.508843 0.297579
0.739809 0.505532 0.293445
0.763132 0.502220 0.289310
0.783514 0.498958 0.285478
0.789195 0.495942 0.283162
0.794876 0.492926 0.280846
0.800557 0.489910 0.278530
0.806238 0.486895 0.276214
0.811919 0.483879 0.273898
0.043696 0.570759 0.379873
0.044866 0.568986 0.379003
0.046035 0.567213 0.378132
0.047204 0.565439 0.377261
0.048374 0.563666 0.376391
0.049543 0.561893 0.375520
0.057430 0.560265 0.373000
0.066660 0.558665 0.370151
0.075891 0.557066 0.367301
0.085121 0.555467 0.364452
0.094351 0.553867 0.361602
0.126114 0.552916 0.357428
0.169143 0.552290 0.352592
0.212172 0.551663 0.347756
0.255201 0.551036 0.342919
0.298230 0.550410 0.338083
0.352260 0.549445 0.334304
0.417290 0.548143 0.331580
0.482320 0.546841 0.328857
0.547350 0.545539 0.326134
0.612380 0.544237 0.323411
0.663989 0.542467 0.320120
0.688757 0.539759 0.315692
0.713525 0.537051 0.311265
0.738293 0.534343 0.306837
0.763061 0.531635 0.302410
0.784725 0.528905 0.298334
0.790863 0.526063 0.296018
0.797001 0.523221 0.293702
0.803140 0.520379 0.291386
0.809278 0.517537 0.289070
0.815416 0.514695 0.286754
0.044878 0.590941 0.389751
0.045828 0.589579 0.389091
0.046777 0.588218 0.388431
0.047727 0.586856 0.387771
0.048677 0.585495 0.387111
0.049627 0.584133 0.386451
0.056265 0.582924 0.384233
0.064041 0.581746 0.381703
0.071817 0.580567 0.379174
0.079593 0.579389 0.376644
0.087368 0.578210 0.374115
0.115463 0.577820 0.370054
0.153717 0.577825 0.365227
0.191970 0.577829 0.360400
0.230224 0.577834 0.355573
0.268478 0.577839 0.350745
0.322617 0.577098 0.347135
0.392642 0.575613 0.344741
0.462667 0.574128 0.342348
0.532691 0.572643 0.339954
0.602716 0.571158 0.337560
0.658137 0.569467 0.334391
0.684351 0.567363 0.329671
0.710564 0.565259 0.324950
0.736778 0.563155 0.320230
0.762991 0.561051 0.315510
0.785935 0.558853 0.311190
0.792531 0.556184 0.308874
0.799127 0.553516 0.306558
0.805722 0.550848 0.304242
0.812318 0.548180 0.301926
0.818914 0.545512 0.299610
0.046091 0.608618 0.398511
0.046864 0.607577 0.398000
0.047637 0.606535 0.397490
0.048410 0.605494 0.396979
0.049183 0.604453 0.396468
0.049956 0.603411 0.395957
0.055584 0.602507 0.393965
0.062182 0.601630 0.391677
0.068781 0.600754 0.389388
0.075380 0.599877 0.387100
0.081979 0.599000 0.384811
0.106987 0.598998 0.380855
0.141201 0.599432 0.376064
0.175414 0.599867 0.371274
0.209627 0.600301 0.366483
0.243841 0.600736 0.361693
0.297105 0.600217 0.358146
0.369420 0.598744 0.355844
0.441735 0.597271 0.353542
0.514049 0.595798 0.351239
0.586364 0.594325 0.348937
0.644269 0.592803 0.345882
0.673355 0.591181 0.341320
0.702441 0.589558 0.336758
0.731527 0.587936 0.332196
0.760613 0.586314 0.327635
0.786064 0.584558 0.323439
0.793340 0.582137 0.321074
0.800616 0.579716 0.318710
0.807891 0.577295 0.316345
0.815167 0.574874 0.313980
0.822443 0.572453 0.311615
0.047367 0.621285 0.405034
0.048048 0.620381 0.404550
0.048730 0.619477 0.404067
0.049412 0.618572 0.403584
0.050093 0.617668 0.403100
0.050775 0.616764 0.402617
0.055869 0.615936 0.400698
0.061845 0.615124 0.398492
0.067822 0.614311 0.396286
0.073799 0.613498 0.394079
0.079775 0.612686 0.391873
0.102863 0.612723 0.388005
0.134506 0.613185 0.383306
0.166149 0.613647 0.378607
0.197792 0.614109 0.373908
0.229434 0.614571 0.369209
0.279853 0.614267 0.365516
0.349049 0.613196 0.362830
0.418244 0.612126 0.360144
0.487439 0.611056 0.357457
0.556635 0.609985 0.354771
0.614369 0.608810 0.351813
0.649182 0.607426 0.348312
0.683994 0.606041 0.344812
0.718807 0.604657 0.341311
0.753620 0.603273 0.337810
0.784030 0.601781 0.334475
0.792431 0.599753 0.331963
0.800832 0.597725 0.329452
0.809233 0.595698 0.326941
0.817634 0.593670 0.324430
0.826035 0.591642 0.321919
0.048643 0.633952 0.411556
0.049233 0.633185 0.411100
0.049823 0.632418 0.410644
0.050413 0.631651 0.410189
0.051003 0.630884 0.409733
0.051593 0.630117 0.409277
0.056154 0.629366 0.407431
0.061508 0.628617 0.405307
0.066863 0.627868 0.403183
0.072218 0.627120 0.401059
0.077572 0.626371 0.398936
0.098739 0.626448 0.395156
0.127811 0.626937 0.390548
0.156883 0.627427 0.385941
0.185956 0.627916 0.381333
0.215028 0.628405 0.376726
0.262602 0.628316 0.372887
0.328678 0.627648 0.369816
0.394754 0.626981 0.366745
0.460829 0.626313 0.363675
0.526905 0.625645 0.360604
0.584469 0.624818 0.357744
0.625008 0.623671 0.355304
0.665548 0.622525 0.352865
0.706087 0.621378 0.350425
0.746626 0.620232 0.347986
0.781997 0.619004 0.345510
0.791523 0.617369 0.342853
0.801049 0.615735 0.340195
0.810575 0.614100 0.337538
0.820101 0.612466 0.334880
0.829627 0.610831 0.332223
0.049919 0.646619 0.418079
0.050418 0.645989 0.417650
0.050916 0.645359 0.417222
0.051415 0.644730 0.416793
0.051914 0.644100 0.416365
0.052412 0.643470 0.415937
0.056439 0.642795 0.414164
0.061172 0.642110 0.412122
0.065904 0.641426 0.410081
0.070637 0.640741 0.408039
0.075369 0.640056 0.405998
0.094615 0.640173 0.402307
0.121116 0.640690 0.397791
0.147618 0.641207 0.393274
0.174120 0.641723 0.388758
0.200621 0.642240 0.384242
0.245350 0.642366 0.380257
0.308307 0.642101 0.376802
0.371263 0.641835 0.373347
0.434220 0.641570 0.369892
0.497176 0.641305 0.366437
0.554569 0.640825 0.363675
0.600835 0.639916 0.362296
0.647101 0.639008 0.360918
0.693367 0.638099 0.359540
0.739632 0.637190 0.358161
0.779963 0.636226 0.356546
0.790614 0.634985 0.353742
0.801265 0.633744 0.350938
0.811917 0.632503 0.348134
0.822568 0.631262 0.345330
0.833219 0.630021 0.342526
0.051195 0.659286 0.424601
0.051602 0.658793 0.424200
0.052010 0.658301 0.423799
0.052417 0.657808 0.423398
0.052824 0.657316 0.422997
0.053231 0.656823 0.422596
0.056724 0.656224 0.420897
0.060835 0.655603 0.418938
0.064945 0.654983 0.416978
0.069056 0.654362 0.415019
0.073166 0.653742 0.413060
0.090490 0.653898 0.409457
0.114421 0.654442 0.405033
0.138353 0.654986 0.400608
0.162284 0.655531 0.396184
0.186215 0.656075 0.391759
0.228099 0.656416 0.387627
0.287936 0.656553 0.383788
0.347773 0.656690 0.379949
0.407610 0.656828 0.376110
0.467447 0.656965 0.372271
0.524669 0.656833 0.369606
0.576661 0.656162 0.369288
0.628654 0.655491 0.368971
0.680646 0.654820 0.368654
0.732639 0.654149 0.368337
0.777929 0.653449 0.367581
0.789705 0.652601 0.364631
0.801482 0.651753 0.361681
0.813258 0.650906 0.358730
0.825035 0.650058 0.355780
0.836811 0.649210 0.352830
0.052338 0.670684 0.430667
0.052673 0.670332 0.430292
0.053008 0.669980 0.429917
0.053344 0.669628 0.429542
0.053679 0.669275 0.429167
0.054015 0.668923 0.428791
0.057018 0.668410 0.427169
0.060556 0.667864 0.425296
0.064093 0.667318 0.423424
0.067630 0.666772 0.421552
0.071167 0.666226 0.419680
0.086727 0.666433 0.416170
0.108298 0.667015 0.411841
0.129869 0.667597 0.407513
0.151440 0.668180 0.403184
0.173011 0.668762 0.398856
0.212191 0.669309 0.394599
0.268980 0.669820 0.390414
0.325769 0.670330 0.386228
0.382558 0.670841 0.382043
0.439347 0.671352 0.377858
0.496163 0.671535 0.375239
0.553033 0.671064 0.375753
0.609903 0.670593 0.376267
0.666773 0.670122 0.376781
0.723643 0.669651 0.377294
0.773254 0.669176 0.377227
0.786571 0.668680 0.374256
0.799887 0.668185 0.371284
0.813203 0.667689 0.368313
0.826520 0.667194 0.365341
0.839836 0.666698 0.362370
0.052810 0.675741 0.434448
0.053173 0.675545 0.434091
0.053536 0.675348 0.433734
0.053899 0.675151 0.433378
0.054262 0.674955 0.433021
0.054625 0.674758 0.432664
0.057358 0.674377 0.431136
0.060566 0.673959 0.429373
0.063774 0.673542 0.427611
0.066982 0.673124 0.425848
0.070190 0.672706 0.424086
0.084768 0.673016 0.420692
0.105030 0.673690 0.416482
0.125293 0.674364 0.412273
0.145556 0.675038 0.408063
0.165819 0.675712 0.403854
0.203000 0.676418 0.399578
0.257100 0.677158 0.395238
0.311199 0.677897 0.390897
0.365299 0.678637 0.386556
0.419399 0.679376 0.382216
0.474632 0.679715 0.379386
