app/src/main/assets/cube/District02.cube
# LUT by SparkleStock. Enhanced with VOXCOLOR algorithms.
LUT_3D_SIZE 5
DOMAIN_MIN 0.000000 0.000000 0.000000
DOMAIN_MAX 0.903226 0.903226 0.903226
0.031258 0.089866 0.144567
0.200914 0.107070 0.144685
0.516799 0.129678 0.153271
0.724314 0.142944 0.156446
0.777392 0.148048 0.159345
0.034952 0.245476 0.213494
0.139254 0.225936 0.201114
0.451041 0.227288 0.195955
0.703534 0.217559 0.185171
0.777862 0.205029 0.176031
0.038497 0.454323 0.321761
0.086689 0.429281 0.304554
0.364249 0.412814 0.277682
0.687543 0.400812 0.252487
0.786850 0.371767 0.232880
0.046091 0.608618 0.398511
0.062182 0.601630 0.391677
0.209627 0.600301 0.366483
0.644269 0.592803 0.345882
0.800616 0.579716 0.318710
0.053283 0.680799 0.438229
0.060577 0.680055 0.433450
0.139672 0.681896 0.412942
0.453101 0.687895 0.383533
0.778584 0.685267 0.379100
0.036977 0.133987 0.342329
0.158753 0.138517 0.318089
0.486676 0.155843 0.279018
0.717253 0.164242 0.246186
0.772067 0.166138 0.234243
0.035387 0.256477 0.365111
0.102300 0.225393 0.322495
0.381098 0.223836 0.288385
0.682677 0.216370 0.245423
0.773213 0.203346 0.222154
0.040480 0.466242 0.401067
0.074667 0.422703 0.371764
0.300658 0.399059 0.340220
0.653616 0.385901 0.293954
0.780428 0.353504 0.256600
0.047214 0.617750 0.434080
0.058593 0.603954 0.421173
0.179511 0.593554 0.394588
0.604692 0.583325 0.365990
0.788816 0.567282 0.330469
0.053043 0.685997 0.457234
0.056977 0.681999 0.448415
0.119669 0.683335 0.429486
0.416163 0.687957 0.395668
0.767425 0.681885 0.386408
0.046823 0.162425 0.498633
0.127588 0.165278 0.489816
0.437546 0.180916 0.428377
0.700753 0.191729 0.369529
0.754910 0.189558 0.345788
0.041666 0.260147 0.525220
0.082477 0.231103 0.489943
0.315434 0.233989 0.449209
0.647374 0.232780 0.381907
0.754690 0.221146 0.341148
0.042085 0.475309 0.557005
0.064827 0.424860 0.521673
0.213127 0.383420 0.482361
0.572454 0.363733 0.420772
0.756015 0.329015 0.354065
0.046876 0.641697 0.548725
0.055233 0.620220 0.529796
0.133718 0.588505 0.503277
0.494967 0.569097 0.465098
0.755400 0.546626 0.403428
0.051810 0.701872 0.535592
0.055314 0.696826 0.520175
0.092004 0.689671 0.498391
0.332065 0.692531 0.463190
0.731131 0.683773 0.442407
0.052598 0.175556 0.550837
0.108005 0.176461 0.552780
0.372929 0.190680 0.504483
0.682383 0.203071 0.424283
0.743520 0.206308 0.408669
0.046207 0.248356 0.580764
0.072644 0.225330 0.567441
0.260144 0.226776 0.541196
0.615870 0.243749 0.464853
0.735738 0.239675 0.428611
0.044726 0.442026 0.627484
0.057611 0.400847 0.610548
0.160365 0.357293 0.583242
0.503323 0.351772 0.534699
0.720562 0.326523 0.470892
0.046359 0.653027 0.650870
0.053166 0.629246 0.639569
0.114473 0.586127 0.617552
0.384963 0.549928 0.585148
0.708427 0.518748 0.525143
0.050267 0.718411 0.634594
0.053499 0.713453 0.625517
0.082310 0.704690 0.609512
0.257661 0.699402 0.588717
0.671807 0.693310 0.554082
0.054275 0.179267 0.557801
0.099616 0.178160 0.561695
0.329905 0.191230 0.524737
0.646358 0.205114 0.442969
0.740301 0.210190 0.418173
0.047110 0.240424 0.586312
0.069086 0.221001 0.579106
0.229229 0.218706 0.559235
0.574409 0.236623 0.487165
0.729204 0.241990 0.443394
0.044047 0.412494 0.632720
0.054807 0.376321 0.623786
0.133381 0.327322 0.604930
0.455966 0.318646 0.558908
0.705731 0.318314 0.499751
0.046226 0.625703 0.665164
0.051432 0.605032 0.662090
0.092099 0.557069 0.651818
0.311765 0.510609 0.627863
0.674998 0.489447 0.578567
0.049943 0.722265 0.672842
0.052273 0.717809 0.671403
0.075200 0.709414 0.667302
0.217652 0.697653 0.655331
0.619851 0.692243 0.634146
