app/src/main/assets/cube/District01.cube
# LUT by SparkleStock. Enhanced with VOXCOLOR algorithms.
LUT_3D_SIZE 8
DOMAIN_MIN 0.000000 0.000000 0.000000
DOMAIN_MAX 0.903226 0.903226 0.903226
0.066422 0.074237 0.148474
0.143558 0.083123 0.147718
0.295553 0.096294 0.144283
0.475852 0.111544 0.138958
0.642105 0.126716 0.132790
0.734743 0.138249 0.128441
0.776651 0.144740 0.126141
0.793871 0.147765 0.125172
0.068502 0.153074 0.187420
0.114901 0.144396 0.178174
0.248600 0.146638 0.166872
0.429325 0.153814 0.154851
0.614478 0.161046 0.143542
0.722046 0.164382 0.135973
0.772297 0.165115 0.131795
0.792737 0.164378 0.129374
0.073796 0.258025 0.250872
0.098373 0.241114 0.238529
0.199046 0.229641 0.213148
0.369683 0.226971 0.185384
0.582250 0.231990 0.162972
0.709724 0.226508 0.148762
0.769580 0.219134 0.141444
0.794432 0.212612 0.137192
0.081043 0.373808 0.326228
0.092045 0.357201 0.315445
0.155650 0.339363 0.284118
0.305121 0.328431 0.239566
0.534704 0.326865 0.191635
0.695842 0.318223 0.166753
0.768993 0.305099 0.154830
0.799618 0.293642 0.148542
0.088865 0.484619 0.400740
0.093299 0.474727 0.394605
0.125090 0.462606 0.372266
0.242126 0.448419 0.318220
0.461943 0.434023 0.234745
0.676231 0.429424 0.190615
0.769462 0.415693 0.171536
0.808230 0.402323 0.162877
0.094537 0.559865 0.451597
0.096629 0.555534 0.447804
0.113534 0.550427 0.434235
0.185390 0.545375 0.395508
0.344245 0.540402 0.323523
0.633327 0.532290 0.225823
0.763052 0.521389 0.190984
0.818049 0.510769 0.178093
0.099579 0.609744 0.485754
0.100304 0.608415 0.483448
0.110037 0.605254 0.473475
0.157471 0.602070 0.443370
0.271967 0.599597 0.383516
0.522774 0.594926 0.281766
0.718124 0.589741 0.219805
0.819701 0.583218 0.190768
0.101729 0.638166 0.508378
0.102790 0.639483 0.506755
0.109299 0.637582 0.498709
0.142242 0.635243 0.474558
0.225432 0.634183 0.425367
0.423278 0.633391 0.332801
0.651298 0.631632 0.252108
0.796952 0.628501 0.206024
0.070771 0.107511 0.264934
0.122878 0.110396 0.253785
0.268195 0.117773 0.230939
0.454067 0.128779 0.203402
0.631774 0.141518 0.177401
0.730999 0.148952 0.160905
0.775712 0.153296 0.153652
0.794030 0.155516 0.150360
0.070362 0.171273 0.288365
0.102837 0.158973 0.266121
0.215519 0.155955 0.240265
0.387106 0.158990 0.211557
0.584746 0.164709 0.182185
0.711139 0.167346 0.161562
0.769634 0.167822 0.151052
0.792735 0.166945 0.145388
0.075760 0.269442 0.324276
0.093505 0.245750 0.299859
0.173740 0.233109 0.271214
0.328895 0.229627 0.237438
0.543726 0.231515 0.200200
0.694237 0.225844 0.171948
0.765368 0.217747 0.156639
0.794246 0.210503 0.148336
0.083141 0.382407 0.371651
0.091428 0.356225 0.351553
0.142004 0.338664 0.323752
0.276080 0.329226 0.281757
0.497010 0.325437 0.226687
0.678267 0.316399 0.188112
0.763309 0.301587 0.167359
0.798734 0.288555 0.156470
0.089682 0.491151 0.425836
0.093469 0.473072 0.413714
0.119908 0.457650 0.392040
0.225869 0.443912 0.342565
0.432821 0.432030 0.263146
0.658814 0.427347 0.208029
0.762415 0.411910 0.180866
0.805989 0.396680 0.167523
0.094330 0.564201 0.465716
0.096455 0.556443 0.459561
0.110854 0.549583 0.446270
0.176319 0.543508 0.409650
0.326389 0.537592 0.339766
0.617771 0.528716 0.236857
0.755354 0.518073 0.196599
0.814760 0.506920 0.180142
0.098713 0.612373 0.494139
0.100057 0.609259 0.490550
0.108431 0.605788 0.481329
0.151167 0.602422 0.453250
0.258196 0.599103 0.395347
0.506902 0.593648 0.290769
0.709850 0.587569 0.223831
0.816217 0.580833 0.191645
0.102180 0.642039 0.513982
0.102463 0.639952 0.510415
0.108021 0.638610 0.504236
0.137403 0.637365 0.483188
0.213737 0.635792 0.436061
0.406574 0.633960 0.341569
0.641080 0.630903 0.256124
0.792534 0.627568 0.207161
0.079003 0.140518 0.383536
0.112716 0.141341 0.372986
0.238970 0.145469 0.345609
0.421777 0.153725 0.304613
0.617481 0.164898 0.256486
0.722671 0.169375 0.224004
0.768963 0.170812 0.206841
0.787929 0.171592 0.198119
0.076106 0.195216 0.400887
0.097038 0.179061 0.372862
0.186391 0.176033 0.346178
0.346307 0.179151 0.310758
0.555865 0.182982 0.263509
0.697491 0.184535 0.224469
0.762376 0.183404 0.201747
0.788049 0.181134 0.189146
0.079257 0.288137 0.426108
0.092448 0.260308 0.395622
0.150385 0.245717 0.367684
0.284307 0.240481 0.331899
0.493826 0.239930 0.283640
0.668430 0.233922 0.235256
0.754028 0.224594 0.204337
0.789568 0.215660 0.186445
0.085615 0.398838 0.456769
0.093297 0.368759 0.432228
0.127774 0.345858 0.405218
0.235593 0.332186 0.366100
0.432257 0.326749 0.310929
0.640201 0.317461 0.252070
0.746439 0.301079 0.212917
0.792687 0.285757 0.189983
0.092534 0.507083 0.489150
0.095397 0.485371 0.473346
0.115225 0.462756 0.451758
0.197816 0.444230 0.410379
0.368954 0.432856 0.343795
0.613310 0.427823 0.271400
0.740298 0.410226 0.225077
0.797475 0.392086 0.198419
0.096364 0.578144 0.512039
0.097683 0.568142 0.502698
0.108723 0.556360 0.488761
0.160753 0.545863 0.457706
0.287185 0.538062 0.398441
0.571953 0.529361 0.290937
0.729756 0.517519 0.234596
0.803913 0.504251 0.205322
0.099691 0.622311 0.527420
0.100654 0.617833 0.520664
0.107007 0.611797 0.510727
0.140860 0.606220 0.487012
0.231106 0.602018 0.437990
0.468343 0.596652 0.334018
0.686201 0.589348 0.254633
0.805121 0.581101 0.211612
0.102947 0.650028 0.538655
0.102892 0.646979 0.532313
0.106782 0.644105 0.525149
0.129559 0.641832 0.507218
0.193319 0.640243 0.467287
0.374782 0.638272 0.375572
0.618938 0.634145 0.281056
0.781080 0.629789 0.223512
0.087573 0.167899 0.478522
0.108797 0.168772 0.473765
0.210862 0.172309 0.451508
0.383570 0.178700 0.406192
0.595019 0.187149 0.341542
0.711589 0.192796 0.296924
0.759798 0.192436 0.270948
0.778875 0.191863 0.257242
0.082981 0.215768 0.495141
0.096003 0.199029 0.470454
0.164410 0.197526 0.450535
0.310359 0.202071 0.415962
0.524759 0.206048 0.358557
0.681892 0.208272 0.304179
0.752001 0.206071 0.270569
0.779635 0.202601 0.251687
0.083754 0.303051 0.519976
0.093254 0.275844 0.491497
0.133585 0.260344 0.467800
0.246827 0.254652 0.435256
0.444111 0.255143 0.385528
0.639572 0.250041 0.321522
0.738000 0.240587 0.276714
0.779923 0.230943 0.249902
0.088779 0.412634 0.546241
0.095337 0.383128 0.522260
0.117539 0.355826 0.496479
0.199745 0.338344 0.463055
0.365776 0.332991 0.416539
0.593672 0.325207 0.346010
0.721447 0.308890 0.290082
0.780314 0.292345 0.254597
0.096173 0.524921 0.568041
0.098302 0.501335 0.550823
0.113199 0.472493 0.529244
0.170796 0.448078 0.496891
0.298466 0.434418 0.448195
0.549702 0.431458 0.373099
0.704791 0.413124 0.308272
0.781380 0.391991 0.265094
0.100125 0.596641 0.577744
0.100597 0.585284 0.566999
0.109020 0.569059 0.552365
0.146634 0.553064 0.528075
0.243751 0.540953 0.484967
0.503396 0.534116 0.389058
0.687374 0.522038 0.315761
0.784255 0.506388 0.267902
0.102578 0.637604 0.580459
0.102895 0.632345 0.571859
0.107733 0.623944 0.560717
0.132301 0.615407 0.542028
0.201969 0.608846 0.506522
0.412244 0.604790 0.417000
0.647233 0.597182 0.325363
0.784642 0.587113 0.266177
0.104807 0.662422 0.581509
0.104707 0.659525 0.573705
0.107374 0.655134 0.564495
0.123396 0.651216 0.549562
0.172267 0.648979 0.520401
0.331374 0.647843 0.442040
0.583797 0.643565 0.340130
0.760264 0.638089 0.270164
0.093836 0.186333 0.534294
0.107631 0.187863 0.535667
0.186704 0.192902 0.522934
0.343945 0.198091 0.481611
0.561526 0.202360 0.411252
0.698844 0.212855 0.360926
0.750953 0.213197 0.331513
0.769945 0.212158 0.316035
0.088805 0.227139 0.551938
0.097911 0.214401 0.538536
0.150781 0.213499 0.527579
0.280918 0.218791 0.498784
0.489337 0.225697 0.442721
0.665107 0.230957 0.380440
0.740311 0.229698 0.342212
0.769241 0.226400 0.320925
0.088477 0.307152 0.580467
0.094454 0.285494 0.561626
0.125205 0.270945 0.544785
0.222230 0.266854 0.520277
0.402176 0.272296 0.479851
0.613050 0.270684 0.411193
0.720106 0.263552 0.360660
0.766404 0.255460 0.330057
0.092443 0.415936 0.612493
0.096144 0.390166 0.593650
0.113233 0.363225 0.571783
0.177926 0.345807 0.547422
0.315316 0.342451 0.516424
0.549070 0.339474 0.451202
0.692568 0.326145 0.388308
0.762436 0.310827 0.345513
0.099460 0.536335 0.640272
0.101221 0.511740 0.624252
0.113981 0.480973 0.603666
0.152876 0.452789 0.579275
0.243069 0.434731 0.548813
0.480608 0.437331 0.494740
0.660784 0.421187 0.421791
0.758363 0.398583 0.365497
0.104747 0.614294 0.647981
0.104837 0.602338 0.638943
0.112204 0.584328 0.624489
0.139138 0.563655 0.606134
0.209749 0.544887 0.580207
0.423700 0.541119 0.517631
0.632566 0.531758 0.437225
0.756038 0.515050 0.372325
0.106996 0.655275 0.644539
0.106917 0.649840 0.637260
0.111351 0.640751 0.625622
0.129221 0.629637 0.611304
0.180004 0.619025 0.590481
0.347738 0.617008 0.532791
0.595678 0.611306 0.438530
0.754163 0.600392 0.363952
0.108108 0.678134 0.637995
0.108120 0.675570 0.631306
0.110636 0.671053 0.620907
0.121994 0.666069 0.608820
0.157243 0.662179 0.591536
0.283180 0.662653 0.539431
0.537062 0.660001 0.439321
0.728934 0.654264 0.357724
0.096294 0.196164 0.555658
0.107015 0.197841 0.558933
0.171713 0.203233 0.552043
0.309988 0.209228 0.518672
0.514890 0.213990 0.454132
0.682944 0.219216 0.389901
0.744567 0.223803 0.363903
0.765579 0.225106 0.352212
0.091848 0.230676 0.572277
0.099014 0.221031 0.565537
0.141532 0.220378 0.559884
0.255223 0.225541 0.537597
0.448952 0.233409 0.488429
0.648093 0.239518 0.418475
0.731395 0.242579 0.382813
0.762608 0.242086 0.364950
0.091173 0.302011 0.600093
0.095540 0.284385 0.589382
0.119386 0.270477 0.579076
0.202808 0.265876 0.560875
0.366976 0.272276 0.526915
0.591127 0.279479 0.461634
0.706348 0.278924 0.414889
0.756304 0.274693 0.387524
0.094346 0.403208 0.633729
0.096673 0.382433 0.622704
0.108899 0.357277 0.608204
0.162653 0.339801 0.590187
0.284748 0.337174 0.565351
0.518200 0.345552 0.513231
0.670937 0.340097 0.457502
0.747163 0.329822 0.418976
0.100777 0.522034 0.667454
0.101745 0.503638 0.657977
0.110404 0.475870 0.643706
0.140937 0.448403 0.624936
0.217970 0.430440 0.601021
0.437190 0.438234 0.565816
0.627663 0.428971 0.506316
0.735857 0.412129 0.457304
0.107528 0.620192 0.689945
0.107504 0.608996 0.683600
0.114019 0.590311 0.672247
0.137605 0.567503 0.656191
0.197068 0.545644 0.634743
0.366749 0.540610 0.601460
0.583004 0.539321 0.548422
0.723764 0.527043 0.496460
0.110874 0.666613 0.692749
0.110701 0.661220 0.688369
0.114864 0.652103 0.680081
0.131220 0.640276 0.668499
0.174555 0.628071 0.653050
0.304743 0.624751 0.627051
0.544116 0.626075 0.565500
0.714905 0.618948 0.502159
0.112059 0.690533 0.688681
0.112171 0.688483 0.684929
0.114769 0.684999 0.678229
0.125327 0.680457 0.669126
0.155438 0.676107 0.657177
0.254449 0.677691 0.636942
0.488431 0.681023 0.569128
0.687353 0.678708 0.496088
0.096861 0.201583 0.564418
0.106460 0.202675 0.568010
0.162623 0.207430 0.563735
0.288254 0.213233 0.535481
0.482108 0.218276 0.476820
0.660652 0.222503 0.408564
0.735631 0.227776 0.378582
0.763291 0.229734 0.365636
0.093366 0.232119 0.580012
0.099694 0.224268 0.576366
0.136180 0.223579 0.572746
0.238506 0.228056 0.553943
0.418998 0.235480 0.510125
0.623152 0.241798 0.440112
0.720833 0.247006 0.400418
0.759718 0.247972 0.381586
0.092364 0.296575 0.606510
0.096309 0.281250 0.599314
0.115947 0.267634 0.591792
0.190014 0.262387 0.576880
0.341411 0.268341 0.547156
0.564041 0.277604 0.484845
0.693363 0.282581 0.437366
0.751366 0.282013 0.411011
0.094927 0.390653 0.639631
0.097029 0.372135 0.631818
0.106080 0.347742 0.620942
0.152115 0.329650 0.606661
0.262448 0.325814 0.585582
0.488472 0.336312 0.537936
0.654310 0.340283 0.486298
0.738907 0.336708 0.451923
0.101124 0.505207 0.674667
0.101762 0.489162 0.668320
0.107675 0.462763 0.657810
0.131297 0.434454 0.643213
0.196821 0.413470 0.623736
0.403379 0.420694 0.593351
0.605577 0.423375 0.543018
0.723022 0.415908 0.501980
0.107875 0.609658 0.702184
0.108013 0.599718 0.698042
0.112967 0.581468 0.690168
0.131312 0.558027 0.678163
0.179601 0.534422 0.661351
0.325686 0.526986 0.636326
0.551450 0.533306 0.597813
0.704118 0.528013 0.557868
0.111770 0.666012 0.713571
0.112218 0.661961 0.711539
0.116143 0.653624 0.706636
0.130103 0.641797 0.698805
0.166815 0.628505 0.687503
0.278462 0.621863 0.669028
0.508055 0.627703 0.631359
0.685888 0.626742 0.588784
0.113918 0.695796 0.716009
0.114541 0.694938 0.714800
0.117435 0.692467 0.711548
0.127411 0.688528 0.706372
0.154491 0.683998 0.698905
0.241034 0.683201 0.686008
0.454700 0.691681 0.649718
0.655343 0.695898 0.602216
0.097255 0.205199 0.568813
0.106201 0.205559 0.571930
0.157379 0.209703 0.568644
0.274728 0.215169 0.543420
0.459952 0.220202 0.489153
0.642241 0.224520 0.420751
0.727591 0.229478 0.386282
0.761438 0.231314 0.371438
0.094151 0.232539 0.582987
0.099877 0.225793 0.580631
0.132735 0.224892 0.577926
0.227434 0.228599 0.561105
0.397856 0.235349 0.520732
0.601759 0.241801 0.452429
0.710638 0.247686 0.409211
0.757006 0.249574 0.388616
0.092921 0.292421 0.607592
0.096769 0.278800 0.602547
0.113839 0.265308 0.596369
0.181984 0.259414 0.583157
0.324836 0.264673 0.556011
0.543455 0.274079 0.495700
0.682303 0.281327 0.446591
0.747247 0.282992 0.419705
0.094977 0.381694 0.639398
0.097370 0.364783 0.633934
0.104637 0.340918 0.624938
0.146000 0.322228 0.612600
0.249018 0.316939 0.593696
0.469167 0.326706 0.547320
0.642413 0.334798 0.496327
0.732953 0.335440 0.463513
0.100701 0.492595 0.674541
0.101621 0.477853 0.670276
0.106259 0.452389 0.661970
0.125262 0.423180 0.649816
0.182622 0.399007 0.632776
0.382722 0.403510 0.602932
0.591237 0.411456 0.555377
0.714590 0.410548 0.518488
0.107477 0.598181 0.704577
0.108042 0.589624 0.701809
0.111842 0.571793 0.695986
0.125924 0.547661 0.686631
0.165512 0.522074 0.672969
0.295918 0.510642 0.651445
0.528366 0.518363 0.616848
0.690693 0.518960 0.583111
0.111732 0.661534 0.721882
0.112694 0.658548 0.720783
0.116236 0.650572 0.717762
0.127484 0.638370 0.712366
0.157608 0.623715 0.703766
0.254757 0.613149 0.688252
0.475663 0.618718 0.661327
0.661813 0.622894 0.631944
0.114732 0.696725 0.730562
0.115542 0.696488 0.729800
0.118481 0.694480 0.728299
0.127303 0.690778 0.725741
0.150713 0.685951 0.721334
0.227193 0.682684 0.711370
0.422891 0.691663 0.691236
0.627540 0.701192 0.662182
