app/src/main/assets/cube/District03.cube
# LUT by SparkleStock. Enhanced with VOXCOLOR algorithms.
LUT_3D_SIZE 5
DOMAIN_MIN 0.000000 0.000000 0.000000
DOMAIN_MAX 0.903226 0.903226 0.903226
0.082051 0.062515 0.140659
0.181827 0.071322 0.143298
0.417346 0.082918 0.152657
0.606688 0.093734 0.161802
0.653212 0.097113 0.163961
0.094781 0.196818 0.212935
0.158263 0.171360 0.197828
0.380724 0.165756 0.190663
0.598676 0.156713 0.187139
0.662252 0.146715 0.183578
0.107369 0.412265 0.344945
0.139511 0.382699 0.323902
0.348095 0.361299 0.283432
0.615853 0.341009 0.250275
0.694439 0.313575 0.236780
0.117578 0.582339 0.462035
0.129359 0.573682 0.452703
0.254530 0.571752 0.425670
0.624695 0.570580 0.353631
0.744077 0.548796 0.319022
0.123754 0.656505 0.527142
0.128778 0.652743 0.522082
0.202061 0.651634 0.501401
0.490369 0.664071 0.448934
0.752275 0.667738 0.387464
0.086400 0.090173 0.266816
0.158185 0.093551 0.254544
0.401456 0.101412 0.237286
0.606520 0.109813 0.227210
0.653337 0.112347 0.220874
0.093517 0.207271 0.320785
0.135226 0.173640 0.277441
0.327222 0.167701 0.255787
0.581543 0.158323 0.234938
0.659548 0.145661 0.219376
0.110543 0.430939 0.414631
0.133088 0.380683 0.376108
0.299359 0.353600 0.336587
0.587107 0.333637 0.290644
0.689668 0.298078 0.258735
0.119497 0.596792 0.496988
0.127375 0.579686 0.481309
0.229577 0.567085 0.452315
0.588949 0.563502 0.381275
0.736273 0.538979 0.334510
0.124003 0.662284 0.544705
0.126908 0.656482 0.534962
0.183968 0.655492 0.518738
0.456819 0.664400 0.468698
0.742676 0.667691 0.400811
0.093332 0.116767 0.393769
0.140718 0.119972 0.393065
0.365294 0.125186 0.352912
0.603739 0.134267 0.327162
0.652539 0.134398 0.313337
0.095475 0.214689 0.451548
0.120522 0.184547 0.410853
0.277919 0.182171 0.381599
0.558926 0.176963 0.345520
0.655982 0.164310 0.319744
0.112295 0.454937 0.548164
0.126382 0.396357 0.501589
0.231763 0.349863 0.457090
0.518225 0.331181 0.410494
0.675323 0.291431 0.358361
0.122659 0.633134 0.600225
0.128068 0.610110 0.579286
0.192753 0.575272 0.547520
0.500769 0.559192 0.495939
0.714062 0.531765 0.424211
0.126137 0.685941 0.611497
0.128222 0.679803 0.598209
0.160364 0.671456 0.580850
0.391742 0.673774 0.545685
0.720341 0.676347 0.476563
0.096947 0.126960 0.444933
0.132185 0.132378 0.454473
0.319641 0.139839 0.423049
0.590535 0.143859 0.373397
0.651693 0.148646 0.370907
0.098052 0.203520 0.499881
0.113676 0.180398 0.480950
0.237286 0.180413 0.463622
0.532992 0.189693 0.416485
0.650932 0.184154 0.398898
0.112481 0.422003 0.600984
0.118766 0.375299 0.574076
0.189992 0.327888 0.539912
0.453886 0.326570 0.505638
0.655986 0.300662 0.465306
0.125488 0.654960 0.682645
0.129638 0.629489 0.667313
0.176181 0.584030 0.638661
0.411915 0.551995 0.606514
0.683527 0.536758 0.567333
0.129126 0.710470 0.690685
0.130892 0.705802 0.683243
0.155478 0.697743 0.670176
0.329364 0.693662 0.656033
0.687920 0.699005 0.614723
0.097255 0.131285 0.452629
0.128222 0.134737 0.464082
0.290412 0.141334 0.440446
0.556879 0.145923 0.388180
0.648975 0.149384 0.378034
0.098261 0.195573 0.504111
0.111332 0.175118 0.490883
0.216400 0.173278 0.478081
0.494226 0.183504 0.433801
0.645545 0.185309 0.412298
0.110973 0.390202 0.598335
0.115344 0.347044 0.579615
0.166467 0.294173 0.551246
0.409416 0.291125 0.520216
0.641087 0.291372 0.487092
0.124358 0.626771 0.685942
0.127799 0.604875 0.678292
0.156531 0.554694 0.657762
0.347322 0.513610 0.631063
0.652267 0.510810 0.605949
0.130595 0.716243 0.718205
0.131869 0.713194 0.717573
0.150877 0.706090 0.713012
0.288986 0.697569 0.703852
0.654805 0.707411 0.693440
