app/src/main/assets/cube/District04.cube
# LUT by SparkleStock. Enhanced with VOXCOLOR algorithms.
LUT_3D_SIZE 5
DOMAIN_MIN 0.000000 0.000000 0.000000
DOMAIN_MAX 0.903226 0.903226 0.903226
0.050794 0.062515 0.101587
0.179991 0.075450 0.112127
0.493088 0.096782 0.105321
0.714286 0.104581 0.099067
0.759132 0.105495 0.097822
0.059979 0.201457 0.171050
0.134219 0.178160 0.158959
0.429237 0.178690 0.141027
0.699627 0.168037 0.120772
0.765157 0.156286 0.112301
0.065666 0.423175 0.279145
0.099158 0.393197 0.261352
0.350114 0.383308 0.223075
0.698821 0.371030 0.181800
0.788836 0.340400 0.157555
0.075584 0.588861 0.371665
0.087196 0.580437 0.363200
0.218448 0.585583 0.328099
0.671097 0.602218 0.274917
0.820125 0.582881 0.223603
0.085108 0.657639 0.427721
0.091100 0.658032 0.422971
0.162757 0.663927 0.393539
0.485368 0.688194 0.337787
0.813913 0.696045 0.285003
0.058443 0.096467 0.306668
0.152661 0.100138 0.279656
0.468483 0.110754 0.232017
0.712321 0.115964 0.191003
0.762017 0.115473 0.175157
0.067282 0.220495 0.332027
0.111753 0.183327 0.282571
0.356529 0.177794 0.241941
0.676857 0.165200 0.187855
0.763738 0.150188 0.160023
0.077282 0.438511 0.373668
0.099168 0.389312 0.339915
0.286786 0.368859 0.300629
0.658589 0.357250 0.238777
0.783552 0.320045 0.190746
0.083202 0.597954 0.418531
0.090171 0.582744 0.402173
0.191803 0.576450 0.368416
0.622718 0.589038 0.316453
0.809876 0.569712 0.252619
0.089139 0.663025 0.452940
0.091715 0.659437 0.441687
0.145435 0.663329 0.416484
0.444933 0.684762 0.361644
0.802936 0.691898 0.308642
0.062192 0.123329 0.501004
0.121147 0.124289 0.487767
0.413685 0.127560 0.410775
0.706202 0.134696 0.341131
0.758226 0.132247 0.311549
0.069362 0.231610 0.525398
0.094104 0.197380 0.482347
0.288585 0.187963 0.435682
0.644159 0.174971 0.357813
0.757913 0.160598 0.308977
0.089833 0.459577 0.549733
0.101698 0.405863 0.512045
0.203376 0.359924 0.470540
0.560510 0.338114 0.408803
0.763447 0.294769 0.329913
0.094408 0.622316 0.549567
0.099825 0.601530 0.529905
0.157690 0.571178 0.500365
0.492897 0.569444 0.463055
0.776793 0.551448 0.381117
0.097148 0.676460 0.541406
0.098485 0.671387 0.525118
0.126421 0.666258 0.501895
0.361323 0.681445 0.462450
0.767322 0.693368 0.415885
0.064776 0.133247 0.567600
0.103392 0.134275 0.570308
0.345343 0.138038 0.512215
0.686146 0.141417 0.414363
0.754454 0.146330 0.395530
0.067670 0.219884 0.594089
0.082692 0.193763 0.581754
0.234547 0.185200 0.554529
0.609872 0.183307 0.470672
0.748089 0.175787 0.429412
0.089728 0.433154 0.630345
0.094945 0.389443 0.615064
0.159757 0.340728 0.590317
0.476255 0.326199 0.550398
0.734808 0.288095 0.488732
0.101697 0.637053 0.651257
0.105577 0.617440 0.640722
0.146681 0.576222 0.620161
0.368458 0.550290 0.599260
0.723684 0.533043 0.557670
0.101167 0.690440 0.639587
0.102841 0.686173 0.632112
0.124216 0.678411 0.617389
0.290536 0.682164 0.605392
0.707380 0.704353 0.581679
0.065997 0.136043 0.577053
0.097162 0.136893 0.580222
0.308173 0.140900 0.534294
0.647344 0.143549 0.437637
0.751845 0.148263 0.408309
0.067302 0.210786 0.599923
0.078933 0.188206 0.594654
0.206461 0.178760 0.575313
0.560671 0.178816 0.498407
0.742179 0.177109 0.452028
0.087558 0.403429 0.636404
0.089739 0.363856 0.630004
0.136356 0.311527 0.615369
0.426296 0.292350 0.579411
0.718987 0.276428 0.527401
0.100721 0.615121 0.666581
0.104603 0.596607 0.663338
0.130586 0.552012 0.652886
0.304152 0.514469 0.639873
0.686766 0.501223 0.618529
0.101029 0.693042 0.672603
0.102836 0.691744 0.671987
0.119478 0.684723 0.668448
0.252860 0.680356 0.664551
0.655114 0.703466 0.670941
