app/src/main/assets/cube/District01.cube
# LUT by SparkleStock. Enhanced with VOXCOLOR algorithms.
LUT_3D_SIZE 32
0.066422 0.074237 0.148474
0.085706 0.076458 0.148285
0.104990 0.078680 0.148096
0.124274 0.080901 0.147907
0.143558 0.083123 0.147718
0.162842 0.085344 0.147528
0.204144 0.088826 0.146552
0.249848 0.092560 0.145417
0.295553 0.096294 0.144283
0.341258 0.100028 0.143149
0.386963 0.103761 0.142014
0.431659 0.107621 0.140565
0.475852 0.111544 0.138958
0.520044 0.115467 0.137351
0.564236 0.119390 0.135744
0.608429 0.123313 0.134137
0.642105 0.126716 0.132790
0.665264 0.129599 0.131703
0.688424 0.132483 0.130616
0.711584 0.135366 0.129529
0.734743 0.138249 0.128441
0.752830 0.140628 0.127559
0.760770 0.141999 0.127087
0.768711 0.143369 0.126614
0.776651 0.144740 0.126141
0.784592 0.146111 0.125669
0.791414 0.147292 0.125267
0.792642 0.147528 0.125220
0.793871 0.147765 0.125172
0.795100 0.148001 0.125125
0.796329 0.148237 0.125078
0.797558 0.148474 0.125031
0.066942 0.093946 0.158210
0.084305 0.095070 0.157491
0.101668 0.096194 0.156771
0.119031 0.097317 0.156051
0.136394 0.098441 0.155332
0.153757 0.099565 0.154612
0.194052 0.102437 0.153150
0.238933 0.105658 0.151540
0.283815 0.108880 0.149930
0.328696 0.112101 0.148320
0.373578 0.115323 0.146710
0.418811 0.118683 0.144877
0.464220 0.122112 0.142931
0.509629 0.125541 0.140986
0.555038 0.128970 0.139040
0.600447 0.132399 0.137095
0.635198 0.135299 0.135478
0.659291 0.137669 0.134189
0.683384 0.140040 0.132901
0.707476 0.142411 0.131613
0.731569 0.144782 0.130324
0.750424 0.146710 0.129274
0.758804 0.147751 0.128701
0.767183 0.148792 0.128128
0.775563 0.149834 0.127555
0.783942 0.150875 0.126981
0.791130 0.151756 0.126482
0.792359 0.151837 0.126352
0.793588 0.151918 0.126223
0.794817 0.151999 0.126093
0.796046 0.152080 0.125964
0.797274 0.152160 0.125834
0.067462 0.113656 0.167947
0.082904 0.113681 0.166697
0.098346 0.113707 0.165446
0.113788 0.113733 0.164196
0.129229 0.113759 0.162946
0.144671 0.113785 0.161696
0.183960 0.116047 0.159749
0.228018 0.118757 0.157663
0.272076 0.121466 0.155578
0.316135 0.124175 0.153492
0.360193 0.126885 0.151406
0.405963 0.129744 0.149188
0.452588 0.132679 0.146904
0.499214 0.135614 0.144620
0.545840 0.138549 0.142336
0.592466 0.141484 0.140053
0.628291 0.143881 0.138166
0.653317 0.145740 0.136676
0.678343 0.147598 0.135187
0.703369 0.149457 0.133697
0.728395 0.151315 0.132207
0.748018 0.152792 0.130990
0.756837 0.153504 0.130316
0.765655 0.154216 0.129642
0.774474 0.154928 0.128968
0.783293 0.155640 0.128294
0.790846 0.156221 0.127697
0.792075 0.156146 0.127485
0.793304 0.156071 0.127273
0.794533 0.155996 0.127061
0.795762 0.155922 0.126849
0.796991 0.155847 0.126638
0.067982 0.133365 0.177683
0.081503 0.132293 0.175902
0.095024 0.131221 0.174122
0.108544 0.130149 0.172341
0.122065 0.129077 0.170560
0.135586 0.128006 0.168779
0.173868 0.129658 0.166348
0.217103 0.131855 0.163786
0.260338 0.134052 0.161225
0.303573 0.136249 0.158664
0.346808 0.138446 0.156102
0.393114 0.140806 0.153500
0.440957 0.143247 0.150878
0.488799 0.145688 0.148255
0.536642 0.148129 0.145633
0.584484 0.150570 0.143010
0.621385 0.152463 0.140854
0.647344 0.153810 0.139163
0.673303 0.155156 0.137472
0.699261 0.156502 0.135781
0.725220 0.157848 0.134090
0.745612 0.158873 0.132705
0.754870 0.159256 0.131930
0.764128 0.159639 0.131156
0.773385 0.160022 0.130381
0.782643 0.160404 0.129607
0.790563 0.160685 0.128912
0.791792 0.160455 0.128618
0.793021 0.160224 0.128324
0.794249 0.159994 0.128030
0.795478 0.159764 0.127735
0.796707 0.159534 0.127441
0.068502 0.153074 0.187420
0.080102 0.150905 0.185108
0.091701 0.148735 0.182797
0.103301 0.146565 0.180486
0.114901 0.144396 0.178174
0.126500 0.142226 0.175863
0.163777 0.143269 0.172947
0.206188 0.144953 0.169909
0.248600 0.146638 0.166872
0.291011 0.148323 0.163835
0.333423 0.150008 0.160798
0.380266 0.151867 0.157812
0.429325 0.153814 0.154851
0.478384 0.155761 0.151890
0.527443 0.157708 0.148929
0.576502 0.159655 0.145968
0.614478 0.161046 0.143542
0.641370 0.161880 0.141650
0.668262 0.162714 0.139758
0.695154 0.163548 0.137865
0.722046 0.164382 0.135973
0.743206 0.164955 0.134420
0.752903 0.165009 0.133545
0.762600 0.165062 0.132670
0.772297 0.165115 0.131795
0.781994 0.165169 0.130920
0.790279 0.165149 0.130127
0.791508 0.164763 0.129751
0.792737 0.164378 0.129374
0.793966 0.163992 0.128998
0.795195 0.163606 0.128621
0.796424 0.163220 0.128245
0.069022 0.172783 0.197156
0.078701 0.169516 0.194314
0.088379 0.166249 0.191472
0.098058 0.162981 0.188630
0.107736 0.159714 0.185788
0.117415 0.156447 0.182946
0.153685 0.156879 0.179545
0.195273 0.158052 0.176033
0.236861 0.159224 0.172520
0.278450 0.160397 0.169007
0.320038 0.161569 0.165494
0.367418 0.162929 0.162124
0.417693 0.164382 0.158824
0.467969 0.165835 0.155525
0.518245 0.167288 0.152225
0.568521 0.168741 0.148926
0.607571 0.169628 0.146230
0.635396 0.169950 0.144136
0.663221 0.170271 0.142043
0.691047 0.170593 0.139950
0.718872 0.170915 0.137856
0.740800 0.171037 0.136135
0.750936 0.170761 0.135160
0.761072 0.170485 0.134184
0.771208 0.170209 0.133208
0.781344 0.169933 0.132232
0.789996 0.169613 0.131343
0.791225 0.169072 0.130884
0.792453 0.168531 0.130425
0.793682 0.167989 0.129966
0.794911 0.167448 0.129507
0.796140 0.166907 0.129048
0.070487 0.200173 0.214101
0.078900 0.196494 0.211124
0.087313 0.192815 0.208148
0.095726 0.189136 0.205172
0.104140 0.185457 0.202196
0.112553 0.181778 0.199220
0.146426 0.181239 0.194727
0.185392 0.181327 0.189930
0.224358 0.181416 0.185134
0.263324 0.181504 0.180337
0.302290 0.181592 0.175540
0.350049 0.182587 0.171206
0.402204 0.184033 0.167103
0.454360 0.185480 0.163000
0.506516 0.186927 0.158898
0.558671 0.188374 0.154795
0.599311 0.188979 0.151470
0.628435 0.188743 0.148924
0.657560 0.188507 0.146378
0.686684 0.188271 0.143832
0.715808 0.188034 0.141285
0.738762 0.187609 0.139209
0.749375 0.186805 0.138071
0.759988 0.186002 0.136934
0.770601 0.185198 0.135797
0.781214 0.184395 0.134659
0.790285 0.183591 0.133621
0.791644 0.182788 0.133080
0.793002 0.181984 0.132539
0.794361 0.181181 0.131997
0.795719 0.180377 0.131456
0.797077 0.179574 0.130915
0.072141 0.229099 0.232487
0.079420 0.225146 0.229455
0.086699 0.221192 0.226424
0.093978 0.217239 0.223393
0.101256 0.213285 0.220362
0.108535 0.209332 0.217331
0.139735 0.207748 0.211625
0.175718 0.206638 0.205383
0.211702 0.205528 0.199141
0.247685 0.204418 0.192899
0.283669 0.203308 0.186657
0.331776 0.203964 0.181243
0.385944 0.205502 0.176244
0.440112 0.207041 0.171244
0.494280 0.208579 0.166245
0.548449 0.210117 0.161246
0.590781 0.210485 0.157221
0.621277 0.209681 0.154172
0.651774 0.208878 0.151123
0.682270 0.208074 0.148073
0.712766 0.207271 0.145024
0.736796 0.206278 0.142554
0.747894 0.204908 0.141243
0.758992 0.203537 0.139932
0.770090 0.202166 0.138620
0.781188 0.200796 0.137309
0.790689 0.199472 0.136113
0.792203 0.198385 0.135489
0.793717 0.197298 0.134865
0.795231 0.196211 0.134242
0.796745 0.195124 0.133618
0.798259 0.194037 0.132995
0.073796 0.258025 0.250872
0.079940 0.253797 0.247787
0.086085 0.249569 0.244701
0.092229 0.245341 0.241615
0.098373 0.241114 0.238529
0.104518 0.236886 0.235443
0.133043 0.234257 0.228522
0.166044 0.231949 0.220835
0.199046 0.229641 0.213148
0.232047 0.227332 0.205460
0.265048 0.225024 0.197773
0.313503 0.225341 0.191280
0.369683 0.226971 0.185384
0.425864 0.228601 0.179488
0.482045 0.230231 0.173592
0.538226 0.231861 0.167696
0.582250 0.231990 0.162972
0.614119 0.230620 0.159420
0.645987 0.229249 0.155867
0.677856 0.227878 0.152315
0.709724 0.226508 0.148762
0.734831 0.224948 0.145899
0.746414 0.223010 0.144414
0.757997 0.221072 0.142929
0.769580 0.219134 0.141444
0.781163 0.217196 0.139959
0.791093 0.215353 0.138604
0.792763 0.213982 0.137898
0.794432 0.212612 0.137192
0.796102 0.211241 0.136486
0.797771 0.209870 0.135780
0.799441 0.208500 0.135074
0.075450 0.286951 0.269258
0.080460 0.282449 0.266118
0.085470 0.277946 0.262977
0.090480 0.273444 0.259836
0.095490 0.268942 0.256695
0.100500 0.264439 0.253554
0.126351 0.260767 0.245420
0.156370 0.257260 0.236287
0.186389 0.253753 0.227155
0.216408 0.250247 0.218022
0.246428 0.246740 0.208889
0.295229 0.246718 0.201317
0.353423 0.248440 0.194524
0.411616 0.250161 0.187732
0.469810 0.251883 0.180940
0.528003 0.253604 0.174147
0.573720 0.253496 0.168723
0.606961 0.251558 0.164668
0.640201 0.249620 0.160612
0.673442 0.247682 0.156556
0.706683 0.245744 0.152501
0.732866 0.243617 0.149244
0.744933 0.241112 0.147585
0.757001 0.238607 0.145927
0.769069 0.236102 0.144268
0.781137 0.233597 0.142609
0.791497 0.231234 0.141095
0.793322 0.229580 0.140307
0.795147 0.227925 0.139519
0.796972 0.226271 0.138730
0.798797 0.224617 0.137942
0.800622 0.222963 0.137154
0.077104 0.315877 0.287644
0.080980 0.311100 0.284449
0.084856 0.306323 0.281253
0.088731 0.301547 0.278057
0.092607 0.296770 0.274861
0.096483 0.291993 0.271666
0.119659 0.287276 0.262318
0.146696 0.282571 0.251740
0.173733 0.277866 0.241162
0.200770 0.273161 0.230584
0.227807 0.268456 0.220006
0.276956 0.268096 0.211354
0.337162 0.269909 0.203665
0.397368 0.271721 0.195976
0.457574 0.273534 0.188287
0.517780 0.275347 0.180598
0.565189 0.275001 0.174474
0.599802 0.272496 0.169916
0.634415 0.269991 0.165357
0.669028 0.267486 0.160798
0.703641 0.264981 0.156239
0.730900 0.262287 0.152589
0.743453 0.259215 0.150757
0.756006 0.256142 0.148924
0.768558 0.253070 0.147091
0.781111 0.249998 0.145259
0.791901 0.247115 0.143586
0.793882 0.245177 0.142716
0.795862 0.243239 0.141845
0.797843 0.241301 0.140975
0.799823 0.239364 0.140104
0.801804 0.237426 0.139234
0.079011 0.344834 0.306755
0.082209 0.340253 0.303748
0.085408 0.335671 0.300742
0.088607 0.331090 0.297735
0.091806 0.326508 0.294728
0.095004 0.321926 0.291722
0.115664 0.317082 0.282375
0.139816 0.312184 0.271760
0.163969 0.307287 0.261146
0.188121 0.302390 0.250531
0.212273 0.297493 0.239916
0.260632 0.296561 0.229768
0.321094 0.297611 0.219853
0.381556 0.298662 0.209938
0.442018 0.299712 0.200023
0.502480 0.300763 0.190108
0.551289 0.300048 0.182489
0.588445 0.297567 0.177165
0.625601 0.295086 0.171841
0.662757 0.292606 0.166517
0.699913 0.290125 0.161192
0.729079 0.287352 0.156954
0.742262 0.283993 0.154886
0.755446 0.280634 0.152819
0.768630 0.277275 0.150752
0.781814 0.273916 0.148684
0.793162 0.270759 0.146810
0.795335 0.268611 0.145899
0.797507 0.266463 0.144989
0.799680 0.264315 0.144079
0.801853 0.262166 0.143169
0.804025 0.260018 0.142258
0.081043 0.373808 0.326228
0.083793 0.369656 0.323532
0.086544 0.365504 0.320837
0.089294 0.361353 0.318141
0.092045 0.357201 0.315445
0.094795 0.353049 0.312750
0.113017 0.348535 0.304012
0.134334 0.343949 0.294065
0.155650 0.339363 0.284118
0.176966 0.334777 0.274171
0.198283 0.330191 0.264224
0.245281 0.328570 0.252371
0.305121 0.328431 0.239566
0.364961 0.328292 0.226760
0.424801 0.328153 0.213954
0.484641 0.328015 0.201149
0.534704 0.326865 0.191635
0.574988 0.324705 0.185415
0.615273 0.322544 0.179194
0.655558 0.320384 0.172974
0.695842 0.318223 0.166753
0.727328 0.315614 0.161828
0.741216 0.312109 0.159496
0.755105 0.308604 0.157163
0.768993 0.305099 0.154830
0.782881 0.301594 0.152497
0.794851 0.298286 0.150399
0.797235 0.295964 0.149470
0.799618 0.293642 0.148542
0.802001 0.291319 0.147613
0.804384 0.288997 0.146685
0.806767 0.286675 0.145756
0.083075 0.402781 0.345701
0.085378 0.399059 0.343316
0.087680 0.395337 0.340932
0.089982 0.391616 0.338547
0.092284 0.387894 0.336163
0.094587 0.384172 0.333778
0.110371 0.379989 0.325648
0.128851 0.375714 0.316369
0.147332 0.371439 0.307090
0.165812 0.367164 0.297811
0.184292 0.362889 0.288532
0.229931 0.360578 0.274974
0.289149 0.359250 0.259278
0.348367 0.357922 0.243581
0.407585 0.356594 0.227885
0.466803 0.355266 0.212189
0.518118 0.353682 0.200782
0.561532 0.351842 0.193665
0.604945 0.350002 0.186548
0.648358 0.348161 0.179431
0.691772 0.346321 0.172313
0.725578 0.343877 0.166703
0.740170 0.340226 0.164105
0.754763 0.336574 0.161507
0.769356 0.332922 0.158909
0.783948 0.329271 0.156311
0.796541 0.325812 0.153988
0.799134 0.323316 0.153041
0.801728 0.320820 0.152094
0.804321 0.318324 0.151147
0.806915 0.315828 0.150200
0.809508 0.313333 0.149254
0.085108 0.431754 0.365174
0.086962 0.428462 0.363100
0.088816 0.425170 0.361027
0.090670 0.421879 0.358953
0.092524 0.418587 0.356880
0.094378 0.415295 0.354806
0.107724 0.411443 0.347285
0.123368 0.407479 0.338673
0.139013 0.403515 0.330062
0.154658 0.399551 0.321451
0.170302 0.395587 0.312839
0.214581 0.392587 0.297577
0.273177 0.390070 0.278990
0.331773 0.387553 0.260403
0.390368 0.385035 0.241816
0.448964 0.382518 0.223229
0.501533 0.380500 0.209928
0.548075 0.378979 0.201915
0.594617 0.377459 0.193901
0.641159 0.375939 0.185887
0.687701 0.374419 0.177874
0.723828 0.372140 0.171577
0.739125 0.368342 0.168714
0.754421 0.364544 0.165850
0.769718 0.360746 0.162987
0.785015 0.356948 0.160124
0.798230 0.353338 0.157577
0.801034 0.350669 0.156612
0.803838 0.347999 0.155647
0.806642 0.345329 0.154681
0.809446 0.342659 0.153716
0.812249 0.339990 0.152751
0.087140 0.460727 0.384647
0.088546 0.457865 0.382884
0.089952 0.455004 0.381122
0.091357 0.452142 0.379359
0.092763 0.449280 0.377597
0.094169 0.446418 0.375834
0.105077 0.442897 0.368921
0.117886 0.439244 0.360978
0.130694 0.435591 0.353034
0.143503 0.431938 0.345091
0.156312 0.428285 0.337147
0.199231 0.424596 0.320181
0.257204 0.420889 0.298703
0.315178 0.417183 0.277225
0.373152 0.413476 0.255747
0.431126 0.409770 0.234269
0.484948 0.407317 0.219075
0.534618 0.406117 0.210165
0.584289 0.404917 0.201255
0.633959 0.403717 0.192344
0.683630 0.402517 0.183434
0.722077 0.400403 0.176451
0.738079 0.396458 0.173323
0.754080 0.392514 0.170194
0.770081 0.388570 0.167065
0.786083 0.384625 0.163937
0.799919 0.380864 0.161166
0.802934 0.378021 0.160182
0.805948 0.375177 0.159199
0.808962 0.372334 0.158216
0.811976 0.369490 0.157232
0.814991 0.366647 0.156249
0.088865 0.484619 0.400740
0.089974 0.482146 0.399207
0.091082 0.479673 0.397673
0.092191 0.477200 0.396139
0.093299 0.474727 0.394605
0.094407 0.472254 0.393071
0.103562 0.469126 0.386772
0.114326 0.465866 0.379519
0.125090 0.462606 0.372266
0.135855 0.459347 0.365013
0.146619 0.456087 0.357760
0.186975 0.452368 0.340494
0.242126 0.448419 0.318220
0.297278 0.444470 0.295946
0.352429 0.440521 0.273672
0.407581 0.436572 0.251398
0.461943 0.434023 0.234745
0.515515 0.432873 0.223713
0.569087 0.431724 0.212680
0.622659 0.430574 0.201648
0.676231 0.429424 0.190615
0.717698 0.427362 0.182088
0.734952 0.423472 0.178571
0.752207 0.419583 0.175053
0.769462 0.415693 0.171536
0.786716 0.411804 0.168018
0.801644 0.408083 0.164917
0.804937 0.405203 0.163897
0.808230 0.402323 0.162877
0.811524 0.399442 0.161857
0.814817 0.396562 0.160837
0.818110 0.393682 0.159817
0.090283 0.503431 0.413455
0.091245 0.501305 0.412067
0.092207 0.499180 0.410680
0.093169 0.497054 0.409292
0.094131 0.494929 0.407905
0.095094 0.492804 0.406517
0.103180 0.490129 0.400837
0.112690 0.487345 0.394298
0.122201 0.484561 0.387758
0.131712 0.481777 0.381219
0.141223 0.478993 0.374680
0.177813 0.475902 0.358517
0.227942 0.472658 0.337542
0.278072 0.469413 0.316567
0.328201 0.466169 0.295592
0.378330 0.462924 0.274618
0.432519 0.460618 0.256940
0.490765 0.459248 0.242559
0.549012 0.457879 0.228179
0.607259 0.456510 0.213798
0.665505 0.455141 0.199417
0.710689 0.453017 0.188487
0.729746 0.449384 0.184457
0.748802 0.445751 0.180428
0.767859 0.442117 0.176398
0.786916 0.438484 0.172368
0.803403 0.434993 0.168831
0.807044 0.432214 0.167756
0.810685 0.429434 0.166681
0.814326 0.426655 0.165606
0.817967 0.423875 0.164532
0.821608 0.421096 0.163457
0.091701 0.522242 0.426169
0.092517 0.520464 0.424928
0.093333 0.518686 0.423687
0.094148 0.516909 0.422446
0.094964 0.515131 0.421205
0.095780 0.513353 0.419963
0.102797 0.511133 0.414902
0.111054 0.508825 0.409076
0.119312 0.506517 0.403250
0.127570 0.504208 0.397425
0.135827 0.501900 0.391599
0.168651 0.499437 0.376540
0.213758 0.496897 0.356864
0.258865 0.494357 0.337188
0.303973 0.491817 0.317512
0.349080 0.489277 0.297837
0.403094 0.487212 0.279134
0.466015 0.485624 0.261406
0.528937 0.484035 0.243677
0.591858 0.482446 0.225948
0.654779 0.480857 0.208219
0.703680 0.478673 0.194886
0.724539 0.475295 0.190344
0.745398 0.471918 0.185802
0.766257 0.468541 0.181260
0.787116 0.465164 0.176718
0.805163 0.461903 0.172745
0.809151 0.459225 0.171615
0.813140 0.456546 0.170485
0.817128 0.453867 0.169356
0.821117 0.451188 0.168226
0.825105 0.448509 0.167096
0.093119 0.541053 0.438883
0.093788 0.539623 0.437788
0.094458 0.538193 0.436694
0.095127 0.536763 0.435599
0.095796 0.535333 0.434504
0.096466 0.533903 0.433409
0.102414 0.532137 0.428967
0.109418 0.530304 0.423855
0.116423 0.528472 0.418742
0.123427 0.526639 0.413630
0.130431 0.524806 0.408518
0.159489 0.522972 0.394563
0.199574 0.521136 0.376186
0.239659 0.519300 0.357809
0.279744 0.517465 0.339432
0.319829 0.515629 0.321056
0.373670 0.513807 0.301329
0.441266 0.511999 0.280252
0.508861 0.510190 0.259175
0.576457 0.508382 0.238098
0.644053 0.506574 0.217021
0.696671 0.504328 0.201285
0.719332 0.501207 0.196231
0.741993 0.498086 0.191177
0.764654 0.494965 0.186122
0.787315 0.491844 0.181068
0.806922 0.488814 0.176659
0.811258 0.486235 0.175474
0.815595 0.483657 0.174289
0.819931 0.481079 0.173105
0.824267 0.478501 0.171920
0.828603 0.475923 0.170735
0.094537 0.559865 0.451597
0.095060 0.558782 0.450649
0.095583 0.557699 0.449700
0.096106 0.556617 0.448752
0.096629 0.555534 0.447804
0.097152 0.554452 0.446855
0.102031 0.553141 0.443032
0.107783 0.551784 0.438633
0.113534 0.550427 0.434235
0.119285 0.549070 0.429836
0.125036 0.547713 0.425437
0.150328 0.546506 0.412586
0.185390 0.545375 0.395508
0.220453 0.544244 0.378430
0.255516 0.543113 0.361353
0.290578 0.541981 0.344275
0.344245 0.540402 0.323523
0.416516 0.538374 0.299098
0.488786 0.536346 0.274673
0.561057 0.534318 0.250248
0.633327 0.532290 0.225823
0.689662 0.529984 0.207684
0.714125 0.527119 0.202118
0.738589 0.524254 0.196551
0.763052 0.521389 0.190984
0.787515 0.518524 0.185418
0.808682 0.515724 0.180572
0.813365 0.513246 0.179333
0.818049 0.510769 0.178093
0.822733 0.508291 0.176854
0.827417 0.505814 0.175614
0.832101 0.503336 0.174375
0.095892 0.576139 0.462641
0.096293 0.575340 0.461818
0.096694 0.574541 0.460995
0.097095 0.573743 0.460171
0.097496 0.572944 0.459348
0.097897 0.572145 0.458525
0.101930 0.571150 0.455172
0.106690 0.570116 0.451313
0.111450 0.569083 0.447454
0.116210 0.568049 0.443595
0.120970 0.567015 0.439736
0.143169 0.566238 0.427825
0.174088 0.565588 0.411888
0.205007 0.564939 0.395950
0.235925 0.564289 0.380013
0.266844 0.563640 0.364076
0.319363 0.562278 0.342839
0.393481 0.560205 0.316304
0.467600 0.558131 0.289769
0.541718 0.556057 0.263234
0.615836 0.553984 0.236698
0.674484 0.551749 0.216786
0.702188 0.549192 0.210118
0.729893 0.546636 0.203451
0.757598 0.544079 0.196784
0.785302 0.541522 0.190116
0.809259 0.538998 0.184336
0.814473 0.536639 0.182990
0.819687 0.534281 0.181643
0.824902 0.531922 0.180297
0.830116 0.529563 0.178951
0.835330 0.527205 0.177604
0.097121 0.587341 0.470345
0.097449 0.586698 0.469604
0.097776 0.586054 0.468863
0.098104 0.585411 0.468122
0.098432 0.584767 0.467381
0.098760 0.584124 0.466640
0.102392 0.583171 0.463461
0.106686 0.582155 0.459795
0.110979 0.581140 0.456128
0.115273 0.580124 0.452461
0.119566 0.579109 0.448794
0.140018 0.578362 0.437496
0.168549 0.577749 0.422382
0.197080 0.577136 0.407268
0.225611 0.576523 0.392154
0.254142 0.575910 0.377040
0.303564 0.574718 0.356398
0.373877 0.572946 0.330229
0.444190 0.571174 0.304060
0.514503 0.569403 0.277890
0.584816 0.567631 0.251721
0.642966 0.565735 0.231293
0.676790 0.563590 0.222348
0.710615 0.561445 0.213403
0.744440 0.559299 0.204457
0.778264 0.557154 0.195512
0.807470 0.554999 0.187798
0.813581 0.552796 0.186242
0.819692 0.550593 0.184685
0.825803 0.548390 0.183128
0.831913 0.546187 0.181572
0.838024 0.543984 0.180015
0.098350 0.598543 0.478050
0.098604 0.598055 0.477391
0.098859 0.597567 0.476732
0.099114 0.597079 0.476074
0.099368 0.596591 0.475415
0.099623 0.596103 0.474756
0.102854 0.595191 0.471751
0.106681 0.594194 0.468276
0.110508 0.593197 0.464801
0.114335 0.592200 0.461327
0.118162 0.591202 0.457852
0.136866 0.590486 0.447167
0.163010 0.589910 0.432876
0.189153 0.589333 0.418585
0.215297 0.588757 0.404295
0.241440 0.588181 0.390004
0.287765 0.587158 0.369957
0.354273 0.585688 0.344154
0.420780 0.584218 0.318350
0.487287 0.582748 0.292547
0.553795 0.581278 0.266743
0.611448 0.579721 0.245800
0.651393 0.577987 0.234577
0.691337 0.576254 0.223354
0.731282 0.574520 0.212131
0.771227 0.572787 0.200908
0.805682 0.571001 0.191261
0.812689 0.568953 0.189494
0.819696 0.566905 0.187727
0.826704 0.564858 0.185960
0.833711 0.562810 0.184193
0.840718 0.560763 0.182425
0.099579 0.609744 0.485754
0.099760 0.609412 0.485177
0.099941 0.609080 0.484601
0.100123 0.608747 0.484025
0.100304 0.608415 0.483448
0.100486 0.608082 0.482872
0.103316 0.607211 0.480041
0.106677 0.606233 0.476758
0.110037 0.605254 0.473475
0.113397 0.604275 0.470193
0.116758 0.603296 0.466910
0.133715 0.602610 0.456838
0.157471 0.602070 0.443370
0.181227 0.601531 0.429903
0.204982 0.600991 0.416436
0.228738 0.600451 0.402968
0.271967 0.599597 0.383516
0.334669 0.598429 0.358078
0.397370 0.597261 0.332641
0.460072 0.596094 0.307203
0.522774 0.594926 0.281766
0.579930 0.593706 0.260307
0.625995 0.592385 0.246806
0.672059 0.591063 0.233306
0.718124 0.589741 0.219805
0.764189 0.588419 0.206304
0.803893 0.587002 0.194723
0.811797 0.585110 0.192746
0.819701 0.583218 0.190768
0.827605 0.581326 0.188791
0.835509 0.579434 0.186813
0.843413 0.577541 0.184836
0.100807 0.620946 0.493458
0.100916 0.620769 0.492964
0.101024 0.620592 0.492470
0.101132 0.620415 0.491976
0.101240 0.620239 0.491482
0.101349 0.620062 0.490988
0.103778 0.619232 0.488330
0.106672 0.618271 0.485240
0.109566 0.617311 0.482149
0.112460 0.616350 0.479059
0.115353 0.615390 0.475968
0.130564 0.614734 0.466509
0.151932 0.614231 0.453865
0.173300 0.613728 0.441221
0.194668 0.613225 0.428577
0.216036 0.612722 0.415932
0.256168 0.612037 0.397075
0.315065 0.611171 0.372003
0.373961 0.610305 0.346932
0.432857 0.609439 0.321860
0.491753 0.608573 0.296788
0.548412 0.607692 0.274814
0.600597 0.606782 0.259036
0.652782 0.605872 0.243257
0.704966 0.604962 0.227478
0.757151 0.604051 0.211700
0.802105 0.603003 0.198186
0.810905 0.601267 0.195998
0.819706 0.599530 0.193810
0.828506 0.597794 0.191622
0.837306 0.596057 0.189434
0.846107 0.594320 0.187246
0.101824 0.630887 0.500532
0.101888 0.630869 0.500108
0.101952 0.630851 0.499684
0.102016 0.630833 0.499260
0.102080 0.630814 0.498836
0.102144 0.630796 0.498412
0.104222 0.630014 0.495916
0.106702 0.629079 0.493006
0.109183 0.628145 0.490095
0.111664 0.627210 0.487185
0.114144 0.626276 0.484274
0.127753 0.625659 0.475394
0.146925 0.625202 0.463529
0.166098 0.624744 0.451664
0.185271 0.624287 0.439799
0.204443 0.623829 0.427934
0.241651 0.623310 0.409681
0.296894 0.622727 0.385039
0.352138 0.622145 0.360398
0.407381 0.621562 0.335756
0.462624 0.620980 0.311114
0.518579 0.620405 0.288746
0.575958 0.619843 0.270922
0.633337 0.619282 0.253099
0.690716 0.618721 0.235276
0.748096 0.618160 0.217452
0.797608 0.617432 0.202176
0.807783 0.615869 0.199633
0.817959 0.614307 0.197089
0.828134 0.612744 0.194546
0.838310 0.611181 0.192003
0.848486 0.609618 0.189460
0.101776 0.634527 0.504455
0.101941 0.634682 0.504040
0.102106 0.634838 0.503625
0.102270 0.634993 0.503211
0.102435 0.635149 0.502796
0.102600 0.635304 0.502381
0.104572 0.634605 0.499986
0.106907 0.633734 0.497194
0.109241 0.632864 0.494402
0.111575 0.631993 0.491611
0.113909 0.631122 0.488819
0.126646 0.630588 0.480351
0.144584 0.630222 0.469044
0.162521 0.629856 0.457737
0.180459 0.629491 0.446430
0.198397 0.629125 0.435123
0.233542 0.628747 0.417524
0.285894 0.628356 0.393632
0.338246 0.627966 0.369741
0.390599 0.627576 0.345849
0.442951 0.627185 0.321958
0.497168 0.626750 0.299796
