app/src/main/assets/cube/Game03.cube
# LUT by SparkleStock. Enhanced with VOXCOLOR algorithms.
LUT_3D_SIZE 8
DOMAIN_MIN 0.000000 0.000000 0.000000
DOMAIN_MAX 0.903226 0.903226 0.903226
0.074291 0.023460 0.058651
0.218333 0.023713 0.106833
0.310535 0.045029 0.147700
0.387601 0.081985 0.187557
0.496200 0.130167 0.223000
0.701164 0.175575 0.256551
0.889225 0.240406 0.283669
0.976382 0.324788 0.327311
0.165484 0.115915 0.086778
0.218874 0.125301 0.094480
0.384265 0.094033 0.182231
0.472178 0.138541 0.214578
0.609714 0.183960 0.241794
0.797373 0.231081 0.265929
0.919147 0.288995 0.292751
0.986220 0.353318 0.327323
0.197017 0.196134 0.103175
0.228298 0.217011 0.109986
0.303993 0.217788 0.129691
0.534788 0.207372 0.226670
0.683371 0.250118 0.244068
0.837564 0.300697 0.265596
0.933920 0.347801 0.287579
0.985236 0.398953 0.323047
0.215811 0.289723 0.113392
0.235564 0.319364 0.113343
0.269136 0.345880 0.111781
0.378463 0.345323 0.137284
0.744215 0.336241 0.230983
0.875233 0.380420 0.255668
0.942538 0.415309 0.276732
0.984471 0.459964 0.310535
0.213036 0.423801 0.100527
0.224326 0.442790 0.095355
0.246578 0.458109 0.083243
0.290928 0.483001 0.069865
0.476967 0.476296 0.096905
0.864015 0.467853 0.212295
0.937359 0.503756 0.255668
0.978449 0.541656 0.290907
0.177593 0.573897 0.031785
0.196423 0.589798 0.018200
0.220351 0.615016 0.004614
0.266507 0.625216 0.000000
0.385245 0.624927 0.000000
0.630807 0.622376 0.029905
0.927061 0.592268 0.181548
0.974807 0.623280 0.227606
0.125374 0.715669 0.000000
0.150979 0.728912 0.000000
0.200618 0.735219 0.000000
0.251677 0.737953 0.000000
0.397614 0.742144 0.000000
0.557940 0.756914 0.000000
0.769161 0.742620 0.019481
0.950179 0.711148 0.124789
0.129663 0.828808 0.000000
0.160577 0.828670 0.000000
0.211876 0.829313 0.000000
0.272623 0.832718 0.000000
0.419541 0.826033 0.000000
0.595148 0.832592 0.000000
0.749850 0.833243 0.000000
0.883859 0.829053 0.013215
0.145934 0.031533 0.213414
0.235861 0.040093 0.276984
0.329679 0.068147 0.176486
0.414040 0.103961 0.211677
0.546274 0.149970 0.242990
0.758968 0.195666 0.272651
0.919330 0.269416 0.302841
0.989068 0.354555 0.347353
0.256795 0.106609 0.314937
0.359276 0.130255 0.478897
0.405630 0.117267 0.209998
0.500921 0.152510 0.233908
0.672165 0.205053 0.260164
0.833880 0.249543 0.278934
0.948343 0.310428 0.308857
0.988869 0.373681 0.343319
0.205024 0.208686 0.141003
0.221594 0.234250 0.140071
0.313090 0.236999 0.147228
0.565776 0.221100 0.239102
0.733318 0.269050 0.257630
0.867264 0.315308 0.276855
0.960055 0.372681 0.308013
0.990826 0.414698 0.333530
0.218712 0.312728 0.143712
0.226214 0.355778 0.134725
0.270068 0.371973 0.124020
0.391010 0.364856 0.148159
0.781921 0.354135 0.244939
0.895731 0.394453 0.266190
0.956544 0.431201 0.291250
0.988641 0.471777 0.323238
0.207799 0.436410 0.123800
0.206700 0.484710 0.104432
0.245847 0.482659 0.087336
0.286473 0.503888 0.066939
0.489237 0.492976 0.093731
0.877422 0.475756 0.217439
0.948009 0.510561 0.264328
0.984651 0.553180 0.305496
0.168682 0.588736 0.054830
0.152973 0.641129 0.016361
0.216904 0.637599 0.002605
0.260388 0.642870 0.000000
0.388768 0.642528 0.000000
0.636818 0.631760 0.033409
0.933578 0.600579 0.190390
0.976305 0.630575 0.235914
0.106398 0.722130 0.000000
0.109508 0.761722 0.000000
0.195759 0.746115 0.000000
0.252342 0.753747 0.000000
0.399257 0.748355 0.000000
0.567027 0.764461 0.000000
0.777174 0.748436 0.026035
0.951085 0.714485 0.131692
0.114226 0.828670 0.000000
0.149794 0.856097 0.000000
0.212109 0.840979 0.000000
0.273725 0.839631 0.000000
0.427054 0.837560 0.000000
0.604022 0.837304 0.000000
0.754908 0.841848 0.000000
0.889294 0.837113 0.023691
0.199035 0.044524 0.281651
0.286066 0.067261 0.356040
0.337836 0.060779 0.345539
0.428972 0.123515 0.255920
0.593993 0.166367 0.259314
0.822412 0.222227 0.283832
0.950651 0.300892 0.322701
0.994103 0.373426 0.361797
0.314856 0.135563 0.422540
0.408045 0.191738 0.675628
0.454715 0.146327 0.574609
0.527450 0.170626 0.293210
0.717389 0.217002 0.271275
0.878474 0.268726 0.293328
0.968736 0.337316 0.326965
0.994362 0.390969 0.354604
0.306784 0.215680 0.411249
0.333910 0.262092 0.501544
0.433939 0.223575 0.518774
0.598141 0.232934 0.253463
0.768860 0.283437 0.270185
0.899873 0.332763 0.289382
0.967362 0.382113 0.318176
0.994139 0.431116 0.348152
0.215420 0.326273 0.179058
0.217282 0.374716 0.177784
0.229899 0.419376 0.165810
0.397423 0.376721 0.155964
0.807232 0.366806 0.250215
0.909532 0.403725 0.275773
0.968612 0.444452 0.305228
0.991183 0.480287 0.333522
0.192969 0.453430 0.147687
0.180290 0.515617 0.130839
0.181432 0.552698 0.105927
0.279004 0.523681 0.066666
0.498931 0.510330 0.092411
0.890276 0.485683 0.227104
0.951496 0.521078 0.275837
0.985349 0.565129 0.316620
0.127209 0.606061 0.087014
0.104425 0.653454 0.046659
0.113495 0.687800 0.010074
0.257861 0.657791 0.000276
0.388630 0.654743 0.000000
0.635834 0.640844 0.033519
0.939710 0.610583 0.197204
0.976231 0.634611 0.246022
0.051462 0.730735 0.003015
0.048973 0.769266 0.000000
0.098314 0.795234 0.000000
0.250091 0.768308 0.000000
0.406272 0.759870 0.000000
0.573944 0.769836 0.000000
0.775274 0.748396 0.027950
0.951907 0.720410 0.155944
0.068538 0.831307 0.000000
0.110929 0.863412 0.000000
0.153449 0.870279 0.000397
0.277011 0.850302 0.000000
0.435927 0.849123 0.000000
0.610898 0.849050 0.000000
0.758427 0.846118 0.000000
0.890717 0.836976 0.041096
0.258695 0.064831 0.346987
0.333239 0.081684 0.434852
0.392899 0.092202 0.497462
0.457665 0.090180 0.539707
0.554107 0.063639 0.433887
0.815642 0.211860 0.333332
0.963138 0.332649 0.348370
0.988328 0.395185 0.383618
0.341690 0.154132 0.519612
0.434270 0.234296 0.721836
0.502081 0.229978 0.736446
0.572268 0.195920 0.712707
0.708793 0.210836 0.397454
0.881188 0.257044 0.353241
0.975850 0.367827 0.351500
0.991134 0.406416 0.370978
0.346299 0.249361 0.579138
0.394254 0.314961 0.666871
0.517723 0.307906 0.733655
0.608781 0.220566 0.671413
0.767827 0.274421 0.379229
0.914169 0.353105 0.312243
0.977504 0.403211 0.337353
0.992517 0.445291 0.360796
0.321492 0.362737 0.494911
0.363520 0.421929 0.555168
0.408836 0.473084 0.588115
0.517894 0.356467 0.502118
0.822989 0.377096 0.272318
0.924524 0.415430 0.286699
0.974522 0.456917 0.318961
0.989580 0.495628 0.345488
0.157729 0.481671 0.196207
0.124844 0.533214 0.184749
0.084719 0.594646 0.172233
0.127602 0.611903 0.130656
0.507168 0.523147 0.098537
0.903315 0.493973 0.241029
0.958878 0.531331 0.289483
0.979179 0.575179 0.329251
0.051482 0.628512 0.135087
0.024668 0.675082 0.113557
0.006684 0.718334 0.088969
0.061909 0.730176 0.030118
0.377946 0.672154 0.000000
0.644117 0.649269 0.037242
0.941073 0.613722 0.205337
0.974209 0.643985 0.263270
0.000000 0.742575 0.056625
0.000000 0.778974 0.046223
0.000000 0.816968 0.040771
0.072149 0.829309 0.023467
0.387687 0.776237 0.000000
0.581690 0.780004 0.000000
0.780039 0.755171 0.029979
0.949571 0.725023 0.180679
0.000000 0.838142 0.027960
0.017756 0.872393 0.041104
0.036646 0.881657 0.090087
0.160718 0.879204 0.059500
0.440629 0.856144 0.000000
0.625529 0.855569 0.000000
0.766955 0.848348 0.000529
0.892664 0.840303 0.078097
0.316968 0.091067 0.449279
0.369056 0.111813 0.552390
0.414475 0.118698 0.586640
0.489755 0.122966 0.629875
0.584862 0.095506 0.643916
0.705106 0.050701 0.652009
0.839037 0.033388 0.627743
0.936301 0.162217 0.625281
0.358908 0.187179 0.612241
0.455947 0.266620 0.746761
0.517955 0.261880 0.754297
0.589532 0.254364 0.756979
0.680032 0.228081 0.753491
0.783529 0.186763 0.741602
0.900269 0.181011 0.707055
0.972675 0.369009 0.603450
0.374105 0.288824 0.643131
0.443257 0.368360 0.717150
0.541485 0.343174 0.751921
0.629331 0.311821 0.752858
0.716568 0.292810 0.751768
0.819608 0.213965 0.708538
0.928204 0.337280 0.580681
0.980236 0.465530 0.503182
0.423813 0.418320 0.658588
0.524026 0.495531 0.716091
0.579178 0.530178 0.727875
0.641844 0.427093 0.737476
0.751658 0.340179 0.706694
0.872570 0.380848 0.553013
0.955940 0.466097 0.423017
0.974923 0.527135 0.425639
0.350608 0.518505 0.549944
0.422539 0.578088 0.593815
0.468475 0.612410 0.609556
0.493691 0.624105 0.602076
0.625288 0.519646 0.510000
0.899888 0.499468 0.318161
0.960978 0.548371 0.314515
0.969575 0.592534 0.362636
0.017772 0.664903 0.254952
0.032391 0.702948 0.264856
0.038018 0.744113 0.266324
0.058529 0.774912 0.274814
0.137699 0.770966 0.183451
0.645159 0.665005 0.044753
0.948344 0.623747 0.225229
0.967597 0.653460 0.282055
0.000000 0.767736 0.231097
0.005580 0.801177 0.239504
0.030212 0.830512 0.258533
0.094304 0.853896 0.281185
0.179026 0.845562 0.176811
0.568816 0.787888 0.000000
0.783280 0.759715 0.037097
0.947654 0.733917 0.217374
0.023859 0.847972 0.248430
0.081961 0.874939 0.272037
0.192449 0.886066 0.313473
0.338711 0.884961 0.364484
0.385312 0.879149 0.232934
0.624022 0.855783 0.000000
0.774453 0.851801 0.008651
0.895218 0.843859 0.133125
0.356951 0.131429 0.595087
0.398575 0.157294 0.650259
0.449890 0.163267 0.674603
0.520055 0.166493 0.688196
0.616098 0.150117 0.702624
0.720576 0.121944 0.709671
0.831062 0.130941 0.719562
0.932423 0.200227 0.720397
0.384574 0.227675 0.677333
0.486671 0.309968 0.776934
0.542247 0.295446 0.778436
0.606691 0.286477 0.774434
0.687960 0.273948 0.776798
0.780044 0.246269 0.774238
0.875160 0.255755 0.777073
0.960461 0.316700 0.774112
0.407099 0.333113 0.694279
0.510130 0.429364 0.760762
0.572774 0.376913 0.774190
0.648977 0.350169 0.774449
0.723780 0.333646 0.773951
0.803274 0.314450 0.774252
0.887596 0.317035 0.775418
0.960237 0.372978 0.772400
0.486480 0.463793 0.706209
0.587067 0.541955 0.753791
0.610739 0.559857 0.750801
0.668743 0.466687 0.763659
0.757613 0.417207 0.768483
0.825119 0.406566 0.768706
0.900859 0.423504 0.762717
0.954432 0.480754 0.749017
0.554200 0.572961 0.697453
0.630526 0.628970 0.736882
0.657709 0.653210 0.743605
0.674017 0.659485 0.740748
0.749651 0.554730 0.749751
0.844102 0.497009 0.734151
0.909378 0.543251 0.644254
0.937664 0.596913 0.653171
0.488226 0.667857 0.625070
0.547238 0.700130 0.653899
0.575121 0.718535 0.664048
0.605622 0.735250 0.668003
0.637964 0.746991 0.673559
0.744008 0.663655 0.542422
0.935745 0.644051 0.373333
0.952423 0.676978 0.392425
0.189372 0.785940 0.411558
0.280604 0.811846 0.438947
0.358304 0.835076 0.465882
0.422483 0.856066 0.495170
0.484193 0.865484 0.522008
0.482355 0.842082 0.340703
0.785586 0.771164 0.045129
0.946395 0.743986 0.264212
0.329259 0.852834 0.442912
0.397834 0.877805 0.479909
0.454655 0.883814 0.509713
0.522716 0.883407 0.541616
0.586637 0.883102 0.568737
0.592431 0.873740 0.367659
0.780121 0.857083 0.052252
0.899323 0.847143 0.205096
0.393151 0.193485 0.694605
0.434087 0.218305 0.728282
0.479425 0.213540 0.728351
0.558094 0.228847 0.751746
0.639864 0.208922 0.747857
0.739650 0.198217 0.756678
0.841719 0.206485 0.766076
0.937586 0.264172 0.762211
0.424810 0.290606 0.742339
0.523291 0.353377 0.801609
0.576717 0.342819 0.802445
0.636816 0.337591 0.801495
0.706738 0.318059 0.798147
0.786682 0.297105 0.796564
0.872069 0.292386 0.799247
0.955701 0.345466 0.798255
0.467821 0.394343 0.742775
0.562530 0.473860 0.786742
0.610928 0.418221 0.794614
0.673670 0.395270 0.797367
0.739378 0.383708 0.796657
0.810403 0.366236 0.796798
0.889169 0.355979 0.797357
0.954618 0.401545 0.796581
0.564014 0.523274 0.746233
0.630819 0.580355 0.777977
0.649292 0.592795 0.777164
0.695138 0.503263 0.782360
0.769147 0.455921 0.787380
0.832086 0.457342 0.793468
0.895641 0.460338 0.791981
0.947825 0.498603 0.788927
0.617010 0.616241 0.734450
0.666749 0.662697 0.772334
0.682649 0.673914 0.771840
0.700246 0.680991 0.768697
0.770548 0.590747 0.779965
0.847631 0.535191 0.783487
0.897009 0.552911 0.784478
0.934497 0.580281 0.778043
0.646484 0.690536 0.739837
0.679361 0.721468 0.769834
0.697253 0.730005 0.769862
0.713216 0.741186 0.769527
0.733021 0.748035 0.767553
0.821989 0.671608 0.776174
0.894103 0.645154 0.767031
0.925291 0.681402 0.762229
0.607106 0.769767 0.700163
0.642982 0.791275 0.727676
0.666866 0.807170 0.738388
0.687010 0.816386 0.743842
0.714756 0.822806 0.749605
0.743694 0.822498 0.751320
0.837050 0.763976 0.596709
0.940035 0.761292 0.463288
0.534426 0.860016 0.618967
0.567549 0.875835 0.645137
0.604857 0.885849 0.669077
0.643424 0.886509 0.687202
0.685994 0.886993 0.703022
0.723527 0.884290 0.711077
0.756971 0.873251 0.526903
0.904417 0.850863 0.298607
0.453820 0.290985 0.784410
0.496375 0.304770 0.797288
0.532978 0.293910 0.791522
0.599717 0.295326 0.798032
0.678228 0.291664 0.800429
0.765360 0.284174 0.805791
0.853139 0.280125 0.809478
0.942579 0.327355 0.807281
0.502206 0.382255 0.801401
0.567876 0.396096 0.820371
0.611315 0.387074 0.822075
0.662550 0.383951 0.820122
0.728709 0.370486 0.820438
0.796726 0.352871 0.820736
0.875354 0.335993 0.822087
0.949980 0.374501 0.822312
0.548447 0.464773 0.789533
0.608923 0.518646 0.809976
0.646271 0.463276 0.814051
0.700412 0.441015 0.817562
0.756824 0.429842 0.816741
0.819996 0.421600 0.820415
0.890527 0.411077 0.822848
0.951259 0.438072 0.821839
0.624695 0.577539 0.785960
0.662999 0.612226 0.802803
0.680247 0.625131 0.803723
0.725994 0.549327 0.809324
0.790174 0.506347 0.813645
0.842304 0.501150 0.817277
0.897697 0.500043 0.818708
0.948479 0.525761 0.817014
0.664935 0.658706 0.780520
0.692855 0.687263 0.795895
0.709122 0.697827 0.797158
0.723973 0.706799 0.795716
0.786253 0.623422 0.805280
0.853795 0.577897 0.809796
0.898906 0.582579 0.811269
0.938929 0.607984 0.811573
0.688420 0.725503 0.785480
0.708418 0.740964 0.794130
0.722105 0.751018 0.794089
0.735805 0.759428 0.796548
0.757865 0.767451 0.797124
0.835560 0.696855 0.806760
0.901166 0.668098 0.811721
0.931954 0.690832 0.811846
0.698429 0.788772 0.795351
0.718749 0.802731 0.808384
0.731524 0.809262 0.808470
0.749238 0.816799 0.812350
0.770930 0.825400 0.813265
0.793008 0.827243 0.813489
0.873736 0.766980 0.810373
0.924529 0.765307 0.806409
0.691781 0.850637 0.788223
0.712530 0.864060 0.805639
0.726103 0.866248 0.810079
0.742795 0.867245 0.809599
0.771109 0.871534 0.816183
0.799664 0.874377 0.819226
0.832171 0.875987 0.821661
0.907270 0.853621 0.731072
