app/src/main/assets/cube/Game01.cube
# LUT by SparkleStock. Enhanced with VOXCOLOR algorithms.
LUT_3D_SIZE 5
DOMAIN_MIN 0.000000 0.000000 0.000000
DOMAIN_MAX 0.903226 0.903226 0.903226
0.070381 0.058651 0.070381
0.300318 0.119068 0.103175
0.547662 0.192981 0.062057
0.781761 0.258821 0.046921
0.985526 0.308139 0.059660
0.172295 0.202315 0.132312
0.289809 0.241712 0.130855
0.668081 0.282912 0.032090
0.853790 0.327933 0.010705
0.994588 0.372213 0.034833
0.254659 0.385962 0.175575
0.304859 0.426665 0.188277
0.483990 0.441773 0.169524
0.900024 0.429428 0.002824
1.000000 0.472972 0.011856
0.374988 0.554851 0.250371
0.421413 0.576302 0.255054
0.522781 0.604909 0.257938
0.755270 0.613405 0.226043
1.000000 0.607509 0.079023
0.569987 0.776842 0.297165
0.606240 0.787669 0.290029
0.704024 0.805938 0.276333
0.905687 0.826066 0.233595
0.997942 0.792682 0.233253
0.017532 0.156655 0.268786
0.096238 0.194344 0.314124
0.595124 0.221865 0.100148
0.843692 0.282282 0.037738
1.000000 0.325724 0.071171
0.056425 0.273339 0.357090
0.126064 0.309572 0.398233
0.704563 0.302784 0.074591
0.905160 0.347232 0.015156
1.000000 0.388903 0.055937
0.254460 0.406285 0.231540
0.305630 0.461931 0.248295
0.504720 0.460574 0.196341
0.938095 0.445882 0.025010
1.000000 0.486979 0.026731
0.372726 0.556499 0.299688
0.443871 0.621597 0.312308
0.546581 0.629295 0.270641
0.783248 0.632655 0.237127
0.991147 0.619915 0.128677
0.554725 0.771419 0.347585
0.611020 0.825907 0.345653
0.720694 0.823727 0.283714
0.922691 0.840421 0.239804
0.994354 0.797949 0.267054
0.000000 0.228171 0.398953
0.000000 0.264965 0.459838
0.135559 0.308623 0.486521
0.667356 0.339610 0.329154
0.909309 0.372148 0.241460
0.000000 0.331888 0.489121
0.001855 0.393035 0.604710
0.256636 0.419590 0.592532
0.802411 0.392071 0.291042
0.999485 0.412357 0.102997
0.138053 0.424655 0.467280
0.166429 0.475340 0.524214
0.418596 0.463457 0.466757
0.964597 0.463464 0.079980
0.998455 0.505695 0.076038
0.387207 0.573376 0.403478
0.436713 0.636013 0.429685
0.513322 0.698870 0.404813
0.809568 0.653163 0.256118
0.985968 0.637578 0.243149
0.515413 0.774991 0.464204
0.571675 0.834683 0.495158
0.673675 0.845884 0.463544
0.936520 0.848071 0.268766
0.989247 0.806263 0.335789
0.000000 0.294643 0.500615
0.000000 0.322265 0.543878
0.059969 0.358624 0.560434
0.397191 0.420298 0.561589
0.601963 0.460823 0.581941
0.000000 0.377889 0.561032
0.000000 0.435248 0.666097
0.238834 0.446859 0.649189
0.507572 0.485201 0.646562
0.719295 0.514010 0.659036
0.008516 0.470612 0.592202
0.004103 0.518308 0.656963
0.296401 0.496717 0.647200
0.585489 0.522700 0.657925
0.780914 0.560192 0.672600
0.214639 0.567530 0.584952
0.220323 0.616170 0.634295
0.317802 0.650962 0.652645
0.684267 0.635341 0.589887
0.982815 0.671348 0.419743
0.453442 0.793492 0.589570
0.511967 0.844229 0.637638
0.609268 0.855316 0.673988
0.789683 0.860180 0.626175
0.990885 0.823840 0.438271
0.000000 0.406899 0.671649
0.000000 0.409979 0.677557
0.041302 0.440031 0.689897
0.442656 0.486077 0.682683
0.691659 0.518526 0.695488
0.000000 0.457616 0.688437
0.000000 0.488962 0.741115
0.248532 0.493535 0.729771
0.543185 0.530349 0.728611
0.760475 0.557118 0.739235
0.000000 0.537677 0.718631
0.000000 0.562903 0.743660
0.283573 0.539829 0.731403
0.622548 0.569923 0.737845
0.809032 0.608801 0.755028
0.000000 0.632674 0.742095
0.012190 0.655867 0.759498
0.212989 0.672637 0.762800
0.638140 0.654440 0.759582
0.865080 0.715000 0.788078
0.080219 0.791233 0.783560
0.219518 0.819102 0.815339
0.445581 0.830975 0.817998
0.659981 0.850723 0.829708
0.929325 0.868177 0.793343
