app/src/main/assets/cube/Game08.cube
# LUT by SparkleStock. Enhanced with VOXCOLOR algorithms.
LUT_3D_SIZE 5
DOMAIN_MIN 0.000000 0.000000 0.000000
DOMAIN_MAX 0.903226 0.903226 0.903226
0.023460 0.011730 0.019550
0.278372 0.016523 0.043894
0.480308 0.052218 0.063444
0.744679 0.124618 0.069751
0.964273 0.190837 0.064327
0.157538 0.192981 0.055624
0.291489 0.208401 0.063399
0.619016 0.179448 0.071065
0.824764 0.238893 0.070381
0.976362 0.290208 0.064758
0.256425 0.388610 0.091697
0.313310 0.432252 0.097752
0.473720 0.439059 0.098529
0.877369 0.402989 0.084223
0.983299 0.451383 0.086526
0.343581 0.632548 0.108221
0.381555 0.658043 0.112273
0.456721 0.679107 0.116008
0.723135 0.675543 0.121440
0.984959 0.642321 0.135778
0.470848 0.846214 0.193611
0.498902 0.848212 0.196691
0.574507 0.854014 0.204060
0.785798 0.858640 0.224233
0.958394 0.856423 0.250537
0.064958 0.043894 0.210135
0.254842 0.068294 0.267500
0.540782 0.079878 0.101572
0.814674 0.148465 0.098391
0.985549 0.209105 0.098635
0.186621 0.197277 0.324593
0.319390 0.219905 0.401497
0.673510 0.204033 0.102345
0.878311 0.261071 0.096625
0.987034 0.310962 0.096047
0.271325 0.413926 0.155483
0.314457 0.483644 0.149830
0.491379 0.464053 0.109893
0.912800 0.416532 0.098976
0.991466 0.465831 0.108297
0.344843 0.641520 0.160321
0.389595 0.712552 0.157790
0.467312 0.703476 0.129063
0.737940 0.687658 0.129363
0.984361 0.656240 0.152924
0.469786 0.843387 0.220351
0.524397 0.883972 0.251347
0.594355 0.871774 0.223728
0.801752 0.873988 0.243662
0.961813 0.866159 0.269770
0.122600 0.093463 0.346861
0.261307 0.132906 0.451692
0.415004 0.162762 0.519966
0.760828 0.168959 0.311902
0.952722 0.221462 0.259936
0.197469 0.229595 0.507320
0.327325 0.273424 0.683065
0.533242 0.260762 0.674794
0.860607 0.261329 0.285987
0.991166 0.330867 0.152227
0.275377 0.394954 0.468464
0.307980 0.464252 0.547255
0.531292 0.411705 0.455707
0.935619 0.431025 0.129548
0.993642 0.486226 0.143432
0.356195 0.664948 0.271023
0.393196 0.735748 0.294755
0.441262 0.779653 0.272553
0.756209 0.706595 0.143023
0.980675 0.663615 0.170507
0.479466 0.848273 0.346145
0.540997 0.892711 0.399477
0.608295 0.893672 0.383605
0.812431 0.883415 0.262984
0.965235 0.873818 0.291264
0.155141 0.161070 0.524201
0.281651 0.186926 0.600645
0.444377 0.204853 0.642167
0.646174 0.225852 0.652481
0.874500 0.272191 0.670957
0.202062 0.272317 0.626848
0.346035 0.309104 0.742532
0.545218 0.299879 0.741250
0.740434 0.309563 0.735498
0.936257 0.352976 0.739923
0.260603 0.425961 0.660582
0.271586 0.472178 0.730967
0.541433 0.408494 0.727556
0.796488 0.382685 0.725539
0.953995 0.416829 0.724319
0.334166 0.619113 0.612843
0.361818 0.671501 0.662764
0.408823 0.706678 0.680965
0.751658 0.616594 0.555377
0.982064 0.676439 0.317310
0.516255 0.851955 0.532209
0.579320 0.890633 0.589489
0.652679 0.895860 0.629987
0.762129 0.894308 0.560308
0.968616 0.880346 0.345624
0.169899 0.254785 0.742408
0.308444 0.257182 0.750513
0.483945 0.275703 0.773962
0.690601 0.289976 0.771512
0.910163 0.336347 0.777388
0.227826 0.341144 0.758944
0.383300 0.360182 0.805079
0.571937 0.353713 0.803318
0.759723 0.361190 0.802382
0.934506 0.395722 0.803004
0.219407 0.469945 0.781277
0.263008 0.500668 0.805519
0.574487 0.458948 0.801597
0.813941 0.434693 0.800721
0.950234 0.460034 0.807327
0.273925 0.647651 0.792389
0.322629 0.673737 0.810903
0.390252 0.694070 0.813560
0.776821 0.601707 0.810626
0.951844 0.601111 0.811211
0.439665 0.835798 0.802557
0.484796 0.859459 0.832209
0.578536 0.864485 0.834926
0.711575 0.874430 0.846859
0.935890 0.847520 0.752476
