app/src/main/assets/cube/Game03.cube
# LUT by SparkleStock. Enhanced with VOXCOLOR algorithms.
LUT_3D_SIZE 32
0.074291 0.023460 0.058651
0.110617 0.023460 0.068742
0.146943 0.023460 0.079084
0.183269 0.023460 0.093211
0.218333 0.023713 0.106833
0.244568 0.025731 0.116924
0.269669 0.028884 0.127014
0.289850 0.036956 0.137105
0.310535 0.045029 0.147700
0.332734 0.053101 0.159808
0.353041 0.061804 0.170656
0.369186 0.071895 0.178728
0.387601 0.081985 0.187557
0.409800 0.092076 0.197648
0.434648 0.103932 0.206855
0.462902 0.118059 0.214928
0.496200 0.130167 0.223000
0.534544 0.140258 0.231072
0.583105 0.150348 0.239145
0.639612 0.160439 0.247217
0.701164 0.175575 0.256551
0.765743 0.193738 0.266641
0.815060 0.209126 0.272570
0.857440 0.223252 0.276606
0.889225 0.240406 0.283669
0.917479 0.258569 0.291742
0.940813 0.281651 0.303093
0.963012 0.305868 0.315202
0.976382 0.324788 0.327311
0.988491 0.342951 0.339419
0.994450 0.359222 0.347744
1.000000 0.375367 0.355816
0.100527 0.049696 0.068742
0.126436 0.050737 0.073624
0.153778 0.051128 0.079540
0.202603 0.041754 0.100958
0.248344 0.034064 0.120960
0.272496 0.038165 0.131050
0.295318 0.042815 0.140946
0.312374 0.049846 0.149994
0.330195 0.056877 0.159027
0.350311 0.063908 0.168011
0.369837 0.072220 0.177361
0.388065 0.083352 0.187516
0.408173 0.094485 0.196866
0.431414 0.105617 0.204874
0.458670 0.117603 0.213365
0.491090 0.130688 0.222479
0.528555 0.142797 0.230552
0.571065 0.153929 0.237582
0.619691 0.165061 0.245199
0.673073 0.176193 0.253272
0.728896 0.190417 0.261303
0.786184 0.206497 0.269311
0.829642 0.221234 0.274588
0.866815 0.235361 0.278624
0.897298 0.252515 0.286468
0.925551 0.270678 0.295582
0.948885 0.292913 0.306283
0.971084 0.316089 0.317350
0.980809 0.333056 0.328417
0.988751 0.349135 0.339484
0.994450 0.363323 0.346767
1.000000 0.377385 0.353798
0.126384 0.075553 0.078454
0.142398 0.077766 0.078584
0.161098 0.078738 0.080411
0.220079 0.061096 0.107688
0.274632 0.046294 0.132914
0.298199 0.051372 0.143786
0.320044 0.056633 0.154157
0.334431 0.062687 0.162359
0.349762 0.068774 0.170057
0.367925 0.074959 0.176242
0.386759 0.082994 0.184217
0.407070 0.095103 0.196130
0.428846 0.107187 0.205871
0.453063 0.119231 0.211990
0.482607 0.131303 0.219790
0.518998 0.143411 0.229750
0.560434 0.155520 0.237757
0.606915 0.167628 0.243812
0.655594 0.179700 0.250965
0.705981 0.191744 0.258972
0.756246 0.205130 0.265759
0.806438 0.219322 0.271813
0.844143 0.233424 0.276524
0.876173 0.247486 0.280626
0.905321 0.264623 0.289219
0.933510 0.282786 0.299309
0.956673 0.304070 0.309347
0.978677 0.326074 0.319372
0.985016 0.341185 0.329398
0.989117 0.355312 0.339423
0.994515 0.367485 0.345665
1.000000 0.379529 0.351654
0.146565 0.095734 0.082490
0.160496 0.101072 0.084703
0.175680 0.105495 0.087507
0.209663 0.096185 0.099159
0.245077 0.086721 0.112277
0.290517 0.076175 0.135648
0.330915 0.068742 0.156565
0.349469 0.074796 0.166851
0.367925 0.081403 0.176633
0.386088 0.089671 0.184900
0.405573 0.099139 0.193331
0.427967 0.111248 0.202119
0.451045 0.122941 0.210297
0.475263 0.133943 0.217458
0.505261 0.145429 0.224933
0.542694 0.157538 0.232810
0.585172 0.169647 0.239775
0.632695 0.181755 0.245830
0.681243 0.193241 0.252397
0.730589 0.204243 0.259362
0.777859 0.217890 0.265759
0.823885 0.233123 0.271813
0.857424 0.246835 0.277241
0.885287 0.259855 0.282383
0.912612 0.276732 0.291237
0.939759 0.294895 0.301328
0.960188 0.313640 0.310519
0.979067 0.332519 0.319503
0.985927 0.347239 0.328486
0.991070 0.361366 0.337470
0.995557 0.372563 0.342670
1.000000 0.383565 0.347618
0.165484 0.115915 0.086778
0.177332 0.123596 0.090554
0.189172 0.130713 0.093976
0.200890 0.129346 0.092088
0.218874 0.125301 0.094480
0.280719 0.102516 0.126835
0.335668 0.084724 0.155687
0.360731 0.088564 0.169358
0.384265 0.094033 0.182231
0.403209 0.104384 0.192712
0.423760 0.115243 0.201810
0.447847 0.127222 0.207864
0.472178 0.138541 0.214578
0.496916 0.148762 0.222390
0.527721 0.159808 0.229490
0.566325 0.171917 0.235674
0.609714 0.183960 0.241794
0.657888 0.195939 0.247848
0.705769 0.207002 0.253902
0.753423 0.217353 0.259956
0.797373 0.231081 0.265929
0.839102 0.246835 0.271854
0.868971 0.260172 0.277778
0.893449 0.272411 0.283702
0.919147 0.288995 0.292751
0.945252 0.307028 0.302841
0.963053 0.323315 0.311292
0.978937 0.339199 0.319364
0.986220 0.353318 0.327323
0.992274 0.367184 0.335265
0.996208 0.377877 0.339789
1.000000 0.388358 0.344086
0.175575 0.136096 0.092833
0.185340 0.140653 0.094525
0.195031 0.145165 0.096059
0.203625 0.149006 0.095213
0.216140 0.150951 0.096564
0.256112 0.139623 0.113294
0.297584 0.127820 0.131795
0.345563 0.113953 0.157965
0.387845 0.106662 0.180994
0.413039 0.119096 0.194600
0.437561 0.131063 0.205846
0.460607 0.141999 0.211900
0.485849 0.153058 0.217833
0.514754 0.164321 0.223562
0.548813 0.175953 0.229945
0.589501 0.188062 0.237171
0.632890 0.199584 0.243812
0.678981 0.210521 0.249866
0.722435 0.222300 0.255920
0.763839 0.234734 0.261975
0.802191 0.247290 0.267297
0.838712 0.259920 0.272179
0.868385 0.272997 0.277062
0.894946 0.286277 0.281944
0.920384 0.302341 0.290733
0.945447 0.319332 0.300823
0.961360 0.333731 0.309274
0.975161 0.347532 0.317346
0.982184 0.359568 0.324393
0.988238 0.371351 0.331294
0.994125 0.384843 0.337706
1.000000 0.398449 0.344086
0.184908 0.156277 0.098130
0.192981 0.158490 0.098325
0.200939 0.161057 0.098521
0.207189 0.168934 0.098716
0.215261 0.175624 0.099343
0.236093 0.173996 0.102988
0.264737 0.167889 0.112212
0.327233 0.142370 0.145608
0.382796 0.125883 0.175326
0.417560 0.136494 0.194010
0.449068 0.147065 0.208930
0.473415 0.157546 0.215570
0.500741 0.168491 0.221234
0.533031 0.180209 0.225270
0.569478 0.192098 0.230902
0.611273 0.204206 0.238583
0.654174 0.215404 0.245354
0.698181 0.225689 0.251213
0.738197 0.238136 0.257182
0.775109 0.252262 0.263236
0.808888 0.263867 0.268151
0.840787 0.273957 0.272382
0.869911 0.286688 0.276480
0.897774 0.300620 0.280516
0.922463 0.316065 0.288946
0.946094 0.332014 0.298842
0.960522 0.345001 0.307414
0.972826 0.357305 0.315682
0.979490 0.367673 0.322184
0.985349 0.377763 0.328434
0.992627 0.392980 0.336026
1.000000 0.408539 0.343708
0.190963 0.176458 0.100148
0.199035 0.179713 0.101385
0.207059 0.183191 0.102622
0.214350 0.190027 0.103859
0.222422 0.196065 0.105136
0.235963 0.196521 0.106699
0.254582 0.194840 0.111301
0.295204 0.183903 0.129073
0.340351 0.173666 0.150458
0.399071 0.165529 0.182683
0.450630 0.163861 0.207889
0.486435 0.176425 0.217654
0.520922 0.187891 0.225270
0.553212 0.197526 0.229307
0.588292 0.208243 0.234026
0.626962 0.220351 0.239625
0.667259 0.232069 0.244833
0.709183 0.243397 0.249650
0.750046 0.256299 0.255163
0.790082 0.270425 0.261218
0.823731 0.282029 0.266784
0.853546 0.292120 0.272057
0.880587 0.304135 0.276480
0.906367 0.317025 0.280516
0.928192 0.331428 0.288165
0.948698 0.346336 0.297019
0.963386 0.359974 0.306243
0.976732 0.373320 0.315552
0.982615 0.383817 0.323095
0.987433 0.393908 0.330387
0.993669 0.406195 0.336091
1.000000 0.418630 0.341690
0.197017 0.196134 0.103175
0.204569 0.200431 0.104673
0.212153 0.204853 0.106203
0.220225 0.211168 0.108221
0.228298 0.217011 0.109986
0.236370 0.219550 0.109986
0.247128 0.221710 0.110975
0.269522 0.222231 0.116248
0.303993 0.217788 0.129691
0.374691 0.198453 0.167645
0.439043 0.188192 0.198742
0.489430 0.197892 0.214757
0.534788 0.207372 0.226670
0.571765 0.216486 0.231748
0.608571 0.226682 0.236256
0.645157 0.238270 0.240032
0.683371 0.250118 0.244068
0.723212 0.262227 0.248365
0.763749 0.275324 0.253650
0.804827 0.289190 0.259704
0.837564 0.300697 0.265596
0.865297 0.310787 0.271390
0.890613 0.322265 0.276154
0.914830 0.334374 0.280451
0.933920 0.347801 0.287579
0.951302 0.361667 0.295652
0.966039 0.375110 0.305152
0.980166 0.388456 0.314982
0.985236 0.398953 0.323047
0.989011 0.409044 0.330859
0.994450 0.419378 0.335619
1.000000 0.429729 0.340176
0.203071 0.214297 0.109230
0.208540 0.219635 0.108644
0.214171 0.225100 0.108221
0.222243 0.232456 0.110239
0.230316 0.239470 0.112005
0.238388 0.244092 0.112005
0.247779 0.248336 0.112407
0.262882 0.250940 0.114556
0.285895 0.250924 0.121228
0.332637 0.243047 0.141474
0.388004 0.235129 0.165281
0.462348 0.227122 0.196919
0.529711 0.227097 0.220160
0.585436 0.240378 0.229404
0.633244 0.252006 0.235800
0.670872 0.261511 0.238535
0.708565 0.272317 0.242571
0.746323 0.284426 0.247909
0.783019 0.296937 0.253650
0.818889 0.309762 0.259704
0.848371 0.320878 0.264945
0.874020 0.330968 0.269697
0.898685 0.342446 0.274852
0.922902 0.354555 0.280190
0.939649 0.367201 0.287579
0.953906 0.380025 0.295652
0.968057 0.390734 0.304306
0.982184 0.400955 0.313094
0.986342 0.411062 0.320117
0.989076 0.421152 0.326887
0.994450 0.432463 0.333536
1.000000 0.443856 0.340176
0.208495 0.234982 0.113392
0.213182 0.241688 0.112025
0.218020 0.248438 0.110829
0.225116 0.255859 0.112196
0.232334 0.263110 0.113392
0.240406 0.269164 0.113392
0.248857 0.274962 0.113392
0.258947 0.279649 0.113392
0.273107 0.283409 0.115085
0.299472 0.284385 0.121855
0.343130 0.279564 0.138024
0.424830 0.261987 0.174871
0.504798 0.255102 0.204272
0.581876 0.266039 0.221263
0.644856 0.275723 0.232415
0.689710 0.283795 0.236061
0.730137 0.293723 0.240748
0.766137 0.305506 0.246477
0.800050 0.317655 0.252389
0.832340 0.330090 0.258443
0.858974 0.341059 0.263439
0.882215 0.351149 0.267801
0.905455 0.362180 0.273103
0.928696 0.373637 0.278831
0.943588 0.385095 0.286074
0.955696 0.396553 0.293821
0.969180 0.406053 0.302097
0.982981 0.415102 0.310494
0.986757 0.424777 0.317126
0.989101 0.434542 0.323506
0.994450 0.445894 0.331168
1.000000 0.457352 0.338915
0.212531 0.261218 0.113392
0.219302 0.270006 0.114108
0.225897 0.278579 0.114735
0.229868 0.283917 0.114019
0.234352 0.289345 0.113392
0.242424 0.295399 0.113392
0.250875 0.301588 0.113392
0.260966 0.308358 0.113392
0.272000 0.314461 0.114043
0.285866 0.318563 0.116647
0.311817 0.318494 0.124418
0.364352 0.309249 0.143558
0.436247 0.301323 0.167750
0.540407 0.295595 0.200366
0.627735 0.295904 0.222585
0.693421 0.303976 0.231439
0.743743 0.313383 0.238209
0.778702 0.324125 0.242896
0.812159 0.336404 0.248352
0.844449 0.349880 0.254407
0.869130 0.361240 0.260054
0.889246 0.371330 0.265457
0.909361 0.380929 0.270368
0.929477 0.390303 0.275056
0.943588 0.399677 0.281256
0.955696 0.409052 0.287962
0.968334 0.420701 0.296889
0.981094 0.432874 0.306328
0.985651 0.442029 0.314002
0.989036 0.450752 0.321423
0.994450 0.460086 0.328173
1.000000 0.469460 0.334878
0.215811 0.289723 0.113392
0.223102 0.299814 0.115019
0.230088 0.309575 0.116444
0.232496 0.314392 0.114816
0.235564 0.319364 0.113343
0.243246 0.325419 0.112953
0.251233 0.331705 0.112562
0.260542 0.338996 0.112171
0.269136 0.345880 0.111781
0.275580 0.351544 0.111390
0.289512 0.354665 0.113156
0.319914 0.352191 0.119666
0.378463 0.345323 0.137284
0.483925 0.331131 0.173414
0.584004 0.325142 0.201428
0.677162 0.329699 0.219005
0.744215 0.336241 0.230983
0.785163 0.344770 0.237363
0.820801 0.356007 0.243559
0.852309 0.369353 0.249614
0.875233 0.380420 0.255668
0.893005 0.390120 0.261722
0.911046 0.398969 0.266658
0.929209 0.407432 0.271085
0.942538 0.415309 0.276732
0.954256 0.422991 0.282786
0.966291 0.436227 0.292120
0.978400 0.450744 0.302210
0.984471 0.459964 0.310535
0.989679 0.468427 0.318608
0.994841 0.476158 0.324788
1.000000 0.483839 0.330842
0.217829 0.322013 0.113392
0.223037 0.332104 0.113978
0.228135 0.341995 0.114491
0.231585 0.348895 0.113905
0.235434 0.355690 0.113213
0.242074 0.361744 0.111781
0.248824 0.367640 0.110349
0.256050 0.372848 0.108916
0.263342 0.377910 0.107484
0.270828 0.382532 0.106052
0.282221 0.386238 0.105800
0.302206 0.387931 0.108143
0.338622 0.385620 0.116907
0.402420 0.376636 0.136372
0.495924 0.369475 0.161391
0.627621 0.364658 0.193550
0.722797 0.364430 0.215945
0.781452 0.368791 0.228574
0.823665 0.377035 0.237505
0.853091 0.388297 0.243559
0.874582 0.397932 0.249614
0.891313 0.406590 0.255668
0.909028 0.415830 0.261320
0.927191 0.425335 0.266788
0.939739 0.432691 0.272696
0.950415 0.439331 0.278750
0.962255 0.453218 0.288084
0.974364 0.468777 0.298174
0.983169 0.479038 0.306499
0.991501 0.488543 0.314571
0.995882 0.495362 0.320752
1.000000 0.502002 0.326806
0.218081 0.355186 0.111626
0.222117 0.364365 0.111170
0.226125 0.373418 0.110743
0.229705 0.380579 0.110743
0.233538 0.387487 0.110491
0.239137 0.392630 0.108473
0.244821 0.397566 0.106369
0.250875 0.401602 0.103896
0.257548 0.405866 0.101536
0.266076 0.410814 0.099518
0.276069 0.415476 0.097988
0.289284 0.419513 0.097532
0.311141 0.420961 0.100006
0.347402 0.418097 0.107362
0.424334 0.412270 0.126168
0.553557 0.402635 0.159694
0.664325 0.397460 0.187264
0.756637 0.396744 0.208877
0.816248 0.401337 0.224046
0.850426 0.410061 0.234201
0.873618 0.418377 0.242078
0.890218 0.426450 0.248588
0.907266 0.435596 0.255098
0.924518 0.445231 0.261608
0.937424 0.453206 0.268460
0.948881 0.460627 0.275426
0.960498 0.474026 0.284560
0.972150 0.488803 0.294195
0.981639 0.499081 0.302463
0.990818 0.508716 0.310535
0.995557 0.515421 0.317143
1.000000 0.521931 0.323653
0.216063 0.389493 0.107590
0.220099 0.396589 0.106093
0.224042 0.403559 0.104689
0.226581 0.408637 0.104689
0.229372 0.413462 0.104437
0.233929 0.416522 0.102419
0.238766 0.419765 0.100120
0.244821 0.423801 0.096604
0.251754 0.428586 0.093463
0.261324 0.435617 0.091445
0.271382 0.441712 0.089590
0.282514 0.445748 0.088092
0.299554 0.449930 0.087572
0.326440 0.454357 0.088678
0.373947 0.453088 0.097133
0.447965 0.444495 0.115036
0.558212 0.436715 0.141043
0.704687 0.429749 0.175156
0.795611 0.429851 0.201065
0.843330 0.435450 0.220595
0.872250 0.442595 0.232639
0.889893 0.450667 0.240190
0.905834 0.459097 0.247742
0.921002 0.467691 0.255294
0.935731 0.477749 0.263968
0.950313 0.488295 0.273017
0.961669 0.499740 0.281696
0.972281 0.511393 0.290289
0.979816 0.520369 0.298427
0.986912 0.528962 0.306499
0.993474 0.536579 0.314083
1.000000 0.544130 0.321635
0.213036 0.423801 0.100527
0.216551 0.429334 0.099029
0.219973 0.434774 0.097560
0.221991 0.438811 0.096519
0.224326 0.442790 0.095355
0.228883 0.446370 0.093337
0.233721 0.449939 0.090941
0.239775 0.453454 0.086904
0.246578 0.458109 0.083243
0.255627 0.466181 0.080704
0.265164 0.473155 0.077676
0.275776 0.477712 0.073575
0.290928 0.483001 0.069865
0.313648 0.489511 0.066805
0.344001 0.490325 0.068359
0.384167 0.483815 0.075846
0.476967 0.476296 0.096905
0.622401 0.467768 0.131539
0.733083 0.463964 0.162949
0.816736 0.463833 0.191854
0.864015 0.467853 0.212295
0.889469 0.474363 0.227659
0.907852 0.483022 0.238010
0.923020 0.492656 0.246082
0.937359 0.503756 0.255668
0.951420 0.515344 0.265759
0.962255 0.524869 0.274632
0.972346 0.533918 0.283226
0.978449 0.541656 0.290907
0.983982 0.549208 0.298459
0.991911 0.557736 0.307475
1.000000 0.566329 0.316589
0.208999 0.458109 0.090436
0.211473 0.462601 0.089980
0.213919 0.467064 0.089358
0.215937 0.471100 0.086233
0.218402 0.475470 0.083247
0.224001 0.482175 0.081229
0.229685 0.488087 0.078832
0.235739 0.490561 0.074796
0.242021 0.494434 0.070874
0.248987 0.502507 0.067293
0.257418 0.509806 0.062248
0.269070 0.515405 0.053980
0.285264 0.520173 0.046884
0.309026 0.523559 0.041741
0.334496 0.523982 0.039845
0.362163 0.520597 0.042124
0.420591 0.516202 0.054851
0.509778 0.510799 0.078026
0.628663 0.503675 0.109698
0.770646 0.495212 0.147976
0.848912 0.494154 0.181047
0.888949 0.497539 0.210993
0.913320 0.507369 0.225901
0.930572 0.520129 0.233973
0.942306 0.531228 0.243559
0.952201 0.541774 0.253650
0.962255 0.549411 0.263370
0.972346 0.556377 0.273005
0.977537 0.562944 0.279906
0.982029 0.569454 0.286416
0.990870 0.578894 0.297320
1.000000 0.588528 0.308517
0.201558 0.494687 0.074670
0.204162 0.499309 0.074084
0.206766 0.503858 0.073209
0.209370 0.507308 0.068001
0.212332 0.511190 0.063119
0.217800 0.518090 0.060515
0.223378 0.524625 0.057532
0.229433 0.529572 0.052910
0.235780 0.534862 0.048434
0.243006 0.541176 0.044398
0.251575 0.547226 0.039385
0.263098 0.552695 0.032224
0.278722 0.556210 0.026138
0.301181 0.556471 0.021841
0.325321 0.556247 0.019424
0.351621 0.555401 0.019424
0.392081 0.553838 0.025869
0.446700 0.551560 0.038759
0.549985 0.545729 0.061316
0.691122 0.537136 0.091392
0.791002 0.530781 0.131600
0.866127 0.525768 0.177886
0.905716 0.531497 0.202331
0.929152 0.542108 0.216848
0.941944 0.552329 0.228045
0.951188 0.562419 0.238136
0.961120 0.570182 0.248226
0.971211 0.577408 0.258317
0.977029 0.583609 0.265901
0.982237 0.589664 0.273127
0.991000 0.598953 0.284381
1.000000 0.608457 0.295904
0.191467 0.533031 0.054489
0.195113 0.538694 0.052861
0.198758 0.544155 0.050880
0.202404 0.546563 0.043589
0.206147 0.549273 0.036753
0.210574 0.554090 0.033107
0.215306 0.559909 0.029083
0.221360 0.570064 0.023420
0.228228 0.578479 0.018163
0.237538 0.581668 0.014127
0.247213 0.585245 0.010741
0.257694 0.589672 0.008788
0.271495 0.591364 0.007128
0.290830 0.588500 0.005957
0.316402 0.587430 0.005298
0.349994 0.588667 0.005298
0.385245 0.589708 0.007055
0.422157 0.590555 0.010571
0.491330 0.589607 0.016723
0.585595 0.587263 0.024925
0.699796 0.575439 0.067997
0.825960 0.557927 0.131990
0.887944 0.555453 0.169846
0.920754 0.559815 0.195821
0.937452 0.568473 0.209882
0.948780 0.578564 0.219973
0.959102 0.588020 0.230063
0.969192 0.597329 0.240154
0.976834 0.603790 0.249561
0.984125 0.609845 0.258870
0.992042 0.618157 0.269278
1.000000 0.626620 0.279759
0.177593 0.573897 0.031785
0.180978 0.578649 0.030418
0.184526 0.583312 0.028795
0.190515 0.586632 0.023326
0.196423 0.589798 0.018200
0.201761 0.591881 0.015465
0.207234 0.595600 0.012475
0.213288 0.606406 0.008373
0.220351 0.615016 0.004614
0.230442 0.617034 0.001880
0.240939 0.619683 0.000000
0.252332 0.623719 0.000000
0.266507 0.625216 0.000000
0.285321 0.622482 0.000000
0.312366 0.621542 0.000000
0.349994 0.622909 0.000000
0.385245 0.624927 0.000000
0.418121 0.627596 0.000000
0.468317 0.630229 0.000000
0.531985 0.632833 0.000000
0.630807 0.622376 0.029905
0.750721 0.604083 0.077754
0.832861 0.594383 0.120679
0.897831 0.588589 0.161367
0.927061 0.592268 0.181548
0.944377 0.599103 0.194893
0.955823 0.607525 0.206123
0.965913 0.616314 0.216864
0.974807 0.623280 0.227606
0.983531 0.629985 0.238347
0.991781 0.636751 0.249089
1.000000 0.643522 0.259830
0.161448 0.616277 0.007568
0.163792 0.618946 0.007242
0.166558 0.621786 0.006856
0.175672 0.627190 0.005554
0.184575 0.631787 0.004333
0.191996 0.630746 0.003682
0.199161 0.631535 0.002970
0.205216 0.640258 0.001994
0.212279 0.647306 0.001099
0.222369 0.649324 0.000448
0.233518 0.651972 0.000000
0.246993 0.656009 0.000000
0.262862 0.658287 0.000000
0.282717 0.657636 0.000000
0.311259 0.657412 0.000000
0.350970 0.657738 0.000000
0.389347 0.659756 0.000000
0.426389 0.663467 0.000000
0.466690 0.668898 0.000000
0.509525 0.675669 0.000000
0.575146 0.670680 0.007120
0.654438 0.658637 0.018513
0.755392 0.642297 0.061503
0.866192 0.624004 0.118856
0.913129 0.620651 0.147110
0.938779 0.622279 0.165663
0.951786 0.628032 0.178716
0.961877 0.634737 0.190499
0.971683 0.642354 0.202282
0.981448 0.650101 0.214065
0.990740 0.654979 0.225848
1.000000 0.659666 0.237631
0.148078 0.653108 0.000000
0.150812 0.655842 0.000000
0.153917 0.658694 0.000000
0.162575 0.663316 0.000000
0.171339 0.667198 0.000000
0.180844 0.665896 0.000000
0.190104 0.666083 0.000000
0.198307 0.672723 0.000000
0.206981 0.678029 0.000000
0.217072 0.679331 0.000000
0.228200 0.681040 0.000000
0.241610 0.683644 0.000000
0.257291 0.685808 0.000000
0.276756 0.687240 0.000000
0.306930 0.688046 0.000000
0.350873 0.688046 0.000000
0.392016 0.689706 0.000000
0.430360 0.693026 0.000000
0.468777 0.698617 0.000000
0.507251 0.705973 0.000000
0.556589 0.705110 0.000000
0.612444 0.699316 0.000000
0.700659 0.687659 0.027749
0.803582 0.673337 0.068111
0.867152 0.660627 0.099245
0.917605 0.648453 0.127303
0.939918 0.650508 0.147639
0.955737 0.655846 0.166192
0.965917 0.663576 0.178480
0.975292 0.671649 0.189872
0.985032 0.676609 0.200593
0.994797 0.681361 0.211270
0.135969 0.687415 0.000000
0.139745 0.691191 0.000000
0.143696 0.694890 0.000000
0.150271 0.697428 0.000000
0.157473 0.699617 0.000000
0.169061 0.699357 0.000000
0.180600 0.700000 0.000000
0.191927 0.704557 0.000000
0.202945 0.708040 0.000000
0.213036 0.708300 0.000000
0.223838 0.708642 0.000000
0.236207 0.709163 0.000000
0.250847 0.710806 0.000000
0.269270 0.714322 0.000000
0.301136 0.716299 0.000000
0.350287 0.716299 0.000000
0.394034 0.717439 0.000000
0.432378 0.719717 0.000000
0.472553 0.724266 0.000000
0.514152 0.730581 0.000000
0.554896 0.733233 0.000000
0.595128 0.733689 0.000000
0.656261 0.731862 0.005550
0.726894 0.728998 0.013622
0.806609 0.705871 0.045277
0.889351 0.675990 0.084793
0.924489 0.673879 0.114893
0.948641 0.678175 0.142821
0.958951 0.685776 0.155369
0.967284 0.693848 0.165720
0.977204 0.699784 0.174423
0.987229 0.705578 0.183016
0.125374 0.715669 0.000000
0.130192 0.721267 0.000000
0.135184 0.726593 0.000000
0.142801 0.727830 0.000000
0.150979 0.728912 0.000000
0.163088 0.728912 0.000000
0.175343 0.729523 0.000000
0.188233 0.732778 0.000000
0.200618 0.735219 0.000000
0.211490 0.735219 0.000000
0.223236 0.735463 0.000000
0.236907 0.736244 0.000000
0.251677 0.737953 0.000000
0.268277 0.741208 0.000000
0.300030 0.742697 0.000000
0.351263 0.741916 0.000000
0.397614 0.742144 0.000000
0.439083 0.743381 0.000000
0.479307 0.747328 0.000000
0.518562 0.753382 0.000000
0.557940 0.756914 0.000000
0.597390 0.758932 0.000000
0.646284 0.759562 0.000000
0.699471 0.759562 0.000000
0.769161 0.742620 0.019481
0.844351 0.720030 0.045456
0.893095 0.711457 0.075557
0.935735 0.706119 0.106609
0.950179 0.711148 0.124789
0.960595 0.717658 0.141129
0.969974 0.724473 0.151183
0.979283 0.731309 0.160817
0.115284 0.741904 0.000000
0.121143 0.749586 0.000000
0.127242 0.756800 0.000000
0.136942 0.756995 0.000000
0.146943 0.757166 0.000000
0.159051 0.757166 0.000000
0.171502 0.757581 0.000000
0.185433 0.759794 0.000000
0.198860 0.761454 0.000000
0.210773 0.761454 0.000000
0.223887 0.762024 0.000000
0.239641 0.763847 0.000000
0.254932 0.765816 0.000000
0.269449 0.768029 0.000000
0.300485 0.768477 0.000000
0.352761 0.766654 0.000000
0.401716 0.765840 0.000000
0.447351 0.766036 0.000000
0.487054 0.769527 0.000000
0.522143 0.775581 0.000000
0.562562 0.779113 0.000000
0.606179 0.781131 0.000000
0.647782 0.781761 0.000000
0.688469 0.781761 0.000000
0.739410 0.776537 0.003076
0.793768 0.769571 0.007177
0.856378 0.753772 0.034023
0.920892 0.735935 0.066117
0.940805 0.737579 0.091718
0.954346 0.742006 0.116391
0.962943 0.749667 0.128918
0.971211 0.757544 0.140636
0.115032 0.773058 0.000000
0.121932 0.776899 0.000000
0.128979 0.780553 0.000000
0.138224 0.781399 0.000000
0.147826 0.782034 0.000000
0.159934 0.781188 0.000000
0.172580 0.780879 0.000000
0.187553 0.782897 0.000000
0.201810 0.784622 0.000000
0.213919 0.785468 0.000000
0.227288 0.786416 0.000000
0.243433 0.787588 0.000000
0.259456 0.788760 0.000000
0.275275 0.789931 0.000000
0.307130 0.789708 0.000000
0.359600 0.787690 0.000000
0.407774 0.786257 0.000000
0.451652 0.785411 0.000000
0.492526 0.788446 0.000000
0.531065 0.794501 0.000000
0.573266 0.798032 0.000000
0.617665 0.800050 0.000000
0.657319 0.800099 0.000000
0.694816 0.799253 0.000000
0.737587 0.797918 0.000000
0.782115 0.796421 0.000000
0.833837 0.785932 0.015233
0.887219 0.773368 0.033982
0.918101 0.770145 0.058541
0.945769 0.768257 0.083930
0.955859 0.772533 0.099249
0.964778 0.777221 0.113897
0.117050 0.805348 0.000000
0.124992 0.803981 0.000000
0.132950 0.802817 0.000000
0.141153 0.804705 0.000000
0.149844 0.806121 0.000000
0.161953 0.804233 0.000000
0.174793 0.803078 0.000000
0.190808 0.805096 0.000000
0.205846 0.807081 0.000000
0.217955 0.808969 0.000000
0.231325 0.810308 0.000000
0.247469 0.810438 0.000000
0.264273 0.810568 0.000000
0.282176 0.810698 0.000000
0.315202 0.809889 0.000000
0.367673 0.807871 0.000000
0.414284 0.805918 0.000000
0.455037 0.804030 0.000000
0.497474 0.806609 0.000000
0.541221 0.812664 0.000000
0.585375 0.816195 0.000000
0.629773 0.818213 0.000000
