app/src/main/assets/cube/Game01.cube
# LUT by SparkleStock. Enhanced with VOXCOLOR algorithms.
LUT_3D_SIZE 32
0.070381 0.058651 0.070381
0.102671 0.070760 0.080472
0.135087 0.082616 0.090310
0.169394 0.090688 0.096364
0.203450 0.098508 0.101914
0.235739 0.104563 0.103932
0.268029 0.110995 0.105193
0.300318 0.119068 0.103175
0.333617 0.127140 0.101157
0.369943 0.135213 0.099139
0.406269 0.144546 0.095229
0.442595 0.156655 0.087157
0.478164 0.168764 0.079084
0.512471 0.180872 0.071012
0.547662 0.192981 0.062057
0.583988 0.205089 0.051966
0.616277 0.215180 0.046921
0.644531 0.223252 0.046921
0.675054 0.231325 0.046921
0.707344 0.239397 0.046921
0.743418 0.248731 0.046921
0.781761 0.258821 0.046921
0.815943 0.266137 0.041371
0.848233 0.272191 0.033299
0.880522 0.278246 0.032794
0.912812 0.284300 0.034812
0.941822 0.291994 0.041749
0.970075 0.300066 0.049822
0.985526 0.308139 0.059660
0.999149 0.316211 0.069751
1.000000 0.322391 0.079841
1.000000 0.328446 0.089932
0.088544 0.080850 0.084508
0.110418 0.089834 0.089390
0.134175 0.098631 0.094281
0.186190 0.104620 0.099294
0.236000 0.110747 0.103672
0.270372 0.117843 0.103607
0.303964 0.124927 0.103175
0.334170 0.131958 0.101157
0.365386 0.139509 0.098358
0.399629 0.148623 0.093215
0.434522 0.158999 0.087808
0.470848 0.172149 0.081818
0.506417 0.184518 0.074657
0.540725 0.195585 0.065543
0.575004 0.207107 0.057369
0.609246 0.219216 0.050404
0.641015 0.228786 0.046400
0.670310 0.235817 0.045358
0.700118 0.242847 0.044903
0.730324 0.249878 0.044903
0.763664 0.258821 0.042950
0.798883 0.268912 0.039825
0.830656 0.274795 0.035447
0.860862 0.278766 0.030499
0.894193 0.285081 0.030776
0.928566 0.292177 0.032794
0.953735 0.299220 0.039731
0.976781 0.306251 0.047804
0.988847 0.314193 0.057642
0.999344 0.322265 0.067732
1.000000 0.328446 0.076846
1.000000 0.334500 0.085895
0.106581 0.102923 0.098130
0.118559 0.108977 0.098195
0.133960 0.114901 0.098500
0.200687 0.118873 0.102406
0.263858 0.123340 0.105556
0.302137 0.131282 0.103407
0.338634 0.138883 0.101247
0.367408 0.145002 0.099033
0.397045 0.152131 0.095404
0.429269 0.162286 0.087527
0.462755 0.173642 0.080789
0.499016 0.187639 0.076558
0.534447 0.200170 0.070153
0.568494 0.210261 0.060128
0.601744 0.221177 0.052666
0.633968 0.233156 0.048499
0.665119 0.242139 0.045472
0.695195 0.248129 0.043584
0.724282 0.254191 0.042722
0.752601 0.260310 0.042657
0.783360 0.268871 0.038889
0.815585 0.278897 0.032900
0.845079 0.283462 0.029686
0.873333 0.285545 0.027733
0.907543 0.292120 0.028807
0.943738 0.300192 0.030890
0.965177 0.306572 0.037839
0.983209 0.312561 0.045912
0.992028 0.320373 0.055750
0.999531 0.328446 0.065841
1.000000 0.334565 0.074039
1.000000 0.340554 0.082111
0.122726 0.123104 0.104184
0.132621 0.129158 0.105291
0.144180 0.135017 0.106443
0.180701 0.137947 0.108265
0.221348 0.141243 0.109331
0.290875 0.147102 0.105100
0.354323 0.153205 0.100661
0.391430 0.160366 0.095323
0.427056 0.168536 0.090131
0.458239 0.179733 0.085379
0.490683 0.191154 0.079813
0.525902 0.203067 0.072456
0.559119 0.214297 0.064490
0.589000 0.224387 0.055506
0.619451 0.234393 0.047718
0.650634 0.244288 0.041469
0.679701 0.251709 0.038442
0.706652 0.256657 0.038637
0.734959 0.262849 0.038100
0.764319 0.270010 0.036993
0.794818 0.278311 0.033486
0.826001 0.287294 0.028538
0.855170 0.292250 0.026365
0.883423 0.295375 0.025454
0.916071 0.302210 0.027570
0.950183 0.310283 0.030695
0.969538 0.315816 0.037839
0.985488 0.320764 0.045912
0.993135 0.328446 0.055750
0.999596 0.336518 0.065841
1.000000 0.341661 0.074039
1.000000 0.346609 0.082111
0.138366 0.143033 0.110491
0.146178 0.148957 0.112379
0.154132 0.154669 0.114157
0.164223 0.157208 0.114287
0.184493 0.159918 0.113709
0.276024 0.163824 0.108176
0.359572 0.168463 0.102020
0.408527 0.176275 0.093166
0.453137 0.185128 0.085924
0.484710 0.197107 0.083515
0.517016 0.208454 0.078747
0.550933 0.218415 0.068786
0.582018 0.228375 0.059436
0.608384 0.238335 0.051103
0.636344 0.247413 0.042885
0.666355 0.255355 0.034812
0.693535 0.261409 0.031655
0.717882 0.265575 0.033413
0.745269 0.271939 0.033120
0.775020 0.280011 0.031232
0.805096 0.287921 0.028083
0.835367 0.295733 0.024177
0.864341 0.301128 0.022866
0.892724 0.305425 0.022736
0.923940 0.312456 0.025633
0.956099 0.320398 0.029539
0.973395 0.325272 0.036936
0.987262 0.329439 0.045139
0.993965 0.336795 0.054879
0.999645 0.344607 0.064840
1.000000 0.349001 0.073152
1.000000 0.353167 0.081355
0.150475 0.161196 0.118563
0.156203 0.166078 0.119410
0.162205 0.171075 0.120276
0.172295 0.177780 0.121448
0.187228 0.184005 0.122303
0.236053 0.186870 0.120935
0.291737 0.190271 0.116993
0.377149 0.196000 0.101890
0.451704 0.203031 0.089179
0.493694 0.213967 0.083645
0.532184 0.224274 0.077054
0.562977 0.233192 0.068135
0.592499 0.242111 0.058655
0.619907 0.251030 0.048239
0.647542 0.259065 0.038848
0.675469 0.265966 0.030776
0.702128 0.272020 0.026577
0.727517 0.277228 0.026252
0.753016 0.284048 0.025633
0.778600 0.292120 0.024787
0.807114 0.298728 0.022679
0.837385 0.304456 0.019815
0.867075 0.310633 0.018114
0.896500 0.317013 0.016942
0.927195 0.323783 0.018798
0.958313 0.330684 0.021662
0.973721 0.336209 0.029710
0.985504 0.341417 0.038954
0.992858 0.347081 0.047914
0.999580 0.352809 0.056832
1.000000 0.358050 0.066056
1.000000 0.363258 0.075300
0.162205 0.180115 0.126257
0.166632 0.184347 0.126453
0.171400 0.188932 0.126762
0.181295 0.198828 0.128780
0.191646 0.207787 0.130774
0.205187 0.210196 0.132596
0.236036 0.212873 0.130660
0.341889 0.216714 0.112432
0.435747 0.221922 0.096206
0.493621 0.231231 0.085985
0.543032 0.240093 0.076191
0.573824 0.247970 0.067338
0.603518 0.255847 0.057337
0.631380 0.263724 0.045424
0.658446 0.270804 0.035020
0.684486 0.276858 0.026557
0.710428 0.282815 0.021219
0.736273 0.288674 0.019005
0.760616 0.295888 0.018037
0.783792 0.304155 0.018037
0.811280 0.309900 0.017020
0.841356 0.314132 0.015392
0.871298 0.320870 0.013496
0.901179 0.328747 0.011478
0.930914 0.335403 0.012487
0.960599 0.341653 0.014505
0.974523 0.347744 0.022765
0.984808 0.353798 0.032465
0.992374 0.358087 0.041082
0.999551 0.362123 0.049545
1.000000 0.367868 0.059717
1.000000 0.373727 0.070003
0.172295 0.202315 0.132312
0.178805 0.207588 0.133549
0.185462 0.213084 0.134834
0.194315 0.221938 0.136852
0.203364 0.230246 0.138716
0.213780 0.234738 0.139497
0.232912 0.238913 0.138667
0.289809 0.241712 0.130855
0.356846 0.245097 0.119576
0.454300 0.250240 0.097898
0.535155 0.255912 0.078926
0.579488 0.262748 0.065906
0.616863 0.269583 0.053691
0.642643 0.276419 0.042820
0.668081 0.282912 0.032090
0.693079 0.288967 0.021544
0.717459 0.294403 0.014643
0.741220 0.299220 0.011388
0.767582 0.306564 0.009964
0.795965 0.315873 0.009964
0.824756 0.322660 0.010249
0.853790 0.327933 0.010705
0.881975 0.334280 0.009460
0.909772 0.341116 0.007442
0.936642 0.348293 0.008451
0.963203 0.355584 0.010469
0.977387 0.361871 0.017036
0.988714 0.367925 0.024653
0.994588 0.372213 0.034833
0.999682 0.376249 0.045379
1.000000 0.381018 0.056657
1.000000 0.385835 0.067985
0.182890 0.225018 0.138366
0.190702 0.231072 0.140384
0.198531 0.237253 0.142402
0.206603 0.245325 0.144420
0.214708 0.253210 0.146186
0.223041 0.259786 0.146186
0.233351 0.265604 0.146235
0.252230 0.268143 0.146495
0.294919 0.270421 0.140099
0.409040 0.271919 0.113734
0.507780 0.274514 0.089586
0.572685 0.279527 0.070316
0.623796 0.284735 0.053903
0.651919 0.290269 0.042250
0.678334 0.295916 0.030284
0.702551 0.301710 0.017915
0.726020 0.306885 0.009712
0.748739 0.311442 0.005676
0.776110 0.318819 0.003910
0.807098 0.328389 0.003910
0.836376 0.335599 0.004846
0.864630 0.341393 0.006343
0.891854 0.347723 0.005782
0.918610 0.354299 0.004284
0.942876 0.361606 0.005228
0.966312 0.369158 0.006986
0.980121 0.375493 0.012023
0.991709 0.381547 0.017817
0.996248 0.385835 0.028908
0.999779 0.389872 0.040757
1.000000 0.393908 0.053093
1.000000 0.397944 0.065462
0.194999 0.249235 0.144420
0.201769 0.255290 0.146438
0.208621 0.261470 0.148456
0.216693 0.269542 0.150475
0.224929 0.277688 0.152240
0.234303 0.286346 0.152240
0.244483 0.294248 0.152485
0.258154 0.298870 0.153787
0.283917 0.302190 0.152078
0.345958 0.301604 0.141336
0.421913 0.301466 0.124024
0.528482 0.302312 0.092255
0.611492 0.304135 0.065686
0.655240 0.307585 0.047783
0.690442 0.311605 0.031846
0.714660 0.316357 0.018436
0.739170 0.322054 0.009712
0.763973 0.328694 0.005676
0.789325 0.335810 0.003910
0.815105 0.343297 0.003910
0.842431 0.349074 0.003544
0.870684 0.353827 0.002958
0.899340 0.361264 0.003178
0.928179 0.369923 0.003764
0.950623 0.376188 0.004447
0.970934 0.381657 0.005163
0.982465 0.387601 0.009159
0.991969 0.393656 0.013911
0.996248 0.397944 0.023961
0.999779 0.401980 0.034767
1.000000 0.406016 0.048015
1.000000 0.410053 0.061426
0.206477 0.274714 0.150475
0.213182 0.281419 0.152493
0.219932 0.288169 0.154490
0.227354 0.295591 0.156183
0.235068 0.303264 0.157705
0.244833 0.312704 0.158030
0.254781 0.321570 0.158673
0.265523 0.327949 0.160691
0.279649 0.332718 0.162286
0.303932 0.332653 0.162612
0.357590 0.331876 0.152053
0.475877 0.329532 0.117550
0.574878 0.327726 0.086441
0.641735 0.326814 0.060986
0.692216 0.327640 0.039206
0.721642 0.330700 0.022150
0.749472 0.336266 0.011279
0.775707 0.344338 0.006591
0.800404 0.351276 0.004175
0.823906 0.357330 0.003524
0.850377 0.362733 0.002425
0.878630 0.367746 0.001058
0.907376 0.375578 0.001794
0.936345 0.384692 0.003487
0.956966 0.390242 0.003910
0.974803 0.394604 0.003910
0.984905 0.400341 0.006661
0.993221 0.406395 0.010046
0.996853 0.410683 0.019298
0.999815 0.414720 0.029389
1.000000 0.418756 0.042653
1.000000 0.422792 0.056128
0.216567 0.302967 0.156529
0.225356 0.311756 0.158547
0.233929 0.320329 0.160480
0.239267 0.325667 0.161131
0.245028 0.331257 0.161871
0.253752 0.338614 0.163238
0.263244 0.345982 0.164727
0.276069 0.353403 0.166745
0.290195 0.360516 0.168601
0.308228 0.366700 0.169968
0.340664 0.369894 0.165985
0.404788 0.366509 0.150230
0.484779 0.360536 0.126933
0.591218 0.350250 0.091063
0.671254 0.344436 0.059322
0.717345 0.344371 0.032892
0.753508 0.348374 0.016291
0.779743 0.356447 0.009521
0.806784 0.363384 0.005021
0.834452 0.369438 0.002287
0.862485 0.376795 0.001709
0.890739 0.384932 0.002425
0.916620 0.391593 0.003096
0.941423 0.397582 0.003747
0.960221 0.403132 0.003910
0.977017 0.408535 0.003910
0.987558 0.414467 0.004968
0.996655 0.420522 0.006270
0.998790 0.424810 0.015262
0.999929 0.428846 0.025352
1.000000 0.432882 0.036664
1.000000 0.436919 0.048056
0.228171 0.331221 0.162583
0.237090 0.340921 0.164601
0.245752 0.350291 0.166518
0.250570 0.354718 0.166908
0.255794 0.359348 0.167502
0.263867 0.365402 0.169520
0.272928 0.371688 0.171538
0.286273 0.378980 0.173557
0.299716 0.386775 0.175477
0.313452 0.396085 0.177105
0.331623 0.401956 0.177450
0.359551 0.400263 0.174977
0.419460 0.393883 0.160028
0.532668 0.379692 0.124288
0.626710 0.369117 0.088691
0.696106 0.363193 0.053276
0.747633 0.363681 0.028603
0.781289 0.370582 0.014672
0.812822 0.377226 0.006307
0.842703 0.383671 0.002270
0.871079 0.391662 0.001530
0.898551 0.400581 0.002767
0.922129 0.406411 0.003153
0.943938 0.410838 0.003153
0.961498 0.416192 0.003153
0.977643 0.421856 0.003153
0.988776 0.428155 0.003471
0.998753 0.434599 0.003861
1.000000 0.439620 0.012739
1.000000 0.444438 0.022830
1.000000 0.448523 0.032188
1.000000 0.452559 0.041497
0.242298 0.359474 0.168637
0.248092 0.368132 0.170656
0.253955 0.376591 0.172637
0.260856 0.382060 0.174069
0.267903 0.387601 0.175575
0.275975 0.393656 0.177593
0.284646 0.399551 0.179611
0.295908 0.404759 0.181629
0.307528 0.410472 0.183289
0.320223 0.417698 0.183875
0.335725 0.424090 0.184807
0.357403 0.428647 0.186499
0.395438 0.428126 0.180795
0.460733 0.419142 0.162762
0.542861 0.406940 0.133479
0.646630 0.390600 0.089732
0.725238 0.384318 0.053081
0.778685 0.388094 0.023526
0.818291 0.393957 0.008325
0.847130 0.401443 0.004288
0.873813 0.407872 0.002246
0.899202 0.413666 0.001400
0.921413 0.419236 0.001135
0.942180 0.424704 0.001135
0.959480 0.429538 0.001135
0.975625 0.434160 0.001135
0.987605 0.441109 0.002299
0.998623 0.448596 0.003731
1.000000 0.455570 0.012739
1.000000 0.462470 0.022830
1.000000 0.466686 0.030235
1.000000 0.470722 0.037461
0.254659 0.385962 0.175575
0.259151 0.393578 0.177593
0.263838 0.401069 0.179611
0.271455 0.406667 0.181629
0.279071 0.412266 0.183590
0.286688 0.417865 0.185153
0.294769 0.423085 0.186715
0.304859 0.426665 0.188277
0.315568 0.430978 0.189677
0.328132 0.437488 0.190588
0.342162 0.444202 0.192334
0.359413 0.451363 0.195914
0.383378 0.454764 0.195979
0.418532 0.451900 0.190186
0.483990 0.441773 0.169524
0.588410 0.422308 0.129748
0.678834 0.411306 0.089777
0.755262 0.408767 0.049610
0.808949 0.411428 0.025153
0.844949 0.418133 0.012914
0.874439 0.424025 0.006209
0.900024 0.429428 0.002824
0.922520 0.434966 0.001139
0.943612 0.440564 0.000228
0.960652 0.446016 0.000000
0.976341 0.451420 0.000000
0.987971 0.458251 0.001269
0.998663 0.465412 0.002832
1.000000 0.472972 0.011856
1.000000 0.480589 0.021947
1.000000 0.484421 0.028681
1.000000 0.488002 0.035191
0.264749 0.410179 0.183647
0.270283 0.416754 0.185665
0.275882 0.423203 0.187683
0.282457 0.427760 0.189701
0.289032 0.432317 0.191532
0.295607 0.436874 0.192053
0.302841 0.441052 0.192574
0.312932 0.443591 0.193095
0.323901 0.447383 0.194234
0.337507 0.454935 0.197229
0.351601 0.461714 0.200081
0.366769 0.466791 0.202620
0.386698 0.471625 0.203987
0.414561 0.476052 0.203401
0.457234 0.472760 0.194328
0.518949 0.459545 0.174342
0.601561 0.446460 0.142182
0.705070 0.433505 0.097849
0.780565 0.429851 0.061023
0.834273 0.433432 0.030036
0.872356 0.440104 0.014346
0.901065 0.448633 0.007836
0.925970 0.454431 0.003743
0.949146 0.458988 0.000749
0.965925 0.466523 0.000000
0.980573 0.475051 0.000000
0.990314 0.480776 0.000423
0.998924 0.485853 0.000944
1.000000 0.492241 0.009838
1.000000 0.498817 0.019929
1.000000 0.501608 0.027639
1.000000 0.504147 0.035191
0.277867 0.434396 0.192729
0.283921 0.439929 0.194747
0.289943 0.445337 0.196732
0.295477 0.448852 0.198229
0.301205 0.452498 0.199670
0.308301 0.457055 0.200711
0.315763 0.461136 0.201558
0.324812 0.463154 0.201558
0.335131 0.466686 0.202567
0.349257 0.474758 0.206603
0.363710 0.481569 0.209846
0.378878 0.485605 0.211343
0.397049 0.490764 0.212840
0.420225 0.497795 0.214338
0.448641 0.498475 0.211449
0.483795 0.490988 0.202921
0.550522 0.479726 0.180917
0.648823 0.464688 0.145437
0.734344 0.456314 0.105747
0.809925 0.453124 0.062781
0.862721 0.457584 0.036090
0.901847 0.466633 0.019164
0.931080 0.473668 0.010025
0.955818 0.479787 0.004427
0.971817 0.488103 0.002246
0.984902 0.497152 0.001204
0.992658 0.502552 0.001432
0.999184 0.507109 0.001953
1.000000 0.512520 0.009936
1.000000 0.518054 0.018985
1.000000 0.520780 0.029071
1.000000 0.523319 0.039227
0.294012 0.458613 0.202819
0.300066 0.463105 0.204837
0.306023 0.467471 0.206758
0.310515 0.469945 0.207213
0.315593 0.472809 0.208003
0.324772 0.478408 0.211127
0.333536 0.483335 0.213666
0.340501 0.485353 0.213666
0.349257 0.488885 0.214675
0.363384 0.496957 0.218712
0.378487 0.503768 0.221629
0.395739 0.507804 0.222085
0.414431 0.512182 0.222540
0.435523 0.517130 0.222996
0.458210 0.518916 0.220888
0.482948 0.516638 0.215485
0.525719 0.511104 0.205980
0.586522 0.502316 0.192375
0.670286 0.490817 0.159324
0.771907 0.477211 0.111150
0.845535 0.476463 0.071439
0.902367 0.483428 0.036806
0.937851 0.492677 0.019986
0.963630 0.502963 0.011262
0.978327 0.510758 0.006738
0.989329 0.517724 0.003613
0.995002 0.523579 0.004297
0.999445 0.529178 0.005859
1.000000 0.533808 0.012149
1.000000 0.538300 0.019115
1.000000 0.541937 0.032977
1.000000 0.545518 0.047299
0.310157 0.481695 0.214045
0.316797 0.485731 0.216063
0.323311 0.489678 0.217955
0.327933 0.492282 0.217955
0.333165 0.495171 0.218313
0.342670 0.500053 0.221177
0.351747 0.504619 0.223724
0.358974 0.507808 0.224896
0.367632 0.511926 0.226637
0.380587 0.518827 0.230088
0.394437 0.524832 0.232460
0.410256 0.528868 0.232460
0.427931 0.532685 0.232240
0.448698 0.536135 0.231654
0.469977 0.538589 0.229815
0.491916 0.539760 0.226365
0.521569 0.538198 0.222622
0.558936 0.533901 0.218585
0.628309 0.524112 0.196350
0.722573 0.510050 0.159959
0.805975 0.504533 0.119458
0.882858 0.504142 0.076492
0.930157 0.510734 0.048475
0.964009 0.520499 0.027252
0.980040 0.527920 0.017162
0.990130 0.534560 0.010782
0.995368 0.541677 0.012654
0.999485 0.548903 0.016430
1.000000 0.553338 0.021686
1.000000 0.557374 0.027155
1.000000 0.561410 0.039886
1.000000 0.565446 0.053101
0.326302 0.503894 0.226153
0.333983 0.507931 0.228171
0.341539 0.511942 0.230063
0.347203 0.515588 0.230063
0.353216 0.519128 0.230161
0.361679 0.521927 0.230942
0.370301 0.525190 0.232187
0.379610 0.530463 0.235442
0.389310 0.535622 0.238486
0.400182 0.540440 0.240894
0.411298 0.545013 0.242550
0.422951 0.549049 0.242550
0.438412 0.552475 0.241940
0.460220 0.554884 0.240313
0.483453 0.557663 0.238343
0.508516 0.560918 0.235935
0.533482 0.561959 0.232712
0.558350 0.560788 0.228676
0.603505 0.556467 0.220502
0.664439 0.549696 0.209109
0.749012 0.539752 0.177332
0.847769 0.527904 0.133325
0.911213 0.528050 0.091376
0.958606 0.533649 0.050363
0.978022 0.540810 0.032200
0.988112 0.548492 0.021654
0.994196 0.557496 0.025283
0.999355 0.566805 0.032184
1.000000 0.571501 0.036920
1.000000 0.575537 0.041347
1.000000 0.579573 0.049130
1.000000 0.583609 0.057137
0.348753 0.528616 0.238262
0.354872 0.531350 0.239629
0.361069 0.534247 0.240992
0.368425 0.539585 0.242294
0.375790 0.544427 0.243352
0.383211 0.545794 0.242701
0.391011 0.547918 0.242685
0.400450 0.553321 0.245419
0.409890 0.558220 0.247811
0.419329 0.561605 0.249178
0.429379 0.565398 0.250322
0.440772 0.570085 0.250973
0.455973 0.574015 0.250867
0.477521 0.576684 0.249500
0.501689 0.580236 0.247848
0.529226 0.584923 0.245830
0.554387 0.588244 0.243128
0.577172 0.590197 0.239743
0.610723 0.590245 0.236761
0.652648 0.588813 0.234091
0.720571 0.579813 0.213479
0.804095 0.566272 0.182101
0.876116 0.559893 0.141682
0.942908 0.556768 0.097154
0.971080 0.560088 0.071569
0.986379 0.565556 0.052300
0.993757 0.574251 0.051014
0.999306 0.583691 0.053878
1.000000 0.589541 0.056629
1.000000 0.594880 0.059363
1.000000 0.598387 0.062158
1.000000 0.601772 0.064958
0.374988 0.554851 0.250371
0.377983 0.555502 0.250696
0.381380 0.556576 0.251213
0.390820 0.563998 0.254598
0.399877 0.570532 0.257348
0.406257 0.570858 0.255656
0.413015 0.571940 0.254403
0.421413 0.576302 0.255054
0.429811 0.580159 0.255623
0.438208 0.582503 0.255949
0.448193 0.585904 0.256701
0.461669 0.591633 0.258394
0.477781 0.596605 0.259330
0.498288 0.600316 0.259004
0.522781 0.604909 0.257938
0.552402 0.610638 0.255920
0.580688 0.616041 0.253739
0.607639 0.621119 0.251396
0.637154 0.624879 0.248283
0.668662 0.627613 0.244573
0.709244 0.622779 0.236590
0.755270 0.613405 0.226043
0.831327 0.600450 0.196431
0.921035 0.585867 0.158152
0.961185 0.583198 0.125537
0.984816 0.584500 0.094810
0.993757 0.591568 0.084606
0.999306 0.599966 0.079137
1.000000 0.607509 0.079023
1.000000 0.614930 0.079674
1.000000 0.617591 0.077457
1.000000 0.619935 0.075048
0.399836 0.581087 0.261092
0.404002 0.583235 0.261092
0.408405 0.585619 0.261254
0.416347 0.591543 0.263858
0.424053 0.596727 0.265974
0.430108 0.596727 0.264672
0.436540 0.597618 0.263614
0.444613 0.602370 0.263614
0.452864 0.606618 0.263614
0.461653 0.609352 0.263614
0.471438 0.612453 0.264021
0.483416 0.616359 0.265323
0.498471 0.620582 0.265868
0.518652 0.625334 0.265152
0.544500 0.630969 0.263867
0.577636 0.637740 0.261848
0.607973 0.643794 0.259830
0.635510 0.649132 0.257812
0.664659 0.654947 0.255062
0.695060 0.661131 0.251742
0.726113 0.661090 0.247526
0.757556 0.657315 0.242774
0.820195 0.647094 0.224684
0.897013 0.633944 0.200532
0.943413 0.621526 0.170375
0.979674 0.609352 0.138215
0.992145 0.612465 0.121554
0.999127 0.619105 0.108469
1.000000 0.626372 0.104953
1.000000 0.633728 0.102805
1.000000 0.636751 0.099558
1.000000 0.639485 0.096238
0.424053 0.607322 0.271182
0.431344 0.612595 0.271182
0.438481 0.617714 0.271215
0.443298 0.620513 0.271736
0.448270 0.622962 0.272159
0.454325 0.622962 0.271898
0.460757 0.624049 0.271687
0.468830 0.629842 0.271687
0.477342 0.635132 0.271687
0.487172 0.638908 0.271687
0.496697 0.641748 0.271768
0.505550 0.642529 0.272028
0.518652 0.645190 0.271532
0.538833 0.650984 0.269774
0.566504 0.657660 0.267903
0.603807 0.665472 0.265885
0.635706 0.671527 0.263867
0.662201 0.675823 0.261848
0.692652 0.682940 0.259684
0.726178 0.692249 0.257405
0.755799 0.697286 0.252930
0.783076 0.699760 0.247136
0.824361 0.696505 0.240894
0.872014 0.690646 0.234449
0.922060 0.666770 0.211062
0.972903 0.636890 0.182028
0.989802 0.634989 0.160028
0.998867 0.639546 0.139652
1.000000 0.645641 0.132491
1.000000 0.651956 0.127218
1.000000 0.655891 0.124752
1.000000 0.659666 0.122473
0.451298 0.638098 0.278246
0.458589 0.643371 0.278246
0.465823 0.648587 0.278246
0.472203 0.652949 0.278246
0.478347 0.656668 0.278246
0.482839 0.655887 0.278246
0.488148 0.656240 0.278246
0.497002 0.661514 0.278246
0.505774 0.666282 0.278050
0.514302 0.669537 0.277269
0.522932 0.672263 0.276732
0.531786 0.673826 0.276732
0.544887 0.676780 0.275975
0.565068 0.682053 0.273957
0.593195 0.688209 0.271597
0.631539 0.695500 0.268798
0.664610 0.701164 0.265999
0.692408 0.705200 0.263199
0.722109 0.711763 0.260400
0.753292 0.720291 0.257601
0.782360 0.726500 0.252767
0.810157 0.731317 0.246713
0.842296 0.730585 0.243970
0.876409 0.727330 0.242733
0.918772 0.708402 0.228265
0.963887 0.684250 0.209386
0.983943 0.674749 0.190983
0.998216 0.668630 0.172690
1.000000 0.671795 0.165106
1.000000 0.676287 0.159051
1.000000 0.679620 0.155316
1.000000 0.682875 0.151736
0.479551 0.670388 0.284300
0.485801 0.674619 0.284300
0.492254 0.679054 0.284300
0.501758 0.686540 0.284300
0.510376 0.692863 0.284300
0.512785 0.691041 0.284300
0.516597 0.690353 0.284300
0.526492 0.694584 0.284300
0.535525 0.698311 0.283844
0.541970 0.700525 0.282021
0.549493 0.703186 0.280768
0.559388 0.706831 0.280768
0.573140 0.710697 0.280011
0.593321 0.714928 0.277993
0.621449 0.720043 0.275178
0.659793 0.726292 0.271337
0.693905 0.731435 0.267496
0.723786 0.735471 0.263655
0.752055 0.740862 0.259814
0.779072 0.747307 0.255973
0.807879 0.753386 0.250749
0.837760 0.759245 0.244695
0.864821 0.759554 0.242668
0.890600 0.757341 0.242473
0.921507 0.748829 0.237639
0.954122 0.738218 0.231260
0.976912 0.720254 0.219432
0.997435 0.700594 0.206347
1.000000 0.700244 0.199413
1.000000 0.702653 0.193359
1.000000 0.704878 0.187671
1.000000 0.707092 0.182007
0.509444 0.705957 0.290354
0.514652 0.708300 0.289508
0.520059 0.710949 0.288662
0.528457 0.718175 0.287815
0.536269 0.724351 0.287075
0.539980 0.723180 0.287075
0.544728 0.722984 0.287075
0.553972 0.727020 0.287075
0.562419 0.730341 0.286570
0.568473 0.731512 0.284552
0.575525 0.733579 0.283165
0.584769 0.737615 0.283165
0.599066 0.741652 0.282090
0.621786 0.745688 0.279226
0.650601 0.750237 0.276219
0.687253 0.755445 0.273029
0.719021 0.758797 0.268993
0.745908 0.760295 0.264111
0.773380 0.764831 0.259228
0.801308 0.771732 0.254346
0.831229 0.777575 0.248202
0.862347 0.782783 0.241301
0.888139 0.783023 0.238563
0.911510 0.781005 0.237717
0.936883 0.776350 0.237652
0.962923 0.770816 0.237847
0.980103 0.757243 0.232171
0.995239 0.741814 0.225140
0.998426 0.733506 0.216002
0.999907 0.726215 0.206562
1.000000 0.727651 0.201883
1.000000 0.729669 0.197522
0.539716 0.742282 0.296408
0.543882 0.742543 0.294521
0.548183 0.743173 0.292633
0.554497 0.749358 0.290745
0.560747 0.754753 0.289093
0.566541 0.754623 0.289093
0.572786 0.755274 0.289093
0.580989 0.759310 0.289093
0.588654 0.762370 0.288588
0.594709 0.762500 0.286570
0.601434 0.763851 0.285183
0.609637 0.767887 0.285183
0.624455 0.771923 0.283718
0.650300 0.775959 0.279812
0.679961 0.780053 0.276675
0.714529 0.784219 0.274527
0.743173 0.785488 0.270490
0.765893 0.783861 0.264566
0.792714 0.787616 0.258642
0.822726 0.795559 0.252718
0.854079 0.801141 0.245533
0.886239 0.805307 0.237591
