app/src/main/assets/cube/Game01.cube
# LUT by SparkleStock. Enhanced with VOXCOLOR algorithms.
LUT_3D_SIZE 8
DOMAIN_MIN 0.000000 0.000000 0.000000
DOMAIN_MAX 0.903226 0.903226 0.903226
0.070381 0.058651 0.070381
0.203450 0.098508 0.101914
0.333617 0.127140 0.101157
0.478164 0.168764 0.079084
0.616277 0.215180 0.046921
0.743418 0.248731 0.046921
0.880522 0.278246 0.032794
0.985526 0.308139 0.059660
0.138366 0.143033 0.110491
0.184493 0.159918 0.113709
0.453137 0.185128 0.085924
0.582018 0.228375 0.059436
0.693535 0.261409 0.031655
0.805096 0.287921 0.028083
0.923940 0.312456 0.025633
0.993965 0.336795 0.054879
0.182890 0.225018 0.138366
0.214708 0.253210 0.146186
0.294919 0.270421 0.140099
0.623796 0.284735 0.053903
0.726020 0.306885 0.009712
0.836376 0.335599 0.004846
0.942876 0.361606 0.005228
0.996248 0.385835 0.028908
0.228171 0.331221 0.162583
0.255794 0.359348 0.167502
0.299716 0.386775 0.175477
0.419460 0.393883 0.160028
0.747633 0.363681 0.028603
0.871079 0.391662 0.001530
0.961498 0.416192 0.003153
1.000000 0.439620 0.012739
0.277867 0.434396 0.192729
0.301205 0.452498 0.199670
0.335131 0.466686 0.202567
0.397049 0.490764 0.212840
0.550522 0.479726 0.180917
0.862721 0.457584 0.036090
0.971817 0.488103 0.002246
1.000000 0.512520 0.009936
0.348753 0.528616 0.238262
0.375790 0.544427 0.243352
0.409890 0.558220 0.247811
0.455973 0.574015 0.250867
0.554387 0.588244 0.243128
0.720571 0.579813 0.213479
0.971080 0.560088 0.071569
1.000000 0.589541 0.056629
0.451298 0.638098 0.278246
0.478347 0.656668 0.278246
0.505774 0.666282 0.278050
0.544887 0.676780 0.275975
0.664610 0.701164 0.265999
0.782360 0.726500 0.252767
0.918772 0.708402 0.228265
1.000000 0.671795 0.165106
0.569987 0.776842 0.297165
0.585111 0.783389 0.291111
0.613352 0.789785 0.289068
0.651667 0.800087 0.283921
0.764306 0.809160 0.268912
0.875221 0.822941 0.241667
0.969367 0.817404 0.231988
0.997942 0.792682 0.233253
0.057390 0.126384 0.205846
0.047161 0.167303 0.286843
0.358888 0.144294 0.111207
0.504806 0.189730 0.093947
0.650015 0.232204 0.077884
0.779772 0.261002 0.052263
0.919806 0.291994 0.033929
1.000000 0.320361 0.069624
0.020258 0.215957 0.329365
0.031098 0.264473 0.424030
0.473950 0.207243 0.108357
0.601035 0.241135 0.078387
0.724392 0.273681 0.063266
0.834419 0.302132 0.040592
0.952259 0.323356 0.029927
1.000000 0.349230 0.068711
0.189547 0.237033 0.164658
0.211268 0.270967 0.172476
0.307487 0.287095 0.161224
0.644216 0.297440 0.071574
0.751933 0.321069 0.037645
0.856610 0.342796 0.013387
0.969987 0.375387 0.010665
1.000000 0.395694 0.041158
0.231121 0.346202 0.193961
0.255542 0.384529 0.198379
0.308035 0.408958 0.195237
0.434526 0.410488 0.177495
0.777452 0.378846 0.048662
0.891414 0.402562 0.017342
0.978366 0.424528 0.004778
1.000000 0.450417 0.025029
0.280768 0.444548 0.224009
0.307492 0.476288 0.233168
0.347031 0.485145 0.221287
0.406092 0.502203 0.225125
0.563390 0.491856 0.194888
0.885817 0.469981 0.049823
0.985349 0.496579 0.018902
0.999938 0.519974 0.020347
0.352618 0.533914 0.265380
0.389647 0.568647 0.275121
0.422892 0.574951 0.262950
0.466874 0.583877 0.258833
0.567585 0.599473 0.250276
0.738384 0.593364 0.223185
0.977503 0.571886 0.108171
0.996668 0.598086 0.077652
0.451774 0.638981 0.301047
0.494631 0.685911 0.307778
0.514823 0.676860 0.283156
0.561873 0.696106 0.282938
0.674734 0.709526 0.268170
0.797141 0.738135 0.253551
0.930161 0.720626 0.239684
0.994516 0.677937 0.186512
0.562041 0.773034 0.317725
0.602190 0.814377 0.316659
0.623580 0.802023 0.293315
0.663274 0.810068 0.286721
0.777436 0.821932 0.271117
0.885063 0.828597 0.243059
0.974201 0.825396 0.242114
0.999758 0.798885 0.250761
0.003406 0.167250 0.291489
0.000000 0.213162 0.374768
0.080891 0.208763 0.349343
0.476683 0.214566 0.176344
0.668410 0.243934 0.103631
0.818628 0.279255 0.054436
0.953988 0.307325 0.043068
1.000000 0.328295 0.072375
0.000000 0.260620 0.413837
0.000016 0.326177 0.539834
0.057650 0.295936 0.466620
0.573480 0.270777 0.183003
0.743352 0.286473 0.085122
0.872719 0.313056 0.027717
0.975547 0.337307 0.038222
1.000000 0.359487 0.073631
0.047051 0.300388 0.394294
0.029103 0.334211 0.437244
0.150275 0.333088 0.436669
0.649970 0.306602 0.113406
0.769764 0.332107 0.070712
0.890280 0.357923 0.024473
0.981015 0.383439 0.014714
1.000000 0.404176 0.051522
0.226951 0.358339 0.228989
0.253450 0.397673 0.245558
0.288532 0.433149 0.254580
0.438825 0.416232 0.194829
0.795759 0.388178 0.073201
0.911017 0.409446 0.030617
0.990420 0.436044 0.007903
1.000000 0.457508 0.031432
0.276724 0.448763 0.255286
0.308689 0.485781 0.271830
0.342916 0.513005 0.280119
0.411617 0.515171 0.243346
0.574077 0.501168 0.211791
0.904186 0.478062 0.078809
0.987593 0.503375 0.028246
0.997579 0.528730 0.031156
0.353456 0.537392 0.298842
0.388418 0.570278 0.311787
0.427051 0.605218 0.315353
0.475417 0.595887 0.271449
0.576222 0.609130 0.257986
0.743952 0.598886 0.232264
0.982617 0.579897 0.131427
0.991554 0.601870 0.107867
0.445174 0.638407 0.333113
0.488270 0.687327 0.344940
0.531172 0.730663 0.339195
0.577384 0.713913 0.293697
0.691139 0.728816 0.275871
0.808652 0.747614 0.256498
0.932036 0.725468 0.247167
0.990566 0.684612 0.225196
0.553212 0.773388 0.360963
0.588747 0.819089 0.370216
0.612496 0.832651 0.361178
0.671924 0.821317 0.293659
0.789289 0.835483 0.275207
0.897872 0.841552 0.245904
0.976691 0.832172 0.253412
0.993032 0.798217 0.274810
0.000000 0.210261 0.368934
0.000000 0.241997 0.423626
0.000000 0.257434 0.449377
0.081090 0.278392 0.458967
0.377844 0.296994 0.387443
0.765124 0.300815 0.171266
0.972411 0.319954 0.070398
1.000000 0.338174 0.090359
0.000000 0.285057 0.454703
0.000000 0.357093 0.582112
0.003963 0.363390 0.593911
0.068856 0.370819 0.567017
0.607763 0.334819 0.317380
0.819763 0.335217 0.165725
0.988445 0.355014 0.076922
1.000000 0.368972 0.076772
0.000000 0.331404 0.474913
0.000203 0.372088 0.532342
0.009724 0.393534 0.594832
0.252549 0.391689 0.542073
0.671838 0.369119 0.282682
0.903382 0.369633 0.069181
0.988642 0.394319 0.033496
1.000000 0.411444 0.053501
0.105490 0.385840 0.441382
0.110349 0.414009 0.479197
0.138707 0.444277 0.509003
0.348353 0.421629 0.450010
0.793486 0.399225 0.136419
0.929625 0.416229 0.041781
0.994248 0.444750 0.011527
1.000000 0.467457 0.035375
0.280276 0.460045 0.311894
0.310331 0.490373 0.332043
0.350648 0.527147 0.358689
0.388338 0.546059 0.341512
0.583135 0.507840 0.228780
0.926068 0.489686 0.109927
0.990293 0.511273 0.046811
0.993157 0.535222 0.069525
0.361366 0.546401 0.357204
0.391965 0.579447 0.374678
0.426485 0.618383 0.389078
0.464521 0.642614 0.365575
0.585694 0.624207 0.273866
0.760008 0.613887 0.244575
0.981551 0.588157 0.166804
0.989003 0.612465 0.179482
0.437130 0.643648 0.392854
0.475813 0.692861 0.409380
0.507234 0.741419 0.421376
0.561761 0.771049 0.396007
0.695361 0.741568 0.286595
0.824215 0.761457 0.261368
0.939860 0.734605 0.261211
0.989038 0.696045 0.276020
0.524454 0.773652 0.424773
0.559994 0.818518 0.443870
0.585362 0.841287 0.460748
0.644331 0.843417 0.432548
0.796364 0.843969 0.284722
0.912423 0.848805 0.258299
0.978870 0.835076 0.279578
0.990671 0.805381 0.313611
0.000000 0.250371 0.433261
0.000000 0.272887 0.469465
0.000000 0.279385 0.480816
0.031211 0.301246 0.496245
0.224615 0.337267 0.500875
0.363795 0.376815 0.504501
0.481821 0.394514 0.492656
0.591043 0.432854 0.509542
0.000000 0.310031 0.494878
0.000000 0.378466 0.615422
0.000374 0.385026 0.623027
0.035670 0.396612 0.613830
0.274894 0.420850 0.606658
0.440005 0.442350 0.586075
0.555735 0.444281 0.557387
0.800096 0.458070 0.470140
0.000000 0.358335 0.514738
0.000000 0.399657 0.577629
0.002977 0.410793 0.618291
0.162585 0.421256 0.613505
0.356296 0.451790 0.610353
0.483887 0.444245 0.560980
0.732631 0.452741 0.460265
0.927474 0.456782 0.331019
0.008906 0.410305 0.532286
0.000000 0.451381 0.589117
0.006430 0.473665 0.616898
0.203211 0.456432 0.614787
0.435678 0.464000 0.572831
0.667496 0.465222 0.462173
0.923108 0.470551 0.255729
0.978153 0.493683 0.224298
0.177015 0.463325 0.492506
0.183179 0.492054 0.525806
0.212694 0.515178 0.545663
0.267304 0.531079 0.554198
0.486803 0.507449 0.490667
0.878973 0.503251 0.255075
0.989891 0.524248 0.130649
0.993040 0.553863 0.189728
0.370216 0.557101 0.428964
0.398815 0.588521 0.447322
0.428265 0.627176 0.466593
0.457722 0.670664 0.482273
0.516377 0.688944 0.436591
0.767970 0.625759 0.268505
0.984511 0.599819 0.204756
0.987677 0.624924 0.257499
0.441585 0.660045 0.468968
0.466173 0.703604 0.482144
0.500737 0.752987 0.500565
0.536794 0.790435 0.519818
0.608750 0.797340 0.462848
0.824553 0.771955 0.275104
0.945034 0.745934 0.284139
0.986344 0.706557 0.333629
0.503109 0.776911 0.505835
0.542985 0.818940 0.527602
0.575431 0.839643 0.547424
0.615591 0.845462 0.573954
0.705053 0.851342 0.504671
0.909845 0.850999 0.291930
0.980966 0.839444 0.319858
0.989247 0.810897 0.362195
0.000000 0.286570 0.488506
0.000000 0.306084 0.520002
0.000000 0.316048 0.533462
0.011742 0.331733 0.539463
0.206086 0.363962 0.543573
0.361256 0.406887 0.548504
0.480369 0.429587 0.554977
0.591678 0.454573 0.568530
0.000000 0.340770 0.541697
0.000000 0.408358 0.658008
0.000000 0.408677 0.656796
0.030748 0.414760 0.643998
0.268287 0.439109 0.639923
0.438719 0.463998 0.632028
0.570137 0.480353 0.635100
0.696199 0.501477 0.646691
0.000000 0.383439 0.556149
0.000000 0.439698 0.641246
0.000416 0.433692 0.653327
0.154746 0.441275 0.644786
0.350422 0.461689 0.637823
0.487732 0.481652 0.638470
0.600308 0.491623 0.639785
0.717671 0.510791 0.650756
0.000000 0.436028 0.576546
0.000000 0.482052 0.645460
0.002149 0.489474 0.647458
0.197664 0.471316 0.639650
0.416363 0.488364 0.642254
0.531932 0.502199 0.641669
0.640456 0.509604 0.638570
0.757512 0.538251 0.650541
0.058578 0.485227 0.576546
0.021351 0.523729 0.638321
0.046571 0.538647 0.648405
0.145630 0.545355 0.649887
0.386476 0.515198 0.639501
0.589634 0.524501 0.627395
0.765127 0.550477 0.569026
0.864563 0.590816 0.596900
0.219196 0.551580 0.564511
0.204578 0.580794 0.597549
0.241442 0.600172 0.610124
0.291666 0.621099 0.621428
0.351479 0.638251 0.629637
0.646895 0.613562 0.555024
0.946245 0.618143 0.377349
0.977227 0.647455 0.384763
0.407465 0.673272 0.524124
0.428685 0.715218 0.544819
0.452978 0.757674 0.571745
0.488685 0.796308 0.596608
0.534647 0.817832 0.618043
0.664618 0.806857 0.530324
0.945213 0.756566 0.324516
0.987945 0.721572 0.385348
0.463532 0.787437 0.572318
0.499594 0.828247 0.602968
0.535988 0.844831 0.622201
0.588081 0.851475 0.645177
0.654633 0.855772 0.669936
0.780779 0.859888 0.584841
0.978569 0.845504 0.371317
0.990473 0.819804 0.420999
0.000000 0.332734 0.556239
0.000000 0.355157 0.590392
0.000000 0.352789 0.588528
0.004956 0.376673 0.605898
0.188440 0.393013 0.594481
0.374500 0.437834 0.601679
0.509696 0.460550 0.610060
0.631897 0.479730 0.618727
0.000000 0.383622 0.609621
0.000000 0.440989 0.705061
0.000000 0.440422 0.699963
0.026899 0.448706 0.691258
0.270726 0.458926 0.678045
0.455947 0.488861 0.675711
0.591880 0.501533 0.678845
0.721304 0.521272 0.689385
0.000000 0.420957 0.616586
0.000000 0.471178 0.693972
0.000000 0.462513 0.693338
0.138030 0.466666 0.686198
0.353245 0.481777 0.682529
0.504143 0.504688 0.682337
0.624861 0.513361 0.685794
0.740579 0.531006 0.690818
0.000000 0.471475 0.636161
0.000000 0.507591 0.693926
0.000429 0.513114 0.691814
0.175851 0.491977 0.681365
0.419740 0.504932 0.683133
0.552707 0.527763 0.689186
0.661447 0.534194 0.691165
0.774576 0.557484 0.703851
0.011531 0.514994 0.634578
0.001758 0.551994 0.692695
0.014769 0.561033 0.692037
0.102709 0.566922 0.691533
0.385929 0.536754 0.683846
0.598562 0.551023 0.693352
0.702917 0.564437 0.698697
0.799931 0.592855 0.708365
0.036908 0.575598 0.661115
0.034747 0.607022 0.705811
0.072731 0.616666 0.709551
0.179089 0.626864 0.708114
0.272707 0.632100 0.709114
0.559869 0.599795 0.703643
0.761596 0.618673 0.705775
0.860124 0.679378 0.728378
0.173540 0.660716 0.661082
0.168610 0.693648 0.696190
0.227333 0.717198 0.711032
0.306441 0.734530 0.721811
0.390929 0.745923 0.730112
0.490687 0.752108 0.731563
0.821042 0.742103 0.644617
0.972544 0.749858 0.536297
0.379163 0.800335 0.654243
0.401333 0.834363 0.686119
0.444960 0.853468 0.708449
0.512117 0.856779 0.722339
0.602331 0.865814 0.742714
0.691364 0.866889 0.757893
0.845478 0.866867 0.680012
0.992189 0.833197 0.498769
0.000000 0.406899 0.671649
0.000000 0.419285 0.691602
0.000000 0.412600 0.679770
0.001660 0.427638 0.682460
0.184522 0.443449 0.678179
0.404507 0.481130 0.684897
0.557162 0.501014 0.691671
0.691659 0.518526 0.695488
0.000000 0.447868 0.707434
0.000000 0.471348 0.748922
0.000000 0.472512 0.747717
0.025678 0.477419 0.735138
0.285944 0.486175 0.727796
0.482004 0.516731 0.727057
0.615924 0.528868 0.731060
0.744144 0.547255 0.733058
0.000000 0.469513 0.696574
0.000000 0.503530 0.741771
0.000036 0.494786 0.741069
0.150220 0.493635 0.732455
0.366301 0.508264 0.731970
0.527034 0.533116 0.731240
0.650942 0.545143 0.737203
0.768020 0.561946 0.741692
0.000000 0.513895 0.713203
0.000000 0.534129 0.744220
0.000000 0.542605 0.741735
0.171854 0.523464 0.733687
0.439223 0.532708 0.733098
0.575654 0.557491 0.737489
0.690813 0.571261 0.744903
0.797952 0.592724 0.753504
0.000000 0.555026 0.708247
0.000553 0.580278 0.742606
0.002936 0.588419 0.743080
0.052404 0.592270 0.741713
0.389806 0.563249 0.735397
0.618096 0.580997 0.739322
0.727472 0.601311 0.749190
0.820000 0.628046 0.757923
0.000000 0.614511 0.731809
0.007865 0.633097 0.751868
0.026313 0.640047 0.750883
0.129496 0.650727 0.754764
0.257190 0.657887 0.754104
0.573087 0.630776 0.752957
0.775215 0.656007 0.766670
0.856706 0.696730 0.782328
0.013695 0.697095 0.769567
0.015046 0.718156 0.792623
0.082658 0.727198 0.793196
0.232769 0.739540 0.798551
0.361641 0.749655 0.797616
0.479485 0.758050 0.796033
0.754155 0.735106 0.783454
0.888910 0.781133 0.801774
0.080219 0.791233 0.783560
0.103466 0.815208 0.810539
0.256560 0.820679 0.816937
0.382135 0.826219 0.816301
0.506496 0.836813 0.822228
0.627603 0.845775 0.828709
0.747308 0.859181 0.833057
0.929325 0.868177 0.793343
