app/src/main/assets/cube/Game08.cube
# LUT by SparkleStock. Enhanced with VOXCOLOR algorithms.
LUT_3D_SIZE 32
0.023460 0.011730 0.019550
0.065841 0.013748 0.021568
0.107968 0.015640 0.023713
0.146312 0.015640 0.027749
0.183899 0.015388 0.031785
0.216189 0.013370 0.035821
0.248100 0.012487 0.039857
0.278372 0.016523 0.043894
0.309148 0.019550 0.047425
0.341437 0.019550 0.049443
0.371204 0.021442 0.051462
0.395421 0.027497 0.053480
0.421152 0.034308 0.056255
0.449406 0.042380 0.060291
0.480308 0.052218 0.063444
0.514615 0.064327 0.065462
0.547914 0.073408 0.066471
0.580204 0.079463 0.066471
0.617034 0.087787 0.066471
0.657396 0.097878 0.066471
0.700281 0.110491 0.067732
0.744679 0.124618 0.069751
0.783527 0.134582 0.067606
0.819853 0.142654 0.063570
0.850125 0.150727 0.062561
0.878378 0.158799 0.062561
0.911550 0.170151 0.062561
0.945858 0.182260 0.062561
0.964273 0.190837 0.064327
0.980418 0.198909 0.066345
0.990414 0.206981 0.066471
1.000000 0.215054 0.066471
0.045660 0.037966 0.025605
0.074499 0.042067 0.026581
0.105169 0.045196 0.027749
0.163303 0.033738 0.031785
0.218598 0.023851 0.035951
0.254012 0.024958 0.041029
0.287486 0.026223 0.045521
0.312549 0.028176 0.047474
0.338117 0.030162 0.049183
0.365199 0.032245 0.050160
0.391711 0.035569 0.051787
0.416970 0.041623 0.054847
0.444133 0.048825 0.057882
0.474469 0.057939 0.060877
0.506087 0.067907 0.063900
0.539353 0.078974 0.066959
0.572652 0.088056 0.067968
0.605983 0.095152 0.066927
0.641512 0.103346 0.066471
0.678749 0.112395 0.066471
0.719160 0.124618 0.067081
0.761475 0.138744 0.068058
0.797524 0.147993 0.066304
0.830725 0.155023 0.063310
0.861777 0.162054 0.061780
0.892114 0.169085 0.060738
0.922292 0.179395 0.061389
0.952433 0.190462 0.062431
0.968505 0.198909 0.063416
0.982566 0.206981 0.064392
0.991456 0.214077 0.065430
1.000000 0.221108 0.066471
0.067732 0.064201 0.031533
0.083877 0.070320 0.031598
0.103680 0.074719 0.031903
0.178350 0.053301 0.035809
0.248698 0.034918 0.039975
0.288800 0.037782 0.045965
0.325227 0.040110 0.050843
0.345734 0.040110 0.050908
0.366680 0.041135 0.050973
0.388944 0.045236 0.051038
0.412490 0.049968 0.052324
0.438855 0.056088 0.056295
0.467394 0.063696 0.059558
0.499553 0.073787 0.061642
0.531712 0.083849 0.064522
0.563872 0.093874 0.068428
0.597105 0.102923 0.069405
0.631413 0.110995 0.067452
0.665721 0.119068 0.066561
0.700028 0.127140 0.066496
0.737998 0.138875 0.066471
0.778165 0.152806 0.066471
0.811439 0.161322 0.065084
0.841580 0.167376 0.063066
0.873284 0.173479 0.061096
0.905508 0.179599 0.059143
0.932655 0.188892 0.060311
0.958630 0.198917 0.062199
0.972472 0.207291 0.062435
0.984580 0.215428 0.062435
0.992432 0.221491 0.064327
1.000000 0.227415 0.066345
0.087913 0.090436 0.035569
0.104058 0.097597 0.036676
0.121843 0.103753 0.037827
0.164223 0.094834 0.039650
0.209834 0.085045 0.041863
0.278058 0.069161 0.046811
0.338312 0.056255 0.051038
0.364027 0.056255 0.052145
0.389139 0.057540 0.053252
0.412445 0.062683 0.054358
0.437358 0.068457 0.056035
0.465807 0.075618 0.058964
0.494866 0.083877 0.061967
0.524942 0.093968 0.065092
0.555018 0.103574 0.067647
0.585094 0.112558 0.069470
0.617286 0.121086 0.069926
0.651594 0.129158 0.069014
0.685902 0.137231 0.067993
0.720209 0.145303 0.066886
0.756226 0.155084 0.066471
0.793268 0.165891 0.066471
0.824133 0.173430 0.065084
0.852191 0.179485 0.063066
0.882593 0.186369 0.061878
0.913776 0.193530 0.060966
0.937342 0.202172 0.060637
0.959151 0.211156 0.060441
0.972472 0.220311 0.060417
0.984580 0.229490 0.060417
0.992432 0.233664 0.062309
1.000000 0.237505 0.064327
0.107842 0.116671 0.039857
0.123596 0.124483 0.041745
0.139233 0.131966 0.043523
0.153099 0.134505 0.043654
0.176283 0.132934 0.044240
0.264688 0.102598 0.048015
0.342926 0.077510 0.051437
0.377104 0.075166 0.053325
0.409117 0.074889 0.055311
0.434636 0.080814 0.057589
0.461478 0.087368 0.059746
0.491228 0.095310 0.061633
0.520466 0.104009 0.064229
0.548850 0.113970 0.068005
0.577177 0.123104 0.070186
0.605430 0.131176 0.070316
0.636645 0.139184 0.070316
0.670823 0.147126 0.070186
0.704854 0.155215 0.069140
0.738771 0.163417 0.067383
0.772688 0.171538 0.066723
0.806605 0.179611 0.066723
0.835331 0.186475 0.065246
0.861696 0.192790 0.063098
0.890991 0.200325 0.062561
0.921263 0.208267 0.062561
0.941590 0.216104 0.060921
0.959623 0.223916 0.058903
0.972244 0.233607 0.058651
0.984092 0.243568 0.058651
0.992172 0.246448 0.060543
1.000000 0.248857 0.062561
0.126005 0.142907 0.045912
0.138635 0.148635 0.046758
0.151211 0.154425 0.047625
0.162994 0.161131 0.048797
0.179928 0.165159 0.050033
0.232920 0.150446 0.051726
0.288242 0.134537 0.053260
0.353668 0.113445 0.054106
0.411721 0.098846 0.055831
0.447656 0.103729 0.060193
0.480357 0.109242 0.063456
0.505941 0.116142 0.064303
0.532966 0.123800 0.065466
0.562391 0.132719 0.067159
0.591303 0.141267 0.068624
0.619557 0.149339 0.069795
0.650251 0.156826 0.069795
0.683387 0.163726 0.068624
0.715205 0.171945 0.068294
0.745997 0.181190 0.068619
0.776789 0.189701 0.068742
0.807582 0.197774 0.068742
0.836047 0.206070 0.066548
0.863454 0.214468 0.063359
0.893009 0.221743 0.062561
0.923281 0.228643 0.062561
0.942762 0.234592 0.060921
0.959753 0.240321 0.058903
0.970421 0.248841 0.058651
0.980186 0.257759 0.058651
0.990089 0.263504 0.060543
1.000000 0.269038 0.062561
0.143411 0.168764 0.051588
0.153306 0.172995 0.051783
0.163226 0.177581 0.052092
0.173512 0.187476 0.054110
0.185393 0.195955 0.055876
0.208438 0.194523 0.055876
0.243055 0.187244 0.055913
0.327815 0.154629 0.056108
0.403803 0.130151 0.057622
0.453474 0.130086 0.063090
0.495354 0.131689 0.066911
0.520092 0.136962 0.067106
0.546685 0.143358 0.067228
0.576371 0.151626 0.067228
0.605345 0.159723 0.067940
0.633403 0.167600 0.069567
0.663576 0.174761 0.069470
0.695866 0.181206 0.067647
0.725885 0.189701 0.067875
0.754139 0.199792 0.069698
0.782514 0.208621 0.070381
0.810963 0.216693 0.070381
0.838874 0.225751 0.067741
0.866542 0.235255 0.063900
0.895723 0.242611 0.062939
0.925409 0.249252 0.062939
0.944568 0.254093 0.061617
0.961299 0.258520 0.059990
0.970112 0.265795 0.059615
0.977794 0.273477 0.059420
0.988787 0.281159 0.061117
1.000000 0.288841 0.062939
0.157538 0.192981 0.055624
0.166392 0.198254 0.056861
0.175400 0.203751 0.058147
0.186727 0.212604 0.060165
0.198738 0.220563 0.061930
0.215534 0.222255 0.061930
0.239019 0.221226 0.062162
0.291489 0.208401 0.063399
0.350291 0.193298 0.064913
0.428085 0.171359 0.067256
0.493531 0.156622 0.069254
0.531810 0.157729 0.070491
0.565695 0.161912 0.071264
0.592255 0.171221 0.071264
0.619016 0.179448 0.071065
0.646032 0.186284 0.070609
0.675685 0.193965 0.069991
0.707975 0.202494 0.069209
0.737994 0.211900 0.069307
0.766247 0.221991 0.070088
0.795274 0.230820 0.070381
0.824764 0.238893 0.070381
0.850853 0.245801 0.068457
0.875396 0.252181 0.065657
0.901452 0.261100 0.064958
0.928013 0.270865 0.064958
0.949125 0.277985 0.065328
0.968981 0.284495 0.065784
0.976362 0.290208 0.064758
0.981960 0.295806 0.063521
0.990870 0.301405 0.064176
1.000000 0.307003 0.064958
0.171160 0.217198 0.060165
0.179493 0.223252 0.061922
0.188045 0.229449 0.063713
0.199894 0.237782 0.065991
0.211742 0.245610 0.067985
0.223590 0.249907 0.067985
0.238075 0.253874 0.068412
0.263985 0.256413 0.070690
0.306121 0.250033 0.072399
0.396935 0.216897 0.072399
0.476784 0.191939 0.072786
0.532510 0.184973 0.074023
0.577982 0.184013 0.074796
0.606366 0.193062 0.074796
0.633696 0.200687 0.073799
0.659670 0.206481 0.071520
0.688933 0.214684 0.070772
0.721483 0.225295 0.071553
0.751323 0.235320 0.071748
0.779056 0.244890 0.071488
0.807724 0.253361 0.071228
0.836954 0.261173 0.070967
0.861708 0.266926 0.069498
0.884428 0.271744 0.067480
0.907880 0.281248 0.066976
0.931577 0.292315 0.066976
0.953422 0.300738 0.068404
0.974840 0.308550 0.070162
0.981049 0.313286 0.068615
0.985085 0.317582 0.066597
0.992432 0.322123 0.066715
1.000000 0.326680 0.066976
0.183269 0.241415 0.066219
0.192643 0.247469 0.066935
0.202107 0.253731 0.067814
0.212914 0.263106 0.071134
0.223720 0.271976 0.074039
0.234527 0.277314 0.074039
0.246408 0.282518 0.074662
0.262943 0.287140 0.077982
0.289976 0.287530 0.080472
0.348501 0.275227 0.080472
0.415265 0.258406 0.079882
0.500155 0.231650 0.077994
0.570105 0.216759 0.076814
0.615154 0.221641 0.076814
0.651403 0.226467 0.075361
0.676336 0.231219 0.072041
0.705598 0.239942 0.072334
0.739190 0.252637 0.076240
0.768314 0.262402 0.077217
0.793964 0.269888 0.075915
0.819247 0.276927 0.074613
0.844310 0.283698 0.073311
0.869195 0.291274 0.071516
0.893998 0.299216 0.069498
0.916409 0.306377 0.068994
0.938022 0.313277 0.068994
0.956937 0.320072 0.069576
0.975230 0.326843 0.070292
0.981049 0.332360 0.068615
0.985085 0.337698 0.066597
0.992432 0.344257 0.067692
1.000000 0.350897 0.068994
0.196639 0.267524 0.072273
0.207055 0.273904 0.072924
0.217389 0.280455 0.073726
0.226503 0.289569 0.076785
0.235739 0.298341 0.079503
0.245830 0.304721 0.079829
0.255981 0.311101 0.080789
0.266397 0.317480 0.084500
0.282314 0.323014 0.087283
0.314734 0.326009 0.087283
0.366257 0.317082 0.086225
0.459805 0.281928 0.082840
0.543125 0.258394 0.080480
0.609397 0.254228 0.079829
0.659691 0.253223 0.077554
0.689441 0.256282 0.073193
0.720657 0.264387 0.073551
0.753337 0.277538 0.078629
0.781806 0.287062 0.080081
0.807000 0.293768 0.078714
0.830322 0.300270 0.077143
0.852521 0.306649 0.075451
0.876824 0.314909 0.073535
0.902082 0.324023 0.071516
0.923533 0.329817 0.071012
0.943714 0.334504 0.071012
0.960087 0.340567 0.071012
0.975580 0.346946 0.071012
0.981049 0.352757 0.069246
0.985085 0.358485 0.067228
0.992432 0.366106 0.068994
1.000000 0.373853 0.071012
0.212783 0.297796 0.078327
0.224241 0.305217 0.081062
0.235357 0.312549 0.083621
0.241346 0.318538 0.083556
0.247848 0.324707 0.083670
0.257938 0.332128 0.085037
0.268285 0.339549 0.086648
0.279743 0.346971 0.089317
0.293316 0.354067 0.091319
0.313237 0.360186 0.091319
0.344774 0.358616 0.090912
0.401866 0.340127 0.089610
0.474119 0.319588 0.087771
0.571639 0.295631 0.085037
0.647257 0.282127 0.081135
0.694715 0.282062 0.075732
0.732180 0.287042 0.074006
0.759652 0.297068 0.075959
0.787600 0.306397 0.077217
0.815919 0.315186 0.077933
0.840412 0.323120 0.077794
0.862612 0.330541 0.077143
0.884766 0.336978 0.075553
0.906900 0.342967 0.073535
0.927569 0.349542 0.073030
0.947750 0.356313 0.073030
0.962430 0.363612 0.073030
0.975841 0.371033 0.073030
0.981049 0.376062 0.071264
0.985085 0.380750 0.069246
0.992432 0.387329 0.071012
1.000000 0.394034 0.073030
0.228171 0.328067 0.083625
0.239889 0.336530 0.087271
0.251152 0.344717 0.090587
0.255579 0.348753 0.088959
0.260713 0.353245 0.087787
0.270804 0.360927 0.089805
0.281126 0.368608 0.091750
0.292454 0.376290 0.093378
0.303781 0.384070 0.094598
0.315108 0.392142 0.094598
0.332152 0.395902 0.094720
0.361773 0.390173 0.095111
0.418760 0.375021 0.094135
0.521357 0.344163 0.090880
0.610483 0.323018 0.086229
0.682289 0.314360 0.079784
0.733620 0.313090 0.076366
0.764477 0.319210 0.075976
0.794566 0.327563 0.076940
0.824056 0.337653 0.078958
0.848745 0.346483 0.079471
0.870554 0.354555 0.079080
0.890975 0.359584 0.077571
0.910765 0.363229 0.075553
0.930263 0.369902 0.075048
0.949662 0.377584 0.075048
0.963456 0.385901 0.075365
0.975955 0.394364 0.075756
0.981391 0.399978 0.074723
0.985817 0.405186 0.073486
0.992823 0.410822 0.075300
1.000000 0.416485 0.077318
0.242298 0.358339 0.087661
0.252975 0.367843 0.090265
0.263325 0.377006 0.092670
0.268794 0.381042 0.092084
0.274840 0.385404 0.091824
0.284930 0.392044 0.093842
0.294862 0.398685 0.095591
0.304106 0.405325 0.096177
0.313351 0.412323 0.096617
0.322595 0.420395 0.096617
0.334301 0.426108 0.097064
0.351422 0.426629 0.098496
0.386145 0.420851 0.098952
0.450203 0.404576 0.097780
0.533145 0.383887 0.093846
0.640364 0.357521 0.086359
0.718256 0.344794 0.081900
0.766821 0.345705 0.080468
0.803484 0.351780 0.080976
0.830892 0.361871 0.082994
0.854149 0.370700 0.082856
0.874915 0.378772 0.081424
0.894295 0.383085 0.079589
0.913044 0.385689 0.077571
0.930718 0.391320 0.077066
0.948035 0.397960 0.077066
0.962284 0.406928 0.078230
0.975825 0.416432 0.079662
0.982302 0.424912 0.080582
0.987770 0.433245 0.081428
0.993864 0.438099 0.083373
1.000000 0.442721 0.085391
0.256425 0.388610 0.091697
0.266060 0.397789 0.093260
0.275442 0.406676 0.094725
0.281041 0.411167 0.094725
0.287087 0.415741 0.094920
0.296266 0.420884 0.096482
0.305238 0.426197 0.097752
0.313310 0.432252 0.097752
0.321382 0.438811 0.097752
0.329455 0.446883 0.097752
0.338300 0.453979 0.098382
0.348846 0.458926 0.100400
0.369109 0.460188 0.101662
0.405565 0.455305 0.101662
0.473720 0.439059 0.098529
0.582633 0.408201 0.091368
0.674782 0.388574 0.086778
0.750168 0.380176 0.084760
0.800982 0.380383 0.084500
0.832686 0.387284 0.085606
0.857188 0.394917 0.085330
0.877369 0.402989 0.084223
0.896162 0.407526 0.082803
0.914325 0.410455 0.081241
0.931316 0.416412 0.081192
0.947917 0.423378 0.081648
0.962507 0.432512 0.083002
0.976634 0.442147 0.084565
0.983299 0.451383 0.086526
0.988897 0.460562 0.088544
0.994450 0.464920 0.090135
1.000000 0.468956 0.091697
0.270552 0.418882 0.095734
0.279145 0.425978 0.096254
0.287486 0.432976 0.096743
0.292043 0.438509 0.096743
0.296917 0.443734 0.096808
0.304013 0.446793 0.097329
0.311292 0.450415 0.097752
0.319364 0.456469 0.097752
0.327437 0.463028 0.097752
0.335509 0.471100 0.097752
0.344680 0.478847 0.098382
0.356268 0.485878 0.100400
0.372103 0.491175 0.101662
0.395019 0.493584 0.101662
0.437330 0.486907 0.099440
0.504578 0.468549 0.094362
0.595164 0.447880 0.090814
0.709089 0.424900 0.088796
0.783796 0.414626 0.087364
0.827999 0.414235 0.086388
0.857188 0.419134 0.086632
0.877369 0.427207 0.087608
0.896162 0.433175 0.087555
0.914325 0.438188 0.087035
0.932098 0.446228 0.088027
0.949740 0.455277 0.089525
0.964526 0.463955 0.090229
0.978652 0.472549 0.090749
0.984405 0.479832 0.092580
0.988962 0.486928 0.094598
0.994450 0.491155 0.095213
1.000000 0.495191 0.095734
0.283669 0.451171 0.098761
0.291221 0.456705 0.099282
0.298553 0.462238 0.099737
0.302589 0.467772 0.099216
0.306877 0.473061 0.098761
0.312932 0.476642 0.098761
0.319364 0.480589 0.098761
0.327437 0.486122 0.098761
0.335639 0.492551 0.098761
0.344232 0.501665 0.098761
0.353762 0.510128 0.099229
0.365349 0.517158 0.100726
0.378060 0.523628 0.101662
0.392642 0.529161 0.101662
0.418418 0.527888 0.099896
0.458585 0.517862 0.095860
0.535631 0.500839 0.093353
0.649556 0.476817 0.092377
0.738323 0.460228 0.090814
0.807525 0.449422 0.088796
0.850971 0.448462 0.088975
0.878964 0.453409 0.090473
0.900557 0.460550 0.091299
0.919240 0.468687 0.091819
0.936752 0.477118 0.093854
0.953874 0.485646 0.096393
0.967292 0.493804 0.097292
0.979857 0.501876 0.097813
0.984503 0.507727 0.099188
0.988019 0.513261 0.100685
0.993929 0.518367 0.101755
1.000000 0.523445 0.102797
0.295778 0.485479 0.100779
0.302288 0.489971 0.102341
0.308643 0.494463 0.103708
0.312679 0.498955 0.102146
0.316968 0.503723 0.100779
0.323022 0.510429 0.100779
0.329455 0.516719 0.100779
0.337527 0.521211 0.100779
0.345990 0.527379 0.100779
0.355625 0.538576 0.100779
0.365545 0.547821 0.100921
0.376091 0.552768 0.101377
0.386979 0.557545 0.101662
0.398436 0.562037 0.101662
0.416986 0.562000 0.099896
0.444653 0.556141 0.095860
0.496180 0.547450 0.094395
0.571566 0.535928 0.095502
0.664565 0.517191 0.094851
0.771264 0.492844 0.092833
0.838537 0.482900 0.092361
0.882154 0.481598 0.092816
0.909345 0.489650 0.094033
0.929071 0.501954 0.095595
0.945280 0.509082 0.098671
0.960319 0.514485 0.102252
0.970808 0.522057 0.104193
0.980247 0.530130 0.105755
0.983592 0.535069 0.106349
0.986066 0.539561 0.106805
0.992888 0.546555 0.109763
1.000000 0.553716 0.112887
0.306751 0.519787 0.101662
0.312805 0.524409 0.103680
0.318734 0.528994 0.105446
0.322770 0.533031 0.103428
0.327058 0.537425 0.101662
0.333113 0.544325 0.101662
0.339655 0.551019 0.101881
0.348313 0.556812 0.103053
0.357183 0.563599 0.103932
0.366688 0.573364 0.103932
0.376193 0.581339 0.103932
0.385697 0.585375 0.103932
0.395421 0.588752 0.103712
0.405512 0.591031 0.103127
0.421413 0.591572 0.101287
0.444784 0.589879 0.097837
0.481044 0.587178 0.096828
0.530195 0.583467 0.098260
0.610398 0.568771 0.098411
0.714753 0.545530 0.097565
0.796771 0.529165 0.096515
0.865386 0.516927 0.095343
0.904328 0.519994 0.096767
0.929783 0.530020 0.099371
0.947181 0.536432 0.103049
0.961893 0.541640 0.107085
0.971687 0.549651 0.109958
0.980345 0.558310 0.112562
0.983706 0.562411 0.113400
0.986310 0.565861 0.113986
0.993018 0.573096 0.117807
1.000000 0.580582 0.121843
0.316842 0.554095 0.101662
0.322896 0.559758 0.103680
0.328824 0.565320 0.105446
0.332860 0.569356 0.103428
0.337149 0.573490 0.101662
0.343203 0.578308 0.101662
0.349941 0.583894 0.102272
0.359641 0.592813 0.105527
0.369032 0.600901 0.107968
0.377495 0.606500 0.107968
0.385958 0.611610 0.107968
0.394421 0.615647 0.107968
0.403494 0.617852 0.107358
0.413584 0.617006 0.105731
0.430396 0.617612 0.103761
0.455851 0.620086 0.101353
0.484820 0.621550 0.100344
0.517305 0.622006 0.100734
0.571468 0.616163 0.101601
0.642492 0.605422 0.102838
0.732192 0.584631 0.101267
0.833097 0.557809 0.098012
0.888574 0.551307 0.099501
0.923403 0.554042 0.103147
0.943926 0.560194 0.107085
0.959680 0.567485 0.111122
0.970515 0.576733 0.114840
0.980215 0.586433 0.118486
0.984617 0.589753 0.120366
0.988263 0.592162 0.121993
0.994060 0.598354 0.125879
1.000000 0.604799 0.129915
0.329455 0.592186 0.104184
0.334207 0.596938 0.105552
0.338996 0.601687 0.106788
0.344334 0.606374 0.106072
0.349681 0.610817 0.105446
0.355084 0.613551 0.105446
0.361244 0.617421 0.105958
0.370683 0.626209 0.108693
0.379456 0.633647 0.110906
0.386226 0.637032 0.111557
0.393810 0.640621 0.112005
0.403185 0.644657 0.112005
0.413316 0.646911 0.111492
0.424708 0.646195 0.110125
0.442595 0.647273 0.109042
0.468830 0.650658 0.108326
0.496367 0.653685 0.108294
0.525206 0.656354 0.108945
0.565617 0.656314 0.110365
0.615028 0.654165 0.112383
0.691171 0.637654 0.111024
0.783352 0.612526 0.107639
0.852842 0.598407 0.108461
0.912018 0.589293 0.111195
0.940386 0.590140 0.114417
0.958483 0.594306 0.117803
0.970075 0.602757 0.121188
0.980166 0.612196 0.124573
0.984959 0.616281 0.127901
0.988995 0.619601 0.131221
0.994450 0.624875 0.134602
1.000000 0.630278 0.137988
0.343581 0.632548 0.108221
0.346251 0.635217 0.108546
0.349217 0.638078 0.108937
0.356638 0.643806 0.110304
0.363677 0.648900 0.111500
0.368039 0.649551 0.111500
0.373157 0.651338 0.111622
0.381555 0.658043 0.112273
0.389025 0.663658 0.113184
0.393713 0.666001 0.114877
0.400516 0.668874 0.116041
0.411973 0.672910 0.116041
0.424187 0.675945 0.115919
0.437663 0.677313 0.115593
0.456721 0.679107 0.116008
0.482957 0.681450 0.117375
0.512577 0.684478 0.118905
0.545583 0.688188 0.120598
0.579614 0.692119 0.122473
0.614442 0.696220 0.124492
0.664284 0.689214 0.123784
0.723135 0.675543 0.121440
0.805124 0.654979 0.121155
0.897631 0.631283 0.121806
0.936675 0.623796 0.123727
0.957898 0.621713 0.126070
0.970075 0.628146 0.128414
0.980166 0.636544 0.130757
0.984959 0.642321 0.135778
0.988995 0.647725 0.141182
0.994450 0.652151 0.143716
1.000000 0.656513 0.146060
0.357708 0.665973 0.115032
0.361158 0.669423 0.115748
0.364763 0.672902 0.116501
0.370688 0.676808 0.117803
0.376376 0.680315 0.118942
0.380412 0.681031 0.118942
0.385205 0.682748 0.119076
0.393277 0.688803 0.119792
0.400520 0.693669 0.120655
0.405272 0.694971 0.121957
0.411875 0.696904 0.122852
0.422552 0.700224 0.122852
0.434254 0.703324 0.123120
0.447664 0.706058 0.123836
0.468252 0.708479 0.124809
0.498068 0.710497 0.126111
0.529772 0.713524 0.128129
0.563363 0.717561 0.130863
0.595490 0.721926 0.133195
0.626478 0.726548 0.135213
0.663894 0.725108 0.135603
0.705167 0.720030 0.135017
0.774548 0.704927 0.135327
0.856704 0.685267 0.136043
0.907856 0.669269 0.136124
0.948674 0.654491 0.135994
0.966853 0.656533 0.138773
0.979808 0.662458 0.142223
0.984959 0.668496 0.147325
0.988995 0.674550 0.152664
0.994450 0.678712 0.155561
1.000000 0.682748 0.158295
0.371835 0.696244 0.123104
0.377368 0.701778 0.124862
0.382731 0.707014 0.126526
0.385530 0.707796 0.126786
0.388484 0.708699 0.127014
0.392520 0.710457 0.127014
0.397313 0.713020 0.127344
0.405386 0.719074 0.129101
0.412889 0.723680 0.130485
0.418682 0.723940 0.130745
0.425351 0.724831 0.130924
0.433944 0.727110 0.130924
0.443953 0.729950 0.131583
0.456322 0.733726 0.133341
0.478603 0.736733 0.134444
0.513627 0.738751 0.134704
0.547414 0.741778 0.136722
0.579964 0.745814 0.140498
0.612221 0.749008 0.143285
0.644250 0.751547 0.145303
0.675547 0.753882 0.146996
0.706404 0.756096 0.148493
0.751763 0.751864 0.150169
0.803712 0.744703 0.151927
0.867624 0.720112 0.149925
0.935524 0.689710 0.146670
0.962166 0.686284 0.150556
0.979287 0.689083 0.156089
0.984959 0.694731 0.160541
0.988995 0.700785 0.164837
0.994450 0.704947 0.168646
1.000000 0.708984 0.172421
0.387475 0.728030 0.132690
0.392748 0.732521 0.135489
0.397916 0.736830 0.138163
0.401496 0.738393 0.138944
0.405036 0.739817 0.139530
0.408291 0.740272 0.138748
0.412449 0.741485 0.138492
0.420522 0.745977 0.140510
0.428089 0.749541 0.142024
0.434144 0.750322 0.142024
0.441073 0.751734 0.142268
0.449926 0.754533 0.143049
0.459708 0.757211 0.144001
0.471035 0.759684 0.145238
0.493641 0.761617 0.146276
0.530748 0.762854 0.147057
0.565837 0.765100 0.149075
0.598908 0.768355 0.152330
0.630660 0.771354 0.154450
0.661387 0.774153 0.155687
0.691057 0.776749 0.157412
0.720091 0.779223 0.159430
0.755392 0.778295 0.161985
0.793540 0.775821 0.164784
0.847362 0.758260 0.164215
0.906408 0.735671 0.162522
0.944296 0.727362 0.166489
0.977301 0.722350 0.171762
0.985642 0.725653 0.176637
0.990460 0.730145 0.181454
0.995231 0.734210 0.185539
1.000000 0.738246 0.189575
0.403620 0.760319 0.142781
0.407851 0.762728 0.146621
0.412172 0.765214 0.150336
0.417836 0.768859 0.152159
0.423069 0.771846 0.153526
0.425282 0.770218 0.151703
0.428594 0.769348 0.150601
0.436666 0.771756 0.152619
0.444234 0.774019 0.154132
0.450289 0.775841 0.154132
0.457543 0.778295 0.154702
0.467438 0.782136 0.156525
0.477480 0.784683 0.157737
0.487766 0.785073 0.157933
0.510242 0.785379 0.158840
0.548390 0.785574 0.160663
0.584521 0.786778 0.162681
0.618633 0.788992 0.164894
0.649669 0.792120 0.165972
0.678313 0.795961 0.166168
0.707853 0.797646 0.167502
0.737929 0.798036 0.169520
0.767826 0.797890 0.172792
0.797642 0.797499 0.176633
0.833756 0.792177 0.178667
0.871970 0.785212 0.180099
0.922032 0.772216 0.183806
0.974828 0.757829 0.188037
0.986554 0.758138 0.193693
0.992413 0.760547 0.199552
0.996273 0.764481 0.203702
1.000000 0.768518 0.207738
0.424684 0.790969 0.157790
0.427874 0.792141 0.160134
0.431243 0.793439 0.162457
0.437297 0.796629 0.164475
0.442847 0.799168 0.165989
0.444865 0.797149 0.163971
0.448018 0.795888 0.162709
0.456091 0.797906 0.164727
0.463658 0.799924 0.166453
0.469713 0.801942 0.167299
0.476764 0.804062 0.168247
0.486008 0.806406 0.169419
0.496204 0.808188 0.170468
0.507987 0.809034 0.171315
0.531021 0.809510 0.172674
0.568518 0.809510 0.174692
0.603151 0.809673 0.176287
0.634920 0.809999 0.177459
0.665664 0.812411 0.178923
0.695610 0.816448 0.180616
0.724701 0.818490 0.183570
0.753280 0.819336 0.187280
0.781635 0.819601 0.190633
0.809889 0.819601 0.193823
0.839509 0.817843 0.196769
0.869585 0.815499 0.199633
0.910822 0.807443 0.202762
0.954634 0.798069 0.205952
0.974295 0.793479 0.210908
0.990505 0.789573 0.216116
0.995622 0.793113 0.221019
1.000000 0.797149 0.225901
0.446883 0.821241 0.173935
0.449031 0.821371 0.174195
0.451424 0.821627 0.174566
0.457478 0.823775 0.176584
0.463028 0.825403 0.178097
0.465046 0.823385 0.176079
0.468199 0.822123 0.174818
0.476272 0.824142 0.176836
0.483839 0.826160 0.178822
0.489894 0.828178 0.180709
0.496619 0.829647 0.182048
0.504822 0.829907 0.182178
0.515148 0.830778 0.182968
0.529015 0.832666 0.184856
0.552764 0.833727 0.186800
0.589220 0.833727 0.188818
0.621770 0.832849 0.189893
0.650414 0.831091 0.190023
0.680962 0.832592 0.192204
0.712991 0.836629 0.195979
0.741562 0.839322 0.201017
0.768058 0.841210 0.206810
