app/src/main/assets/cube/Game06.cube
# LUT by SparkleStock. Enhanced with VOXCOLOR algorithms.
LUT_3D_SIZE 5
DOMAIN_MIN 0.000000 0.000000 0.000000
DOMAIN_MAX 0.903226 0.903226 0.903226
0.132942 0.113392 0.105572
0.226406 0.133825 0.127519
0.345095 0.163844 0.155141
0.510579 0.208621 0.196891
0.715038 0.253398 0.238136
0.198152 0.226406 0.150348
0.250924 0.245923 0.165944
0.440161 0.231540 0.194926
0.586486 0.262093 0.223236
0.729722 0.293129 0.250749
0.290733 0.382052 0.206855
0.318986 0.418414 0.224009
0.407160 0.422137 0.235393
0.648787 0.367892 0.252120
0.771903 0.412469 0.289955
0.411440 0.588150 0.287579
0.437541 0.608575 0.297544
0.490744 0.626714 0.313924
0.636568 0.624915 0.337149
0.844790 0.598017 0.368458
0.616529 0.802069 0.426071
0.638509 0.806841 0.431296
0.686134 0.818067 0.442196
0.782738 0.832275 0.465139
0.930478 0.847089 0.503382
0.157286 0.127519 0.176205
0.233827 0.154844 0.225392
0.386645 0.182854 0.175375
0.565328 0.225531 0.213801
0.751502 0.267073 0.250350
0.227577 0.205574 0.264990
0.308200 0.231937 0.335973
0.480055 0.248308 0.211616
0.630736 0.276257 0.237141
0.759888 0.304440 0.262667
0.300750 0.398034 0.223720
0.339751 0.459732 0.244300
0.432264 0.446142 0.247181
0.687483 0.384898 0.267799
0.787718 0.423374 0.298565
0.415098 0.590428 0.295778
0.479970 0.656202 0.336134
0.512367 0.647588 0.330633
0.656923 0.638716 0.346357
0.859979 0.612355 0.378845
0.611936 0.795563 0.427784
0.676453 0.855047 0.467084
0.713813 0.842581 0.460846
0.809190 0.852884 0.483693
0.942611 0.858649 0.517468
0.198152 0.150348 0.262101
0.266731 0.178061 0.342589
0.367978 0.204312 0.400121
0.564262 0.237729 0.303667
0.737607 0.271390 0.307337
0.263651 0.205972 0.385909
0.369001 0.241417 0.538525
0.493149 0.258032 0.543878
0.648321 0.276706 0.313266
0.772155 0.313001 0.276879
0.315475 0.346959 0.399348
0.361923 0.401345 0.472565
0.479284 0.375051 0.419206
0.711992 0.393123 0.279727
0.797674 0.433786 0.306487
0.440434 0.604909 0.352158
0.502501 0.669973 0.394193
0.553999 0.720509 0.405582
0.676326 0.656003 0.357137
0.865075 0.623765 0.386906
0.612599 0.801584 0.467044
0.671340 0.868535 0.518993
0.706659 0.873787 0.520971
0.836967 0.870745 0.499363
0.953119 0.871555 0.530784
0.251632 0.182512 0.387980
0.318709 0.199035 0.452937
0.415729 0.222638 0.499638
0.558664 0.250045 0.524608
0.733803 0.295119 0.558826
0.300209 0.227675 0.482594
0.388098 0.253863 0.586384
0.513446 0.270654 0.598456
0.660665 0.301285 0.608929
0.820179 0.343769 0.623752
0.347634 0.339940 0.543422
0.386537 0.380751 0.605647
0.521886 0.346829 0.604022
0.707329 0.368104 0.616705
0.840986 0.400127 0.622323
0.463329 0.559836 0.541620
0.509379 0.619058 0.588291
0.559974 0.664941 0.609391
0.702021 0.585111 0.539449
0.871734 0.629280 0.434378
0.603192 0.803899 0.546466
0.657978 0.866647 0.595392
0.699982 0.879267 0.625245
0.786084 0.884150 0.605275
0.963250 0.887309 0.563674
0.321635 0.222117 0.574276
0.370268 0.231882 0.586437
0.476503 0.254281 0.615500
0.624224 0.285561 0.629521
0.809091 0.334752 0.649324
0.343614 0.256710 0.602342
0.419939 0.278990 0.649417
0.544826 0.295086 0.651891
0.691267 0.328701 0.662547
0.850049 0.370672 0.678466
0.376860 0.349615 0.638350
0.411607 0.393461 0.661131
0.564795 0.378512 0.663369
0.745720 0.403985 0.674690
0.878491 0.444367 0.688962
0.507300 0.598839 0.671242
0.550537 0.635477 0.691669
0.601408 0.667692 0.699646
0.768381 0.577281 0.698228
0.918239 0.600216 0.710405
0.628846 0.807500 0.703381
0.674418 0.843612 0.733952
0.721343 0.855292 0.742320
0.800369 0.876187 0.756748
0.959082 0.848208 0.722369
