app/src/main/assets/cube/Game06.cube
# LUT by SparkleStock. Enhanced with VOXCOLOR algorithms.
LUT_3D_SIZE 32
0.132942 0.113392 0.105572
0.147069 0.117428 0.109608
0.161070 0.121338 0.113644
0.173178 0.123356 0.117680
0.185287 0.125374 0.121464
0.197395 0.127393 0.123482
0.210261 0.129789 0.125501
0.226406 0.133825 0.127519
0.242550 0.137861 0.130041
0.258695 0.141898 0.134078
0.274209 0.145934 0.137483
0.288336 0.149970 0.139501
0.304733 0.154006 0.143033
0.324914 0.158042 0.149087
0.345095 0.163844 0.155141
0.365276 0.171917 0.161196
0.384448 0.177971 0.166241
0.402611 0.182007 0.170277
0.425315 0.187179 0.175449
0.451550 0.193233 0.181503
0.480308 0.200549 0.188818
0.510579 0.208621 0.196891
0.538076 0.215306 0.202188
0.564311 0.221360 0.206225
0.590546 0.225901 0.211774
0.616782 0.229937 0.217829
0.651216 0.237253 0.225523
0.687541 0.245325 0.233595
0.715038 0.253398 0.238136
0.741273 0.261470 0.242172
0.759941 0.267650 0.248100
0.778104 0.273705 0.254154
0.141015 0.129537 0.113644
0.150975 0.133573 0.116639
0.161525 0.137223 0.119568
0.180925 0.135074 0.121521
0.199674 0.133577 0.123613
0.213866 0.136637 0.126672
0.228033 0.139489 0.129537
0.242095 0.141442 0.131555
0.256677 0.143916 0.134078
0.272822 0.147952 0.138114
0.288987 0.152314 0.142170
0.305197 0.157391 0.146272
0.322505 0.162469 0.150715
0.341645 0.167547 0.155727
0.361696 0.173024 0.161651
0.382918 0.179013 0.168747
0.403132 0.184546 0.173793
0.422336 0.189624 0.176787
0.444324 0.195251 0.181503
0.468476 0.201305 0.187557
0.495802 0.208621 0.194222
0.525031 0.216693 0.201253
0.552203 0.221946 0.206225
0.578438 0.225917 0.210261
0.603892 0.230718 0.215811
0.629086 0.235796 0.221865
0.660785 0.242461 0.228713
0.693986 0.249492 0.235743
0.719269 0.257434 0.240154
0.743422 0.265506 0.244190
0.760982 0.270710 0.249142
0.778104 0.275723 0.254154
0.149213 0.145682 0.121464
0.155202 0.149718 0.123482
0.162412 0.153140 0.125374
0.187931 0.147346 0.125374
0.212377 0.142715 0.125879
0.229303 0.146231 0.129915
0.245362 0.149087 0.133573
0.257666 0.149087 0.135591
0.270930 0.150112 0.138130
0.287075 0.154214 0.142231
0.303830 0.158905 0.146923
0.321928 0.164894 0.152912
0.340074 0.170908 0.158217
0.358302 0.176962 0.162384
0.378211 0.182162 0.168202
0.400280 0.186263 0.176144
0.421437 0.191341 0.181157
0.441683 0.197395 0.183240
0.463028 0.203413 0.187521
0.485227 0.209402 0.193510
0.511169 0.216653 0.199540
0.539358 0.224660 0.205594
0.566158 0.228550 0.210261
0.592329 0.230568 0.214297
0.617083 0.235613 0.219847
0.641365 0.241667 0.225901
0.670302 0.247722 0.231850
0.700313 0.253776 0.237774
0.723489 0.261596 0.242103
0.745688 0.269669 0.246204
0.762089 0.273896 0.250244
0.778104 0.277867 0.254281
0.159304 0.161826 0.125501
0.164251 0.165863 0.127519
0.169769 0.169545 0.129411
0.183830 0.167917 0.129411
0.199812 0.165891 0.129915
0.229237 0.161074 0.133951
0.256038 0.157160 0.137609
0.271467 0.157160 0.139627
0.287075 0.158445 0.142427
0.303219 0.163588 0.147569
0.319649 0.168670 0.152651
0.336705 0.173618 0.157599
0.354592 0.178980 0.163035
0.373861 0.185035 0.169284
0.393444 0.190690 0.175363
0.413430 0.195833 0.181222
0.434066 0.201432 0.185714
0.455354 0.207486 0.188839
0.477154 0.212918 0.192989
0.499354 0.217865 0.197937
0.524645 0.224074 0.203576
0.551792 0.231040 0.209630
0.577551 0.234604 0.214297
0.602679 0.236622 0.218333
0.627955 0.241667 0.223883
0.653278 0.247722 0.229937
0.679025 0.253776 0.234193
0.704870 0.259830 0.238034
0.727525 0.267650 0.243014
0.749724 0.275723 0.248157
0.764172 0.278974 0.252262
0.778104 0.281903 0.256299
0.169142 0.177971 0.129789
0.173178 0.182007 0.131807
0.177223 0.185934 0.133707
0.181389 0.188212 0.133837
0.189803 0.188806 0.134440
0.227952 0.177609 0.138346
0.262670 0.168243 0.141898
0.282526 0.166811 0.143916
0.301616 0.167185 0.146943
0.318412 0.172979 0.152997
0.335005 0.178305 0.158462
0.351149 0.182601 0.162628
0.368759 0.187508 0.168113
0.388810 0.193432 0.175794
0.408035 0.199413 0.181938
0.426197 0.205468 0.186105
0.446313 0.211457 0.190206
0.468382 0.217381 0.194242
0.490524 0.222243 0.198278
0.512723 0.226279 0.202315
0.537201 0.231414 0.207449
0.563046 0.237208 0.213243
0.587772 0.240585 0.217918
0.611989 0.242864 0.222085
0.637817 0.247974 0.227667
0.664183 0.254028 0.233721
0.686846 0.259977 0.236496
0.708654 0.265901 0.238514
0.730577 0.273477 0.243950
0.752515 0.281289 0.249874
0.765604 0.283913 0.254150
0.778104 0.286192 0.258317
0.177214 0.194116 0.135843
0.181251 0.198152 0.137861
0.185360 0.202209 0.139827
0.190568 0.206570 0.140998
0.197680 0.209899 0.142382
0.218122 0.205993 0.145246
0.240992 0.200402 0.147952
0.274388 0.187512 0.149970
0.304937 0.178773 0.152997
0.326940 0.182483 0.159051
0.347113 0.187028 0.164841
0.363258 0.193408 0.170049
0.380477 0.199226 0.175013
0.399486 0.204109 0.179570
0.418125 0.209504 0.184412
0.436288 0.215558 0.189620
0.455883 0.221027 0.194242
0.476910 0.225909 0.198278
0.498597 0.230316 0.202315
0.520796 0.234352 0.206351
0.543320 0.238185 0.210183
0.566040 0.241895 0.213894
0.589790 0.246054 0.218634
0.614007 0.250415 0.223842
0.640616 0.256046 0.229685
0.668024 0.262101 0.235739
0.688343 0.267203 0.238514
0.707027 0.272085 0.240532
0.726736 0.277708 0.245057
0.746591 0.283437 0.249939
0.762480 0.287884 0.255127
0.778104 0.292246 0.260335
0.186044 0.210261 0.142276
0.190080 0.214688 0.144294
0.194242 0.219216 0.146324
0.200296 0.225270 0.148538
0.206302 0.230820 0.150702
0.211966 0.232838 0.152525
0.224233 0.230755 0.154421
0.265116 0.210900 0.156635
0.303020 0.195878 0.159759
0.331990 0.195357 0.165618
0.357379 0.197338 0.171416
0.374891 0.204825 0.177080
0.392573 0.211018 0.181523
0.410541 0.215054 0.183932
0.428509 0.219887 0.187765
0.446476 0.225746 0.193428
0.465550 0.230792 0.198376
0.485731 0.235023 0.202607
0.507048 0.239145 0.206619
0.529247 0.243181 0.210460
0.550551 0.246078 0.213406
0.571318 0.248291 0.215815
0.593919 0.253011 0.220461
0.617355 0.258870 0.226125
0.644112 0.265022 0.231935
0.671974 0.271272 0.237794
0.690475 0.275406 0.240691
0.706815 0.279051 0.242904
0.724579 0.283039 0.246713
0.742547 0.287075 0.250749
0.760331 0.292820 0.256494
0.778104 0.298679 0.262353
0.198152 0.226406 0.150348
0.202188 0.232916 0.152367
0.206351 0.239397 0.154462
0.212405 0.245451 0.157717
0.218150 0.251001 0.160663
0.221731 0.253019 0.161444
0.228790 0.253280 0.162689
0.250924 0.245923 0.165944
0.278412 0.236891 0.169590
0.321964 0.222829 0.174407
0.359657 0.214525 0.178838
0.384460 0.218887 0.182418
0.406309 0.223126 0.186341
0.423235 0.227162 0.190832
0.440161 0.231540 0.194926
0.457087 0.236358 0.198506
0.475641 0.241403 0.202933
0.495822 0.246676 0.208206
0.517138 0.251253 0.212088
0.539337 0.255290 0.214887
0.562594 0.258838 0.218744
0.586486 0.262093 0.223236
0.607200 0.266422 0.227101
0.626469 0.271239 0.230682
0.650622 0.277912 0.235190
0.676401 0.285203 0.240007
0.695357 0.287840 0.243555
0.712739 0.289402 0.246810
0.729722 0.293129 0.250749
0.746648 0.297165 0.254785
0.762415 0.301934 0.259554
0.778104 0.306751 0.264371
0.210261 0.244064 0.158421
0.214297 0.251616 0.160439
0.218443 0.259090 0.162583
0.224237 0.265405 0.166619
0.229624 0.271247 0.170151
0.232163 0.273786 0.170151
0.235642 0.276227 0.170859
0.243193 0.278246 0.174635
0.261047 0.274486 0.178411
0.309807 0.253394 0.182186
0.354091 0.238303 0.185494
0.388529 0.236415 0.187773
0.416888 0.236651 0.191467
0.435116 0.240426 0.197522
0.452319 0.244088 0.201696
0.468203 0.247604 0.203454
0.486496 0.252519 0.207360
0.507198 0.258834 0.213414
0.528303 0.263867 0.217344
0.549721 0.267903 0.219623
0.573987 0.271939 0.224099
0.599962 0.275975 0.229892
0.619894 0.280190 0.233091
0.637081 0.284487 0.235109
0.658759 0.291225 0.238640
0.681935 0.298776 0.242677
0.701037 0.300616 0.246713
0.719200 0.301136 0.250749
0.735370 0.304961 0.254785
0.751254 0.309258 0.258821
0.765735 0.313310 0.263102
0.780122 0.317346 0.267398
0.222369 0.266263 0.166493
0.226406 0.271731 0.168511
0.230487 0.277318 0.170656
0.235239 0.284674 0.174692
0.239975 0.291689 0.178223
0.244597 0.296311 0.178223
0.249378 0.300445 0.178736
0.254846 0.302463 0.181470
0.265409 0.301828 0.184205
0.291253 0.293235 0.186939
0.324991 0.281854 0.189856
0.376095 0.264343 0.193176
0.417995 0.254423 0.197522
0.444556 0.257157 0.203576
0.465990 0.259322 0.207295
0.480833 0.260754 0.208011
0.499647 0.265148 0.211396
0.522432 0.272505 0.217450
0.542690 0.277993 0.221967
0.560983 0.282029 0.225287
0.583426 0.286066 0.229502
0.608359 0.290102 0.234254
0.630831 0.295033 0.237127
0.652184 0.300371 0.239145
0.671779 0.305807 0.242677
0.690788 0.311276 0.246713
0.709110 0.314417 0.250749
0.727273 0.317021 0.254785
0.742531 0.322017 0.258821
0.757373 0.327355 0.262858
0.772765 0.331473 0.268114
0.788194 0.335509 0.273453
0.234478 0.288462 0.173935
0.238840 0.293149 0.176279
0.243161 0.297987 0.178708
0.246871 0.305083 0.182418
0.250875 0.312008 0.185706
0.256929 0.317737 0.186031
0.262727 0.323014 0.186735
0.267415 0.326334 0.189079
0.273208 0.328987 0.191422
0.282322 0.329638 0.193766
0.305596 0.322375 0.196435
0.360019 0.297702 0.199820
0.408218 0.281086 0.203962
0.446041 0.277896 0.209366
0.474778 0.275674 0.212547
0.491835 0.274698 0.212873
0.512146 0.278083 0.215900
0.535712 0.285830 0.221629
0.555836 0.291672 0.226406
0.573283 0.296034 0.230442
0.594351 0.300396 0.234478
0.617591 0.304757 0.238514
0.640832 0.310059 0.241163
0.664073 0.315788 0.243181
0.681992 0.320491 0.246713
0.698136 0.324853 0.250749
0.716185 0.328950 0.255050
0.734674 0.332986 0.259411
0.749061 0.338504 0.263488
0.762862 0.344232 0.267524
0.778555 0.348680 0.273147
0.794375 0.353041 0.278876
0.246587 0.310661 0.179989
0.251990 0.317432 0.183374
0.257222 0.324027 0.186715
0.259891 0.327998 0.189384
0.262984 0.332059 0.191890
0.269038 0.336746 0.193257
0.275227 0.341958 0.195003
0.281997 0.349445 0.198388
0.288572 0.355743 0.201773
0.294561 0.358477 0.205159
0.307549 0.356227 0.207893
0.335932 0.343012 0.209195
0.374496 0.327306 0.211254
0.430026 0.307451 0.214574
0.472825 0.294488 0.217039
0.499256 0.290387 0.218406
0.523213 0.291689 0.221434
0.544696 0.298394 0.226121
0.566252 0.304367 0.230442
0.587865 0.309770 0.234478
0.608543 0.315173 0.238514
0.628658 0.320577 0.242550
0.648774 0.325488 0.245199
0.668890 0.330175 0.247217
0.686028 0.335399 0.250749
0.702173 0.340803 0.254785
0.721068 0.345095 0.259932
0.740598 0.349131 0.265335
0.754204 0.353737 0.269542
0.766963 0.358424 0.273579
0.781615 0.363783 0.278225
0.796393 0.369186 0.282912
0.260209 0.333617 0.187557
0.265872 0.341299 0.191203
0.271308 0.348676 0.194747
0.273326 0.351475 0.196765
0.275849 0.354478 0.198832
0.281903 0.358904 0.201240
0.288190 0.364100 0.203881
0.295481 0.372628 0.207527
0.302056 0.380131 0.211172
0.306483 0.384558 0.214818
0.313066 0.386442 0.217446
0.324393 0.382731 0.217837
0.352931 0.370671 0.218691
0.410154 0.344696 0.220319
0.459716 0.325044 0.222117
0.499427 0.313522 0.224135
0.530545 0.309811 0.226967
0.553069 0.313912 0.230613
0.576326 0.318892 0.234478
0.600153 0.324556 0.238514
0.619951 0.330220 0.242306
0.637333 0.335883 0.245952
0.655789 0.340965 0.249016
0.674733 0.345783 0.251815
0.690992 0.350942 0.255542
0.706355 0.356215 0.259578
0.725633 0.361435 0.265254
0.745814 0.366643 0.271308
0.759957 0.371168 0.275939
0.773237 0.375594 0.280365
0.786213 0.380815 0.284060
0.799168 0.386088 0.287705
0.276354 0.357834 0.197648
0.280976 0.364475 0.200252
0.285435 0.371005 0.202819
0.287453 0.375887 0.204837
0.289976 0.380843 0.207034
0.296030 0.386312 0.210485
0.301926 0.391572 0.213776
0.307134 0.395934 0.216380
0.312407 0.400572 0.218984
0.317875 0.406041 0.221588
0.324523 0.410594 0.223826
0.333768 0.413133 0.225258
0.351629 0.409276 0.226373
0.383854 0.394758 0.226959
0.428012 0.375171 0.228171
0.487514 0.349066 0.230190
0.531651 0.335460 0.232501
0.560426 0.334354 0.235105
0.585831 0.336469 0.238514
0.608616 0.341091 0.242550
0.626722 0.345714 0.245691
0.642020 0.350336 0.248295
0.661257 0.356524 0.252466
0.682285 0.363425 0.257348
0.697502 0.367542 0.261596
0.710782 0.370732 0.265632
0.729669 0.378101 0.271308
0.749850 0.386434 0.277363
0.766727 0.392260 0.282904
0.783133 0.397728 0.288373
0.793374 0.401061 0.291156
0.803204 0.404251 0.293760
0.290733 0.382052 0.206855
0.294313 0.387650 0.208873
0.297853 0.393306 0.210920
0.300782 0.399816 0.213394
0.304045 0.406155 0.215949
0.309644 0.411298 0.219074
0.314950 0.415940 0.221991
0.318986 0.418414 0.224009
0.323527 0.421783 0.226027
0.329581 0.427837 0.228045
0.336266 0.433891 0.230063
0.344338 0.439946 0.232081
0.355511 0.442070 0.233685
0.371851 0.437643 0.234596
0.407160 0.422137 0.235393
0.466856 0.392386 0.236044
0.517862 0.372531 0.237379
0.560177 0.362570 0.239397
0.591946 0.358689 0.242550
0.615512 0.359535 0.246587
0.633748 0.362945 0.249646
0.648787 0.367892 0.252120
0.667495 0.374362 0.257055
0.687871 0.381523 0.263110
0.703755 0.385852 0.268334
0.718142 0.389237 0.273282
0.735756 0.396959 0.278758
0.754114 0.405683 0.284357
0.771903 0.412469 0.289955
0.789610 0.418979 0.295554
0.798285 0.421278 0.297796
0.806357 0.423296 0.299814
0.302841 0.406269 0.214928
0.305380 0.410826 0.216946
0.308074 0.415570 0.219057
0.313086 0.423121 0.222573
0.318042 0.430112 0.225779
0.322599 0.433171 0.226821
0.327058 0.436316 0.228045
0.331095 0.439832 0.230063
0.335635 0.443982 0.232081
0.341690 0.450036 0.234100
0.348374 0.456091 0.236118
0.356447 0.462145 0.238136
0.366057 0.467394 0.240520
0.378231 0.471300 0.243515
0.400259 0.465038 0.244117
0.434957 0.445703 0.241643
0.484922 0.424285 0.241415
0.550152 0.400784 0.243433
0.593704 0.386877 0.246587
0.620395 0.380432 0.250623
0.641105 0.382410 0.254333
0.658226 0.389440 0.257849
0.674721 0.395128 0.263110
0.690931 0.400206 0.269164
0.709679 0.406358 0.275951
0.729275 0.412868 0.282982
0.744479 0.418638 0.288002
0.758671 0.424236 0.292559
0.775028 0.431544 0.297116
0.791693 0.439095 0.301673
0.800303 0.441459 0.303850
0.808375 0.443477 0.305868
0.316968 0.433513 0.224009
0.320028 0.438070 0.226027
0.323177 0.442749 0.228106
0.327669 0.449259 0.231101
0.332104 0.455273 0.233786
0.336140 0.457812 0.234307
0.340274 0.460631 0.235109
0.344831 0.464667 0.237127
0.350022 0.469338 0.239405
0.357118 0.475914 0.242465
0.364357 0.482326 0.245199
0.371908 0.488380 0.247217
0.380217 0.494801 0.249797
0.389786 0.501831 0.253312
0.403058 0.500973 0.253752
0.421091 0.489971 0.250236
0.462723 0.471938 0.249488
0.527953 0.446875 0.251506
0.579707 0.427304 0.254366
0.620981 0.412006 0.257881
0.649112 0.409361 0.262048
0.669358 0.414309 0.266605
0.686829 0.419346 0.272191
0.703039 0.424423 0.278246
0.721397 0.430575 0.285032
0.740472 0.437085 0.292063
0.754733 0.442432 0.297084
0.767883 0.447510 0.301641
0.781831 0.454296 0.305742
0.795892 0.461327 0.309778
0.805315 0.464635 0.312899
0.814429 0.467695 0.315959
0.333113 0.463785 0.234100
0.338256 0.469383 0.236118
0.343162 0.474843 0.238067
0.344530 0.478229 0.238978
0.346230 0.481638 0.239971
0.350266 0.485219 0.241533
0.354596 0.488885 0.243181
0.360194 0.492921 0.245199
0.366688 0.497852 0.247998
0.375867 0.505469 0.253141
0.384212 0.512597 0.257308
0.390722 0.518652 0.259326
0.397989 0.524291 0.261515
0.406517 0.529239 0.263989
0.415558 0.529942 0.264298
0.425258 0.525190 0.261824
0.451265 0.515490 0.261596
0.493580 0.500843 0.263614
0.549957 0.479970 0.265889
0.617270 0.454256 0.268363
0.657770 0.443799 0.272789
0.682183 0.442497 0.278388
0.703820 0.447013 0.284300
0.724197 0.454174 0.290354
0.738909 0.458503 0.295578
0.751734 0.461889 0.300526
0.766516 0.468342 0.306003
0.781749 0.475503 0.311601
0.792312 0.480727 0.315833
0.802207 0.485674 0.319869
0.813323 0.490805 0.324943
0.824520 0.495948 0.330085
0.350393 0.494056 0.244190
0.355861 0.500110 0.246794
0.361024 0.505912 0.249235
0.361610 0.507931 0.249235
0.362701 0.510201 0.249488
0.367323 0.514237 0.251506
0.372213 0.518273 0.253634
0.378268 0.522309 0.256238
0.385038 0.527062 0.259558
0.393957 0.533962 0.265026
0.402163 0.540415 0.269416
0.408804 0.545884 0.271434
0.415761 0.550376 0.273233
0.423248 0.553240 0.274665
0.430364 0.554225 0.275100
0.437004 0.552793 0.274254
0.453539 0.548789 0.274840
0.479970 0.542214 0.276858
0.529544 0.526923 0.278876
0.597117 0.504855 0.280894
0.646911 0.489296 0.284336
0.686036 0.477643 0.288633
0.713927 0.476329 0.294138
0.736712 0.479714 0.300192
0.750855 0.483392 0.305172
0.762117 0.487168 0.309795
0.778299 0.495387 0.316532
0.795616 0.504631 0.323759
0.804843 0.509318 0.328193
0.812916 0.513354 0.332230
0.824772 0.518733 0.337059
0.836881 0.524201 0.341942
0.368555 0.524328 0.254281
0.372982 0.530382 0.257926
0.377234 0.536184 0.261344
0.378862 0.538202 0.261344
0.380994 0.540472 0.261596
0.386657 0.544509 0.263614
0.392394 0.548545 0.265938
0.398449 0.552581 0.269583
0.404698 0.556812 0.273424
0.411534 0.561630 0.277851
0.418634 0.566325 0.281525
0.426315 0.570752 0.283543
0.433533 0.573812 0.284951
0.439978 0.574593 0.285341
0.446964 0.574861 0.286102
0.454646 0.574471 0.287339
0.466494 0.574113 0.288967
0.482509 0.573787 0.290985
0.516394 0.569434 0.293003
0.564177 0.561947 0.295021
0.620871 0.543394 0.296510
0.682911 0.518200 0.297682
0.718680 0.506926 0.302210
0.742506 0.501978 0.308265
0.758472 0.505916 0.314026
0.771817 0.512817 0.319690
0.790082 0.523314 0.328316
0.809482 0.534642 0.337625
0.818970 0.539589 0.342320
0.827043 0.543626 0.346356
0.838899 0.548028 0.349233
0.851007 0.552455 0.352032
0.389241 0.555860 0.269416
0.392626 0.560613 0.272151
0.395967 0.565235 0.274755
0.398636 0.567904 0.275406
0.401565 0.570581 0.276146
0.406318 0.573315 0.277513
0.411436 0.576416 0.279381
0.418141 0.581103 0.283417
0.424684 0.585465 0.287290
0.430738 0.588850 0.290676
0.437423 0.592235 0.293837
0.445496 0.595620 0.296506
0.453055 0.597980 0.298174
0.459761 0.598631 0.298174
0.467634 0.599567 0.299342
0.477008 0.600869 0.302011
0.487750 0.602203 0.304680
0.499858 0.603571 0.307349
0.524197 0.604132 0.310385
0.558049 0.604067 0.313705
0.606752 0.590412 0.314950
0.664366 0.568604 0.314950
0.708866 0.553106 0.318664
0.747405 0.540476 0.324068
0.769099 0.539956 0.328495
0.785179 0.543471 0.332596
0.802475 0.552382 0.340506
0.820052 0.562537 0.349294
0.832161 0.569047 0.355633
0.843488 0.575036 0.361622
0.854328 0.579195 0.364499
0.865134 0.583231 0.367168
0.411440 0.588150 0.287579
0.413784 0.590819 0.288230
0.416213 0.593553 0.288946
0.419923 0.597264 0.290639
0.423504 0.600592 0.292161
0.426173 0.601243 0.292486
0.429794 0.602846 0.293507
0.437541 0.608575 0.297544
0.444865 0.613458 0.301157
0.450919 0.615801 0.303500
0.457604 0.618145 0.306271
0.465677 0.620488 0.309982
0.473627 0.622588 0.312301
0.481374 0.624280 0.312301
0.490744 0.626714 0.313924
0.502202 0.630099 0.317635
0.513985 0.631954 0.321346
0.526093 0.632280 0.325056
0.544574 0.634143 0.329719
0.568010 0.637203 0.335123
0.599787 0.633183 0.337149
0.636568 0.624915 0.337149
0.690312 0.608636 0.340147
0.751767 0.588716 0.344509
0.781534 0.580904 0.346332
0.800738 0.577128 0.347308
0.815235 0.582132 0.352940
0.828646 0.589163 0.359645
0.844790 0.598017 0.368458
0.861326 0.607131 0.377572
0.870537 0.611484 0.381620
0.879261 0.615520 0.385331
0.436414 0.616277 0.305742
0.439864 0.620444 0.306458
0.443307 0.624512 0.307256
0.446627 0.627116 0.309274
0.449784 0.629395 0.311040
0.451802 0.629395 0.311040
0.454821 0.630396 0.311662
0.462177 0.635734 0.314982
0.469208 0.640242 0.318156
0.475263 0.642260 0.320890
0.481500 0.644055 0.323584
0.488140 0.645357 0.326188
0.496123 0.647464 0.328084
0.506344 0.650915 0.328800
0.517077 0.653995 0.330655
0.528470 0.656599 0.333975
0.539862 0.658259 0.337653
0.551255 0.658975 0.341690
0.567591 0.661558 0.346861
0.587772 0.665595 0.352915
0.612916 0.666376 0.356081
0.641040 0.665204 0.357513
0.687155 0.654499 0.361228
0.741448 0.639461 0.365980
0.778213 0.627401 0.366631
0.809136 0.616334 0.365915
0.827681 0.618015 0.370700
0.843370 0.622637 0.376754
0.859344 0.630790 0.384460
0.875359 0.639449 0.392402
0.886613 0.644445 0.397354
0.897550 0.649197 0.402106
0.462649 0.642513 0.323905
0.468183 0.649804 0.325663
0.473513 0.656672 0.327437
0.475791 0.657193 0.329455
0.478037 0.657648 0.331221
0.480055 0.657648 0.331221
0.482879 0.658454 0.331648
0.489194 0.662750 0.333926
0.495444 0.666477 0.336579
0.501498 0.668496 0.340355
0.507084 0.669964 0.343114
0.511641 0.670225 0.343634
0.519494 0.672463 0.344619
0.532839 0.677996 0.346377
0.544875 0.681337 0.348362
0.555226 0.681857 0.350641
0.565577 0.682997 0.353798
0.575927 0.684754 0.357834
0.591808 0.687794 0.363006
0.611989 0.691830 0.369060
0.635181 0.695215 0.373527
0.660179 0.698210 0.377043
0.690996 0.695968 0.382125
0.724457 0.691346 0.387919
0.767732 0.676421 0.388049
0.814279 0.658063 0.386291
0.839985 0.656684 0.390881
0.860882 0.659223 0.396935
0.874773 0.665293 0.401907
0.887663 0.671869 0.406724
0.902628 0.677711 0.412457
0.917731 0.683505 0.418251
0.490398 0.671775 0.342068
0.496453 0.678285 0.344086
0.502303 0.684535 0.346153
0.505103 0.686878 0.348952
0.507707 0.688734 0.351304
0.508944 0.687171 0.350523
0.511084 0.686658 0.350266
0.517138 0.690695 0.352285
0.523192 0.694226 0.354612
0.529247 0.696244 0.357867
0.535159 0.697876 0.360349
0.540757 0.698657 0.361130
0.548675 0.700537 0.362375
0.560458 0.704248 0.364393
0.571501 0.706677 0.366411
0.581591 0.707458 0.368429
0.591682 0.708467 0.371066
0.601772 0.709704 0.374321
0.616660 0.712515 0.378711
0.635278 0.716552 0.383984
0.656908 0.720588 0.388484
0.680344 0.724624 0.392520
0.705481 0.725572 0.397944
0.731390 0.725116 0.403998
0.768090 0.715726 0.405756
0.808387 0.703357 0.406082
0.840962 0.698869 0.409792
0.871754 0.696200 0.414284
0.889616 0.701164 0.419744
0.905630 0.707218 0.425343
0.919570 0.713272 0.431369
0.933371 0.719326 0.437423
0.518652 0.702046 0.360231
0.524706 0.706473 0.362249
0.530622 0.710965 0.364381
0.534463 0.716434 0.368222
0.537848 0.720763 0.371355
0.538043 0.717117 0.369532
0.539337 0.714912 0.368429
0.545391 0.718948 0.370447
0.551446 0.722480 0.372514
0.557500 0.724498 0.374728
0.564063 0.726455 0.376819
0.571745 0.728278 0.378642
0.579793 0.729637 0.380538
0.588451 0.730223 0.382556
0.597736 0.731350 0.384574
0.607826 0.733172 0.386592
0.617917 0.734181 0.388708
0.628007 0.734377 0.390921
0.641723 0.736733 0.394270
0.658259 0.740769 0.398501
0.678456 0.744805 0.402611
0.700850 0.748841 0.406647
0.723513 0.751221 0.412071
0.746298 0.752849 0.418125
0.772062 0.751791 0.422226
0.798818 0.749838 0.425677
0.838162 0.742225 0.428281
0.880412 0.733307 0.430689
0.904263 0.737489 0.437712
0.925486 0.743544 0.445394
0.936821 0.749598 0.451550
0.947498 0.755652 0.457604
0.550184 0.733958 0.381673
0.554546 0.736301 0.382845
0.558940 0.738824 0.384143
0.563823 0.744032 0.387333
0.568095 0.748190 0.389977
0.568095 0.745000 0.388806
0.569389 0.743165 0.388232
0.576290 0.747201 0.390250
0.582767 0.750522 0.392057
0.587975 0.751693 0.393228
0.593549 0.752865 0.394665
0.599929 0.754037 0.396683
0.607261 0.755721 0.398701
0.616180 0.758260 0.400719
0.625981 0.760201 0.402737
0.636918 0.761373 0.404755
0.646585 0.761536 0.406350
0.654983 0.760689 0.407522
0.668691 0.763066 0.410781
0.686528 0.767948 0.415663
0.706563 0.772302 0.420546
0.727916 0.776338 0.425428
0.749268 0.778987 0.430535
0.770621 0.781005 0.435743
0.792853 0.782779 0.440707
0.815377 0.784471 0.445589
0.848111 0.780028 0.449520
0.883199 0.774169 0.453230
0.909972 0.774291 0.457795
0.935556 0.775268 0.462483
0.948995 0.780211 0.468451
0.961625 0.785419 0.474506
0.582474 0.766247 0.403872
0.584753 0.766508 0.404002
0.587259 0.767012 0.404259
0.593183 0.771179 0.406407
0.598367 0.774556 0.408271
0.598367 0.772407 0.408140
0.599856 0.771419 0.408413
0.607798 0.775455 0.410431
0.614796 0.778515 0.411977
0.618963 0.778645 0.412107
0.623170 0.778775 0.412828
0.627466 0.778905 0.414846
0.633887 0.781110 0.416864
0.643847 0.786774 0.418882
0.654690 0.790017 0.420900
0.666669 0.790147 0.422918
0.675815 0.789268 0.423992
0.682130 0.787380 0.424122
0.696098 0.789887 0.427512
0.716019 0.795811 0.433436
0.736183 0.800555 0.439360
0.756494 0.804591 0.445284
