app/src/main/assets/cube/Game06.cube
# LUT by SparkleStock. Enhanced with VOXCOLOR algorithms.
LUT_3D_SIZE 8
DOMAIN_MIN 0.000000 0.000000 0.000000
DOMAIN_MAX 0.903226 0.903226 0.903226
0.132942 0.113392 0.105572
0.185287 0.125374 0.121464
0.242550 0.137861 0.130041
0.304733 0.154006 0.143033
0.384448 0.177971 0.166241
0.480308 0.200549 0.188818
0.590546 0.225901 0.211774
0.715038 0.253398 0.238136
0.169142 0.177971 0.129789
0.189803 0.188806 0.134440
0.301616 0.167185 0.146943
0.368759 0.187508 0.168113
0.446313 0.211457 0.190206
0.537201 0.231414 0.207449
0.637817 0.247974 0.227667
0.730577 0.273477 0.243950
0.210261 0.244064 0.158421
0.229624 0.271247 0.170151
0.261047 0.274486 0.178411
0.416888 0.236651 0.191467
0.486496 0.252519 0.207360
0.573987 0.271939 0.224099
0.658759 0.291225 0.238640
0.735370 0.304961 0.254785
0.260209 0.333617 0.187557
0.275849 0.354478 0.198832
0.302056 0.380131 0.211172
0.352931 0.370671 0.218691
0.530545 0.309811 0.226967
0.619951 0.330220 0.242306
0.690992 0.350942 0.255542
0.759957 0.371168 0.275939
0.316968 0.433513 0.224009
0.332104 0.455273 0.233786
0.350022 0.469338 0.239405
0.380217 0.494801 0.249797
0.462723 0.471938 0.249488
0.649112 0.409361 0.262048
0.721397 0.430575 0.285032
0.781831 0.454296 0.305742
0.389241 0.555860 0.269416
0.401565 0.570581 0.276146
0.424684 0.585465 0.287290
0.453055 0.597980 0.298174
0.487750 0.602203 0.304680
0.606752 0.590412 0.314950
0.769099 0.539956 0.328495
0.832161 0.569047 0.355633
0.490398 0.671775 0.342068
0.507707 0.688734 0.351304
0.523192 0.694226 0.354612
0.548675 0.700537 0.362375
0.591682 0.708467 0.371066
0.656908 0.720588 0.388484
0.768090 0.715726 0.405756
0.889616 0.701164 0.419744
0.616529 0.802069 0.426071
0.628866 0.806219 0.428329
0.643749 0.808729 0.432353
0.665468 0.811854 0.437134
0.705957 0.815691 0.443856
0.761646 0.826416 0.458174
0.844648 0.841442 0.480759
0.930478 0.847089 0.503382
0.145177 0.121464 0.145934
0.186939 0.137373 0.193746
0.255574 0.142748 0.138805
0.331851 0.166697 0.158877
0.414528 0.187053 0.178476
0.509814 0.211099 0.199369
0.632703 0.235642 0.223029
0.744931 0.263362 0.247722
0.189449 0.156871 0.225043
0.254623 0.183263 0.317735
0.321669 0.178459 0.162990
0.392633 0.198815 0.182134
0.477248 0.225189 0.202245
0.567568 0.240630 0.220415
0.664531 0.258295 0.234521
0.755101 0.280229 0.254221
0.214895 0.251477 0.167844
0.234810 0.282872 0.178946
0.271634 0.286932 0.187301
0.435265 0.245665 0.202854
0.514379 0.260322 0.218236
0.599982 0.280512 0.233227
0.688267 0.300246 0.248028
0.751616 0.310835 0.261106
0.271182 0.345396 0.198783
0.290218 0.379439 0.210975
0.314579 0.399557 0.222666
0.370235 0.387626 0.229267
0.561108 0.324617 0.237497
0.640897 0.339902 0.248169
0.713612 0.361221 0.264775
0.774476 0.382832 0.284562
0.324031 0.443665 0.233973
0.346108 0.480816 0.244841
0.362029 0.490109 0.245675
0.388566 0.509616 0.254484
0.480660 0.490042 0.261862
0.671743 0.422657 0.271861
0.733705 0.436249 0.288726
0.789539 0.461326 0.309135
0.394539 0.561329 0.278795
0.428128 0.602149 0.300499
0.438874 0.603442 0.299877
0.463437 0.611937 0.305822
0.498383 0.615536 0.309570
0.618659 0.603509 0.322865
0.782899 0.550456 0.335685
0.843155 0.577490 0.361618
0.490553 0.674171 0.344717
0.538549 0.718573 0.372862
0.535520 0.706668 0.364848
0.567504 0.714958 0.372912
0.599221 0.715225 0.376594
0.668828 0.729376 0.394592
0.779056 0.725986 0.412071
0.897777 0.706875 0.425386
0.612859 0.798260 0.424305
0.657153 0.839145 0.451266
0.656767 0.827197 0.441116
0.683847 0.831316 0.450412
0.721903 0.833338 0.457213
0.774637 0.836812 0.466669
0.861826 0.853428 0.494427
0.940844 0.857316 0.514484
0.162331 0.130041 0.187305
0.205122 0.149592 0.245484
0.247514 0.162396 0.248080
0.347585 0.181320 0.188436
0.435796 0.195499 0.188054
0.545554 0.222911 0.211522
0.665159 0.244568 0.233916
0.756157 0.269644 0.252238
0.220258 0.169614 0.288308
0.297263 0.197505 0.445455
0.331298 0.202493 0.381021
0.410689 0.211205 0.215919
0.500338 0.232403 0.212722
0.597850 0.245818 0.226224
0.695333 0.270006 0.243653
0.762098 0.286559 0.258684
0.240662 0.216169 0.293796
0.266535 0.234787 0.348330
0.337804 0.238136 0.363942
0.450426 0.250730 0.210697
0.537018 0.270556 0.225949
0.625342 0.286620 0.239386
0.701731 0.302712 0.253073
0.765966 0.317749 0.267765
0.274685 0.348134 0.213304
0.297555 0.384478 0.228974
0.317631 0.420267 0.239133
0.377960 0.396466 0.234735
0.577758 0.331433 0.242071
0.657575 0.345802 0.253915
0.730291 0.366449 0.272096
0.779114 0.385059 0.286586
0.327050 0.451285 0.244438
0.354861 0.495184 0.258236
0.379037 0.527876 0.269885
0.399427 0.522157 0.264615
0.490140 0.499686 0.267962
0.685593 0.427816 0.278570
0.748227 0.441904 0.294962
0.797452 0.468602 0.313562
0.399279 0.567285 0.286859
0.429597 0.603153 0.309478
0.463184 0.639970 0.326086
0.471186 0.621336 0.311306
0.507543 0.625138 0.314699
0.627714 0.611297 0.329450
0.793640 0.559954 0.342790
0.844147 0.581904 0.363344
0.492726 0.673712 0.351906
0.537149 0.718863 0.380530
0.579827 0.759006 0.403701
0.583175 0.729951 0.384743
0.616120 0.729875 0.387459
0.682069 0.740106 0.403451
0.784199 0.727191 0.412651
0.903576 0.711125 0.427912
0.613124 0.796848 0.430942
0.662792 0.846704 0.463092
0.685282 0.863599 0.476149
0.701924 0.846428 0.462297
0.739693 0.848142 0.470295
0.794794 0.855691 0.482575
0.869907 0.861717 0.501001
0.942730 0.859706 0.518477
0.186044 0.142276 0.241541
0.226357 0.162486 0.291896
0.270832 0.177621 0.328560
0.324283 0.193717 0.357643
0.406802 0.206762 0.317021
0.553175 0.228770 0.239365
0.693136 0.250456 0.240195
0.759326 0.271902 0.257361
0.236671 0.181173 0.330793
0.315170 0.209533 0.494121
0.366702 0.225358 0.517284
0.419946 0.235769 0.509817
0.503983 0.237622 0.290725
0.601127 0.246376 0.259458
0.719230 0.274750 0.253392
0.766154 0.290009 0.263437
0.259257 0.208678 0.375521
0.297275 0.231437 0.455682
0.384831 0.244480 0.535049
0.453732 0.251943 0.483835
0.543606 0.266319 0.290647
0.644548 0.289622 0.248122
0.722512 0.308646 0.260257
0.772252 0.323953 0.272537
0.292519 0.299863 0.363982
0.311602 0.320000 0.411658
0.340886 0.352102 0.454647
0.427053 0.327107 0.396949
0.589258 0.333020 0.251668
0.675216 0.349440 0.258371
0.744048 0.371314 0.278401
0.786812 0.391866 0.293381
0.334179 0.453511 0.271638
0.361187 0.495016 0.287957
0.390800 0.539144 0.310518
0.410394 0.560336 0.306069
0.501585 0.508487 0.273061
0.697005 0.431495 0.282152
0.757963 0.446549 0.298294
0.801735 0.472707 0.316472
0.414577 0.577917 0.316069
0.446284 0.614417 0.337409
0.483001 0.654385 0.363955
0.506866 0.676261 0.364163
0.521624 0.640012 0.327673
0.641827 0.619315 0.335099
0.800976 0.563358 0.345387
0.847700 0.586706 0.367177
0.503813 0.677077 0.373686
0.547786 0.724485 0.405300
0.589046 0.768629 0.433022
0.618581 0.794127 0.440890
0.630833 0.744973 0.397746
0.695989 0.753490 0.411451
0.795542 0.740398 0.419207
0.907291 0.714383 0.430742
0.614764 0.800644 0.452144
0.664541 0.851206 0.487273
0.682756 0.871889 0.507183
0.698880 0.874427 0.503644
0.752428 0.859536 0.479013
0.810861 0.867612 0.494478
0.883254 0.870324 0.510636
0.954455 0.871049 0.530304
0.212279 0.159430 0.297417
0.247657 0.174501 0.346800
0.289223 0.185417 0.370826
0.347284 0.199963 0.410040
0.416249 0.217072 0.431108
0.499520 0.234572 0.452681
0.596702 0.247469 0.448889
0.702649 0.267874 0.471975
0.257686 0.189514 0.383878
0.330464 0.220445 0.528254
0.382377 0.234197 0.551441
0.438838 0.243343 0.558663
0.513913 0.254238 0.562694
0.594926 0.266989 0.549386
0.689661 0.283254 0.528321
0.778841 0.299276 0.437416
0.282400 0.219839 0.428338
0.316963 0.242289 0.510440
0.393872 0.251885 0.559022
0.468522 0.260725 0.559910
0.550415 0.276295 0.567847
0.619217 0.281285 0.525599
0.714160 0.295559 0.427581
0.781030 0.320480 0.356219
0.306121 0.279128 0.468899
0.337283 0.303203 0.538933
0.360682 0.324453 0.566329
0.467330 0.303892 0.570236
0.570882 0.296818 0.537364
0.659911 0.321353 0.426006
0.744518 0.357856 0.332802
0.791577 0.390697 0.326996
0.350922 0.405549 0.431214
0.380310 0.437968 0.475053
0.408169 0.469635 0.500119
0.427870 0.491045 0.508259
0.536836 0.433747 0.447224
0.701073 0.426952 0.315670
0.766429 0.452982 0.302942
0.804472 0.481849 0.325268
0.422792 0.573466 0.364690
0.456536 0.610436 0.387388
0.492197 0.654210 0.413427
0.522606 0.691913 0.434046
0.545397 0.702053 0.419945
0.650136 0.629127 0.345857
0.813372 0.572119 0.354152
0.851826 0.597171 0.377377
0.518766 0.689926 0.424570
0.549997 0.727264 0.446231
0.583039 0.770470 0.473194
0.617115 0.814074 0.499693
0.641070 0.813288 0.481863
0.703169 0.764306 0.418735
0.806768 0.747136 0.426224
0.910224 0.723561 0.441866
0.604364 0.801031 0.485955
0.646911 0.850531 0.520515
0.667431 0.875153 0.543605
0.686107 0.878735 0.560468
0.727773 0.878184 0.542072
0.823237 0.877173 0.502062
0.895557 0.879866 0.519157
0.955591 0.872857 0.535266
0.243559 0.178476 0.365781
0.279812 0.187728 0.415737
0.320011 0.198872 0.440845
0.374130 0.212287 0.468460
0.442615 0.225795 0.489157
0.525072 0.240996 0.507162
0.626697 0.263329 0.526187
0.724429 0.289780 0.546523
0.279255 0.200215 0.443144
0.349336 0.232620 0.571306
0.390147 0.236704 0.574109
0.446191 0.245907 0.578047
0.525379 0.262354 0.588581
0.607415 0.276892 0.590481
0.704861 0.300050 0.599744
0.806650 0.330716 0.614776
0.300518 0.233632 0.480218
0.340500 0.259300 0.570845
0.404868 0.258959 0.580834
0.481314 0.268376 0.588776
0.557952 0.282870 0.592832
0.642689 0.299778 0.604052
0.725782 0.316931 0.606698
0.816814 0.344184 0.616619
0.322509 0.284796 0.518391
0.352081 0.304719 0.583747
0.368601 0.322595 0.587982
0.479608 0.309373 0.595425
0.592943 0.313979 0.600533
0.666552 0.332062 0.600866
0.745007 0.348521 0.603747
0.824324 0.365058 0.604115
0.370972 0.395242 0.539484
0.400511 0.428087 0.592118
0.424255 0.454616 0.607056
0.448529 0.470488 0.609983
0.570814 0.388793 0.606625
0.697318 0.386183 0.588656
0.769429 0.420485 0.521931
0.836790 0.442433 0.537032
0.441781 0.531777 0.518574
0.470678 0.568957 0.551211
0.493586 0.595778 0.567882
0.519782 0.622896 0.577647
0.550396 0.643902 0.589256
0.673967 0.567633 0.511167
0.814394 0.562852 0.408550
0.855537 0.597579 0.417679
0.521048 0.690125 0.467003
0.550428 0.725934 0.491731
0.581243 0.768747 0.522374
0.614170 0.810070 0.549323
0.642143 0.832532 0.572538
0.675205 0.811582 0.525699
0.816306 0.758346 0.435095
0.916724 0.732465 0.457140
0.600067 0.801686 0.530126
0.643041 0.853139 0.567794
0.662266 0.871363 0.587222
0.686578 0.878147 0.605394
0.718066 0.883241 0.623228
0.780324 0.884558 0.589653
0.907639 0.887839 0.534097
0.961731 0.882166 0.555190
0.281273 0.194621 0.457604
0.314291 0.206448 0.500460
0.348639 0.213093 0.505408
0.409715 0.229099 0.540476
0.474013 0.237908 0.547283
0.560779 0.256567 0.564234
0.658576 0.281273 0.576383
0.761938 0.307256 0.592617
0.307032 0.220099 0.521862
0.363629 0.241102 0.612007
0.409104 0.248498 0.613933
0.467693 0.258974 0.615162
0.540338 0.270726 0.617954
0.626998 0.290035 0.624497
0.723234 0.311706 0.629518
0.825123 0.343167 0.643917
0.324857 0.247469 0.545391
0.355026 0.271939 0.607811
0.421755 0.272447 0.616319
0.495671 0.281437 0.619560
0.573512 0.294262 0.621225
0.656047 0.310661 0.627062
0.748034 0.334431 0.636401
0.831946 0.355316 0.642998
0.343203 0.296449 0.573136
0.366719 0.315020 0.620448
0.384568 0.331695 0.621543
0.493926 0.320690 0.624976
0.608876 0.328263 0.628903
0.690447 0.352086 0.634461
0.769024 0.372286 0.641555
0.849097 0.394105 0.652727
0.384184 0.405260 0.583634
0.413527 0.435295 0.630435
0.435739 0.461754 0.636222
0.465937 0.483456 0.637183
0.591255 0.405175 0.635535
0.719966 0.403913 0.640946
0.794198 0.430454 0.650333
0.858742 0.444661 0.654948
0.465864 0.535993 0.611419
0.496156 0.573366 0.647718
0.517952 0.594312 0.654719
0.544911 0.614447 0.658746
0.579202 0.625972 0.662738
0.708245 0.529579 0.653329
0.820013 0.515657 0.646530
0.882897 0.547634 0.649272
0.534048 0.665411 0.604596
0.559861 0.699491 0.633153
0.583743 0.724090 0.647601
0.609867 0.744242 0.658733
0.643108 0.756609 0.669134
0.680950 0.762424 0.671455
0.817454 0.705056 0.597989
0.920822 0.721165 0.530833
0.606040 0.806947 0.591755
0.643327 0.852403 0.625412
0.666056 0.871917 0.648921
0.687391 0.876043 0.660020
0.724392 0.888591 0.679811
0.761165 0.886731 0.688052
0.842040 0.890763 0.647724
0.965128 0.887288 0.581358
0.321635 0.222117 0.574276
0.349534 0.229823 0.594607
0.382100 0.235007 0.591905
0.435421 0.244243 0.603591
0.516052 0.259879 0.614686
0.604043 0.281525 0.627503
0.703548 0.303923 0.638118
0.809091 0.334752 0.649324
0.339281 0.242274 0.607045
0.375602 0.250997 0.638627
0.424270 0.260578 0.647936
0.483511 0.271553 0.650400
0.563411 0.286993 0.653188
0.649173 0.302894 0.656407
0.744783 0.329894 0.665520
0.842241 0.356411 0.674588
0.348855 0.266442 0.611033
0.372522 0.287573 0.648428
0.439745 0.288025 0.652877
0.518385 0.296655 0.656154
0.594349 0.310659 0.656283
0.678307 0.331168 0.662532
0.768981 0.356340 0.672541
0.853438 0.376910 0.679185
0.364808 0.310356 0.631775
0.384737 0.330264 0.654540
0.404728 0.349038 0.658384
0.517100 0.341359 0.658344
0.634925 0.351190 0.667950
0.711937 0.372741 0.671046
0.792570 0.399077 0.676450
0.868597 0.417520 0.684955
0.401826 0.416408 0.634867
0.423992 0.443635 0.663430
0.450307 0.473082 0.674452
0.483435 0.495930 0.674379
0.619801 0.426324 0.672723
0.743671 0.426327 0.679781
0.818819 0.454880 0.686324
0.885555 0.473641 0.691956
0.487119 0.565638 0.663886
0.515657 0.593524 0.682512
0.541615 0.612618 0.688094
0.568763 0.634522 0.692965
0.601486 0.646099 0.698084
0.734185 0.548784 0.692271
0.846682 0.531523 0.694930
0.909774 0.566320 0.704457
0.564384 0.691451 0.691293
0.587777 0.714063 0.709796
0.608849 0.727513 0.714430
0.637736 0.745525 0.723196
0.671772 0.759855 0.726139
0.711847 0.768143 0.729056
0.850532 0.687554 0.724385
0.942583 0.687108 0.721595
0.628846 0.807500 0.703381
0.659161 0.838024 0.727643
0.680129 0.845688 0.736229
0.703531 0.850282 0.739027
0.740779 0.860145 0.747737
0.786742 0.871456 0.755035
0.841360 0.878132 0.760342
0.959082 0.848208 0.722369
