app/src/main/assets/cube/Game08.cube
# LUT by SparkleStock. Enhanced with VOXCOLOR algorithms.
LUT_3D_SIZE 8
DOMAIN_MIN 0.000000 0.000000 0.000000
DOMAIN_MAX 0.903226 0.903226 0.903226
0.023460 0.011730 0.019550
0.183899 0.015388 0.031785
0.309148 0.019550 0.047425
0.421152 0.034308 0.056255
0.547914 0.073408 0.066471
0.700281 0.110491 0.067732
0.850125 0.150727 0.062561
0.964273 0.190837 0.064327
0.107842 0.116671 0.039857
0.176283 0.132934 0.044240
0.409117 0.074889 0.055311
0.520466 0.104009 0.064229
0.636645 0.139184 0.070316
0.772688 0.171538 0.066723
0.890991 0.200325 0.062561
0.972244 0.233607 0.058651
0.171160 0.217198 0.060165
0.211742 0.245610 0.067985
0.306121 0.250033 0.072399
0.577982 0.184013 0.074796
0.688933 0.214684 0.070772
0.807724 0.253361 0.071228
0.907880 0.281248 0.066976
0.981049 0.313286 0.068615
0.228171 0.328067 0.083625
0.260713 0.353245 0.087787
0.303781 0.384070 0.094598
0.418760 0.375021 0.094135
0.733620 0.313090 0.076366
0.848745 0.346483 0.079471
0.930263 0.369902 0.075048
0.981391 0.399978 0.074723
0.283669 0.451171 0.098761
0.306877 0.473061 0.098761
0.335639 0.492551 0.098761
0.378060 0.523628 0.101662
0.535631 0.500839 0.093353
0.850971 0.448462 0.088975
0.936752 0.477118 0.093854
0.984503 0.507727 0.099188
0.329455 0.592186 0.104184
0.349681 0.610817 0.105446
0.379456 0.633647 0.110906
0.413316 0.646911 0.111492
0.496367 0.653685 0.108294
0.691171 0.637654 0.111024
0.940386 0.590140 0.114417
0.984959 0.616281 0.127901
0.387475 0.728030 0.132690
0.405036 0.739817 0.139530
0.428089 0.749541 0.142024
0.459708 0.757211 0.144001
0.565837 0.765100 0.149075
0.691057 0.776749 0.157412
0.847362 0.758260 0.164215
0.985642 0.725653 0.176637
0.470848 0.846214 0.193611
0.485089 0.848334 0.197383
0.506014 0.848863 0.198026
0.538365 0.852684 0.201847
0.641300 0.852094 0.206176
0.759562 0.858445 0.220913
0.862286 0.859784 0.233290
0.958394 0.856423 0.250537
0.055245 0.028127 0.147195
0.149266 0.049968 0.235760
0.336364 0.028225 0.073905
0.452006 0.051413 0.087234
0.585880 0.085456 0.089240
0.738157 0.122762 0.085175
0.888525 0.166872 0.082868
0.978640 0.202819 0.082868
0.139375 0.114918 0.278567
0.235530 0.146904 0.407910
0.439117 0.093005 0.089899
0.543409 0.113436 0.086920
0.680384 0.154820 0.090123
0.806132 0.184739 0.089872
0.920063 0.212357 0.080481
0.984668 0.246284 0.079056
0.177023 0.229278 0.099066
0.212672 0.259774 0.102722
0.319917 0.262946 0.097362
0.599258 0.199153 0.094344
0.724428 0.232297 0.090656
0.835675 0.262469 0.085970
0.939108 0.300314 0.088633
0.985112 0.323777 0.086054
0.243055 0.343805 0.118409
0.267288 0.388680 0.117950
0.313688 0.408791 0.107417
0.430109 0.394328 0.106736
0.766407 0.331125 0.094452
0.870236 0.356483 0.091843
0.953473 0.386009 0.093872
0.988485 0.410760 0.093621
0.290733 0.462519 0.125374
0.311019 0.510929 0.122868
0.343134 0.514510 0.110556
0.379025 0.537630 0.107151
0.546301 0.513878 0.100825
0.870799 0.461280 0.094419
0.951914 0.485942 0.100663
0.987316 0.517370 0.108724
0.334752 0.602863 0.130123
0.355082 0.648095 0.129367
0.387093 0.651885 0.119632
0.413075 0.658383 0.114714
0.505166 0.669421 0.116470
0.703238 0.647394 0.115737
0.950811 0.598867 0.119937
0.985651 0.624032 0.136616
0.389872 0.732823 0.148989
0.414339 0.771908 0.161828
0.434355 0.760302 0.148229
0.471540 0.772174 0.154391
0.572013 0.773554 0.154502
0.700602 0.785205 0.166048
0.857258 0.768335 0.173963
0.984905 0.729415 0.180496
0.470710 0.844310 0.204194
0.506203 0.873188 0.228885
0.516424 0.861019 0.210623
0.549003 0.862752 0.213931
0.652435 0.862708 0.221325
0.769755 0.865810 0.231101
0.869124 0.869844 0.246119
0.963417 0.866143 0.264774
0.068994 0.048939 0.231829
0.172137 0.083625 0.323498
0.274291 0.080875 0.307536
0.464602 0.075247 0.153099
0.623117 0.098382 0.111093
0.789870 0.143826 0.103013
0.924416 0.176710 0.101043
0.988592 0.211221 0.102801
0.165264 0.143822 0.376754
0.229360 0.197884 0.592859
0.354238 0.169185 0.489294
0.557430 0.136684 0.176764
0.710406 0.165121 0.106638
0.842982 0.194576 0.099920
0.950590 0.229888 0.099517
0.989007 0.255100 0.101255
0.202066 0.221218 0.368812
0.229746 0.258292 0.434246
0.363546 0.231804 0.446219
0.623079 0.209351 0.118911
0.752425 0.244240 0.102557
0.867094 0.278102 0.101133
0.951205 0.304281 0.097493
0.989438 0.337403 0.102057
0.245382 0.349229 0.166135
0.269931 0.399718 0.173513
0.305206 0.441538 0.171755
0.437539 0.403493 0.121880
0.788784 0.340249 0.104928
0.889273 0.365586 0.101491
0.967171 0.397237 0.103909
0.990570 0.418156 0.107887
0.293247 0.477268 0.168129
0.314902 0.530029 0.169048
0.334187 0.567607 0.161208
0.382658 0.554151 0.115859
0.556384 0.530929 0.107543
0.882005 0.467271 0.102524
0.956636 0.493140 0.108890
0.988582 0.523760 0.120397
0.335420 0.614585 0.172169
0.354890 0.657119 0.172332
0.380527 0.698344 0.164312
0.417991 0.675431 0.125087
0.511283 0.679424 0.120457
0.706973 0.658364 0.119739
0.956850 0.607987 0.129028
0.982017 0.627995 0.143786
0.388989 0.733876 0.178728
0.415631 0.776423 0.191785
0.447501 0.807803 0.202624
0.480029 0.786993 0.166083
0.583598 0.785269 0.164391
0.710859 0.794690 0.174201
0.860057 0.771093 0.178359
0.983600 0.734670 0.187876
0.471251 0.844575 0.228472
0.510990 0.878548 0.259944
0.532202 0.889269 0.264192
0.560621 0.875058 0.226600
0.668065 0.874757 0.232892
0.778686 0.877410 0.244271
0.872600 0.874019 0.255164
0.961671 0.867392 0.272288
0.104689 0.077318 0.311040
0.192175 0.106105 0.387300
0.279157 0.127645 0.428932
0.365362 0.142105 0.465733
0.519787 0.125281 0.373983
0.778181 0.154714 0.188513
0.947665 0.193319 0.127185
0.984759 0.215774 0.132796
0.170607 0.164601 0.442090
0.237823 0.222286 0.652137
0.340166 0.229982 0.669287
0.439665 0.222894 0.647356
0.677191 0.174603 0.293359
0.837916 0.198270 0.195721
0.968159 0.243424 0.128606
0.989046 0.263892 0.127703
0.203197 0.238417 0.489263
0.228799 0.279782 0.586383
0.361814 0.276557 0.674957
0.499977 0.240651 0.592760
0.727634 0.246311 0.271271
0.884851 0.285691 0.134674
0.967891 0.316498 0.118334
0.991013 0.346815 0.123778
0.255249 0.337177 0.437403
0.272673 0.371101 0.490913
0.306999 0.411766 0.532771
0.476731 0.347970 0.447070
0.798215 0.346185 0.138293
0.905656 0.371697 0.117142
0.976736 0.405814 0.113547
0.993145 0.431479 0.127719
0.300180 0.491029 0.228005
0.315515 0.536891 0.236248
0.335125 0.591275 0.246022
0.357789 0.615207 0.217571
0.567427 0.541566 0.121599
0.902856 0.476965 0.114855
0.968412 0.500247 0.118977
0.985257 0.529974 0.132922
0.340168 0.626998 0.233587
0.361492 0.672633 0.241985
0.385694 0.715975 0.251346
0.407782 0.738413 0.223433
0.510351 0.696068 0.132932
0.720551 0.669905 0.128277
0.959454 0.612935 0.133966
0.980992 0.633362 0.155243
0.395759 0.741570 0.251164
0.423727 0.785460 0.269923
0.456949 0.821847 0.292558
0.486761 0.841829 0.271195
0.580033 0.798058 0.177127
0.721317 0.803640 0.183343
0.868854 0.779121 0.185368
0.983374 0.741603 0.203635
0.477244 0.846935 0.298642
0.518003 0.883514 0.334862
0.539976 0.895279 0.361288
0.570052 0.897233 0.343637
0.672312 0.882207 0.245952
0.789670 0.885448 0.257677
0.881023 0.880337 0.267390
0.963862 0.874174 0.287172
0.143790 0.111626 0.396304
0.211644 0.137418 0.467316
0.283425 0.149718 0.494691
0.374093 0.164658 0.540391
0.476752 0.172918 0.552841
0.599640 0.187187 0.565987
0.744463 0.197383 0.542503
0.869394 0.230055 0.547353
0.169272 0.185917 0.514742
0.247375 0.241630 0.686642
0.348952 0.247066 0.701700
0.443724 0.249108 0.700234
0.560586 0.249571 0.698764
0.680778 0.249170 0.673877
0.821377 0.257889 0.631225
0.958551 0.282559 0.470646
0.210261 0.262601 0.554843
0.237940 0.305896 0.649011
0.367836 0.295166 0.701790
0.488964 0.282864 0.701668
0.602565 0.281066 0.694617
0.722822 0.269036 0.627163
0.891179 0.296157 0.462865
0.978929 0.344125 0.314374
0.253524 0.348374 0.580973
0.269346 0.390762 0.662359
0.302098 0.414972 0.692420
0.481084 0.350423 0.690976
0.646721 0.307694 0.634182
0.820555 0.340679 0.453304
0.957590 0.393153 0.250636
0.990053 0.436571 0.223299
0.292987 0.459240 0.495024
0.305454 0.501094 0.545657
0.322298 0.531673 0.569697
0.349839 0.549634 0.571111
0.587402 0.477749 0.470271
0.892220 0.473009 0.205013
0.973199 0.511043 0.140291
0.985756 0.540492 0.163475
0.348155 0.639591 0.319328
0.371020 0.681087 0.338150
0.396093 0.722214 0.353710
0.422542 0.760171 0.374347
0.459291 0.767568 0.321298
0.725554 0.682155 0.146963
0.965111 0.620135 0.148208
0.979658 0.642212 0.171816
0.408035 0.753760 0.345107
0.434125 0.791357 0.367163
0.472391 0.826731 0.393897
0.510701 0.856034 0.419714
0.548889 0.853962 0.364161
0.717386 0.812089 0.196561
0.872166 0.786103 0.195217
0.980357 0.748764 0.223898
0.485325 0.849087 0.397964
0.525376 0.882118 0.429634
0.563522 0.895448 0.460802
0.606050 0.899740 0.493005
0.659230 0.895105 0.431080
0.791605 0.887647 0.270013
0.885308 0.884231 0.279762
0.965082 0.873513 0.298185
0.151105 0.150979 0.499984
0.217117 0.171962 0.555364
0.300498 0.179196 0.586274
0.386609 0.191349 0.607835
0.493950 0.199938 0.623613
0.606203 0.213093 0.632691
0.734430 0.235109 0.642749
0.867339 0.264119 0.654617
0.174232 0.216575 0.592573
0.258177 0.267628 0.736061
0.354645 0.261572 0.734431
0.448843 0.266963 0.732896
0.565286 0.269565 0.733320
0.682598 0.276648 0.726532
0.809543 0.296893 0.725534
0.929200 0.327616 0.730569
0.213650 0.286102 0.617718
0.249964 0.338435 0.718850
0.380687 0.312325 0.731581
0.503096 0.304163 0.732116
0.609183 0.301311 0.729537
0.718153 0.309816 0.723597
0.833064 0.325852 0.722034
0.937835 0.354075 0.727729
0.252271 0.370447 0.641630
0.265899 0.411292 0.720215
0.297811 0.422793 0.720513
0.490698 0.369925 0.726096
0.652412 0.339964 0.722447
0.754250 0.348044 0.719298
0.858403 0.363896 0.709134
0.948620 0.390192 0.701464
0.274535 0.467821 0.639685
0.266173 0.505197 0.706183
0.286004 0.527903 0.720212
0.319456 0.535596 0.720350
0.592997 0.448224 0.717533
0.788256 0.407137 0.682622
0.904352 0.454467 0.569133
0.968038 0.486089 0.576027
0.330391 0.598737 0.583874
0.335434 0.627999 0.624596
0.360255 0.650364 0.632757
0.387333 0.671729 0.646271
0.424859 0.689961 0.654839
0.720022 0.606497 0.518461
0.956390 0.610609 0.287153
0.977917 0.646514 0.284263
0.429066 0.760051 0.450813
0.464940 0.793169 0.477310
0.503066 0.823592 0.508890
0.544626 0.851885 0.539886
0.584696 0.865672 0.565060
0.646778 0.848779 0.455857
0.876781 0.796362 0.216473
0.981630 0.759869 0.268005
0.510201 0.849742 0.502133
0.550774 0.880193 0.541269
0.586844 0.891695 0.568510
0.629415 0.894759 0.597000
0.675027 0.895375 0.619175
0.747172 0.894098 0.519034
0.889724 0.890661 0.305927
0.966903 0.878739 0.332083
0.154889 0.192855 0.614638
0.227484 0.212881 0.660464
0.310857 0.212714 0.658840
0.405805 0.231369 0.692969
0.509985 0.232610 0.686581
0.631067 0.244979 0.703104
0.759355 0.265632 0.708740
0.889962 0.296010 0.712947
0.172576 0.255009 0.682553
0.277230 0.295491 0.773746
0.376729 0.291391 0.772252
0.468983 0.297377 0.771027
0.579795 0.295220 0.766166
0.693838 0.301612 0.763266
0.814460 0.317322 0.764963
0.929822 0.348244 0.767007
0.225283 0.317668 0.689559
0.259220 0.364881 0.762935
0.398746 0.337901 0.766595
0.515255 0.330353 0.768662
0.622175 0.326822 0.763745
0.728347 0.329829 0.761902
0.843211 0.346759 0.760520
0.937155 0.374996 0.762583
0.247726 0.399624 0.708984
0.264290 0.431525 0.761758
0.307624 0.441245 0.759279
0.505647 0.393196 0.760560
0.665453 0.363928 0.758474
0.767380 0.374000 0.760553
0.864995 0.388546 0.757989
0.947095 0.413517 0.766465
0.260689 0.493287 0.699776
0.246106 0.525253 0.762278
0.271075 0.539616 0.760514
0.310598 0.547017 0.759724
0.607155 0.468425 0.757220
0.795583 0.426783 0.755693
0.885424 0.437342 0.758654
0.951306 0.451730 0.760680
0.289313 0.597166 0.717984
0.288034 0.624642 0.763441
0.312248 0.637439 0.765208
0.341556 0.651652 0.763883
0.387381 0.655491 0.763004
0.713095 0.558962 0.758252
0.896022 0.530271 0.736523
0.953688 0.565356 0.731646
0.371534 0.720494 0.682557
0.386399 0.744995 0.715851
0.416189 0.766804 0.732555
0.444887 0.779987 0.740410
0.497088 0.788411 0.747919
0.577738 0.788886 0.750277
0.852266 0.724143 0.600103
0.975734 0.749333 0.441349
0.508972 0.854519 0.625452
0.539948 0.878704 0.654820
0.578282 0.895308 0.682672
0.616829 0.895033 0.699788
0.667825 0.898574 0.719157
0.724066 0.894484 0.733255
0.825061 0.896655 0.622571
0.967524 0.881281 0.395049
0.169899 0.254785 0.742408
0.249500 0.263399 0.762463
0.332254 0.259981 0.756356
0.426718 0.268371 0.763599
0.540192 0.275344 0.766898
0.663259 0.289976 0.774637
0.787783 0.308305 0.778901
0.910163 0.336347 0.777388
0.202970 0.308493 0.775028
0.304751 0.322432 0.808135
0.396833 0.321084 0.808096
0.486604 0.326229 0.805550
0.598080 0.327973 0.802132
0.709480 0.332551 0.802479
0.824225 0.348193 0.801163
0.930900 0.375881 0.802560
0.237884 0.359551 0.764787
0.282137 0.395374 0.805501
0.418756 0.370430 0.803509
0.532129 0.363085 0.805054
0.638371 0.364395 0.802195
0.742430 0.368633 0.802862
0.848577 0.385954 0.800963
0.937170 0.404361 0.803652
0.239759 0.427369 0.776374
0.262699 0.452636 0.804467
0.315206 0.465681 0.804395
0.526307 0.426589 0.804229
0.684019 0.406917 0.803136
0.778592 0.412530 0.803015
0.871479 0.424794 0.801853
0.946119 0.438290 0.803379
0.223736 0.515547 0.771187
0.230945 0.538754 0.804521
0.269565 0.553426 0.805507
0.316225 0.564900 0.805117
0.625432 0.498235 0.803126
0.803869 0.467163 0.800440
0.887733 0.472737 0.801461
0.949201 0.483209 0.806750
0.260905 0.620505 0.787246
0.283563 0.639221 0.806443
0.318172 0.652769 0.809384
0.355023 0.666315 0.810806
0.412620 0.671859 0.812711
0.732763 0.585446 0.807550
0.898759 0.556044 0.802915
0.949738 0.576394 0.809388
0.327205 0.724392 0.805494
0.352631 0.743490 0.829899
0.388195 0.756010 0.831161
0.427969 0.765258 0.834903
0.492347 0.776346 0.835540
0.578927 0.781400 0.833333
0.840397 0.685731 0.817494
0.951439 0.683400 0.806504
0.439665 0.835798 0.802557
0.462871 0.854592 0.826644
0.493209 0.860679 0.833843
0.542433 0.862371 0.832393
0.614860 0.866787 0.842611
0.691199 0.872823 0.847359
0.767073 0.875202 0.848359
0.935890 0.847520 0.752476
