app/src/main/assets/cube/Game03.cube
# LUT by SparkleStock. Enhanced with VOXCOLOR algorithms.
LUT_3D_SIZE 5
DOMAIN_MIN 0.000000 0.000000 0.000000
DOMAIN_MAX 0.903226 0.903226 0.903226
0.074291 0.023460 0.058651
0.289850 0.036956 0.137105
0.434648 0.103932 0.206855
0.765743 0.193738 0.266641
0.976382 0.324788 0.327311
0.190963 0.176458 0.100148
0.295204 0.183903 0.129073
0.588292 0.208243 0.234026
0.853546 0.292120 0.272057
0.982615 0.383817 0.323095
0.218081 0.355186 0.111626
0.250875 0.401602 0.103896
0.424334 0.412270 0.126168
0.890218 0.426450 0.248588
0.981639 0.499081 0.302463
0.161448 0.616277 0.007568
0.205216 0.640258 0.001994
0.311259 0.657412 0.000000
0.654438 0.658637 0.018513
0.971683 0.642354 0.202282
0.129663 0.828808 0.000000
0.197880 0.827978 0.000000
0.325211 0.831437 0.000000
0.638635 0.834610 0.000000
0.883859 0.829053 0.013215
0.183395 0.039984 0.265506
0.316777 0.058793 0.312940
0.492941 0.143663 0.240874
0.850796 0.229811 0.287949
0.993273 0.366948 0.356427
0.288539 0.187557 0.365890
0.393582 0.209115 0.473631
0.662425 0.239688 0.260260
0.910606 0.325002 0.295072
0.992586 0.414003 0.346433
0.210350 0.387581 0.155320
0.218115 0.458239 0.134614
0.442611 0.440304 0.132222
0.923516 0.447888 0.267046
0.989300 0.514956 0.323648
0.120716 0.635079 0.048426
0.117387 0.706298 0.004056
0.310160 0.685174 0.000000
0.662237 0.671847 0.019672
0.975963 0.655476 0.218686
0.079589 0.829061 0.000000
0.158149 0.864666 0.000000
0.335384 0.847366 0.000000
0.650240 0.845341 0.000000
0.891293 0.836189 0.034386
0.284678 0.076940 0.387727
0.390681 0.102797 0.530687
0.517549 0.094725 0.605410
0.818771 0.197631 0.434152
0.968851 0.365329 0.462336
0.353241 0.240064 0.599449
0.502196 0.308887 0.740968
0.654060 0.255090 0.736399
0.904359 0.321095 0.429113
0.991964 0.458957 0.390322
0.333878 0.442273 0.528201
0.425235 0.537270 0.592036
0.565684 0.437581 0.502032
0.938662 0.466846 0.292223
0.982224 0.542159 0.351279
0.001465 0.675417 0.167783
0.000000 0.741449 0.152042
0.049839 0.775757 0.076004
0.671730 0.685181 0.022106
0.966232 0.665233 0.243558
0.000000 0.844847 0.134244
0.048177 0.881754 0.187105
0.267362 0.878837 0.147540
0.666046 0.853189 0.000000
0.893710 0.842556 0.103072
0.365024 0.141519 0.621322
0.445740 0.175945 0.686272
0.574922 0.179249 0.714440
0.754167 0.136657 0.722431
0.935548 0.217674 0.731594
0.409524 0.314429 0.701164
0.555695 0.373521 0.778199
0.680417 0.336789 0.780463
0.817763 0.300912 0.779780
0.960873 0.363140 0.779736
0.548341 0.537352 0.713793
0.642171 0.613891 0.754763
0.716868 0.516564 0.760176
0.854142 0.468360 0.769543
0.944199 0.524584 0.754075
0.534316 0.686215 0.653193
0.604635 0.733415 0.688645
0.651540 0.764480 0.699617
0.785846 0.676291 0.580054
0.948384 0.692100 0.401737
0.391104 0.855959 0.490240
0.481016 0.883081 0.541790
0.585036 0.884778 0.591271
0.627152 0.870319 0.427411
0.902752 0.850466 0.227904
0.453820 0.290985 0.784410
0.517516 0.291469 0.789634
0.642976 0.301917 0.803456
0.783718 0.276101 0.804685
0.942579 0.327355 0.807281
0.524897 0.433053 0.787271
0.626506 0.452030 0.816008
0.718745 0.418536 0.817810
0.830113 0.398562 0.821606
0.950701 0.416049 0.820897
0.655756 0.627230 0.788593
0.692851 0.661339 0.799822
0.756992 0.585078 0.804162
0.860550 0.535511 0.812994
0.943714 0.565497 0.813591
0.690634 0.739825 0.786587
0.719254 0.762688 0.796800
0.747760 0.778014 0.799404
0.850501 0.709810 0.809056
0.930631 0.709690 0.810739
0.691781 0.850637 0.788223
0.722419 0.865961 0.808293
0.756592 0.869321 0.811854
0.807736 0.875376 0.819725
0.907270 0.853621 0.731072
