app/src/main/assets/cube/Kabukicho03.cube
# LUT by SparkleStock. Enhanced with VOXCOLOR algorithms.
LUT_3D_SIZE 5
DOMAIN_MIN 0.000000 0.000000 0.000000
DOMAIN_MAX 0.903226 0.903226 0.903226
0.050794 0.066422 0.093773
0.252928 0.084761 0.119091
0.627295 0.129080 0.140770
0.837709 0.170507 0.146418
0.880499 0.182748 0.148474
0.094222 0.202001 0.162645
0.200851 0.208553 0.177764
0.528675 0.235116 0.183566
0.801907 0.250150 0.169802
0.872349 0.245921 0.156868
0.166411 0.377809 0.265808
0.223341 0.380812 0.278708
0.382771 0.388659 0.289451
0.666261 0.425056 0.285374
0.806102 0.418234 0.253400
0.224987 0.494364 0.338013
0.268296 0.504249 0.351637
0.392300 0.526867 0.381693
0.523637 0.527839 0.392521
0.664786 0.562259 0.407259
0.271574 0.550790 0.377415
0.305810 0.562275 0.389767
0.408417 0.584505 0.421444
0.534547 0.598837 0.444767
0.620144 0.606590 0.457766
0.146158 0.186608 0.264611
0.219844 0.178674 0.250146
0.498907 0.198496 0.285878
0.765600 0.220891 0.301170
0.831829 0.223474 0.287652
0.121846 0.226133 0.239995
0.203492 0.237066 0.254605
0.460069 0.253477 0.271705
0.773846 0.261075 0.260784
0.863374 0.254992 0.240095
0.159241 0.372440 0.295985
0.219656 0.373827 0.307321
0.382364 0.396683 0.336026
0.675713 0.422348 0.318334
0.825884 0.405756 0.274196
0.221883 0.497901 0.357850
0.264152 0.504551 0.368062
0.397836 0.534171 0.407562
0.528358 0.535522 0.416729
0.680623 0.563434 0.412878
0.271665 0.555411 0.390323
0.298599 0.561438 0.397750
0.404308 0.588806 0.433397
0.536073 0.605466 0.460244
0.623337 0.610401 0.467737
0.238465 0.292859 0.423325
0.286723 0.284216 0.410731
0.412794 0.282860 0.417228
0.608846 0.314371 0.462637
0.695511 0.313379 0.464854
0.211973 0.314801 0.391466
0.269716 0.320921 0.397923
0.397046 0.328122 0.412176
0.629997 0.338715 0.444467
0.757487 0.326880 0.441017
0.173465 0.385780 0.378804
0.229487 0.384149 0.382297
0.385318 0.423924 0.429715
0.643034 0.435972 0.443777
0.828570 0.402151 0.404737
0.212036 0.506527 0.421804
0.251049 0.506805 0.423500
0.403312 0.545463 0.471925
0.561480 0.572683 0.506463
0.739758 0.579843 0.466315
0.266485 0.564681 0.442349
0.291129 0.568727 0.442936
0.405088 0.602334 0.479554
0.564042 0.642037 0.531692
0.652651 0.640999 0.528259
0.282422 0.341613 0.494379
0.329467 0.339710 0.494086
0.431320 0.331514 0.495314
0.546660 0.348487 0.512955
0.607153 0.374320 0.538091
0.274704 0.367708 0.482550
0.328173 0.382047 0.500842
0.429037 0.386643 0.513131
0.548857 0.389694 0.525623
0.635828 0.409380 0.554497
0.240375 0.429985 0.472301
0.289001 0.433916 0.483549
0.429311 0.474128 0.531777
0.562979 0.486921 0.556445
0.701676 0.476124 0.580512
0.206632 0.508975 0.482391
0.240293 0.506718 0.481034
0.379816 0.536353 0.518817
0.589062 0.603402 0.596461
0.788235 0.587461 0.587695
0.263460 0.575804 0.510861
0.282823 0.579539 0.511825
0.388550 0.608542 0.539886
0.592085 0.681714 0.623128
0.717138 0.703795 0.643429
0.292150 0.353531 0.507432
0.334498 0.351182 0.509047
0.430656 0.345243 0.512690
0.544421 0.353025 0.526909
0.598296 0.377505 0.547599
0.288515 0.377706 0.504647
0.339877 0.394949 0.524555
0.433694 0.399903 0.537972
0.550482 0.398837 0.548219
0.618303 0.418745 0.568930
0.265829 0.438858 0.501211
0.312235 0.447392 0.517354
0.438132 0.483882 0.567464
0.570348 0.495123 0.593229
0.654706 0.501546 0.608684
0.232152 0.515831 0.510603
0.265803 0.519434 0.518751
0.386891 0.547335 0.558960
0.597393 0.622308 0.650124
0.715724 0.626565 0.673094
0.258129 0.577601 0.541047
0.279319 0.582333 0.545768
0.370907 0.606715 0.572661
0.559954 0.671748 0.647614
0.753381 0.741060 0.727344
