app/src/main/assets/cube/Kabukicho02.cube
# LUT by SparkleStock. Enhanced with VOXCOLOR algorithms.
LUT_3D_SIZE 32
0.113309 0.117216 0.125031
0.125220 0.117547 0.126307
0.137130 0.117878 0.127583
0.149041 0.118209 0.128859
0.160952 0.118540 0.130135
0.172862 0.118870 0.131411
0.210847 0.120304 0.133239
0.254047 0.121958 0.135177
0.297247 0.123613 0.137114
0.340447 0.125267 0.139052
0.383646 0.126921 0.140990
0.429336 0.129584 0.143212
0.476269 0.132750 0.145575
0.523203 0.135917 0.147938
0.570137 0.139084 0.150301
0.617070 0.142251 0.152665
0.653015 0.145016 0.154768
0.677971 0.147379 0.156611
0.702926 0.149742 0.158454
0.727882 0.152105 0.160298
0.752838 0.154468 0.162141
0.771996 0.156296 0.163496
0.779558 0.157052 0.163874
0.787120 0.157808 0.164252
0.794683 0.158565 0.164630
0.802245 0.159321 0.165008
0.808697 0.159959 0.165418
0.809595 0.160006 0.165985
0.810493 0.160054 0.166552
0.811391 0.160101 0.167120
0.812289 0.160148 0.167687
0.813187 0.160195 0.168254
0.117846 0.127378 0.131506
0.128312 0.127764 0.132864
0.138777 0.128149 0.134223
0.149242 0.128535 0.135581
0.159707 0.128921 0.136940
0.170173 0.129307 0.138298
0.206095 0.130856 0.139789
0.247108 0.132639 0.141306
0.288122 0.134421 0.142823
0.329135 0.136203 0.144340
0.370149 0.137986 0.145857
0.415786 0.140483 0.147725
0.463735 0.143339 0.149768
0.511684 0.146195 0.151811
0.559633 0.149051 0.153854
0.607582 0.151906 0.155897
0.644639 0.154365 0.157744
0.670802 0.156426 0.159395
0.696965 0.158487 0.161046
0.723128 0.160549 0.162698
0.749291 0.162610 0.164349
0.769465 0.164185 0.165579
0.777658 0.164785 0.165966
0.785852 0.165386 0.166353
0.794045 0.165987 0.166740
0.802239 0.166588 0.167128
0.809232 0.167059 0.167516
0.810221 0.166887 0.167909
0.811211 0.166715 0.168303
0.812200 0.166543 0.168696
0.813190 0.166370 0.169089
0.814179 0.166198 0.169483
0.122384 0.137540 0.137981
0.131404 0.137981 0.139422
0.140424 0.138421 0.140863
0.149443 0.138862 0.142303
0.158463 0.139302 0.143744
0.167483 0.139743 0.145185
0.201342 0.141408 0.146339
0.240170 0.143319 0.147435
0.278997 0.145229 0.148531
0.317824 0.147140 0.149627
0.356651 0.149050 0.150724
0.402236 0.151383 0.152238
0.451201 0.153928 0.153961
0.500165 0.156473 0.155683
0.549130 0.159017 0.157406
0.598094 0.161562 0.159129
0.636262 0.163714 0.160720
0.663633 0.165473 0.162179
0.691004 0.167233 0.163638
0.718374 0.168992 0.165097
0.745745 0.170752 0.166557
0.766934 0.172073 0.167661
0.775759 0.172518 0.168058
0.784583 0.172964 0.168454
0.793408 0.173409 0.168851
0.802233 0.173854 0.169247
0.809767 0.174160 0.169614
0.810848 0.173768 0.169834
0.811929 0.173376 0.170053
0.813010 0.172984 0.170273
0.814091 0.172592 0.170492
0.815172 0.172201 0.170712
0.126921 0.147702 0.144456
0.134496 0.148197 0.145979
0.142070 0.148693 0.147503
0.149645 0.149188 0.149026
0.157219 0.149684 0.150549
0.164794 0.150179 0.152072
0.196590 0.151961 0.152889
0.233231 0.153999 0.153564
0.269872 0.156038 0.154240
0.306512 0.158076 0.154915
0.343153 0.160115 0.155590
0.388686 0.162283 0.156751
0.438666 0.164517 0.158153
0.488646 0.166750 0.159556
0.538626 0.168984 0.160959
0.588606 0.171218 0.162361
0.627886 0.173063 0.163696
0.656464 0.174521 0.164963
0.685042 0.175978 0.166230
0.713620 0.177436 0.167497
0.742199 0.178894 0.168764
0.764403 0.179962 0.169744
0.773859 0.180252 0.170150
0.783315 0.180541 0.170555
0.792771 0.180831 0.170961
0.802227 0.181121 0.171366
0.810302 0.181260 0.171712
0.811475 0.180649 0.171758
0.812647 0.180037 0.171803
0.813820 0.179426 0.171849
0.814992 0.178815 0.171895
0.816164 0.178203 0.171941
0.131459 0.157864 0.150932
0.137588 0.158414 0.152537
0.143717 0.158964 0.154142
0.149846 0.159515 0.155748
0.155975 0.160065 0.157353
0.162104 0.160616 0.158959
0.191838 0.162513 0.159439
0.226292 0.164679 0.159693
0.260746 0.166846 0.159948
0.295201 0.169012 0.160202
0.329655 0.171179 0.160457
0.375137 0.173183 0.161264
0.426132 0.175106 0.162346
0.477128 0.177028 0.163429
0.528123 0.178951 0.164511
0.579118 0.180873 0.165594
0.619509 0.182413 0.166672
0.649295 0.183568 0.167747
0.679081 0.184724 0.168822
0.708867 0.185880 0.169897
0.738652 0.187035 0.170972
0.761872 0.187850 0.171827
0.771959 0.187985 0.172241
0.782046 0.188119 0.172656
0.792133 0.188253 0.173071
0.802221 0.188387 0.173486
0.810837 0.188360 0.173810
0.812101 0.187530 0.173682
0.813365 0.186699 0.173554
0.814629 0.185868 0.173426
0.815893 0.185037 0.173298
0.817157 0.184206 0.173169
0.135996 0.168026 0.157407
0.140680 0.168631 0.159095
0.145363 0.169236 0.160782
0.150047 0.169841 0.162470
0.154731 0.170447 0.164158
0.159415 0.171052 0.165846
0.187085 0.173065 0.165989
0.219353 0.175360 0.165822
0.251621 0.177654 0.165656
0.283889 0.179949 0.165490
0.316157 0.182244 0.165324
0.361587 0.184083 0.165777
0.413598 0.185694 0.166539
0.465609 0.187306 0.167301
0.517620 0.188917 0.168064
0.569630 0.190529 0.168826
0.611133 0.191762 0.169649
0.642126 0.192616 0.170531
0.673119 0.193469 0.171414
0.704113 0.194323 0.172297
0.735106 0.195177 0.173180
0.759341 0.195739 0.173909
0.770059 0.195718 0.174333
0.780778 0.195696 0.174757
0.791496 0.195675 0.175181
0.802215 0.195654 0.175605
0.811372 0.195461 0.175908
0.812728 0.194410 0.175606
0.814083 0.193360 0.175304
0.815439 0.192309 0.175002
0.816794 0.191259 0.174700
0.818150 0.190208 0.174398
0.144669 0.185277 0.168412
0.148914 0.185792 0.170022
0.153158 0.186308 0.171632
0.157403 0.186823 0.173242
0.161648 0.187338 0.174852
0.165892 0.187854 0.176462
0.189749 0.189444 0.176571
0.217529 0.191249 0.176381
0.245308 0.193054 0.176190
0.273087 0.194860 0.176000
0.300867 0.196665 0.175809
0.344059 0.198911 0.176111
0.394959 0.201378 0.176660
0.445858 0.203845 0.177209
0.496757 0.206312 0.177758
0.547657 0.208779 0.178307
0.589763 0.210395 0.178778
0.623077 0.211160 0.179171
0.656391 0.211926 0.179565
0.689705 0.212691 0.179958
0.723019 0.213456 0.180351
0.749281 0.213862 0.180661
0.761438 0.213548 0.180805
0.773596 0.213234 0.180948
0.785754 0.212920 0.181091
0.797911 0.212606 0.181235
0.808330 0.212140 0.181285
0.810051 0.210916 0.180870
0.811772 0.209691 0.180456
0.813494 0.208467 0.180041
0.815215 0.207243 0.179626
0.816936 0.206018 0.179211
0.154169 0.203947 0.180322
0.158176 0.204343 0.181822
0.162183 0.204739 0.183323
0.166190 0.205136 0.184823
0.170196 0.205532 0.186323
0.174203 0.205929 0.187824
0.193896 0.206988 0.187960
0.216727 0.208181 0.187825
0.239557 0.209373 0.187689
0.262387 0.210565 0.187553
0.285217 0.211757 0.187418
0.325736 0.214525 0.187610
0.375098 0.218081 0.187967
0.424461 0.221636 0.188324
0.473823 0.225192 0.188681
0.523186 0.228747 0.189037
0.565796 0.230885 0.189138
0.601653 0.231604 0.188983
0.637510 0.232324 0.188827
0.673367 0.233044 0.188671
0.709224 0.233763 0.188516
0.737715 0.234032 0.188347
0.751473 0.233397 0.188152
0.765232 0.232763 0.187957
0.778990 0.232129 0.187762
0.792749 0.231495 0.187567
0.804571 0.230735 0.187318
0.806714 0.229346 0.186803
0.808856 0.227957 0.186287
0.810998 0.226568 0.185772
0.813140 0.225179 0.185257
0.815282 0.223790 0.184741
0.163669 0.222616 0.192233
0.167438 0.222894 0.193623
0.171207 0.223171 0.195014
0.174976 0.223449 0.196404
0.178745 0.223726 0.197795
0.182514 0.224004 0.199185
0.198043 0.224533 0.199350
0.215925 0.225112 0.199269
0.233806 0.225691 0.199188
0.251687 0.226271 0.199107
0.269568 0.226850 0.199027
0.307413 0.230139 0.199109
0.355238 0.234783 0.199274
0.403064 0.239428 0.199439
0.450889 0.244072 0.199603
0.498715 0.248716 0.199768
0.541828 0.251375 0.199498
0.580228 0.252049 0.198794
0.618628 0.252723 0.198089
0.657029 0.253397 0.197385
0.695429 0.254070 0.196681
0.726149 0.254202 0.196033
0.741508 0.253247 0.195499
0.756868 0.252293 0.194966
0.772227 0.251338 0.194432
0.787586 0.250384 0.193899
0.800813 0.249329 0.193351
0.803376 0.247776 0.192735
0.805939 0.246222 0.192119
0.808502 0.244669 0.191503
0.811065 0.243115 0.190887
0.813628 0.241561 0.190271
0.173169 0.241286 0.204144
0.176701 0.241444 0.205424
0.180232 0.241603 0.206705
0.183763 0.241761 0.207986
0.187294 0.241920 0.209266
0.190825 0.242078 0.210547
0.202190 0.242077 0.210739
0.215123 0.242043 0.210713
0.228055 0.242010 0.210687
0.240987 0.241976 0.210661
0.253919 0.241943 0.210635
0.289089 0.245753 0.210608
0.335378 0.251486 0.210581
0.381667 0.257219 0.210553
0.427955 0.262952 0.210526
0.474244 0.268684 0.210499
0.517860 0.271865 0.209858
0.558804 0.272493 0.208605
0.599747 0.273121 0.207352
0.640690 0.273749 0.206098
0.681634 0.274377 0.204845
0.714583 0.274371 0.203719
0.731543 0.273097 0.202847
0.748503 0.271822 0.201975
0.765464 0.270547 0.201103
0.782424 0.269273 0.200230
0.797055 0.267924 0.199384
0.800039 0.266206 0.198668
0.803022 0.264488 0.197951
0.806006 0.262769 0.197235
0.808990 0.261051 0.196518
0.811974 0.259333 0.195801
0.182670 0.259955 0.216054
0.185963 0.259995 0.217225
0.189256 0.260034 0.218396
0.192549 0.260074 0.219567
0.195843 0.260114 0.220738
0.199136 0.260153 0.221909
0.206338 0.259621 0.222128
0.214321 0.258975 0.222157
0.222304 0.258328 0.222186
0.230287 0.257682 0.222215
0.238270 0.257035 0.222244
0.270766 0.261367 0.222107
0.315518 0.268189 0.221888
0.360270 0.275010 0.221668
0.405021 0.281831 0.221449
0.449773 0.288653 0.221229
0.493893 0.292355 0.220218
0.537379 0.292937 0.218416
0.580865 0.293520 0.216614
0.624352 0.294102 0.214812
0.667838 0.294684 0.213010
0.703016 0.294541 0.211405
0.721578 0.292946 0.210194
0.740139 0.291351 0.208984
0.758700 0.289757 0.207773
0.777261 0.288162 0.206562
0.793297 0.286519 0.205417
0.796701 0.284636 0.204600
0.800106 0.282753 0.203783
0.803510 0.280870 0.202966
0.806915 0.278987 0.202149
0.810319 0.277104 0.201331
0.192548 0.279538 0.227996
0.195609 0.279544 0.229112
0.198671 0.279551 0.230228
0.201733 0.279557 0.231345
0.204794 0.279563 0.232461
0.207856 0.279569 0.233577
0.213862 0.279308 0.234143
0.220458 0.278994 0.234598
0.227054 0.278680 0.235054
0.233649 0.278366 0.235510
0.240245 0.278052 0.235966
0.268920 0.281928 0.235774
0.308634 0.287898 0.235259
0.348349 0.293869 0.234744
0.388063 0.299839 0.234228
0.427778 0.305810 0.233713
0.469491 0.309609 0.232621
0.513203 0.311238 0.230953
0.556915 0.312866 0.229285
0.600627 0.314494 0.227617
0.644339 0.316123 0.225950
0.680405 0.316836 0.224350
0.701177 0.315720 0.222886
0.721949 0.314604 0.221422
0.742721 0.313488 0.219959
0.763493 0.312372 0.218495
0.781500 0.311139 0.217123
0.785685 0.309323 0.216211
0.789871 0.307508 0.215300
0.794056 0.305692 0.214388
0.798241 0.303876 0.213476
0.802426 0.302060 0.212564
0.202615 0.299579 0.239954
0.205448 0.299594 0.241043
0.208281 0.299609 0.242132
0.211114 0.299624 0.243220
0.213947 0.299640 0.244309
0.216779 0.299655 0.245397
0.223076 0.300066 0.246469
0.230065 0.300557 0.247538
0.237054 0.301048 0.248607
0.244043 0.301539 0.249676
0.251032 0.302030 0.250745
0.275313 0.304961 0.250526
0.308239 0.309111 0.249663
0.341166 0.313261 0.248800
0.374093 0.317411 0.247937
0.407019 0.321561 0.247074
0.444872 0.325246 0.246046
0.487651 0.328466 0.244854
0.530430 0.331686 0.243662
0.573209 0.334907 0.242469
0.615988 0.338127 0.241277
0.652270 0.340194 0.239924
0.675558 0.339956 0.238250
0.698845 0.339718 0.236576
0.722133 0.339481 0.234902
0.745421 0.339243 0.233228
0.765685 0.338772 0.231665
0.770831 0.337139 0.230662
0.775976 0.335506 0.229659
0.781122 0.333874 0.228656
0.786268 0.332241 0.227653
0.791414 0.330608 0.226649
0.212683 0.319619 0.251912
0.215287 0.319643 0.252973
0.217891 0.319668 0.254035
0.220495 0.319692 0.255096
0.223099 0.319716 0.256157
0.225703 0.319741 0.257218
0.232289 0.320825 0.258796
0.239672 0.322121 0.260478
0.247054 0.323417 0.262160
0.254437 0.324713 0.263841
0.261819 0.326009 0.265523
0.281706 0.327994 0.265277
0.307845 0.330323 0.264066
0.333983 0.332653 0.262856
0.360122 0.334983 0.261645
0.386261 0.337312 0.260434
0.420253 0.340883 0.259471
0.462099 0.345695 0.258754
0.503945 0.350507 0.258038
0.545791 0.355319 0.257321
0.587637 0.360131 0.256604
0.624135 0.363552 0.255499
0.649939 0.364192 0.253614
0.675742 0.364833 0.251730
0.701546 0.365473 0.249845
0.727349 0.366113 0.247961
0.749870 0.366405 0.246208
0.755976 0.364955 0.245113
0.762082 0.363505 0.244018
0.768188 0.362055 0.242924
0.774295 0.360605 0.241829
0.780401 0.359156 0.240734
0.222750 0.339659 0.263870
0.225125 0.339692 0.264904
0.227501 0.339726 0.265938
0.229876 0.339760 0.266971
0.232252 0.339793 0.268005
0.234627 0.339827 0.269039
0.241503 0.341583 0.271123
0.249279 0.343684 0.273418
0.257054 0.345785 0.275712
0.264830 0.347886 0.278007
0.272606 0.349987 0.280302
0.288099 0.351027 0.280028
0.307450 0.351536 0.278470
0.326801 0.352045 0.276911
0.346152 0.352555 0.275353
0.365503 0.353064 0.273795
0.395635 0.356520 0.272895
0.436547 0.362924 0.272655
0.477460 0.369327 0.272414
0.518373 0.375731 0.272173
0.559286 0.382135 0.271932
0.596001 0.386910 0.271073
0.624320 0.388428 0.268978
0.652639 0.389947 0.266883
0.680958 0.391465 0.264788
0.709277 0.392984 0.262693
0.734054 0.394038 0.260750
0.741121 0.392771 0.259564
0.748188 0.391504 0.258378
0.755255 0.390237 0.257191
0.762322 0.388970 0.256005
0.769388 0.387703 0.254819
0.232817 0.359699 0.275828
0.234964 0.359742 0.276834
0.237111 0.359784 0.277841
0.239258 0.359827 0.278847
0.241404 0.359870 0.279853
0.243551 0.359913 0.280860
0.250716 0.362341 0.283450
0.258886 0.365247 0.286358
0.267055 0.368153 0.289265
0.275224 0.371059 0.292173
0.283393 0.373965 0.295080
0.294492 0.374060 0.294779
0.307055 0.372749 0.292873
0.319618 0.371437 0.290967
0.332181 0.370126 0.289061
0.344744 0.368815 0.287156
0.371016 0.372157 0.286320
0.410996 0.380152 0.286555
0.450975 0.388148 0.286790
0.490955 0.396143 0.287024
0.530935 0.404138 0.287259
0.567866 0.410268 0.286647
0.598701 0.412664 0.284342
0.629536 0.415061 0.282037
0.660371 0.417458 0.279732
0.691205 0.419855 0.277426
0.718239 0.421671 0.275292
0.726266 0.420587 0.274015
0.734294 0.419503 0.272737
0.742321 0.418419 0.271459
0.750348 0.417335 0.270182
0.758376 0.416251 0.268904
0.241821 0.377352 0.286321
0.243780 0.377441 0.287291
0.245740 0.377529 0.288260
0.247699 0.377618 0.289230
0.249658 0.377706 0.290200
0.251617 0.377795 0.291169
0.258896 0.380677 0.294112
0.267239 0.384118 0.297450
0.275582 0.387559 0.300787
0.283925 0.391000 0.304125
0.292268 0.394442 0.307462
0.301348 0.394458 0.307456
0.310796 0.392763 0.305779
0.320245 0.391068 0.304102
0.329693 0.389372 0.302425
0.339141 0.387677 0.300748
0.362309 0.390742 0.300013
0.399197 0.398568 0.300220
0.436085 0.406394 0.300428
0.472972 0.414220 0.300635
0.509860 0.422046 0.300843
0.544951 0.428381 0.300348
0.576449 0.431734 0.298450
0.607947 0.435087 0.296552
0.639445 0.438440 0.294653
0.670943 0.441792 0.292755
0.698700 0.444493 0.290992
0.707747 0.443935 0.289907
0.716794 0.443377 0.288821
0.725842 0.442819 0.287736
0.734889 0.442261 0.286650
0.743936 0.441703 0.285565
0.249762 0.392619 0.295348
0.251575 0.392790 0.296272
0.253387 0.392960 0.297196
0.255200 0.393131 0.298120
0.257013 0.393302 0.299044
0.258826 0.393473 0.299968
0.266042 0.396590 0.303109
0.274340 0.400296 0.306694
0.282637 0.404003 0.310278
0.290934 0.407709 0.313863
0.299231 0.411416 0.317447
0.308668 0.412222 0.318061
0.318674 0.411579 0.317188
0.328681 0.410935 0.316316
0.338687 0.410292 0.315444
0.348693 0.409649 0.314572
0.369515 0.412275 0.313974
0.401152 0.418171 0.313651
0.432788 0.424067 0.313328
0.464425 0.429962 0.313005
0.496062 0.435858 0.312682
0.527256 0.441251 0.312175
0.557565 0.445637 0.311301
0.587874 0.450024 0.310428
0.618182 0.454410 0.309554
0.648491 0.458797 0.308680
0.675436 0.462504 0.307851
0.685563 0.462815 0.307241
0.695690 0.463126 0.306631
0.705817 0.463437 0.306021
0.715944 0.463748 0.305411
0.726070 0.464059 0.304801
0.257702 0.407885 0.304376
0.259369 0.408138 0.305254
0.261035 0.408391 0.306132
0.262702 0.408645 0.307011
0.264368 0.408898 0.307889
0.266034 0.409151 0.308767
0.273188 0.412503 0.312106
0.281440 0.416474 0.315938
0.289691 0.420446 0.319769
0.297943 0.424418 0.323601
0.306194 0.428390 0.327432
0.315988 0.429986 0.328665
0.326552 0.430395 0.328597
0.337117 0.430803 0.328530
0.347681 0.431212 0.328463
0.358245 0.431621 0.328396
0.376720 0.433808 0.327936
0.403106 0.437773 0.327082
0.429492 0.441739 0.326228
0.455878 0.445705 0.325374
0.482264 0.449670 0.324521
0.509561 0.454121 0.324002
0.538680 0.459541 0.324153
0.567800 0.464961 0.324304
0.596919 0.470381 0.324454
0.626039 0.475801 0.324605
0.652173 0.480515 0.324709
0.663379 0.481695 0.324575
0.674586 0.482875 0.324440
0.685792 0.484055 0.324306
0.696998 0.485235 0.324172
0.708204 0.486415 0.324038
0.265643 0.423152 0.313403
0.267163 0.423487 0.314236
0.268683 0.423823 0.315068
0.270203 0.424158 0.315901
0.271723 0.424493 0.316733
0.273243 0.424829 0.317566
0.280335 0.428416 0.321103
0.288540 0.432653 0.325182
0.296746 0.436890 0.329260
0.304952 0.441127 0.333339
0.313157 0.445364 0.337417
0.323308 0.447750 0.339269
0.334430 0.449211 0.340007
0.345552 0.450671 0.340744
0.356675 0.452132 0.341482
0.367797 0.453592 0.342220
0.383926 0.455340 0.341897
0.405061 0.457376 0.340513
0.426196 0.459411 0.339128
0.447331 0.461447 0.337744
0.468466 0.463482 0.336360
0.491866 0.466990 0.335828
0.519796 0.473444 0.337004
0.547726 0.479898 0.338179
0.575656 0.486352 0.339355
0.603587 0.492806 0.340531
0.628910 0.498526 0.341567
0.641195 0.500575 0.341909
0.653481 0.502624 0.342250
0.665767 0.504673 0.342592
0.678053 0.506722 0.342933
0.690338 0.508772 0.343275
0.273583 0.438418 0.322431
0.274957 0.438836 0.323218
0.276330 0.439254 0.324004
0.277704 0.439671 0.324791
0.279078 0.440089 0.325578
0.280452 0.440507 0.326365
0.287481 0.444329 0.330100
0.295641 0.448831 0.334426
0.303801 0.453333 0.338751
0.311961 0.457836 0.343077
0.320121 0.462338 0.347402
0.330628 0.465514 0.349873
0.342308 0.468026 0.351416
0.353988 0.470539 0.352959
0.365669 0.473052 0.354502
0.377349 0.475564 0.356044
0.391132 0.476873 0.355858
0.407015 0.476978 0.353943
0.422899 0.477084 0.352029
0.438783 0.477189 0.350114
0.454667 0.477294 0.348199
0.474170 0.479860 0.347655
0.500911 0.487348 0.349855
0.527652 0.494835 0.352055
0.554394 0.502323 0.354256
0.581135 0.509811 0.356456
0.605646 0.516537 0.358425
0.619012 0.519455 0.359242
0.632377 0.522373 0.360060
0.645742 0.525291 0.360877
0.659107 0.528209 0.361694
0.672472 0.531128 0.362511
0.280925 0.452361 0.330828
0.282198 0.452874 0.331594
0.283471 0.453386 0.332359
0.284744 0.453898 0.333124
0.286017 0.454410 0.333890
0.287290 0.454923 0.334655
0.294214 0.458874 0.338519
0.302267 0.463514 0.343004
0.310320 0.468153 0.347488
0.318373 0.472793 0.351972
0.326427 0.477433 0.356456
0.337142 0.481164 0.359400
0.349188 0.484442 0.361574
0.361235 0.487720 0.363748
0.373281 0.490999 0.365922
0.385327 0.494277 0.368096
0.397582 0.495419 0.368110
0.410044 0.494427 0.365963
0.422507 0.493434 0.363817
0.434970 0.492442 0.361670
0.447432 0.491449 0.359523
0.464099 0.493347 0.358971
0.489176 0.501027 0.361607
0.514252 0.508707 0.364243
0.539328 0.516386 0.366879
0.564404 0.524066 0.369515
0.587627 0.531064 0.371943
0.601587 0.534650 0.373331
0.615547 0.538236 0.374718
0.629507 0.541822 0.376106
0.643467 0.545408 0.377493
0.657426 0.548994 0.378881
0.287069 0.463657 0.337965
0.288333 0.464289 0.338758
0.289597 0.464920 0.339551
0.290861 0.465551 0.340344
0.292125 0.466182 0.341137
0.293389 0.466814 0.341929
0.300120 0.470686 0.345783
0.307945 0.475207 0.350249
0.315769 0.479727 0.354714
0.323594 0.484248 0.359180
0.331418 0.488768 0.363646
0.342045 0.492589 0.366773
0.354073 0.496059 0.369231
0.366101 0.499529 0.371689
0.378129 0.502999 0.374146
0.390158 0.506469 0.376604
0.402522 0.507992 0.376943
0.415222 0.507566 0.375162
0.427923 0.507141 0.373381
0.440623 0.506716 0.371600
0.453324 0.506290 0.369819
0.469277 0.508069 0.369264
0.491737 0.514258 0.371159
0.514197 0.520447 0.373054
0.536657 0.526635 0.374949
0.559116 0.532824 0.376844
0.580097 0.538623 0.378782
0.593682 0.542474 0.380928
0.607267 0.546325 0.383075
0.620851 0.550177 0.385222
0.634436 0.554028 0.387368
0.648021 0.557879 0.389515
0.293214 0.474954 0.345102
0.294468 0.475704 0.345922
0.295723 0.476454 0.346743
0.296978 0.477204 0.347563
0.298233 0.477954 0.348383
0.299488 0.478704 0.349204
0.306027 0.482498 0.353046
0.313622 0.486899 0.357494
0.321218 0.491301 0.361941
0.328814 0.495703 0.366389
0.336410 0.500104 0.370836
0.346949 0.504013 0.374146
0.358958 0.507675 0.376888
0.370968 0.511338 0.379629
0.382978 0.515000 0.382370
0.394988 0.518662 0.385112
0.407462 0.520564 0.385775
0.420400 0.520706 0.384360
0.433338 0.520848 0.382945
0.446277 0.520989 0.381530
0.459215 0.521131 0.380115
0.474455 0.522792 0.379557
0.494298 0.527489 0.380711
0.514142 0.532187 0.381865
0.533985 0.536884 0.383019
0.553829 0.541582 0.384173
0.572567 0.546182 0.385620
0.585776 0.550299 0.388526
0.598986 0.554415 0.391432
0.612196 0.558532 0.394338
0.625405 0.562649 0.397244
0.638615 0.566765 0.400150
0.299358 0.486250 0.352239
0.300604 0.487119 0.353087
0.301849 0.487988 0.353935
0.303095 0.488857 0.354782
0.304341 0.489726 0.355630
0.305586 0.490595 0.356478
0.311933 0.494309 0.360310
0.319300 0.498592 0.364739
0.326668 0.502875 0.369168
0.334035 0.507157 0.373597
0.341402 0.511440 0.378027
0.351852 0.515437 0.381520
0.363843 0.519292 0.384544
0.375835 0.523146 0.387569
0.387826 0.527000 0.390594
0.399818 0.530855 0.393619
0.412402 0.533136 0.394607
0.425578 0.533845 0.393558
0.438754 0.534554 0.392509
0.451930 0.535263 0.391460
0.465106 0.535972 0.390411
0.479633 0.537514 0.389850
0.496860 0.540720 0.390263
0.514087 0.543926 0.390676
0.531314 0.547133 0.391089
0.548541 0.550339 0.391503
0.565036 0.553741 0.392458
0.577871 0.558123 0.396123
0.590706 0.562505 0.399788
0.603540 0.566887 0.403454
0.616375 0.571269 0.407119
0.629210 0.575651 0.410784
0.305502 0.497546 0.359376
0.306739 0.498534 0.360251
0.307975 0.499522 0.361126
0.309212 0.500510 0.362002
0.310448 0.501498 0.362877
0.311685 0.502486 0.363752
0.317840 0.506121 0.367573
0.324978 0.510284 0.371984
0.332117 0.514448 0.376395
0.339255 0.518612 0.380806
0.346394 0.522776 0.385217
0.356755 0.526862 0.388893
0.368728 0.530908 0.392201
0.380702 0.534955 0.395510
0.392675 0.539001 0.398818
0.404648 0.543047 0.402127
0.417342 0.545709 0.403440
0.430756 0.546985 0.402757
0.444169 0.548261 0.402074
0.457583 0.549537 0.401390
0.470997 0.550813 0.400707
0.484810 0.552236 0.400143
0.499421 0.553951 0.399815
0.514032 0.555666 0.399487
0.528643 0.557382 0.399159
0.543254 0.559097 0.398832
0.557506 0.561301 0.399296
0.569966 0.565948 0.403720
0.582425 0.570595 0.408145
0.594885 0.575242 0.412570
0.607344 0.579889 0.416994
0.619804 0.584537 0.421419
0.311072 0.507889 0.365899
0.312325 0.508982 0.366801
0.313578 0.510076 0.367704
0.314832 0.511169 0.368606
0.316085 0.512262 0.369509
0.317338 0.513355 0.370412
0.323325 0.516913 0.374235
0.330260 0.520964 0.378643
0.337194 0.525015 0.383051
0.344128 0.529066 0.387459
0.351062 0.533117 0.391866
0.361336 0.537290 0.395725
0.373281 0.541524 0.399310
0.385225 0.545758 0.402894
0.397169 0.549992 0.406479
0.409113 0.554226 0.410063
0.421890 0.557244 0.411696
0.435499 0.559044 0.411378
0.449108 0.560845 0.411059
0.462717 0.562645 0.410740
0.476326 0.564446 0.410422
0.489556 0.565816 0.409906
0.502026 0.566326 0.408996
0.514496 0.566835 0.408085
0.526967 0.567344 0.407175
0.539437 0.567853 0.406265
0.551839 0.569068 0.406326
0.563902 0.573810 0.411241
0.575965 0.578551 0.416157
0.588029 0.583293 0.421072
0.600092 0.588035 0.425988
0.612155 0.592776 0.430903
0.313766 0.513466 0.369349
0.315165 0.514596 0.370279
0.316565 0.515726 0.371209
0.317965 0.516856 0.372139
0.319364 0.517986 0.373069
0.320764 0.519115 0.373999
0.326707 0.522611 0.377888
0.333559 0.526580 0.382369
0.340411 0.530548 0.386850
0.347263 0.534517 0.391331
0.354114 0.538486 0.395812
0.364306 0.542741 0.399854
0.376168 0.547140 0.403676
0.388030 0.551538 0.407499
0.399892 0.555937 0.411321
0.411754 0.560336 0.415143
0.424480 0.563591 0.417074
0.438071 0.565702 0.417112
0.451662 0.567814 0.417150
0.465253 0.569926 0.417188
0.478844 0.572037 0.417226
0.492140 0.573688 0.417018
