app/src/main/assets/cube/Kabukicho02.cube
# LUT by SparkleStock. Enhanced with VOXCOLOR algorithms.
LUT_3D_SIZE 5
DOMAIN_MIN 0.000000 0.000000 0.000000
DOMAIN_MAX 0.903226 0.903226 0.903226
0.113309 0.117216 0.125031
0.254047 0.121958 0.135177
0.570137 0.139084 0.150301
0.771996 0.156296 0.163496
0.810493 0.160054 0.166552
0.154169 0.203947 0.180322
0.216727 0.208181 0.187825
0.473823 0.225192 0.188681
0.737715 0.234032 0.188347
0.808856 0.227957 0.186287
0.222750 0.339659 0.263870
0.249279 0.343684 0.273418
0.346152 0.352555 0.275353
0.596001 0.386910 0.271073
0.748188 0.391504 0.258378
0.280925 0.452361 0.330828
0.302267 0.463514 0.343004
0.373281 0.490999 0.365922
0.464099 0.493347 0.358971
0.615547 0.538236 0.374718
0.316460 0.519044 0.372799
0.336858 0.532195 0.386096
0.402615 0.561882 0.416163
0.494725 0.581560 0.424131
0.581253 0.593127 0.428729
0.163969 0.174146 0.239009
0.216361 0.170694 0.228829
0.445361 0.178605 0.237851
0.700032 0.180895 0.240357
0.768440 0.178045 0.235485
0.165243 0.211626 0.228131
0.213764 0.222075 0.239584
0.415468 0.231937 0.246972
0.711453 0.225308 0.235709
0.800385 0.213329 0.223611
0.218055 0.330397 0.281646
0.246092 0.334976 0.292717
0.350621 0.360569 0.315185
0.614448 0.385481 0.300416
0.769810 0.373921 0.272817
0.279761 0.451501 0.345715
0.301059 0.461765 0.356098
0.383746 0.501390 0.393329
0.477787 0.506474 0.388376
0.638976 0.543965 0.388569
0.318578 0.521071 0.383015
0.332678 0.530400 0.391920
0.403546 0.567881 0.428757
0.502942 0.591988 0.444290
0.590626 0.601801 0.443188
0.213533 0.228311 0.359219
0.245990 0.225410 0.350820
0.348816 0.233369 0.348882
0.533706 0.259132 0.365813
0.628959 0.254461 0.359123
0.209657 0.258586 0.340822
0.243415 0.267495 0.349856
0.344140 0.280868 0.361011
0.566175 0.286104 0.368872
0.700186 0.266112 0.354692
0.221863 0.331812 0.337823
0.245751 0.332771 0.343598
0.351468 0.380348 0.396821
0.593087 0.392806 0.406200
0.777711 0.350228 0.364819
0.274586 0.452068 0.390636
0.291691 0.456200 0.394779
0.393540 0.510553 0.454161
0.528842 0.552331 0.490434
0.708801 0.565527 0.454193
0.315928 0.524319 0.423215
0.328300 0.532307 0.426912
0.410250 0.580038 0.473799
0.548279 0.636253 0.529702
0.636733 0.641532 0.518675
0.240411 0.258348 0.424971
0.269988 0.257221 0.424212
0.355417 0.260930 0.420798
0.468822 0.285629 0.424127
0.533899 0.310056 0.438160
0.240723 0.289401 0.418698
0.272770 0.301346 0.440622
0.355268 0.312960 0.453169
0.479027 0.328039 0.453760
0.576571 0.345813 0.468301
0.248106 0.357348 0.416881
0.270208 0.361770 0.431893
0.374828 0.411746 0.492015
0.512716 0.439671 0.516460
0.662348 0.426988 0.520865
0.271610 0.449064 0.433776
0.282295 0.447992 0.436116
0.367458 0.490544 0.487042
0.563877 0.583610 0.588652
0.763152 0.569414 0.581392
0.313632 0.530510 0.476255
0.323138 0.536379 0.480835
0.395806 0.579614 0.523124
0.590088 0.680023 0.630899
0.716069 0.713067 0.652857
0.245973 0.265509 0.440766
0.272525 0.264655 0.441169
0.353978 0.269120 0.440827
0.467037 0.289149 0.442316
0.525395 0.313846 0.450405
0.247325 0.295426 0.439350
0.278703 0.308331 0.466186
0.356124 0.319123 0.480293
0.477348 0.330344 0.478069
0.557987 0.353494 0.488356
0.256660 0.361591 0.444827
0.278879 0.368483 0.465870
0.375636 0.414292 0.528194
0.513998 0.438310 0.553153
0.614539 0.450296 0.557836
0.277741 0.450382 0.459993
0.290261 0.454945 0.471957
0.365494 0.493381 0.525205
0.571383 0.598751 0.641195
0.700863 0.612063 0.663723
0.311415 0.531294 0.502892
0.321118 0.536663 0.510318
0.381190 0.572695 0.550230
0.556422 0.662496 0.647000
0.756221 0.749890 0.739998
