app/src/main/assets/cube/Kabukicho05.cube
# LUT by SparkleStock. Enhanced with VOXCOLOR algorithms.
LUT_3D_SIZE 5
DOMAIN_MIN 0.000000 0.000000 0.000000
DOMAIN_MAX 0.903226 0.903226 0.903226
0.031258 0.042979 0.062515
0.203190 0.055402 0.075883
0.568908 0.069944 0.080641
0.768333 0.076301 0.075639
0.799338 0.078002 0.074520
0.063531 0.173091 0.127283
0.138063 0.173295 0.140285
0.460343 0.176528 0.127645
0.737430 0.157012 0.098656
0.794769 0.139731 0.087237
0.110607 0.345370 0.234810
0.137801 0.346809 0.250391
0.269961 0.353291 0.261156
0.603422 0.374637 0.242504
0.756034 0.345220 0.193774
0.145189 0.460995 0.316113
0.166705 0.470364 0.334861
0.253308 0.498978 0.375799
0.415245 0.518777 0.393384
0.628516 0.552213 0.397913
0.169546 0.516980 0.366198
0.186642 0.526321 0.383236
0.265144 0.556126 0.426970
0.425686 0.590545 0.465959
0.577695 0.612314 0.481180
0.086187 0.148340 0.221710
0.141597 0.136219 0.216102
0.423053 0.138850 0.251891
0.709585 0.122631 0.244811
0.770913 0.112387 0.220574
0.082103 0.189640 0.202672
0.131454 0.198859 0.221452
0.380844 0.199877 0.231716
0.714687 0.161474 0.192863
0.795492 0.136637 0.160625
0.114734 0.335249 0.268506
0.142844 0.337646 0.283750
0.274761 0.363236 0.318831
0.618962 0.369070 0.279409
0.776428 0.321685 0.208855
0.150926 0.461232 0.342054
0.170540 0.468661 0.354137
0.271131 0.508520 0.408739
0.433604 0.529016 0.426952
0.653516 0.552543 0.405645
0.173119 0.517680 0.383769
0.185701 0.525291 0.391776
0.269078 0.560374 0.440918
0.435506 0.598635 0.483655
0.587361 0.618231 0.494238
0.137894 0.246272 0.385907
0.169908 0.238348 0.383093
0.296013 0.237995 0.411174
0.545739 0.248081 0.466456
0.657605 0.227406 0.452708
0.129629 0.271036 0.360129
0.163167 0.279374 0.372774
0.285969 0.290497 0.404131
0.571441 0.272213 0.436589
0.721347 0.227446 0.408944
0.130824 0.341356 0.355320
0.154981 0.343225 0.364004
0.282084 0.396745 0.429538
0.594595 0.390774 0.435306
0.792884 0.305934 0.354066
0.161619 0.460232 0.413442
0.176898 0.462639 0.415755
0.302829 0.518384 0.478688
0.504477 0.571045 0.530409
0.727928 0.562333 0.456700
0.182871 0.521180 0.442539
0.192234 0.526866 0.442126
0.289216 0.572030 0.489174
0.499908 0.636658 0.560543
0.642733 0.650380 0.558099
0.165930 0.292008 0.462255
0.196246 0.292678 0.471305
0.300189 0.290235 0.493587
0.463760 0.300653 0.530695
0.565882 0.318257 0.559763
0.160496 0.320380 0.454546
0.195074 0.336711 0.479998
0.300019 0.351748 0.511644
0.473033 0.354447 0.544585
0.608786 0.358706 0.571769
0.159297 0.381247 0.453387
0.182729 0.387155 0.468268
0.316514 0.445303 0.533398
0.507076 0.473801 0.578263
0.694805 0.436235 0.589858
0.167934 0.458908 0.472475
0.178802 0.458664 0.474305
0.285559 0.501359 0.521668
0.558851 0.603188 0.623244
0.790780 0.564099 0.590745
0.191658 0.526483 0.511645
0.199652 0.530803 0.511706
0.286638 0.570675 0.546967
0.562523 0.675041 0.646303
0.738655 0.710276 0.666121
0.171594 0.303163 0.478136
0.199455 0.303828 0.488145
0.296742 0.303223 0.511027
0.455305 0.308721 0.545193
0.553676 0.325591 0.569028
0.168002 0.329931 0.475534
0.201892 0.349118 0.504538
0.301743 0.364390 0.535671
0.469856 0.365545 0.566049
0.586387 0.376982 0.589343
0.168307 0.391086 0.482658
0.192286 0.400690 0.503630
0.319828 0.453446 0.564931
0.515110 0.482331 0.609717
0.646172 0.482373 0.627584
0.175156 0.466139 0.502104
0.187413 0.470145 0.511585
0.281264 0.509113 0.558250
0.572757 0.619959 0.664983
0.735987 0.628165 0.688615
0.194019 0.526680 0.536746
0.201873 0.531838 0.541805
0.272082 0.564285 0.572498
0.522895 0.656755 0.661096
0.786013 0.744250 0.742202
