app/src/main/assets/cube/Kabukicho01.cube
# LUT by SparkleStock. Enhanced with VOXCOLOR algorithms.
LUT_3D_SIZE 8
DOMAIN_MIN 0.000000 0.000000 0.000000
DOMAIN_MAX 0.903226 0.903226 0.903226
0.109402 0.105495 0.121123
0.166308 0.109087 0.124148
0.323250 0.119642 0.128780
0.518232 0.133459 0.133444
0.695073 0.146835 0.137201
0.775801 0.153263 0.140793
0.803277 0.155437 0.143283
0.811911 0.156146 0.144425
0.125283 0.143306 0.139651
0.149403 0.144995 0.143408
0.273144 0.153234 0.143484
0.460368 0.163526 0.142695
0.664323 0.172126 0.142940
0.765250 0.175188 0.144044
0.801704 0.175093 0.145021
0.813582 0.173753 0.145321
0.149868 0.213526 0.174249
0.163700 0.213001 0.178426
0.229590 0.212956 0.178336
0.373419 0.221192 0.174531
0.586332 0.238197 0.167933
0.729126 0.237374 0.160950
0.788536 0.230950 0.156802
0.810989 0.224364 0.154171
0.179219 0.303864 0.218457
0.191234 0.302400 0.222561
0.219478 0.300967 0.225776
0.309763 0.306043 0.222967
0.478944 0.319614 0.212080
0.657891 0.328963 0.200071
0.750587 0.323726 0.189344
0.792474 0.315249 0.182377
0.209705 0.400874 0.265721
0.218902 0.400490 0.269313
0.251158 0.409843 0.277770
0.300492 0.411613 0.280293
0.375680 0.402892 0.271516
0.557536 0.434342 0.261411
0.683116 0.442867 0.246487
0.750483 0.440626 0.236315
0.236551 0.478199 0.305045
0.243699 0.479279 0.308638
0.274113 0.492998 0.319582
0.326265 0.507160 0.328302
0.398727 0.513369 0.327959
0.494226 0.510569 0.315658
0.605047 0.530828 0.312932
0.682996 0.545950 0.312762
0.261507 0.535830 0.337753
0.267703 0.537886 0.341955
0.294955 0.550559 0.353837
0.343998 0.566624 0.365145
0.413459 0.579529 0.369349
0.497249 0.579925 0.360463
0.581765 0.589088 0.354302
0.648380 0.601687 0.357994
0.279735 0.571397 0.360227
0.285993 0.574885 0.365002
0.310834 0.586884 0.377411
0.356562 0.603190 0.390637
0.423285 0.619440 0.398858
0.507281 0.627429 0.394827
0.581180 0.631383 0.387640
0.639032 0.639003 0.389167
0.136248 0.134988 0.183891
0.157734 0.133310 0.174035
0.261629 0.139737 0.177088
0.434973 0.149529 0.183361
0.643795 0.158587 0.185948
0.752918 0.162234 0.183246
0.792202 0.163091 0.180539
0.805599 0.162538 0.177656
0.135297 0.149088 0.172559
0.154025 0.156273 0.177714
0.242949 0.161997 0.180214
0.408262 0.167055 0.178684
0.626649 0.171721 0.173154
0.751211 0.174267 0.168418
0.797640 0.174555 0.165974
0.812482 0.172680 0.163307
0.151240 0.206274 0.192020
0.165870 0.208606 0.197506
0.222037 0.214612 0.204315
0.354789 0.224244 0.202695
0.563731 0.234867 0.188628
0.723074 0.231702 0.175375
0.789370 0.224538 0.168164
0.813380 0.217140 0.163446
0.178067 0.293954 0.230081
0.188717 0.289879 0.231470
0.222372 0.298212 0.242886
0.312114 0.310067 0.245430
0.471182 0.319155 0.229340
0.658726 0.324444 0.210222
0.755110 0.315929 0.195448
0.797652 0.305264 0.186126
0.209815 0.396489 0.275351
0.217590 0.392205 0.275209
0.252663 0.404919 0.288609
0.304541 0.412319 0.296661
0.379680 0.407252 0.288150
0.563094 0.435577 0.270750
0.690138 0.438690 0.250169
0.757866 0.432350 0.235965
0.237539 0.478059 0.313065
0.243606 0.476825 0.313489
0.275410 0.492201 0.327215
0.328898 0.509028 0.339642
0.401212 0.516652 0.340372
0.496682 0.512654 0.325649
0.609553 0.530655 0.318644
0.688452 0.542745 0.313465
0.262397 0.536398 0.343674
0.267002 0.536876 0.344803
0.294037 0.550190 0.357434
0.343499 0.567828 0.371200
0.413433 0.582082 0.377616
0.497402 0.582073 0.367875
0.583514 0.589819 0.359521
0.650422 0.600408 0.360068
0.281364 0.572519 0.366014
0.284613 0.573892 0.366673
0.307902 0.585809 0.378562
0.353132 0.603236 0.393360
0.420057 0.620920 0.403684
0.504677 0.628947 0.399520
0.579899 0.631892 0.391674
0.638494 0.638381 0.391855
0.166978 0.171176 0.277727
0.178651 0.166822 0.261419
0.236749 0.167820 0.252869
0.360065 0.176084 0.256831
0.542265 0.189896 0.271919
0.684863 0.192939 0.273602
0.745354 0.191027 0.267997
0.769903 0.188101 0.260757
0.161221 0.179605 0.254058
0.176567 0.184202 0.252269
0.228483 0.187092 0.248379
0.345400 0.191648 0.248299
0.529296 0.198519 0.253657
0.692608 0.198395 0.251270
0.763161 0.195018 0.244279
0.789701 0.190337 0.236265
0.163291 0.215361 0.245940
0.177314 0.216573 0.246567
0.221112 0.227801 0.256684
0.326806 0.239787 0.262967
0.503531 0.244959 0.256755
0.691038 0.235405 0.238954
0.774703 0.224772 0.224319
0.806235 0.215275 0.213124
0.179446 0.286583 0.263788
0.189447 0.281366 0.261466
0.227357 0.297364 0.280340
0.312425 0.315399 0.294375
0.455525 0.322403 0.286170
0.655350 0.317832 0.255228
0.759800 0.303421 0.230145
0.805020 0.289223 0.213400
0.210564 0.389513 0.307881
0.216089 0.381703 0.302645
0.252094 0.394433 0.317810
0.310172 0.411143 0.335348
0.395524 0.422489 0.339267
0.578480 0.440154 0.306910
0.707407 0.432204 0.274115
0.775292 0.418101 0.251587
0.239996 0.477089 0.343985
0.244152 0.473595 0.339802
0.276430 0.487757 0.353164
0.335670 0.510027 0.372832
0.417878 0.529810 0.386448
0.510099 0.523980 0.366698
0.626442 0.536694 0.347560
0.706751 0.542811 0.331120
0.264981 0.536775 0.370509
0.268169 0.536077 0.367379
0.294524 0.548306 0.377745
0.348168 0.569669 0.396135
0.427233 0.593205 0.414108
0.510301 0.594579 0.404961
0.596645 0.599196 0.390057
0.662759 0.606194 0.382482
0.283778 0.572855 0.389207
0.285920 0.573561 0.386189
0.307388 0.584527 0.394122
0.354514 0.604414 0.410819
0.428184 0.628880 0.430490
0.514200 0.639389 0.429278
0.588683 0.640707 0.419051
0.645984 0.645265 0.414672
0.196156 0.206972 0.374115
0.208682 0.202715 0.358758
0.242796 0.200104 0.342564
0.320707 0.205611 0.339701
0.450446 0.220975 0.355981
0.600863 0.232422 0.372240
0.677639 0.231951 0.371850
0.712820 0.228493 0.365341
0.190972 0.217461 0.352032
0.205538 0.219928 0.347171
0.236444 0.221007 0.337907
0.309492 0.224719 0.334922
0.438328 0.232659 0.343645
0.610601 0.238785 0.355041
0.701643 0.235366 0.351920
0.741431 0.229221 0.343287
0.185045 0.240945 0.328721
0.198099 0.241015 0.326053
0.234753 0.254632 0.335777
0.311431 0.267474 0.344914
0.439031 0.270127 0.345108
0.626080 0.263728 0.338477
0.729049 0.251823 0.325691
0.773827 0.240402 0.312432
0.190074 0.294121 0.325977
0.198907 0.288304 0.320544
0.238639 0.307285 0.341070
0.314036 0.329645 0.362735
0.431961 0.339794 0.366965
0.622762 0.331427 0.342722
0.740815 0.310813 0.315109
0.795898 0.291783 0.293218
0.212153 0.382233 0.354195
0.215647 0.372190 0.344715
0.249800 0.382662 0.358147
0.313791 0.408378 0.384867
0.412654 0.439953 0.409205
0.586915 0.445937 0.379133
0.721682 0.423665 0.336905
0.793443 0.398981 0.303892
0.243207 0.476360 0.392653
0.245766 0.471104 0.385198
0.276058 0.481983 0.395165
0.340171 0.508200 0.420035
0.435608 0.542046 0.449939
0.530769 0.544093 0.439338
0.653269 0.549356 0.406584
0.735764 0.545113 0.374180
0.269154 0.538489 0.416459
0.271313 0.536872 0.410243
0.295854 0.546894 0.416592
0.353314 0.570980 0.437694
0.444008 0.604945 0.468358
0.535064 0.617203 0.472079
0.622129 0.619047 0.451114
0.686903 0.620100 0.431685
0.287823 0.574857 0.430612
0.289684 0.575406 0.425232
0.309178 0.584909 0.428398
0.358266 0.606637 0.445240
0.440500 0.638652 0.473942
0.535890 0.659007 0.486139
0.609732 0.660610 0.475871
0.664697 0.662737 0.465187
0.219599 0.236677 0.450943
0.232912 0.234689 0.442850
0.268940 0.232001 0.430498
0.327122 0.232379 0.418511
0.408651 0.240279 0.414817
0.528148 0.267954 0.448402
0.606769 0.276028 0.462380
0.646591 0.276029 0.464109
0.215495 0.249509 0.439380
0.231712 0.255080 0.441543
0.264984 0.256245 0.434084
0.318687 0.256463 0.422628
0.398523 0.260550 0.416379
0.529890 0.283244 0.446942
0.624901 0.288048 0.459287
0.672850 0.284756 0.458490
0.212682 0.278017 0.425463
0.225301 0.279429 0.425784
0.263474 0.292240 0.433083
0.320593 0.303513 0.435960
0.398416 0.306968 0.431952
0.538606 0.316755 0.451257
0.652614 0.310391 0.455513
0.712030 0.299891 0.449880
0.211799 0.320818 0.412566
0.218749 0.314814 0.406569
0.257609 0.331811 0.422181
0.320724 0.355978 0.442667
0.408115 0.374200 0.456391
0.556499 0.373348 0.462181
0.687747 0.351375 0.448292
0.758454 0.329142 0.429954
0.216519 0.379952 0.409024
0.219159 0.369877 0.398468
0.249058 0.377356 0.407900
0.316230 0.408708 0.439914
0.425797 0.456490 0.485258
0.576867 0.456160 0.483251
0.718398 0.422934 0.444493
0.797862 0.388840 0.405611
0.246768 0.476621 0.451471
0.248672 0.470498 0.443705
0.274246 0.477077 0.448489
0.338471 0.502914 0.473041
0.443709 0.545719 0.514793
0.552776 0.569822 0.533858
0.683608 0.567467 0.495669
0.769311 0.549166 0.449177
0.274426 0.542056 0.475896
0.275998 0.539704 0.469284
0.297510 0.547084 0.471555
0.355259 0.570811 0.491149
0.454196 0.611058 0.529019
0.566792 0.646041 0.560889
0.657341 0.648015 0.540922
0.721842 0.641594 0.510284
0.293683 0.579880 0.487269
0.295330 0.580135 0.481545
0.312918 0.588076 0.481484
0.362126 0.609707 0.495841
0.450330 0.646368 0.527851
0.565965 0.685097 0.564985
0.642370 0.691705 0.561404
0.696029 0.692153 0.545632
0.233778 0.254638 0.491213
0.246214 0.253382 0.487950
0.280948 0.252255 0.480635
0.339252 0.253011 0.471820
0.419061 0.258312 0.465985
0.508407 0.277499 0.479371
0.573952 0.296721 0.501570
0.607365 0.305613 0.512843
0.230113 0.268787 0.486968
0.247605 0.277016 0.495207
0.281256 0.280224 0.494273
0.336035 0.280801 0.486914
0.413485 0.282531 0.478283
0.507788 0.297869 0.486721
0.583850 0.316938 0.508666
0.624389 0.324393 0.518962
0.229502 0.299753 0.482961
0.243302 0.304063 0.490043
0.281732 0.318111 0.502461
0.340178 0.329404 0.507845
0.415401 0.331916 0.501437
0.511294 0.339253 0.502950
0.601830 0.353574 0.522104
0.653607 0.357018 0.530999
0.230753 0.345786 0.479944
0.238808 0.343077 0.481303
0.277141 0.360725 0.499946
0.341991 0.384872 0.520209
0.427927 0.404073 0.531035
0.523799 0.407088 0.529677
0.628805 0.410095 0.541761
0.693184 0.403369 0.545134
0.234669 0.405157 0.480775
0.239207 0.399327 0.477547
0.267727 0.407442 0.488527
0.336489 0.438683 0.517580
0.446228 0.488623 0.558801
0.545196 0.499114 0.565425
0.662879 0.487660 0.566755
0.739581 0.465206 0.558202
0.251306 0.478116 0.499802
0.252728 0.472724 0.493586
0.274864 0.476587 0.497671
0.332332 0.497609 0.517524
0.431212 0.538323 0.554374
0.557301 0.586053 0.597254
0.691103 0.583901 0.593752
0.781414 0.556777 0.567149
0.278646 0.544721 0.526789
0.279623 0.542043 0.522368
0.298842 0.547750 0.525104
0.350976 0.568058 0.541141
0.444910 0.606321 0.574428
0.582459 0.661020 0.626980
0.685517 0.673075 0.635054
0.758152 0.665147 0.614197
0.299452 0.586552 0.542431
0.300905 0.586405 0.539413
0.317481 0.593607 0.540947
0.362918 0.613018 0.552934
0.447517 0.648066 0.580524
0.584413 0.702574 0.633257
0.676543 0.726009 0.653566
0.738099 0.731702 0.645367
0.239923 0.263461 0.508480
0.251846 0.261838 0.507120
0.285048 0.261175 0.502434
0.341716 0.262431 0.495814
0.419729 0.267345 0.490217
0.503073 0.282921 0.497309
0.564041 0.302924 0.517138
0.594891 0.314361 0.529468
0.237672 0.278561 0.508382
0.255672 0.287784 0.519393
0.288396 0.292040 0.521462
0.341886 0.293239 0.516633
0.417630 0.294468 0.508707
0.505063 0.305819 0.510625
0.572940 0.326250 0.528557
0.608613 0.336952 0.539691
0.238165 0.309459 0.509905
0.252984 0.315775 0.520400
0.289949 0.329751 0.534631
0.347176 0.340945 0.541826
0.421987 0.344142 0.537237
0.510689 0.349548 0.534184
0.587919 0.368505 0.549862
0.631390 0.378221 0.559994
0.240514 0.355918 0.512702
0.249812 0.355951 0.518124
0.286312 0.372950 0.538053
0.349822 0.396232 0.559319
0.435890 0.416201 0.571880
0.524926 0.419848 0.568917
0.610163 0.432395 0.580520
0.662122 0.436611 0.587906
0.244997 0.416153 0.517692
0.250933 0.413482 0.519242
0.278170 0.422092 0.532792
0.345245 0.452241 0.562639
0.453890 0.501023 0.603712
0.549077 0.514663 0.612070
0.640126 0.517574 0.618714
0.700260 0.510793 0.620663
0.257292 0.484062 0.532085
0.260565 0.481338 0.530816
0.282126 0.486703 0.538631
0.336665 0.507196 0.559862
0.433044 0.546822 0.596482
0.572915 0.604745 0.645987
0.677455 0.616150 0.657916
0.748839 0.603086 0.653436
0.282099 0.547427 0.557343
0.284264 0.546390 0.556750
0.302541 0.552500 0.561969
0.350139 0.570827 0.577813
0.437318 0.605504 0.608383
0.579254 0.663718 0.661371
0.688028 0.693839 0.690235
0.767484 0.696106 0.690158
0.303046 0.589656 0.575287
0.304758 0.590100 0.575045
0.320439 0.596996 0.578613
0.361931 0.614315 0.590587
0.439543 0.645649 0.615607
0.573404 0.698994 0.664956
0.690485 0.743238 0.707585
0.771215 0.759806 0.718189
0.242207 0.267998 0.515105
0.253929 0.265552 0.514190
0.286183 0.264839 0.510498
0.341457 0.266369 0.505006
0.418016 0.271377 0.500112
0.500823 0.285746 0.505833
0.560339 0.304693 0.522917
0.590853 0.316546 0.534683
0.240853 0.283184 0.517093
0.258892 0.292400 0.528851
0.290551 0.296781 0.531965
0.342383 0.298154 0.528261
0.416438 0.299347 0.521089
0.503306 0.309240 0.521564
0.569022 0.328456 0.535649
0.603606 0.340177 0.546195
0.241910 0.313109 0.520887
0.257414 0.320633 0.533184
0.292779 0.334002 0.547788
0.348136 0.344657 0.555525
0.422165 0.348289 0.552247
0.511127 0.352936 0.548480
0.583675 0.371762 0.559934
0.623667 0.383916 0.569139
0.244859 0.358932 0.526240
0.255268 0.360991 0.534361
0.290022 0.377224 0.554686
0.351299 0.399195 0.576141
0.436468 0.418740 0.589752
0.527186 0.422255 0.586621
0.604469 0.437113 0.594742
0.649856 0.446630 0.601841
0.249935 0.419491 0.533771
0.256935 0.418873 0.538278
0.283072 0.427863 0.553591
0.347337 0.456383 0.583989
0.452977 0.502146 0.624664
0.551812 0.516002 0.633066
0.631675 0.524515 0.638572
0.682138 0.527247 0.643138
0.261089 0.486875 0.548554
0.265832 0.486196 0.550620
0.286983 0.492914 0.561231
0.338340 0.512752 0.583759
0.430357 0.550088 0.620314
0.577200 0.611174 0.672758
0.667674 0.629089 0.689056
0.726513 0.628355 0.695090
0.284004 0.547571 0.572958
0.287017 0.547794 0.574164
0.304451 0.554450 0.581218
0.347677 0.571312 0.597548
0.427221 0.602428 0.626688
0.566398 0.659251 0.678179
0.682836 0.700680 0.718022
0.765822 0.714593 0.734603
0.305885 0.591105 0.593905
0.307125 0.591504 0.594553
0.321840 0.598262 0.599376
0.359673 0.614157 0.611754
0.429970 0.642186 0.635367
0.555318 0.691259 0.680444
0.688467 0.746984 0.734799
0.783543 0.775607 0.762872
