app/src/main/assets/cube/Kabukicho03.cube
# LUT by SparkleStock. Enhanced with VOXCOLOR algorithms.
LUT_3D_SIZE 32
0.050794 0.066422 0.093773
0.069841 0.068077 0.096845
0.088889 0.069731 0.099917
0.107937 0.071385 0.102989
0.126984 0.073040 0.106062
0.146032 0.074694 0.109134
0.196353 0.079420 0.113939
0.252928 0.084761 0.119091
0.309504 0.090102 0.124243
0.366080 0.095443 0.129395
0.422655 0.100784 0.134546
0.475292 0.107385 0.137083
0.525960 0.114617 0.138312
0.576628 0.121848 0.139541
0.627295 0.129080 0.140770
0.677963 0.136311 0.141999
0.716035 0.142810 0.142967
0.741510 0.148576 0.143676
0.766986 0.154342 0.144385
0.792461 0.160109 0.145094
0.817937 0.165875 0.145803
0.837709 0.170507 0.146418
0.846075 0.172870 0.146843
0.854441 0.175233 0.147269
0.862807 0.177597 0.147694
0.871173 0.179960 0.148119
0.878325 0.181992 0.148474
0.879412 0.182370 0.148474
0.880499 0.182748 0.148474
0.881587 0.183127 0.148474
0.882674 0.183505 0.148474
0.883761 0.183883 0.148474
0.055426 0.083154 0.101619
0.072497 0.084662 0.104618
0.089569 0.086170 0.107617
0.106641 0.087678 0.110616
0.123712 0.089186 0.113615
0.140784 0.090694 0.116614
0.189205 0.095190 0.120904
0.243896 0.100284 0.125452
0.298588 0.105378 0.130000
0.353279 0.110472 0.134548
0.407970 0.115565 0.139096
0.460851 0.121566 0.141236
0.512827 0.128020 0.142172
0.564802 0.134474 0.143108
0.616778 0.140928 0.144045
0.668754 0.147382 0.144981
0.707987 0.153149 0.145643
0.734478 0.158229 0.146032
0.760969 0.163309 0.146421
0.787460 0.168389 0.146810
0.813951 0.173469 0.147198
0.834578 0.177552 0.147511
0.843474 0.179641 0.147671
0.852370 0.181730 0.147831
0.861267 0.183819 0.147991
0.870163 0.185908 0.148151
0.877773 0.187685 0.148257
0.878952 0.187908 0.148093
0.880130 0.188130 0.147928
0.881309 0.188353 0.147763
0.882488 0.188576 0.147599
0.883666 0.188798 0.147434
0.060058 0.099886 0.109465
0.075153 0.101247 0.112391
0.090249 0.102609 0.115316
0.105345 0.103970 0.118242
0.120440 0.105332 0.121168
0.135536 0.106693 0.124094
0.182058 0.110959 0.127868
0.234864 0.115806 0.131813
0.287671 0.120653 0.135757
0.340478 0.125500 0.139701
0.393284 0.130347 0.143646
0.446409 0.135747 0.145389
0.499693 0.141423 0.146033
0.552977 0.147100 0.146676
0.606261 0.152776 0.147320
0.659545 0.158452 0.147963
0.699940 0.163487 0.148319
0.727447 0.167881 0.148388
0.754953 0.172276 0.148456
0.782460 0.176670 0.148525
0.809966 0.181064 0.148593
0.831446 0.184598 0.148604
0.840873 0.186412 0.148499
0.850300 0.188227 0.148394
0.859727 0.190041 0.148289
0.869154 0.191855 0.148183
0.877221 0.193378 0.148041
0.878491 0.193445 0.147711
0.879761 0.193513 0.147382
0.881032 0.193580 0.147053
0.882302 0.193647 0.146723
0.883572 0.193714 0.146394
0.064689 0.116617 0.117311
0.077809 0.117833 0.120163
0.090929 0.119048 0.123016
0.104049 0.120263 0.125869
0.117168 0.121478 0.128721
0.130288 0.122693 0.131574
0.174910 0.126729 0.134833
0.225832 0.131329 0.138174
0.276754 0.135929 0.141514
0.327677 0.140529 0.144855
0.378599 0.145129 0.148195
0.431968 0.149928 0.149543
0.486560 0.154827 0.149893
0.541152 0.159725 0.150244
0.595744 0.164624 0.150595
0.650336 0.169523 0.150945
0.691893 0.173826 0.150995
0.720415 0.177534 0.150743
0.748937 0.181242 0.150492
0.777459 0.184950 0.150240
0.805980 0.188658 0.149989
0.828314 0.191643 0.149697
0.838272 0.193183 0.149327
0.848229 0.194723 0.148956
0.858187 0.196263 0.148586
0.868145 0.197803 0.148215
0.876669 0.199071 0.147824
0.878031 0.198983 0.147330
0.879393 0.198895 0.146836
0.880754 0.198806 0.146342
0.882116 0.198718 0.145848
0.883477 0.198629 0.145354
0.069321 0.133349 0.125157
0.080465 0.134418 0.127936
0.091609 0.135487 0.130715
0.102753 0.136555 0.133495
0.113896 0.137624 0.136274
0.125040 0.138693 0.139054
0.167762 0.142499 0.141798
0.216800 0.146852 0.144535
0.265838 0.151204 0.147271
0.314876 0.155557 0.150008
0.363913 0.159910 0.152745
0.417526 0.164109 0.153696
0.473426 0.168230 0.153754
0.529327 0.172351 0.153812
0.585227 0.176472 0.153870
0.641127 0.180593 0.153927
0.683846 0.184165 0.153671
0.713383 0.187187 0.153099
0.742920 0.190209 0.152527
0.772458 0.193230 0.151955
0.801995 0.196252 0.151384
0.825183 0.198689 0.150790
0.835671 0.199954 0.150155
0.846159 0.201220 0.149519
0.856647 0.202485 0.148883
0.867135 0.203751 0.148247
0.876118 0.204765 0.147608
0.877571 0.204521 0.146949
0.879024 0.204277 0.146290
0.880477 0.204033 0.145632
0.881930 0.203789 0.144973
0.883383 0.203545 0.144314
0.073953 0.150081 0.133002
0.083121 0.151003 0.135709
0.092289 0.151926 0.138415
0.101457 0.152848 0.141121
0.110624 0.153770 0.143828
0.119792 0.154693 0.146534
0.160615 0.158268 0.148762
0.207768 0.162374 0.150895
0.254921 0.166480 0.153028
0.302074 0.170586 0.155161
0.349228 0.174692 0.157294
0.403084 0.178290 0.157849
0.460293 0.181633 0.157614
0.517501 0.184977 0.157379
0.574710 0.188320 0.157145
0.631918 0.191664 0.156910
0.675799 0.194504 0.156346
0.706351 0.196839 0.155454
0.736904 0.199175 0.154562
0.767457 0.201511 0.153671
0.798010 0.203847 0.152779
0.822051 0.205734 0.151884
0.833070 0.206725 0.150983
0.844088 0.207716 0.150082
0.855107 0.208707 0.149180
0.866126 0.209698 0.148279
0.875566 0.210458 0.147391
0.877110 0.210058 0.146568
0.878655 0.209659 0.145745
0.880199 0.209259 0.144921
0.881744 0.208860 0.144098
0.883288 0.208460 0.143275
0.083587 0.175202 0.147190
0.092136 0.175940 0.149724
0.100685 0.176678 0.152258
0.109234 0.177416 0.154792
0.117783 0.178154 0.157326
0.126331 0.178892 0.159860
0.162323 0.181633 0.161830
0.203803 0.184775 0.163687
0.245283 0.187918 0.165544
0.286763 0.191060 0.167401
0.328243 0.194202 0.169258
0.380389 0.198053 0.169799
0.437869 0.202258 0.169684
0.495349 0.206463 0.169568
0.552829 0.210668 0.169452
0.610309 0.214873 0.169336
0.655450 0.217892 0.168439
0.688253 0.219725 0.166762
0.721056 0.221557 0.165085
0.753859 0.223390 0.163408
0.786662 0.225223 0.161731
0.812610 0.226564 0.160128
0.824845 0.226922 0.158671
0.837081 0.227281 0.157215
0.849316 0.227639 0.155759
0.861551 0.227997 0.154303
0.872056 0.228168 0.152910
0.873905 0.227399 0.151831
0.875755 0.226631 0.150751
0.877604 0.225862 0.149672
0.879454 0.225094 0.148592
0.881303 0.224325 0.147513
0.094222 0.202001 0.162645
0.102423 0.202547 0.164987
0.110624 0.203093 0.167329
0.118825 0.203638 0.169671
0.127027 0.204184 0.172013
0.135228 0.204730 0.174355
0.165802 0.206517 0.176117
0.200851 0.208553 0.177764
0.235900 0.210588 0.179410
0.270949 0.212623 0.181057
0.305998 0.214659 0.182704
0.356043 0.218934 0.183310
0.413587 0.224328 0.183395
0.471131 0.229722 0.183480
0.528675 0.235116 0.183566
0.586219 0.240511 0.183651
0.632641 0.243891 0.182416
0.667942 0.245257 0.179861
0.703242 0.246623 0.177305
0.738543 0.247989 0.174750
0.773843 0.249355 0.172195
0.801907 0.250150 0.169802
0.815496 0.249804 0.167733
0.829085 0.249458 0.165664
0.842675 0.249112 0.163595
0.856264 0.248766 0.161526
0.867954 0.248281 0.159576
0.870152 0.247101 0.158222
0.872349 0.245921 0.156868
0.874546 0.244741 0.155514
0.876743 0.243561 0.154160
0.878940 0.242381 0.152806
0.104856 0.228800 0.178101
0.112710 0.229154 0.180251
0.120564 0.229507 0.182400
0.128417 0.229861 0.184550
0.136271 0.230215 0.186700
0.144124 0.230568 0.188850
0.169281 0.231401 0.190405
0.197899 0.232330 0.191841
0.226517 0.233258 0.193277
0.255135 0.234187 0.194713
0.283753 0.235115 0.196150
0.331698 0.239814 0.196820
0.389306 0.246397 0.197106
0.446913 0.252981 0.197393
0.504521 0.259564 0.197679
0.562129 0.266148 0.197966
0.609832 0.269889 0.196393
0.647630 0.270789 0.192959
0.685428 0.271688 0.189526
0.723226 0.272588 0.186092
0.761024 0.273488 0.182658
0.791203 0.273737 0.179475
0.806147 0.272687 0.176794
0.821090 0.271636 0.174112
0.836033 0.270586 0.171430
0.850976 0.269535 0.168748
0.863853 0.268394 0.166242
0.866398 0.266803 0.164613
0.868942 0.265211 0.162985
0.871487 0.263619 0.161357
0.874032 0.262027 0.159728
0.876576 0.260436 0.158100
0.115491 0.255599 0.193556
0.122997 0.255760 0.195514
0.130503 0.255922 0.197472
0.138009 0.256084 0.199429
0.145515 0.256245 0.201387
0.153021 0.256407 0.203345
0.172761 0.256285 0.204692
0.194948 0.256107 0.205918
0.217134 0.255928 0.207144
0.239321 0.255750 0.208370
0.261508 0.255572 0.209596
0.307352 0.260694 0.210330
0.365024 0.268467 0.210817
0.422696 0.276240 0.211305
0.480368 0.284012 0.211793
0.538039 0.291785 0.212281
0.587023 0.295888 0.210369
0.627318 0.296321 0.206057
0.667614 0.296754 0.201746
0.707909 0.297187 0.197434
0.748204 0.297620 0.193122
0.780500 0.297324 0.189149
0.796797 0.295569 0.185855
0.813095 0.293814 0.182560
0.829392 0.292059 0.179265
0.845689 0.290304 0.175970
0.859752 0.288508 0.172907
0.862644 0.286504 0.171005
0.865536 0.284501 0.169102
0.868429 0.282498 0.167199
0.871321 0.280494 0.165296
0.874213 0.278491 0.163394
0.126125 0.282398 0.209012
0.133284 0.282367 0.210777
0.140442 0.282337 0.212543
0.147600 0.282306 0.214308
0.154759 0.282276 0.216074
0.161917 0.282245 0.217840
0.176240 0.281169 0.218980
0.191996 0.279884 0.219995
0.207752 0.278599 0.221011
0.223508 0.277313 0.222026
0.239263 0.276028 0.223042
0.283006 0.281574 0.223840
0.340742 0.290536 0.224529
0.398478 0.299498 0.225218
0.456214 0.308460 0.225907
0.513950 0.317422 0.226596
0.564214 0.321886 0.224346
0.607007 0.321853 0.219156
0.649800 0.321819 0.213966
0.692592 0.321786 0.208776
0.735385 0.321752 0.203586
0.769797 0.320910 0.198823
0.787448 0.318451 0.194916
0.805099 0.315992 0.191008
0.822750 0.313532 0.187100
0.840401 0.311073 0.183193
0.855650 0.308621 0.179573
0.858890 0.306206 0.177396
0.862130 0.303791 0.175219
0.865370 0.301376 0.173042
0.868610 0.298961 0.170864
0.871850 0.296546 0.168687
0.136350 0.307054 0.223554
0.143082 0.306990 0.225200
0.149813 0.306926 0.226847
0.156545 0.306862 0.228493
0.163276 0.306798 0.230140
0.170007 0.306734 0.231787
0.182839 0.305812 0.233174
0.196890 0.304719 0.234510
0.210941 0.303626 0.235845
0.224993 0.302533 0.237181
0.239044 0.301440 0.238517
0.278736 0.306281 0.239389
0.331248 0.314091 0.240029
0.383761 0.321900 0.240669
0.436273 0.329709 0.241310
0.488786 0.337519 0.241950
0.536961 0.341966 0.239983
0.580800 0.343052 0.235409
0.624639 0.344137 0.230835
0.668477 0.345223 0.226261
0.712316 0.346308 0.221687
0.748053 0.346278 0.217198
0.767589 0.344017 0.212879
0.787124 0.341756 0.208559
0.806660 0.339495 0.204240
0.826195 0.337234 0.199921
0.843132 0.334928 0.195920
0.847073 0.332394 0.193511
0.851014 0.329860 0.191102
0.854956 0.327326 0.188693
0.858897 0.324792 0.186284
0.862838 0.322258 0.183875
0.146370 0.330639 0.237638
0.152635 0.330621 0.239203
0.158900 0.330603 0.240767
0.165165 0.330584 0.242331
0.171430 0.330566 0.243896
0.177695 0.330548 0.245460
0.190997 0.330335 0.247321
0.205707 0.330084 0.249243
0.220417 0.329832 0.251164
0.235127 0.329580 0.253085
0.249837 0.329329 0.255006
0.284504 0.332902 0.255957
0.329149 0.338388 0.256424
0.373794 0.343874 0.256890
0.418439 0.349359 0.257357
0.463084 0.354845 0.257823
0.507486 0.359087 0.256451
0.551645 0.362084 0.253240
0.595804 0.365082 0.250029
0.639963 0.368079 0.246818
0.684122 0.371077 0.243607
0.720789 0.372538 0.239923
0.742475 0.370926 0.235293
0.764160 0.369315 0.230663
0.785845 0.367703 0.226032
0.807531 0.366091 0.221402
0.826405 0.364331 0.217106
0.831224 0.361824 0.214487
0.836044 0.359318 0.211868
0.840863 0.356811 0.209248
0.845683 0.354305 0.206629
0.850502 0.351798 0.204010
0.156391 0.354224 0.251723
0.162189 0.354252 0.253205
0.167987 0.354279 0.254687
0.173785 0.354307 0.256169
0.179584 0.354334 0.257651
0.185382 0.354361 0.259133
0.199156 0.354858 0.261469
0.214524 0.355448 0.263975
0.229893 0.356038 0.266482
0.245261 0.356628 0.268988
0.260630 0.357218 0.271495
0.290272 0.359523 0.272526
0.327049 0.362685 0.272818
0.363827 0.365847 0.273111
0.400605 0.369009 0.273404
0.437383 0.372171 0.273697
0.478012 0.376207 0.272919
0.522491 0.381117 0.271071
0.566970 0.386026 0.269223
0.611449 0.390935 0.267375
0.655928 0.395845 0.265527
0.693525 0.398797 0.262648
0.717360 0.397835 0.257707
0.741196 0.396873 0.252766
0.765031 0.395911 0.247824
0.788866 0.394949 0.242883
0.809678 0.393734 0.238293
0.815375 0.391255 0.235463
0.821073 0.388776 0.232634
0.826771 0.386297 0.229804
0.832468 0.383817 0.226974
0.838166 0.381338 0.224144
0.166411 0.377809 0.265808
0.171742 0.377882 0.267208
0.177074 0.377956 0.268607
0.182406 0.378029 0.270007
0.187738 0.378102 0.271407
0.193069 0.378175 0.272806
0.207314 0.379380 0.275616
0.223341 0.380812 0.278708
0.239369 0.382244 0.281800
0.255396 0.383675 0.284892
0.271423 0.385107 0.287984
0.296039 0.386143 0.289094
0.324950 0.386982 0.289213
0.353861 0.387820 0.289332
0.382771 0.388659 0.289451
0.411682 0.389498 0.289570
0.448537 0.393328 0.289387
0.493336 0.400149 0.288902
0.538135 0.406970 0.288417
0.582934 0.413792 0.287932
0.627734 0.420613 0.287448
0.666261 0.425056 0.285374
0.692246 0.424744 0.280121
0.718231 0.424431 0.274869
0.744216 0.424119 0.269616
0.770201 0.423806 0.264364
0.792951 0.423137 0.259480
0.799527 0.420685 0.256440
0.806102 0.418234 0.253400
0.812678 0.415782 0.250359
0.819254 0.413330 0.247319
0.825830 0.410879 0.244279
0.176431 0.401394 0.279893
0.181296 0.401513 0.281210
0.186161 0.401632 0.282527
0.191026 0.401751 0.283845
0.195892 0.401870 0.285162
0.200757 0.401989 0.286479
0.215473 0.403903 0.289764
0.232158 0.406176 0.293441
0.248844 0.408450 0.297119
0.265530 0.410723 0.300796
0.282216 0.412996 0.304473
0.301807 0.412764 0.305663
0.322851 0.411279 0.305608
0.343894 0.409794 0.305553
0.364937 0.408309 0.305498
0.385981 0.406824 0.305443
0.419062 0.410448 0.305855
0.464181 0.419181 0.306733
0.509301 0.427915 0.307611
0.554420 0.436648 0.308489
0.599540 0.445381 0.309368
0.638997 0.451316 0.308099
0.667132 0.451653 0.302535
0.695267 0.451989 0.296972
0.723401 0.452326 0.291408
0.751536 0.452663 0.285845
0.776224 0.452540 0.280667
0.783678 0.450116 0.277416
0.791132 0.447692 0.274165
0.798586 0.445268 0.270915
0.806040 0.442843 0.267664
0.813494 0.440419 0.264414
0.185411 0.420726 0.291662
0.189901 0.420904 0.292906
0.194391 0.421082 0.294150
0.198881 0.421261 0.295394
0.203372 0.421439 0.296638
0.207862 0.421617 0.297882
0.222625 0.423991 0.301467
0.239444 0.426804 0.305519
0.256263 0.429617 0.309572
0.273081 0.432430 0.313625
0.289900 0.435243 0.317677
0.307132 0.434755 0.319186
0.324571 0.432616 0.319424
0.342010 0.430477 0.319662
0.359449 0.428338 0.319900
0.376888 0.426199 0.320138
0.406923 0.429450 0.320993
0.449555 0.438092 0.322466
0.492186 0.446733 0.323939
0.534817 0.455375 0.325412
0.577448 0.464017 0.326885
0.615456 0.470192 0.326250
0.644217 0.471435 0.321400
0.672978 0.472678 0.316550
0.701740 0.473920 0.311700
0.730501 0.475163 0.306850
0.755852 0.475865 0.302296
0.764152 0.473866 0.299224
0.772452 0.471868 0.296152
0.780753 0.469869 0.293080
0.789053 0.467870 0.290007
0.797353 0.465871 0.286935
0.193351 0.435803 0.301115
0.197558 0.436054 0.302295
0.201765 0.436306 0.303475
0.205971 0.436558 0.304655
0.210178 0.436809 0.305835
0.214384 0.437061 0.307015
0.228773 0.439645 0.310726
0.245198 0.442696 0.314943
0.261623 0.445747 0.319161
0.278049 0.448798 0.323378
0.294474 0.451848 0.327595
0.312014 0.452116 0.329666
0.330112 0.450993 0.330663
0.348209 0.449869 0.331660
0.366307 0.448745 0.332657
0.384405 0.447622 0.333654
0.412121 0.450333 0.334802
0.449456 0.456880 0.336101
0.486790 0.463427 0.337400
0.524124 0.469974 0.338699
0.561459 0.476521 0.339998
0.595637 0.481687 0.339827
0.623501 0.484091 0.336715
0.651366 0.486496 0.333603
0.679231 0.488900 0.330491
0.707096 0.491304 0.327380
0.731835 0.493112 0.324369
0.740950 0.491937 0.321864
0.750064 0.490761 0.319359
0.759179 0.489586 0.316854
0.768293 0.488410 0.314349
0.777408 0.487235 0.311844
0.201292 0.450880 0.310568
0.205215 0.451205 0.311684
0.209138 0.451530 0.312800
0.213061 0.451855 0.313916
0.216984 0.452179 0.315032
0.220907 0.452504 0.316148
0.234920 0.455299 0.319985
0.250952 0.458587 0.324367
0.266984 0.461876 0.328749
0.283016 0.465165 0.333131
0.299048 0.468454 0.337513
0.316896 0.469478 0.340145
0.335652 0.469369 0.341901
0.354409 0.469261 0.343657
0.373165 0.469153 0.345414
0.391922 0.469045 0.347170
0.417319 0.471217 0.348611
0.449356 0.475669 0.349736
0.481394 0.480121 0.350861
0.513432 0.484573 0.351987
0.545470 0.489025 0.353112
0.575818 0.493181 0.353404
0.602786 0.496748 0.352030
0.629754 0.500314 0.350657
0.656722 0.503880 0.349283
0.683691 0.507446 0.347909
0.707819 0.510359 0.346441
0.717747 0.510007 0.344504
0.727676 0.509655 0.342566
0.737605 0.509303 0.340628
0.747533 0.508950 0.338690
0.757462 0.508598 0.336752
0.209232 0.465958 0.320020
0.212872 0.466356 0.321072
0.216511 0.466754 0.322125
0.220150 0.467152 0.323177
0.223790 0.467549 0.324229
0.227429 0.467947 0.325281
0.241068 0.470952 0.329245
0.256706 0.474479 0.333791
0.272345 0.478006 0.338338
0.287983 0.481532 0.342884
0.303622 0.485059 0.347431
0.321778 0.486839 0.350624
0.341193 0.487746 0.353139
0.360608 0.488653 0.355655
0.380023 0.489561 0.358171
0.399438 0.490468 0.360686
0.422516 0.492100 0.362420
0.449257 0.494457 0.363371
0.475998 0.496814 0.364323
0.502739 0.499171 0.365274
0.529481 0.501528 0.366225
0.555998 0.504676 0.366981
0.582070 0.509404 0.367346
0.608142 0.514132 0.367710
0.634214 0.518860 0.368074
0.660285 0.523588 0.368439
0.683802 0.527606 0.368514
0.694545 0.528077 0.367143
0.705288 0.528548 0.365773
0.716031 0.529020 0.364402
0.726773 0.529491 0.363031
0.737516 0.529962 0.361661
0.217173 0.481035 0.329473
0.220529 0.481506 0.330461
0.223884 0.481977 0.331449
0.227240 0.482448 0.332437
0.230596 0.482920 0.333425
0.233952 0.483391 0.334413
0.247215 0.486606 0.338504
0.262460 0.490371 0.343215
0.277705 0.494135 0.347926
0.292951 0.497899 0.352638
0.308196 0.501664 0.357349
0.326660 0.504200 0.361103
0.346734 0.506123 0.364378
0.366807 0.508046 0.367652
0.386881 0.509968 0.370927
0.406955 0.511891 0.374202
0.427714 0.512983 0.376229
0.449158 0.513245 0.377006
0.470603 0.513508 0.377784
0.492047 0.513770 0.378561
0.513491 0.514032 0.379339
0.536179 0.516170 0.380558
0.561355 0.522060 0.382661
0.586530 0.527950 0.384763
0.611705 0.533840 0.386866
0.636880 0.539729 0.388968
0.659786 0.544853 0.390586
0.671343 0.546148 0.389783
0.682900 0.547442 0.388979
0.694457 0.548736 0.388176
0.706014 0.550031 0.387372
0.717571 0.551325 0.386569
0.224987 0.494364 0.338013
0.228123 0.494896 0.338949
0.231260 0.495428 0.339885
0.234396 0.495960 0.340821
0.237532 0.496492 0.341757
0.240668 0.497024 0.342693
0.253512 0.500357 0.346844
0.268296 0.504249 0.351637
0.283081 0.508142 0.356431
0.297866 0.512034 0.361225
0.312650 0.515927 0.366018
0.331164 0.518977 0.370175
0.351543 0.521607 0.374014
0.371922 0.524237 0.377854
0.392300 0.526867 0.381693
0.412679 0.529498 0.385532
0.431851 0.530323 0.387842
0.449816 0.529344 0.388622
0.467781 0.528365 0.389403
0.485746 0.527387 0.390183
0.503711 0.526408 0.390964
0.523637 0.527839 0.392521
0.547486 0.534092 0.395630
0.571335 0.540345 0.398738
0.595184 0.546597 0.401847
0.619033 0.552850 0.404956
0.640897 0.558384 0.407524
0.652842 0.560321 0.407392
0.664786 0.562259 0.407259
0.676730 0.564197 0.407127
0.688674 0.566135 0.406994
0.700618 0.568073 0.406861
0.232550 0.504195 0.344724
0.235594 0.504763 0.345633
0.238639 0.505332 0.346541
0.241684 0.505901 0.347450
0.244729 0.506470 0.348359
0.247773 0.507038 0.349268
0.260106 0.510300 0.353345
0.274296 0.514101 0.358056
0.288486 0.517902 0.362767
0.302676 0.521703 0.367479
0.316866 0.525504 0.372190
0.334913 0.528586 0.376436
0.354890 0.531307 0.380448
0.374866 0.534029 0.384461
0.394842 0.536750 0.388474
0.414818 0.539472 0.392487
0.433866 0.540577 0.395062
0.451987 0.540064 0.396200
0.470108 0.539552 0.397337
0.488228 0.539040 0.398475
0.506349 0.538527 0.399612
0.525650 0.539858 0.401254
0.547312 0.544876 0.403905
0.568975 0.549894 0.406557
0.590637 0.554911 0.409208
0.612300 0.559929 0.411860
0.632265 0.564481 0.414193
0.643742 0.566702 0.414939
0.655220 0.568924 0.415684
0.666698 0.571145 0.416430
0.678175 0.573366 0.417176
0.689653 0.575588 0.417921
0.240112 0.514026 0.351436
0.243065 0.514631 0.352317
0.246018 0.515236 0.353198
0.248972 0.515842 0.354079
0.251925 0.516447 0.354961
0.254878 0.517052 0.355842
0.266700 0.520244 0.359846
0.280295 0.523954 0.364475
0.293891 0.527663 0.369104
0.307486 0.531373 0.373733
0.321082 0.535082 0.378362
0.338663 0.538194 0.382696
0.358236 0.541007 0.386883
0.377810 0.543820 0.391069
0.397383 0.546633 0.395256
0.416957 0.549446 0.399443
0.435882 0.550830 0.402283
0.454158 0.550784 0.403777
0.472434 0.550738 0.405272
0.490710 0.550693 0.406766
0.508986 0.550647 0.408260
0.527663 0.551877 0.409987
0.547139 0.555660 0.412181
0.566615 0.559443 0.414375
0.586091 0.563225 0.416569
0.605567 0.567008 0.418763
0.623632 0.570578 0.420862
0.634643 0.573083 0.422486
0.645654 0.575588 0.424110
0.656665 0.578093 0.425734
0.667677 0.580598 0.427357
0.678688 0.583103 0.428981
0.247674 0.523857 0.358147
0.250536 0.524499 0.359001
0.253398 0.525141 0.359855
0.256260 0.525782 0.360709
0.259121 0.526424 0.361562
0.261983 0.527066 0.362416
0.273294 0.530188 0.366347
0.286295 0.533806 0.370894
0.299296 0.537424 0.375440
0.312297 0.541042 0.379987
0.325297 0.544660 0.384534
0.342412 0.547803 0.388956
0.361583 0.550707 0.393317
0.380754 0.553612 0.397677
0.399925 0.556516 0.402038
0.419096 0.559421 0.406398
0.437898 0.561083 0.409504
0.456329 0.561504 0.411355
0.474761 0.561925 0.413206
0.493193 0.562346 0.415057
0.511624 0.562766 0.416908
0.529675 0.563896 0.418721
0.546965 0.566444 0.420457
0.564255 0.568992 0.422194
0.581544 0.571539 0.423930
0.598834 0.574087 0.425667
0.614999 0.576675 0.427531
0.625544 0.579464 0.430033
0.636089 0.582252 0.432535
0.646633 0.585041 0.435037
0.657178 0.587829 0.437539
0.667722 0.590618 0.440041
0.255237 0.533688 0.364859
0.258007 0.534366 0.365685
0.260777 0.535045 0.366512
0.263547 0.535723 0.367338
0.266318 0.536402 0.368164
0.269088 0.537080 0.368991
0.279888 0.540132 0.372849
0.292294 0.543659 0.377313
0.304701 0.547185 0.381777
0.317107 0.550712 0.386241
0.329513 0.554238 0.390705
0.346161 0.557411 0.395216
0.364929 0.560407 0.399751
0.383698 0.563403 0.404285
0.402467 0.566399 0.408819
0.421235 0.569395 0.413354
0.439913 0.571337 0.416725
0.458500 0.572224 0.418933
0.477087 0.573111 0.421140
0.495675 0.573999 0.423348
0.514262 0.574886 0.425556
0.531688 0.575915 0.427454
0.546791 0.577228 0.428733
0.561894 0.578541 0.430012
0.576998 0.579853 0.431291
0.592101 0.581166 0.432571
0.606367 0.582772 0.434200
0.616445 0.585844 0.437580
0.626523 0.588916 0.440960
0.636601 0.591989 0.444341
0.646679 0.595061 0.447721
0.656757 0.598133 0.451101
0.262310 0.542566 0.370987
0.265003 0.543307 0.371800
0.267696 0.544048 0.372613
0.270388 0.544789 0.373425
0.273081 0.545530 0.374238
0.275773 0.546271 0.375051
0.286098 0.549246 0.378833
0.297949 0.552669 0.383208
0.309800 0.556092 0.387584
0.321652 0.559515 0.391960
0.333503 0.562938 0.396336
0.349713 0.566136 0.400924
0.368102 0.569222 0.405618
0.386490 0.572308 0.410313
0.404879 0.575394 0.415007
0.423268 0.578480 0.419702
0.441807 0.580681 0.423320
0.460495 0.581997 0.425864
0.479182 0.583312 0.428407
0.497870 0.584628 0.430950
0.516558 0.585944 0.433493
0.533456 0.586924 0.435504
0.546774 0.587232 0.436449
0.560092 0.587540 0.437394
0.573410 0.587848 0.438339
0.586728 0.588156 0.439285
0.599430 0.588950 0.440739
0.609052 0.592176 0.444736
0.618674 0.595402 0.448734
0.628296 0.598629 0.452732
0.637918 0.601855 0.456729
0.647540 0.605081 0.460727
0.266942 0.546678 0.374201
0.269626 0.547611 0.375069
0.272309 0.548544 0.375936
0.274993 0.549477 0.376804
0.277676 0.550410 0.377672
0.280359 0.551343 0.378539
0.290385 0.554214 0.382231
0.301880 0.557472 0.386488
0.313374 0.560730 0.390745
0.324869 0.563988 0.395002
0.336363 0.567247 0.399259
0.352277 0.570445 0.403868
0.370401 0.573613 0.408654
0.388524 0.576781 0.413440
0.406648 0.579950 0.418226
0.424772 0.583118 0.423012
0.443091 0.585479 0.426791
0.461605 0.587032 0.429562
0.480119 0.588586 0.432334
0.498633 0.590140 0.435106
0.517146 0.591693 0.437878
0.534002 0.592881 0.440135
