app/src/main/assets/cube/Kabukicho05.cube
# LUT by SparkleStock. Enhanced with VOXCOLOR algorithms.
LUT_3D_SIZE 8
DOMAIN_MIN 0.000000 0.000000 0.000000
DOMAIN_MAX 0.903226 0.903226 0.903226
0.031258 0.042979 0.062515
0.089299 0.048840 0.069510
0.256079 0.058049 0.078246
0.465587 0.066824 0.082343
0.658001 0.072661 0.079011
0.750829 0.075686 0.076175
0.786624 0.077293 0.075072
0.799338 0.078002 0.074520
0.046382 0.106881 0.090118
0.072369 0.108643 0.101065
0.206473 0.114480 0.103489
0.407504 0.116278 0.098144
0.624709 0.110040 0.087274
0.735540 0.103551 0.079462
0.780312 0.099791 0.076676
0.796948 0.096993 0.075179
0.070479 0.199039 0.143164
0.085043 0.198362 0.152672
0.154815 0.196830 0.155951
0.310684 0.199583 0.151170
0.544036 0.205387 0.137376
0.698789 0.187103 0.114323
0.766881 0.171376 0.101058
0.793961 0.160022 0.093709
0.097562 0.298578 0.205034
0.108954 0.297425 0.211980
0.134032 0.295115 0.220939
0.230173 0.299720 0.223521
0.419517 0.312007 0.213955
0.620084 0.305628 0.189975
0.726863 0.286894 0.164480
0.775693 0.270027 0.147431
0.122659 0.387955 0.262578
0.130758 0.388120 0.268628
0.156496 0.395641 0.285102
0.201156 0.400205 0.298486
0.281637 0.400824 0.300986
0.498579 0.432501 0.299638
0.649878 0.428449 0.269896
0.730731 0.415871 0.244461
0.140809 0.447887 0.306062
0.147152 0.449369 0.312112
0.170821 0.460281 0.330555
0.216458 0.474761 0.352575
0.288724 0.488462 0.370535
0.402037 0.499793 0.375042
0.545945 0.519795 0.378598
0.646265 0.529922 0.371892
0.157383 0.489070 0.341353
0.162457 0.491625 0.347280
0.183597 0.502661 0.365153
0.226764 0.519038 0.388968
0.295785 0.537510 0.412813
0.394754 0.552525 0.426833
0.507425 0.568363 0.435126
0.595473 0.581757 0.440949
0.169546 0.516980 0.366198
0.173766 0.519529 0.371821
0.192994 0.529621 0.388568
0.233873 0.545868 0.412809
0.301071 0.566301 0.440268
0.400857 0.586158 0.461680
0.499469 0.600237 0.472354
0.577695 0.612314 0.481180
0.061507 0.100264 0.145512
0.081931 0.093391 0.139334
0.190153 0.096915 0.153144
0.375779 0.099678 0.167632
0.604400 0.095251 0.169130
0.729722 0.089933 0.153707
0.777641 0.087710 0.143188
0.794917 0.086443 0.135757
0.059214 0.121719 0.135644
0.078519 0.128425 0.147356
0.171997 0.131325 0.155950
0.348786 0.126497 0.155341
0.585527 0.113465 0.142757
0.724773 0.103392 0.123943
0.779856 0.098673 0.112855
0.799571 0.095840 0.105867
0.074395 0.194239 0.166461
0.089374 0.196759 0.177027
0.146043 0.201540 0.189901
0.288161 0.205199 0.190534
0.518147 0.203065 0.170850
0.694024 0.180499 0.138222
0.769945 0.162763 0.118412
0.799026 0.150832 0.107501
0.098562 0.290180 0.217987
0.108500 0.285973 0.222176
0.138418 0.293858 0.241144
0.232249 0.305174 0.250836
0.409095 0.311747 0.236410
0.621323 0.300311 0.203695
0.732600 0.277111 0.171779
0.782384 0.257634 0.151610
0.124245 0.384937 0.273098
0.130309 0.381083 0.274960
0.159814 0.392158 0.296651
0.207783 0.401977 0.316393
0.287919 0.405096 0.320124
0.506862 0.433869 0.310877
0.659196 0.423963 0.272846
0.740068 0.406648 0.242513
0.142980 0.447942 0.314533
0.147401 0.447219 0.316848
0.173266 0.460207 0.338232
0.221550 0.477487 0.364297
0.294519 0.492172 0.383530
0.407115 0.501959 0.386030
0.553303 0.520205 0.384074
0.654823 0.527418 0.371922
0.158920 0.489393 0.347530
0.162091 0.490329 0.349705
0.183693 0.502407 0.368506
0.228303 0.520577 0.395012
0.298604 0.540124 0.420940
0.397629 0.554577 0.434408
0.510947 0.570018 0.440249
0.599676 0.581974 0.442840
0.170680 0.517169 0.371461
0.172936 0.518684 0.372910
0.191364 0.528902 0.389363
0.232241 0.545958 0.415149
0.299926 0.567386 0.444181
0.400505 0.587526 0.464994
0.499733 0.601652 0.475206
0.578615 0.613236 0.483304
0.094836 0.165450 0.250069
0.104289 0.155277 0.239323
0.162017 0.152491 0.245222
0.292078 0.154623 0.266283
0.490801 0.156948 0.294021
0.656080 0.142250 0.287056
0.728599 0.131964 0.271492
0.758524 0.125196 0.257096
0.088085 0.173902 0.227717
0.102633 0.176525 0.231944
0.154291 0.176732 0.237788
0.277653 0.173970 0.248504
0.477916 0.166485 0.261505
0.663555 0.145291 0.249285
0.746388 0.131152 0.230882
0.779078 0.122507 0.215598
0.089831 0.213268 0.226408
0.102724 0.214409 0.232085
0.144499 0.225647 0.249935
0.255988 0.233334 0.264375
0.450787 0.226228 0.262579
0.662126 0.191139 0.229687
0.758527 0.165927 0.200602
0.796418 0.150157 0.181020
0.103429 0.284556 0.252488
0.111805 0.280049 0.253853
0.145940 0.297499 0.279877
0.233767 0.315415 0.302541
0.391972 0.317521 0.300601
0.620562 0.292968 0.258857
0.741578 0.262065 0.215806
0.794840 0.238605 0.187144
0.128051 0.378898 0.303106
0.132204 0.372077 0.300542
0.163726 0.385100 0.322620
0.219056 0.404464 0.351281
0.309974 0.421308 0.368960
0.527130 0.438465 0.344687
0.681023 0.417052 0.293777
0.761682 0.392064 0.254856
0.147994 0.446532 0.341972
0.150777 0.443932 0.340074
0.177532 0.457748 0.359614
0.233145 0.481115 0.391341
0.318727 0.505952 0.423140
0.428020 0.513751 0.422527
0.577482 0.526233 0.407056
0.679898 0.527221 0.382733
0.163230 0.489548 0.370085
0.165211 0.489540 0.368723
0.186350 0.501751 0.384126
0.236454 0.523974 0.413613
0.318544 0.551456 0.450046
0.417984 0.566949 0.464731
0.530968 0.579989 0.464319
0.618719 0.588131 0.458610
0.174268 0.517928 0.389645
0.175450 0.518777 0.388194
0.192000 0.528786 0.400650
0.235742 0.548378 0.427145
0.312474 0.575389 0.463424
0.415669 0.597391 0.486697
0.514014 0.610989 0.495497
0.591986 0.620810 0.499864
0.125417 0.223963 0.347907
0.135479 0.216450 0.339917
0.166083 0.210940 0.340011
0.244916 0.212167 0.359360
0.384589 0.219530 0.398032
0.560395 0.211919 0.415877
0.653625 0.198605 0.406735
0.696883 0.187957 0.392493
0.119848 0.233001 0.328421
0.132551 0.233156 0.328898
0.160382 0.232722 0.332236
0.234990 0.232821 0.347994
0.374627 0.231770 0.377059
0.572114 0.215084 0.389101
0.680380 0.195285 0.375762
0.729001 0.181021 0.358968
0.113818 0.251526 0.309321
0.124584 0.251305 0.311156
0.157850 0.265700 0.329947
0.236607 0.277014 0.353005
0.376685 0.271779 0.368646
0.590974 0.239878 0.358973
0.711863 0.208445 0.333901
0.765916 0.187113 0.311807
0.116687 0.296646 0.311050
0.123311 0.292271 0.309966
0.159284 0.313472 0.337067
0.235853 0.336789 0.369042
0.365451 0.343396 0.385555
0.586851 0.315492 0.359775
0.725374 0.275037 0.317497
0.790853 0.244505 0.284706
0.132962 0.372928 0.342763
0.135449 0.364856 0.337561
0.165683 0.377242 0.356512
0.228330 0.405778 0.392579
0.334696 0.440649 0.430262
0.541420 0.444143 0.408994
0.701987 0.406759 0.352179
0.787032 0.370659 0.305732
0.154002 0.444977 0.381776
0.155555 0.440975 0.377306
0.180740 0.453174 0.392160
0.243239 0.481530 0.426624
0.346068 0.519669 0.472103
0.460907 0.533304 0.480481
0.615527 0.537275 0.451062
0.718640 0.527988 0.412025
0.169056 0.490304 0.406153
0.170327 0.489577 0.402583
0.189834 0.500604 0.413183
0.245509 0.526379 0.443088
0.343308 0.564134 0.488945
0.455152 0.588643 0.514454
0.568416 0.598844 0.507804
0.653610 0.600997 0.490977
0.179642 0.519723 0.421166
0.180390 0.520104 0.417923
0.194695 0.529307 0.425561
0.241589 0.551464 0.450744
0.330333 0.586041 0.492945
0.447368 0.616207 0.526232
0.545508 0.630181 0.534813
0.620939 0.637532 0.533495
0.149025 0.265745 0.418945
0.160241 0.263428 0.418421
0.191530 0.260523 0.422933
0.246821 0.258034 0.432800
0.332064 0.258936 0.451258
0.472778 0.277122 0.497699
0.571275 0.271569 0.507564
0.622191 0.262874 0.503800
0.144884 0.277107 0.408681
0.158583 0.282075 0.415277
0.188209 0.283883 0.421809
0.240691 0.283324 0.431313
0.325504 0.282719 0.448760
0.476922 0.292255 0.492444
0.593193 0.278965 0.499976
0.653390 0.264777 0.493372
0.141434 0.299497 0.397428
0.151617 0.300828 0.400916
0.186133 0.314052 0.418307
0.242389 0.326588 0.438482
0.326408 0.330073 0.456678
0.489901 0.324930 0.489829
0.627532 0.295897 0.488532
0.700343 0.271446 0.476609
0.138782 0.330746 0.387716
0.143806 0.326007 0.385657
0.178670 0.343675 0.408004
0.241123 0.370260 0.440588
0.336539 0.391518 0.471686
0.512750 0.378511 0.490545
0.670023 0.333161 0.470125
0.755028 0.295634 0.444999
0.139595 0.372384 0.386586
0.141044 0.365180 0.381895
0.166758 0.374646 0.396283
0.233961 0.408461 0.435376
0.354048 0.458966 0.491332
0.535634 0.454934 0.500203
0.705172 0.404356 0.455075
0.799862 0.357376 0.409540
0.159629 0.444434 0.426422
0.160469 0.439756 0.422166
0.181500 0.447871 0.431677
0.246176 0.476913 0.463480
0.362896 0.525465 0.515980
0.497682 0.557142 0.550447
0.659180 0.552286 0.516187
0.763546 0.529546 0.467064
0.175125 0.491987 0.450524
0.175949 0.490527 0.446694
0.192772 0.499142 0.453445
0.250583 0.525773 0.479891
0.361008 0.571574 0.527821
0.502603 0.615659 0.575804
0.619482 0.624831 0.568278
0.702463 0.619997 0.541824
0.185897 0.522679 0.463557
0.186593 0.522676 0.459590
0.198916 0.530530 0.463873
0.246946 0.553787 0.485430
0.345094 0.594878 0.527712
0.491062 0.641540 0.579079
0.593361 0.659134 0.591475
0.666450 0.664671 0.584790
0.163205 0.287676 0.455244
0.173395 0.287993 0.458086
0.203557 0.287308 0.465551
0.258774 0.285831 0.477345
0.340816 0.285251 0.493918
0.445670 0.294655 0.520160
0.529773 0.305935 0.542393
0.574555 0.309919 0.551248
0.159210 0.299184 0.449079
0.173017 0.307693 0.460967
0.202649 0.312788 0.472217
0.255813 0.314233 0.484545
0.337056 0.313265 0.500080
0.448081 0.317419 0.524925
0.543443 0.324833 0.546657
0.595687 0.325387 0.554290
0.157151 0.323172 0.444723
0.167853 0.327826 0.454066
0.202159 0.342518 0.474585
0.259987 0.355943 0.496081
0.341612 0.360997 0.513028
0.454561 0.360372 0.533676
0.566507 0.359741 0.553254
0.631671 0.352996 0.559308
0.156097 0.356495 0.442269
0.162036 0.354825 0.445592
0.195937 0.372381 0.469064
0.260869 0.398631 0.500873
0.355947 0.422726 0.531016
0.470755 0.424125 0.549110
0.600517 0.411555 0.562412
0.680725 0.392289 0.563069
0.156415 0.396980 0.443626
0.159304 0.392888 0.443030
0.183214 0.402314 0.457755
0.252452 0.435101 0.494376
0.373325 0.487623 0.548449
0.496255 0.503931 0.571939
0.642848 0.480536 0.574758
0.737962 0.446153 0.563922
0.164301 0.446489 0.460337
0.165220 0.442883 0.457795
0.182847 0.448599 0.465906
0.239973 0.472182 0.492442
0.349717 0.517086 0.540000
0.508115 0.573750 0.597130
0.674072 0.568616 0.593745
0.784306 0.536499 0.564712
0.179235 0.493578 0.486683
0.179630 0.491812 0.484076
0.194104 0.498668 0.489979
0.245615 0.521306 0.512117
0.351052 0.564333 0.555209
0.527799 0.630213 0.620208
0.661683 0.647247 0.633881
0.753623 0.640158 0.615368
0.190734 0.525923 0.503467
0.191335 0.525657 0.500548
0.202787 0.532847 0.504802
0.246611 0.553636 0.522977
0.341376 0.592983 0.560344
0.519276 0.659074 0.624577
0.643603 0.691800 0.653495
0.725427 0.701915 0.650692
0.169191 0.298105 0.470905
0.178724 0.298862 0.475284
0.207518 0.299151 0.483870
0.260955 0.298443 0.496321
0.340343 0.297510 0.512488
0.437635 0.302889 0.533779
0.517551 0.315327 0.554759
0.559282 0.322735 0.565229
0.166075 0.309394 0.467618
0.179885 0.319626 0.481930
0.208542 0.326071 0.494628
0.260304 0.328457 0.507652
0.339163 0.327617 0.522741
0.441209 0.328690 0.542578
0.528984 0.338128 0.563001
0.576407 0.343151 0.573164
0.164756 0.333405 0.467039
0.176201 0.340277 0.479534
0.209051 0.354994 0.500245
0.265624 0.368464 0.521635
0.346438 0.374638 0.539232
0.450797 0.373629 0.556781
0.548546 0.379814 0.576380
0.604426 0.381603 0.586230
0.164537 0.367337 0.468905
0.171649 0.368087 0.475726
0.203804 0.384762 0.498828
0.267591 0.409892 0.529664
0.362963 0.434671 0.560169
0.470504 0.438419 0.578285
0.577479 0.439399 0.595327
0.643042 0.434481 0.603122
0.165414 0.408301 0.473635
0.169396 0.406730 0.476392
0.192009 0.415943 0.492034
0.259979 0.446883 0.527378
0.380578 0.497722 0.579322
0.500240 0.518456 0.606365
0.615581 0.514469 0.619500
0.691533 0.499639 0.622432
0.170421 0.452589 0.485393
0.172208 0.450598 0.485714
0.188671 0.456812 0.495762
0.242279 0.479212 0.521933
0.349287 0.522658 0.567571
0.525305 0.587920 0.630729
0.658848 0.598736 0.646413
0.749270 0.582147 0.641895
0.182274 0.495496 0.508271
0.183608 0.495099 0.508587
0.196873 0.501764 0.515669
0.242920 0.521886 0.536027
0.340140 0.560902 0.574848
0.522439 0.628805 0.640086
0.665926 0.665378 0.675982
0.767897 0.669301 0.676673
0.192724 0.526652 0.525386
0.193947 0.527242 0.525191
0.204651 0.534047 0.530315
0.243867 0.552444 0.546713
0.330164 0.587641 0.579847
0.504880 0.651930 0.641113
0.662711 0.707461 0.692819
0.769250 0.729663 0.706135
0.171594 0.303163 0.478136
0.180699 0.303364 0.482100
0.208238 0.304049 0.490812
0.259644 0.303955 0.503395
0.336608 0.303161 0.519353
0.432949 0.307052 0.540168
0.511999 0.317910 0.559194
0.553676 0.325591 0.569028
0.168947 0.313921 0.475581
0.182651 0.324467 0.490282
0.210313 0.331226 0.503178
0.260291 0.333939 0.516227
0.336815 0.333301 0.531111
0.436810 0.333584 0.550070
0.522222 0.341902 0.568401
0.569027 0.347590 0.578407
0.167907 0.336952 0.475916
0.179939 0.345328 0.490507
0.211279 0.359614 0.510628
0.266097 0.372557 0.531292
0.346023 0.379105 0.549378
0.449522 0.377895 0.566405
0.541435 0.384821 0.583752
0.593414 0.389514 0.593816
0.167969 0.370494 0.479465
0.176168 0.373434 0.489415
0.206646 0.389363 0.511944
0.268401 0.413095 0.541508
0.363161 0.437324 0.571918
0.472340 0.440977 0.590065
0.569100 0.445863 0.605619
0.626339 0.447673 0.614858
0.169109 0.411976 0.486526
0.174210 0.412409 0.491998
0.195841 0.421530 0.508599
0.261139 0.450634 0.542882
0.378996 0.498768 0.592374
0.503511 0.519337 0.619949
0.604487 0.522924 0.634249
0.667956 0.519367 0.641841
0.173487 0.455538 0.498315
0.176516 0.455485 0.501114
0.192211 0.462157 0.512876
0.242061 0.483205 0.538866
0.344318 0.524350 0.582632
0.529812 0.592422 0.647559
0.647384 0.610895 0.671145
0.723225 0.607113 0.679541
0.183604 0.496199 0.518525
0.185827 0.496852 0.520651
0.197957 0.503331 0.528847
0.238574 0.521310 0.548367
0.326353 0.556394 0.584158
0.505071 0.622023 0.647375
0.660031 0.670563 0.695866
0.767940 0.686008 0.713733
0.194019 0.526680 0.536746
0.195473 0.527627 0.537874
0.205133 0.533984 0.543769
0.239713 0.550488 0.559328
0.316806 0.582016 0.589462
0.480387 0.641075 0.646150
0.660092 0.709286 0.710580
0.786013 0.744250 0.742202
