app/src/main/assets/cube/Kabukicho04.cube
# LUT by SparkleStock. Enhanced with VOXCOLOR algorithms.
LUT_3D_SIZE 8
DOMAIN_MIN 0.000000 0.000000 0.000000
DOMAIN_MAX 0.903226 0.903226 0.903226
0.046886 0.070330 0.093773
0.108898 0.066738 0.100012
0.272685 0.061137 0.106519
0.479483 0.055575 0.109670
0.674969 0.051629 0.107803
0.780464 0.050494 0.104778
0.824672 0.050148 0.103013
0.841569 0.050368 0.102013
0.067305 0.115515 0.123077
0.095798 0.116021 0.128730
0.225963 0.113481 0.128224
0.421967 0.105859 0.122385
0.638365 0.093331 0.112944
0.762595 0.084000 0.105674
0.817854 0.078994 0.102958
0.840221 0.075897 0.101982
0.095892 0.199669 0.172067
0.112224 0.199090 0.177446
0.183052 0.193106 0.176846
0.335257 0.189677 0.168723
0.560943 0.190367 0.152588
0.723399 0.173047 0.129980
0.801337 0.158578 0.117638
0.834515 0.147874 0.111641
0.127213 0.303257 0.229950
0.140361 0.301592 0.234878
0.172029 0.297020 0.239581
0.269906 0.296574 0.236289
0.451791 0.301992 0.220120
0.647631 0.296284 0.191267
0.758263 0.281555 0.165007
0.810880 0.267258 0.149204
0.156564 0.407712 0.286880
0.166932 0.407895 0.290985
0.201845 0.414450 0.303677
0.256247 0.413560 0.310951
0.340073 0.403536 0.304282
0.537925 0.428236 0.287779
0.681444 0.428851 0.251273
0.760309 0.420850 0.224937
0.178306 0.485037 0.329418
0.186917 0.486683 0.333084
0.220385 0.498538 0.347618
0.277312 0.510322 0.362917
0.356619 0.514825 0.370776
0.462991 0.510251 0.362909
0.589556 0.525868 0.348943
0.679295 0.536731 0.333500
0.197842 0.540305 0.362346
0.205672 0.542561 0.365938
0.236338 0.554369 0.379915
0.290829 0.568478 0.396501
0.367996 0.578665 0.408855
0.462537 0.577385 0.407916
0.559706 0.582431 0.399028
0.635670 0.591802 0.392693
0.213455 0.576517 0.384237
0.221493 0.579292 0.389098
0.249428 0.589614 0.402352
0.300386 0.603391 0.418765
0.375055 0.616542 0.433171
0.470365 0.621897 0.436440
0.556633 0.621763 0.428741
0.623034 0.625843 0.423857
0.080539 0.107196 0.166371
0.101860 0.101701 0.159291
0.207021 0.099589 0.170103
0.388180 0.094308 0.183475
0.614532 0.082915 0.187847
0.750764 0.073437 0.176333
0.807657 0.069261 0.167055
0.829665 0.066316 0.160480
0.079441 0.125596 0.159230
0.100219 0.131565 0.168561
0.191008 0.129926 0.175793
0.362600 0.118920 0.175709
0.595260 0.099952 0.165708
0.746035 0.086358 0.149495
0.811958 0.079901 0.140135
0.837788 0.075863 0.135024
0.096880 0.194058 0.191058
0.113590 0.194829 0.198892
0.172839 0.196263 0.209095
0.312669 0.195472 0.207404
0.534977 0.189001 0.186338
0.716574 0.167243 0.155779
0.801952 0.150319 0.138170
0.837142 0.138686 0.129234
0.125102 0.293841 0.243013
0.137090 0.287285 0.244645
0.174596 0.293259 0.259283
0.271640 0.300751 0.263495
0.442372 0.301597 0.243285
0.648439 0.291601 0.206793
0.763230 0.272404 0.175262
0.816802 0.255792 0.156271
0.156613 0.404388 0.298516
0.165196 0.397782 0.298121
0.203899 0.408630 0.315080
0.261391 0.414149 0.328317
0.344481 0.406529 0.323491
0.544175 0.429604 0.298725
0.689594 0.424979 0.255274
0.768939 0.413097 0.223813
0.180257 0.485372 0.338859
0.186857 0.483289 0.339498
0.222043 0.497440 0.356079
0.281115 0.512450 0.374405
0.360819 0.517657 0.383186
0.466200 0.511345 0.372382
0.595231 0.525859 0.353681
0.686022 0.534818 0.332550
0.199866 0.540152 0.368859
0.204798 0.541077 0.369954
0.235451 0.553861 0.384620
0.291112 0.569635 0.403177
0.369253 0.580904 0.417066
0.463464 0.579189 0.414928
0.561967 0.583727 0.403546
0.638299 0.591863 0.393712
0.216614 0.576713 0.390927
0.218707 0.577599 0.390930
0.245464 0.588062 0.404161
0.297173 0.602952 0.422596
0.372555 0.617334 0.438783
0.468649 0.623411 0.441627
0.555607 0.623452 0.433386
0.622749 0.627747 0.427268
0.119012 0.156249 0.259459
0.128258 0.149681 0.249116
0.184240 0.146305 0.252626
0.309781 0.146652 0.271070
0.502096 0.148432 0.298244
0.668754 0.136625 0.296073
0.747179 0.126337 0.284067
0.780989 0.118309 0.272692
0.110498 0.165488 0.241273
0.127053 0.168760 0.245075
0.178254 0.168324 0.249641
0.297382 0.164165 0.258925
0.490773 0.155522 0.271428
0.678135 0.137015 0.263303
0.768639 0.123243 0.249141
0.806464 0.113636 0.237516
0.111428 0.204820 0.244401
0.127238 0.205142 0.248563
0.173271 0.215086 0.264390
0.283810 0.221273 0.276583
0.470551 0.213391 0.273421
0.680486 0.182669 0.245453
0.784076 0.159325 0.221524
0.827418 0.143792 0.205987
0.127498 0.282170 0.274436
0.138785 0.276019 0.273676
0.181056 0.292036 0.296522
0.272808 0.307774 0.315078
0.425551 0.307315 0.308836
0.645350 0.285644 0.266316
0.769202 0.258947 0.227241
0.826243 0.238174 0.202332
0.158640 0.392265 0.327851
0.165177 0.383243 0.323418
0.205485 0.395807 0.341764
0.269559 0.412091 0.364194
0.362650 0.421572 0.372489
0.562202 0.434090 0.333718
0.710289 0.418361 0.281412
0.790245 0.398955 0.244230
0.185017 0.480433 0.367242
0.189746 0.476666 0.364032
0.225318 0.491335 0.379975
0.290671 0.512837 0.403722
0.381359 0.529723 0.422545
0.481999 0.521731 0.407717
0.615844 0.531711 0.377595
0.709107 0.535640 0.346563
0.205096 0.537646 0.393313
0.208407 0.537828 0.390940
0.237650 0.551193 0.403379
0.297541 0.571666 0.424952
0.386040 0.591546 0.447197
0.479088 0.590818 0.444418
0.578056 0.592970 0.426940
0.654656 0.598017 0.410047
0.221268 0.574713 0.411804
0.222370 0.575624 0.408667
0.246135 0.586649 0.418170
0.299237 0.604815 0.437479
0.382453 0.625353 0.460494
0.480438 0.633326 0.464385
0.566672 0.632487 0.454458
0.633487 0.635326 0.444848
0.155611 0.204884 0.349640
0.165539 0.199657 0.342797
0.196346 0.195610 0.341082
0.272031 0.198808 0.356720
0.403654 0.210029 0.391498
0.571275 0.211176 0.410892
0.664397 0.201970 0.405652
0.708764 0.192524 0.395499
0.147439 0.213989 0.334771
0.163458 0.216015 0.335983
0.192493 0.216943 0.337608
0.263871 0.218419 0.349817
0.395378 0.219949 0.374966
0.585347 0.212044 0.388614
0.694850 0.197285 0.379922
0.745499 0.184468 0.367616
0.138601 0.235156 0.321786
0.153668 0.235551 0.323067
0.192446 0.250406 0.340069
0.271461 0.262058 0.360122
0.403574 0.258077 0.372634
0.608736 0.234415 0.365883
0.731069 0.209195 0.347005
0.787725 0.190469 0.330318
0.141474 0.287561 0.329466
0.151710 0.282487 0.326865
0.196497 0.303422 0.352085
0.277949 0.326021 0.380688
0.402792 0.331861 0.392537
0.611494 0.309028 0.366215
0.749110 0.275948 0.330769
0.816468 0.249833 0.304367
0.162387 0.377410 0.365808
0.167009 0.367952 0.359141
0.206035 0.380169 0.376207
0.277216 0.407289 0.407055
0.385328 0.438524 0.434969
0.575657 0.439986 0.403037
0.729723 0.409927 0.350227
0.813791 0.379948 0.309739
0.192142 0.471897 0.407870
0.195249 0.467419 0.402323
0.229164 0.480391 0.415377
0.300287 0.507484 0.442916
0.405547 0.539741 0.474495
0.509439 0.540164 0.467450
0.649752 0.543987 0.427082
0.745445 0.539055 0.385161
0.214228 0.533018 0.432201
0.216508 0.532546 0.427576
0.243514 0.545106 0.436474
0.307110 0.570146 0.459454
0.407937 0.601992 0.490686
0.510604 0.611776 0.496272
0.610377 0.612148 0.473606
0.686110 0.612344 0.447867
0.230176 0.571254 0.446847
0.231712 0.572416 0.442384
0.252475 0.583406 0.447463
0.306510 0.605344 0.465805
0.398465 0.635119 0.494851
0.507374 0.652133 0.507340
0.593325 0.651983 0.497233
0.658617 0.652733 0.482902
0.185033 0.243641 0.419308
0.196883 0.242330 0.419088
0.230284 0.241006 0.421521
0.284554 0.240703 0.427907
0.362766 0.245054 0.442212
0.491033 0.271925 0.483909
0.582032 0.275529 0.494888
0.629682 0.271841 0.493980
0.179825 0.254905 0.412709
0.198374 0.262135 0.420558
0.229650 0.264597 0.425070
0.279334 0.264518 0.430428
0.356477 0.266205 0.442638
0.496779 0.285908 0.481053
0.606171 0.283411 0.490018
0.663520 0.274874 0.486809
0.173822 0.280589 0.407657
0.189309 0.283053 0.411285
0.229990 0.297453 0.426889
0.287399 0.309898 0.442802
0.364094 0.312922 0.454493
0.513542 0.317318 0.481947
0.644029 0.301283 0.483761
0.714318 0.284357 0.476303
0.168757 0.317778 0.404156
0.177665 0.312306 0.400968
0.222439 0.331606 0.422179
0.291233 0.358303 0.450729
0.382672 0.377443 0.474092
0.541980 0.371171 0.487680
0.691098 0.339232 0.473407
0.773572 0.310339 0.455079
0.169754 0.368838 0.407872
0.173318 0.359756 0.401856
0.208696 0.370437 0.416052
0.285238 0.404803 0.451352
0.407189 0.453595 0.498336
0.571972 0.450999 0.501854
0.731464 0.410852 0.464822
0.822811 0.371717 0.428500
0.200791 0.462428 0.453136
0.202711 0.457393 0.448026
0.232870 0.466678 0.457005
0.305514 0.495352 0.484177
0.421988 0.539869 0.525322
0.542883 0.563047 0.542834
0.690001 0.561699 0.503173
0.787529 0.545194 0.456041
0.226719 0.526907 0.479494
0.228086 0.525603 0.475083
0.252534 0.535665 0.480754
0.316552 0.562520 0.502139
0.425384 0.604976 0.538279
0.553280 0.637924 0.564412
0.656352 0.640026 0.543479
0.730950 0.634917 0.511318
0.244345 0.567120 0.492901
0.245439 0.567770 0.488885
0.264346 0.577626 0.491298
0.317871 0.602042 0.506941
0.414565 0.641090 0.537395
0.546072 0.677024 0.567796
0.635174 0.682355 0.562448
0.699140 0.682243 0.544603
0.202048 0.266517 0.456552
0.214922 0.266816 0.459113
0.248208 0.266998 0.464120
0.302685 0.267549 0.472568
0.377787 0.270601 0.485610
0.471950 0.287080 0.506962
0.545800 0.305906 0.526626
0.585004 0.314556 0.535213
0.199035 0.278659 0.454637
0.219516 0.289086 0.467761
0.252305 0.293918 0.476697
0.303273 0.295117 0.484475
0.376214 0.296001 0.494317
0.474481 0.307692 0.513067
0.560869 0.324497 0.531774
0.608322 0.330875 0.539317
0.196368 0.305947 0.455927
0.213730 0.312070 0.466038
0.255396 0.328126 0.484928
0.314256 0.341011 0.501800
0.386903 0.343908 0.511233
0.485661 0.348049 0.523796
0.588440 0.358097 0.540102
0.648778 0.359006 0.546350
0.193889 0.345466 0.459209
0.204832 0.344078 0.462428
0.249589 0.364061 0.485170
0.320309 0.390333 0.512686
0.409353 0.410434 0.533786
0.508640 0.411942 0.541964
0.627134 0.410629 0.553009
0.701342 0.401041 0.555344
0.193606 0.395501 0.465614
0.199771 0.390759 0.464603
0.234383 0.401373 0.479339
0.313027 0.434732 0.511975
0.434679 0.485432 0.555992
0.540645 0.496609 0.567796
0.672346 0.483990 0.570971
0.759353 0.460801 0.565048
0.208249 0.460403 0.487313
0.210165 0.454608 0.483922
0.236550 0.460815 0.491760
0.302646 0.485007 0.515059
0.414373 0.528102 0.553647
0.555094 0.575705 0.593044
0.704619 0.578164 0.592268
0.805981 0.556034 0.572333
0.237422 0.521686 0.516574
0.238067 0.519812 0.513806
0.260164 0.527532 0.519532
0.319143 0.550490 0.538298
0.424281 0.591537 0.572151
0.577649 0.648607 0.618090
0.694630 0.663516 0.623925
0.776927 0.659723 0.605427
0.259683 0.563723 0.534451
0.260205 0.564004 0.532461
0.278083 0.572573 0.536384
0.328081 0.594280 0.550583
0.421391 0.632529 0.578292
0.573163 0.691259 0.623717
0.679446 0.715978 0.638347
0.750834 0.723061 0.628363
0.209138 0.276947 0.473000
0.222549 0.277636 0.476757
0.255317 0.278537 0.482579
0.308670 0.279738 0.491563
0.381470 0.282589 0.504395
0.466778 0.294896 0.521502
0.535919 0.314125 0.538914
0.571733 0.325004 0.548184
0.207955 0.289845 0.474061
0.230067 0.301682 0.489740
0.262952 0.307195 0.500009
0.313109 0.308865 0.508289
0.383780 0.309819 0.517559
0.472246 0.317924 0.531422
0.549158 0.336630 0.548006
0.590756 0.346866 0.556535
0.207739 0.316974 0.479036
0.226999 0.325406 0.492580
0.267447 0.341152 0.512127
0.325222 0.353586 0.528935
0.397475 0.357148 0.538390
0.486773 0.360589 0.547444
0.573892 0.375835 0.561869
0.624299 0.383844 0.569510
0.207561 0.356637 0.486355
0.220390 0.358243 0.493404
0.263130 0.377560 0.516585
0.332432 0.402611 0.543514
0.421895 0.423018 0.564404
0.512883 0.426197 0.571393
0.608214 0.434651 0.582426
0.667662 0.436677 0.588364
0.208132 0.406699 0.495739
0.216266 0.405360 0.498501
0.249853 0.416344 0.514767
0.326889 0.448380 0.546798
0.447364 0.497748 0.589000
0.548831 0.511842 0.602394
0.649540 0.513276 0.610256
0.717181 0.505992 0.613468
0.217482 0.464136 0.512413
0.221498 0.461838 0.512342
0.247527 0.469125 0.522661
0.311084 0.492108 0.546303
0.421022 0.533894 0.583805
0.576678 0.592139 0.629702
0.692328 0.605767 0.642647
0.772133 0.596297 0.643373
0.244227 0.521187 0.539129
0.246475 0.520716 0.538661
0.267785 0.528117 0.546026
0.322228 0.548453 0.564263
0.420611 0.585742 0.595583
0.578791 0.646682 0.643552
0.699951 0.680301 0.671509
0.788593 0.688390 0.675191
0.268043 0.562070 0.557904
0.269320 0.562584 0.557459
0.286450 0.570074 0.562975
0.332396 0.588932 0.577339
0.418458 0.623108 0.603333
0.566895 0.681246 0.648095
0.697677 0.730446 0.688190
0.788427 0.752253 0.699442
0.213014 0.280996 0.479554
0.225516 0.281752 0.484031
0.256844 0.282966 0.489933
0.308668 0.284559 0.498706
0.380159 0.287587 0.511300
0.464437 0.298791 0.528255
0.532217 0.316753 0.543882
0.567373 0.327095 0.552466
0.211684 0.294230 0.482299
0.234635 0.306672 0.498602
0.266626 0.312174 0.508974
0.315046 0.313779 0.517063
0.383812 0.314815 0.525967
0.470473 0.322043 0.539017
0.544388 0.339646 0.553443
0.584643 0.350668 0.561734
0.212121 0.320955 0.488857
0.233381 0.330872 0.504046
0.272216 0.345621 0.523119
0.327873 0.357066 0.539220
0.399368 0.361014 0.548774
0.487816 0.364360 0.557307
0.568564 0.379807 0.569070
0.614686 0.390361 0.576293
0.213210 0.360180 0.497940
0.228247 0.364033 0.507514
0.269088 0.382240 0.530402
0.335837 0.405501 0.556335
0.424457 0.425228 0.576905
0.516405 0.428592 0.583840
0.601530 0.439645 0.592274
0.652839 0.446905 0.598045
0.215081 0.409994 0.509113
0.224757 0.411318 0.514443
0.257449 0.422593 0.531901
0.331555 0.452627 0.563336
0.448614 0.498620 0.603570
0.553352 0.512651 0.617360
0.640416 0.519517 0.624063
0.696149 0.520924 0.629032
0.223180 0.465876 0.525579
0.228928 0.466761 0.528128
0.254755 0.475136 0.540404
0.315224 0.496911 0.564307
0.420859 0.536277 0.600649
0.584186 0.597670 0.649379
0.683065 0.616491 0.666162
0.747636 0.617149 0.675503
0.247461 0.520549 0.550101
0.250956 0.521324 0.551392
0.271522 0.528701 0.559994
0.321456 0.546901 0.577918
0.411978 0.580163 0.607273
0.567703 0.639421 0.654794
0.696248 0.684980 0.695051
0.787572 0.703766 0.716066
0.272395 0.560963 0.571166
0.274098 0.561374 0.571296
0.290507 0.568251 0.577495
0.332674 0.585018 0.591736
0.411160 0.615224 0.616276
0.550798 0.668661 0.658601
0.697561 0.731577 0.712950
0.802452 0.767065 0.745053
