app/src/main/assets/cube/Kabukicho05.cube
# LUT by SparkleStock. Enhanced with VOXCOLOR algorithms.
LUT_3D_SIZE 32
0.031258 0.042979 0.062515
0.045768 0.044444 0.064264
0.060278 0.045910 0.066013
0.074788 0.047375 0.067762
0.089299 0.048840 0.069510
0.103809 0.050305 0.071259
0.150301 0.052755 0.073520
0.203190 0.055402 0.075883
0.256079 0.058049 0.078246
0.308968 0.060696 0.080610
0.361857 0.063342 0.082973
0.413927 0.065264 0.083194
0.465587 0.066824 0.082343
0.517248 0.068384 0.081492
0.568908 0.069944 0.080641
0.620568 0.071503 0.079790
0.658001 0.072661 0.079011
0.681208 0.073418 0.078302
0.704415 0.074174 0.077593
0.727622 0.074930 0.076884
0.750829 0.075686 0.076175
0.768333 0.076301 0.075639
0.774430 0.076632 0.075450
0.780527 0.076962 0.075261
0.786624 0.077293 0.075072
0.792721 0.077624 0.074883
0.797920 0.077908 0.074710
0.798629 0.077955 0.074615
0.799338 0.078002 0.074520
0.800047 0.078050 0.074426
0.800756 0.078097 0.074331
0.801465 0.078144 0.074237
0.035039 0.058955 0.069416
0.047546 0.060164 0.071412
0.060052 0.061373 0.073407
0.072559 0.062582 0.075403
0.085066 0.063791 0.077399
0.097573 0.065000 0.079395
0.142016 0.067247 0.081148
0.192847 0.069702 0.082852
0.243678 0.072156 0.084557
0.294509 0.074611 0.086262
0.345339 0.077066 0.087966
0.397796 0.078406 0.087638
0.451067 0.079188 0.086293
0.504337 0.079970 0.084948
0.557607 0.080752 0.083604
0.610877 0.081534 0.082259
0.649678 0.082006 0.081077
0.674010 0.082168 0.080057
0.698343 0.082329 0.079037
0.722675 0.082491 0.078017
0.747007 0.082653 0.076997
0.765410 0.082776 0.076232
0.771955 0.082823 0.075979
0.778501 0.082871 0.075726
0.785046 0.082918 0.075473
0.791591 0.082965 0.075220
0.797176 0.082985 0.074984
0.797958 0.082867 0.074835
0.798741 0.082750 0.074685
0.799523 0.082633 0.074536
0.800305 0.082515 0.074386
0.801087 0.082398 0.074237
0.038820 0.074930 0.076317
0.049323 0.075883 0.078559
0.059827 0.076836 0.080802
0.070330 0.077789 0.083045
0.080834 0.078742 0.085288
0.091337 0.079695 0.087530
0.133731 0.081739 0.088776
0.182504 0.084002 0.089822
0.231276 0.086264 0.090868
0.280049 0.088527 0.091914
0.328821 0.090789 0.092959
0.381665 0.091547 0.092082
0.436546 0.091551 0.090244
0.491426 0.091556 0.088405
0.546306 0.091560 0.086566
0.601186 0.091565 0.084727
0.641355 0.091351 0.083142
0.666813 0.090918 0.081811
0.692270 0.090485 0.080480
0.717727 0.090052 0.079149
0.743184 0.089619 0.077818
0.762487 0.089251 0.076825
0.769481 0.089015 0.076508
0.776474 0.088779 0.076191
0.783468 0.088542 0.075874
0.790462 0.088306 0.075557
0.796432 0.088062 0.075258
0.797288 0.087780 0.075054
0.798143 0.087498 0.074850
0.798998 0.087216 0.074645
0.799854 0.086934 0.074441
0.800709 0.086652 0.074237
0.042601 0.090906 0.083217
0.051101 0.091602 0.085707
0.059601 0.092299 0.088197
0.068101 0.092996 0.090686
0.076601 0.093693 0.093176
0.085101 0.094389 0.095666
0.125446 0.096231 0.096404
0.172160 0.098301 0.096791
0.218875 0.100372 0.097178
0.265589 0.102442 0.097565
0.312303 0.104513 0.097953
0.365534 0.104688 0.096527
0.422025 0.103915 0.094194
0.478515 0.103142 0.091861
0.535005 0.102369 0.089528
0.591496 0.101596 0.087196
0.633032 0.100695 0.085208
0.659615 0.099668 0.083566
0.686197 0.098640 0.081924
0.712780 0.097613 0.080282
0.739362 0.096585 0.078640
0.759564 0.095726 0.077418
0.767006 0.095207 0.077037
0.774448 0.094687 0.076656
0.781890 0.094167 0.076275
0.789332 0.093647 0.075894
0.795688 0.093139 0.075533
0.796617 0.092692 0.075274
0.797545 0.092246 0.075014
0.798474 0.091799 0.074755
0.799402 0.091352 0.074496
0.800331 0.090906 0.074237
0.046382 0.106881 0.090118
0.052879 0.107322 0.092855
0.059375 0.107762 0.095591
0.065872 0.108203 0.098328
0.072369 0.108643 0.101065
0.078865 0.109084 0.103802
0.117161 0.110723 0.104032
0.161817 0.112601 0.103760
0.206473 0.114480 0.103489
0.251129 0.116358 0.103217
0.295785 0.118236 0.102946
0.349404 0.117829 0.100971
0.407504 0.116278 0.098144
0.465604 0.114728 0.095318
0.523705 0.113177 0.092491
0.581805 0.111626 0.089664
0.624709 0.110040 0.087274
0.652417 0.108418 0.085321
0.680124 0.106796 0.083368
0.707832 0.105173 0.081415
0.735540 0.103551 0.079462
0.756642 0.102202 0.078011
0.764532 0.101398 0.077566
0.772422 0.100595 0.077121
0.780312 0.099791 0.076676
0.788202 0.098988 0.076231
0.794944 0.098216 0.075807
0.795946 0.097605 0.075493
0.796948 0.096993 0.075179
0.797949 0.096382 0.074865
0.798951 0.095771 0.074551
0.799953 0.095159 0.074237
0.050163 0.122856 0.097018
0.054657 0.123041 0.100002
0.059150 0.123225 0.102986
0.063643 0.123410 0.105970
0.068136 0.123594 0.108953
0.072629 0.123779 0.111937
0.108876 0.125215 0.111659
0.151474 0.126901 0.110729
0.194071 0.128587 0.109799
0.236669 0.130274 0.108869
0.279266 0.131960 0.107939
0.333273 0.130970 0.105415
0.392983 0.128642 0.102095
0.452693 0.126314 0.098774
0.512404 0.123985 0.095453
0.572114 0.121657 0.092133
0.616386 0.119385 0.089340
0.645219 0.117168 0.087076
0.674052 0.114951 0.084812
0.702885 0.112734 0.082548
0.731717 0.110517 0.080284
0.753719 0.108677 0.078605
0.762057 0.107590 0.078095
0.770396 0.106503 0.077586
0.778734 0.105416 0.077077
0.787072 0.104329 0.076568
0.794200 0.103293 0.076082
0.795275 0.102517 0.075713
0.796350 0.101741 0.075344
0.797425 0.100965 0.074975
0.798500 0.100189 0.074606
0.799575 0.099413 0.074237
0.056584 0.147142 0.111403
0.060590 0.147193 0.114237
0.064597 0.147243 0.117071
0.068604 0.147293 0.119906
0.072611 0.147344 0.122740
0.076618 0.147394 0.125574
0.107809 0.148260 0.125479
0.144438 0.149289 0.124797
0.181066 0.150318 0.124116
0.217695 0.151347 0.123434
0.254323 0.152377 0.122753
0.306747 0.152016 0.120313
0.367069 0.150961 0.116994
0.427391 0.149906 0.113674
0.487713 0.148851 0.110355
0.548034 0.147796 0.107036
0.594127 0.145779 0.103711
0.625991 0.142800 0.100382
0.657855 0.139821 0.097052
0.689719 0.136841 0.093722
0.721583 0.133862 0.090392
0.746049 0.131236 0.087773
0.755720 0.129317 0.086574
0.765391 0.127397 0.085376
0.775062 0.125478 0.084177
0.784733 0.123558 0.082979
0.793006 0.121765 0.081887
0.794292 0.120603 0.081326
0.795577 0.119441 0.080765
0.796862 0.118279 0.080204
0.798148 0.117118 0.079643
0.799433 0.115956 0.079081
0.063531 0.173091 0.127283
0.067355 0.173031 0.129889
0.071179 0.172972 0.132495
0.075003 0.172912 0.135100
0.078827 0.172853 0.137706
0.082651 0.172793 0.140312
0.108186 0.173016 0.140536
0.138063 0.173295 0.140285
0.167940 0.173574 0.140033
0.197818 0.173853 0.139782
0.227695 0.174132 0.139530
0.278143 0.174644 0.137301
0.338877 0.175272 0.134082
0.399610 0.175900 0.130863
0.460343 0.176528 0.127645
0.521077 0.177156 0.124426
0.569082 0.175583 0.120544
0.604358 0.171808 0.115997
0.639634 0.168033 0.111451
0.674910 0.164258 0.106904
0.710186 0.160483 0.102358
0.737430 0.157012 0.098656
0.748611 0.154150 0.096643
0.759791 0.151289 0.094631
0.770971 0.148427 0.092618
0.782152 0.145565 0.090605
0.791723 0.142915 0.088798
0.793246 0.141323 0.088018
0.794769 0.139731 0.087237
0.796292 0.138140 0.086456
0.797815 0.136548 0.085676
0.799338 0.134956 0.084895
0.070479 0.199039 0.143164
0.074120 0.198870 0.145541
0.077761 0.198700 0.147918
0.081402 0.198531 0.150295
0.085043 0.198362 0.152672
0.088684 0.198193 0.155049
0.108562 0.197772 0.155594
0.131688 0.197301 0.155772
0.154815 0.196830 0.155951
0.177941 0.196359 0.156129
0.201067 0.195887 0.156307
0.249539 0.197271 0.154288
0.310684 0.199583 0.151170
0.371829 0.201894 0.148052
0.432974 0.204206 0.144934
0.494119 0.206517 0.141817
0.544036 0.205387 0.137376
0.582724 0.200816 0.131613
0.621413 0.196245 0.125850
0.660101 0.191674 0.120086
0.698789 0.187103 0.114323
0.728811 0.182788 0.109539
0.741501 0.178984 0.106712
0.754191 0.175180 0.103885
0.766881 0.171376 0.101058
0.779571 0.167572 0.098232
0.790439 0.164065 0.095709
0.792200 0.162043 0.094709
0.793961 0.160022 0.093709
0.795722 0.158000 0.092709
0.797483 0.155978 0.091709
0.799244 0.153956 0.090709
0.077427 0.224987 0.159045
0.080885 0.224708 0.161194
0.084343 0.224429 0.163342
0.087801 0.224150 0.165490
0.091259 0.223871 0.167638
0.094717 0.223592 0.169787
0.108939 0.222528 0.170652
0.125314 0.221307 0.171260
0.141689 0.220085 0.171868
0.158064 0.218864 0.172477
0.174439 0.217643 0.173085
0.220935 0.219899 0.171276
0.282491 0.223894 0.168259
0.344048 0.227888 0.165241
0.405605 0.231883 0.162224
0.467162 0.235877 0.159207
0.518990 0.235191 0.154208
0.561091 0.229824 0.147228
0.603191 0.224458 0.140248
0.645292 0.219091 0.133269
0.687392 0.213724 0.126289
0.720193 0.208564 0.120422
0.734392 0.203818 0.116781
0.748591 0.199071 0.113140
0.762790 0.194325 0.109499
0.776989 0.189579 0.105858
0.789155 0.185215 0.102621
0.791154 0.182763 0.101401
0.793153 0.180312 0.100181
0.795152 0.177860 0.098962
0.797150 0.175408 0.097742
0.799149 0.172957 0.096522
0.084375 0.250935 0.174926
0.087650 0.250547 0.176846
0.090925 0.250158 0.178765
0.094200 0.249769 0.180685
0.097475 0.249380 0.182604
0.100750 0.248991 0.184524
0.109316 0.247284 0.185709
0.118939 0.245312 0.186747
0.128563 0.243341 0.187786
0.138187 0.241370 0.188824
0.147810 0.239398 0.189862
0.192330 0.242526 0.188264
0.254299 0.248204 0.185347
0.316267 0.253882 0.182431
0.378236 0.259560 0.179514
0.440204 0.265238 0.176597
0.493945 0.264995 0.171041
0.539457 0.258833 0.162844
0.584970 0.252670 0.154647
0.630483 0.246507 0.146451
0.675996 0.240345 0.138254
0.711574 0.234340 0.131305
0.727282 0.228651 0.126850
0.742991 0.222963 0.122395
0.758699 0.217274 0.117940
0.774408 0.211586 0.113485
0.787871 0.206365 0.109532
0.790108 0.203484 0.108093
0.792345 0.200602 0.106654
0.794581 0.197720 0.105214
0.796818 0.194839 0.103775
0.799055 0.191957 0.102336
0.091039 0.275182 0.190145
0.094107 0.274812 0.191946
0.097175 0.274441 0.193747
0.100242 0.274071 0.195547
0.103310 0.273700 0.197348
0.106378 0.273330 0.199148
0.113135 0.271925 0.200855
0.120630 0.270313 0.202543
0.128125 0.268702 0.204231
0.135621 0.267090 0.205918
0.143116 0.265479 0.207606
0.182973 0.268434 0.206515
0.239010 0.273673 0.204035
0.295048 0.278911 0.201554
0.351085 0.284150 0.199073
0.407122 0.289389 0.196593
0.459165 0.289761 0.191573
0.507211 0.285266 0.184013
0.555258 0.280772 0.176454
0.603305 0.276277 0.168895
0.651351 0.271782 0.161336
0.689559 0.266878 0.154491
0.708088 0.261156 0.149075
0.726617 0.255434 0.143660
0.745147 0.249712 0.138244
0.763676 0.243990 0.132828
0.779610 0.238699 0.128003
0.782566 0.235565 0.126131
0.785522 0.232430 0.124259
0.788479 0.229295 0.122387
0.791435 0.226160 0.120514
0.794391 0.223026 0.118642
0.097562 0.298578 0.205034
0.100410 0.298290 0.206770
0.103258 0.298002 0.208507
0.106106 0.297714 0.210243
0.108954 0.297425 0.211980
0.111802 0.297137 0.213717
0.118675 0.296509 0.216045
0.126354 0.295812 0.218492
0.134032 0.295115 0.220939
0.141710 0.294418 0.223387
0.149388 0.293722 0.225834
0.183238 0.295982 0.225398
0.230173 0.299720 0.223521
0.277108 0.303459 0.221644
0.324044 0.307197 0.219768
0.370979 0.310936 0.217891
0.419517 0.312007 0.213955
0.469659 0.310413 0.207960
0.519800 0.308818 0.201965
0.569942 0.307223 0.195970
0.620084 0.305628 0.189975
0.660847 0.302798 0.183828
0.682852 0.297497 0.177379
0.704857 0.292195 0.170930
0.726863 0.286894 0.164480
0.748868 0.281593 0.158031
0.767859 0.276625 0.152255
0.771776 0.273326 0.149843
0.775693 0.270027 0.147431
0.779610 0.266727 0.145019
0.783527 0.263428 0.142607
0.787443 0.260128 0.140195
0.104084 0.321974 0.219922
0.106713 0.321768 0.221595
0.109341 0.321562 0.223267
0.111970 0.321357 0.224940
0.114599 0.321151 0.226612
0.117227 0.320945 0.228285
0.124216 0.321092 0.231236
0.132077 0.321310 0.234442
0.139938 0.321528 0.237648
0.147800 0.321746 0.240855
0.155661 0.321964 0.244061
0.183503 0.323529 0.244281
0.221336 0.325767 0.243008
0.259169 0.328006 0.241735
0.297002 0.330244 0.240462
0.334835 0.332482 0.239189
0.379870 0.334254 0.236337
0.432106 0.335559 0.231906
0.484343 0.336864 0.227475
0.536579 0.338169 0.223045
0.588816 0.339474 0.218614
0.632134 0.338717 0.213166
0.657616 0.333837 0.205683
0.683097 0.328957 0.198200
0.708579 0.324076 0.190717
0.734061 0.319196 0.183234
0.756109 0.314551 0.176506
0.760986 0.311087 0.173554
0.765863 0.307623 0.170602
0.770741 0.304159 0.167651
0.775618 0.300695 0.164699
0.780495 0.297231 0.161747
0.110607 0.345370 0.234810
0.113016 0.345247 0.236419
0.115425 0.345123 0.238027
0.117834 0.345000 0.239636
0.120243 0.344876 0.241244
0.122652 0.344753 0.242853
0.129757 0.345676 0.246426
0.137801 0.346809 0.250391
0.145845 0.347942 0.254357
0.153889 0.349074 0.258323
0.161933 0.350207 0.262288
0.183768 0.351077 0.263164
0.212499 0.351815 0.262495
0.241230 0.352553 0.261825
0.269961 0.353291 0.261156
0.298691 0.354029 0.260487
0.340223 0.356500 0.258719
0.394554 0.360705 0.255852
0.448885 0.364910 0.252986
0.503217 0.369115 0.250120
0.557548 0.373320 0.247253
0.603422 0.374637 0.242504
0.632380 0.370177 0.233987
0.661337 0.365718 0.225470
0.690295 0.361258 0.216953
0.719253 0.356798 0.208436
0.744358 0.352477 0.200757
0.750196 0.348849 0.197266
0.756034 0.345220 0.193774
0.761872 0.341591 0.190283
0.767710 0.337962 0.186791
0.773548 0.334334 0.183300
0.117129 0.368766 0.249699
0.119319 0.368725 0.251243
0.121508 0.368684 0.252788
0.123698 0.368643 0.254332
0.125887 0.368601 0.255877
0.128077 0.368560 0.257421
0.135297 0.370260 0.261616
0.143524 0.372307 0.266341
0.151752 0.374355 0.271066
0.159979 0.376403 0.275791
0.168206 0.378450 0.280516
0.184034 0.378624 0.282047
0.203662 0.377862 0.281981
0.223291 0.377100 0.281916
0.242919 0.376337 0.281850
0.262548 0.375575 0.281785
0.300575 0.378746 0.281101
0.357001 0.385851 0.279799
0.413428 0.392956 0.278497
0.469854 0.400061 0.277195
0.526280 0.407166 0.275893
0.574709 0.410557 0.271841
0.607143 0.406518 0.262291
0.639577 0.402479 0.252740
0.672012 0.398440 0.243190
0.704446 0.394401 0.233639
0.732607 0.390403 0.225009
0.739406 0.386610 0.220977
0.746204 0.382817 0.216946
0.753003 0.379023 0.212915
0.759801 0.375230 0.208884
0.766600 0.371436 0.204852
0.122659 0.387955 0.262578
0.124684 0.387997 0.264091
0.126709 0.388038 0.265603
0.128734 0.388079 0.267116
0.130758 0.388120 0.268628
0.132783 0.388161 0.270141
0.139996 0.390366 0.274719
0.148246 0.393004 0.279910
0.156496 0.395641 0.285102
0.164745 0.398279 0.290293
0.172995 0.400917 0.295485
0.185910 0.401160 0.297724
0.201156 0.400205 0.298486
0.216403 0.399251 0.299248
0.231650 0.398296 0.300011
0.246896 0.397342 0.300773
0.281637 0.400824 0.300986
0.335873 0.408743 0.300649
0.390108 0.416663 0.300312
0.444343 0.424582 0.299975
0.498579 0.432501 0.299638
0.546250 0.436847 0.296461
0.580793 0.434048 0.287606
0.615335 0.431248 0.278751
0.649878 0.428449 0.269896
0.684421 0.425650 0.261040
0.714555 0.422744 0.252953
0.722643 0.419308 0.248707
0.730731 0.415871 0.244461
0.738820 0.412435 0.240215
0.746908 0.408998 0.235969
0.754996 0.405561 0.231722
0.127197 0.402938 0.273449
0.129112 0.403062 0.274962
0.131027 0.403185 0.276474
0.132942 0.403309 0.277987
0.134857 0.403432 0.279499
0.136772 0.403556 0.281011
0.143851 0.405995 0.285735
0.151964 0.408898 0.291100
0.160077 0.411801 0.296465
0.168190 0.414704 0.301830
0.176302 0.417607 0.307196
0.189397 0.418683 0.310194
0.204982 0.418844 0.312008
0.220567 0.419006 0.313822
0.236152 0.419168 0.315637
0.251737 0.419329 0.317451
0.283409 0.422734 0.318373
0.331168 0.429381 0.318402
0.378926 0.436029 0.318431
0.426685 0.442676 0.318460
0.474443 0.449324 0.318489
0.518044 0.453509 0.316364
0.553327 0.452768 0.309933
0.588611 0.452027 0.303502
0.623895 0.451286 0.297071
0.659179 0.450545 0.290640
0.690200 0.449501 0.284592
0.699907 0.446942 0.280455
0.709615 0.444384 0.276319
0.719322 0.441826 0.272182
0.729030 0.439267 0.268046
0.738737 0.436709 0.263910
0.131734 0.417921 0.284320
0.133539 0.418127 0.285832
0.135345 0.418333 0.287345
0.137150 0.418539 0.288857
0.138955 0.418744 0.290370
0.140760 0.418950 0.291882
0.147707 0.421625 0.296750
0.155683 0.424793 0.302289
0.163658 0.427961 0.307829
0.171634 0.431130 0.313368
0.179609 0.434298 0.318907
0.192884 0.436206 0.322664
0.208807 0.437483 0.325530
0.224731 0.438761 0.328397
0.240654 0.440039 0.331263
0.256578 0.441316 0.334129
0.285181 0.444643 0.335760
0.326462 0.450019 0.336155
0.367744 0.455395 0.336550
0.409026 0.460771 0.336945
0.450308 0.466147 0.337340
0.489837 0.470170 0.336267
0.525862 0.471487 0.332260
0.561887 0.472805 0.328254
0.597911 0.474122 0.324247
0.633936 0.475439 0.320240
0.665845 0.476257 0.316230
0.677171 0.474577 0.312203
0.688498 0.472897 0.308177
0.699825 0.471217 0.304150
0.711152 0.469536 0.300123
0.722478 0.467856 0.296097
0.136272 0.432904 0.295191
0.137967 0.433192 0.296703
0.139662 0.433480 0.298216
0.141358 0.433768 0.299728
0.143053 0.434057 0.301241
0.144749 0.434345 0.302753
0.151563 0.437254 0.307766
0.159402 0.440688 0.313479
0.167240 0.444121 0.319192
0.175078 0.447555 0.324905
0.182916 0.450988 0.330618
0.196371 0.453729 0.335134
0.212633 0.456122 0.339053
0.228895 0.458516 0.342971
0.245157 0.460910 0.346889
0.261419 0.463304 0.350808
0.286952 0.466553 0.353147
0.321757 0.470657 0.353908
0.356562 0.474761 0.354669
0.391367 0.478866 0.355430
0.426172 0.482970 0.356191
0.461631 0.486832 0.356170
0.498397 0.490207 0.354588
0.535162 0.493583 0.353005
0.571928 0.496958 0.351422
0.608694 0.500334 0.349840
0.641490 0.503013 0.347868
0.654436 0.502211 0.343951
0.667381 0.501409 0.340034
0.680327 0.500607 0.336118
0.693273 0.499805 0.332201
0.706219 0.499004 0.328284
0.140809 0.447887 0.306062
0.142395 0.448257 0.307574
0.143980 0.448628 0.309087
0.145566 0.448998 0.310599
0.147152 0.449369 0.312112
0.148737 0.449739 0.313624
0.155419 0.452883 0.318782
0.163120 0.456582 0.324668
0.170821 0.460281 0.330555
0.178522 0.463980 0.336442
0.186223 0.467679 0.342329
0.199857 0.471252 0.347604
0.216458 0.474761 0.352575
0.233059 0.478271 0.357545
0.249659 0.481781 0.362516
0.266260 0.485291 0.367486
0.288724 0.488462 0.370535
0.317052 0.491295 0.371661
0.345380 0.494128 0.372788
0.373709 0.496960 0.373915
0.402037 0.499793 0.375042
0.433425 0.503493 0.376073
0.470931 0.508927 0.376915
0.508438 0.514361 0.377756
0.545945 0.519795 0.378598
0.583452 0.525229 0.379440
0.617135 0.529770 0.379506
0.631700 0.529846 0.375699
0.646265 0.529922 0.371892
0.660830 0.529998 0.368085
0.675395 0.530075 0.364278
0.689960 0.530151 0.360471
0.145189 0.460995 0.316113
0.146677 0.461442 0.317623
0.148165 0.461888 0.319132
0.149653 0.462335 0.320642
0.151141 0.462782 0.322151
0.152629 0.463229 0.323660
0.159163 0.466512 0.328889
0.166705 0.470364 0.334861
0.174248 0.474215 0.340833
0.181790 0.478066 0.346805
0.189333 0.481918 0.352777
0.203022 0.486070 0.358592
0.219784 0.490372 0.364327
0.236546 0.494675 0.370063
0.253308 0.498978 0.375799
0.270070 0.503280 0.381535
0.290493 0.506512 0.385195
0.314577 0.508674 0.386779
0.338660 0.510836 0.388363
0.362744 0.512998 0.389947
0.386827 0.515160 0.391531
0.415245 0.518777 0.393384
0.452331 0.525302 0.395775
0.489417 0.531828 0.398166
0.526503 0.538354 0.400556
0.563589 0.544879 0.402947
0.597111 0.550463 0.404399
0.612813 0.551338 0.401156
0.628516 0.552213 0.397913
0.644218 0.553088 0.394670
0.659921 0.553964 0.391427
0.675623 0.554839 0.388184
0.149254 0.470353 0.324526
0.150669 0.470864 0.326027
0.152083 0.471375 0.327527
0.153498 0.471886 0.329027
0.154913 0.472396 0.330527
0.156328 0.472907 0.332028
0.162682 0.476141 0.337178
0.170023 0.479919 0.343059
0.177364 0.483697 0.348940
0.184705 0.487475 0.354820
0.192047 0.491253 0.360701
0.205540 0.495478 0.366613
0.222110 0.499927 0.372541
0.238680 0.504376 0.378469
0.255250 0.508825 0.384397
0.271821 0.513274 0.390324
0.292257 0.516845 0.394401
0.316560 0.519538 0.396625
0.340863 0.522230 0.398850
0.365167 0.524923 0.401074
0.389470 0.527615 0.403299
0.417119 0.531305 0.405511
0.451460 0.536989 0.407701
0.485802 0.542673 0.409890
0.520143 0.548357 0.412080
0.554485 0.554041 0.414269
0.585749 0.559030 0.415799
0.601625 0.560546 0.414028
0.617502 0.562061 0.412258
0.633378 0.563577 0.410488
0.649254 0.565092 0.408718
0.665131 0.566608 0.406948
0.153318 0.479712 0.332939
0.154660 0.480286 0.334431
0.156002 0.480861 0.335922
0.157343 0.481436 0.337413
0.158685 0.482011 0.338904
0.160027 0.482586 0.340395
0.166201 0.485769 0.345468
0.173340 0.489474 0.351257
0.180480 0.493179 0.357046
0.187620 0.496884 0.362835
0.194760 0.500589 0.368624
0.208059 0.504887 0.374634
0.224437 0.509483 0.380754
0.240815 0.514078 0.386874
0.257193 0.518673 0.392994
0.273571 0.523269 0.399114
0.294021 0.527178 0.403607
0.318544 0.530401 0.406471
0.343067 0.533624 0.409336
0.367589 0.536847 0.412201
0.392112 0.540070 0.415066
0.418993 0.543833 0.417639
0.450590 0.548676 0.419627
0.482187 0.553518 0.421615
0.513784 0.558360 0.423603
0.545381 0.563203 0.425591
0.574387 0.567597 0.427198
0.590437 0.569753 0.426901
0.606487 0.571909 0.426604
0.622538 0.574065 0.426307
0.638588 0.576221 0.426009
0.654638 0.578376 0.425712
0.157383 0.489070 0.341353
0.158652 0.489709 0.342835
0.159920 0.490348 0.344316
0.161189 0.490987 0.345798
0.162457 0.491625 0.347280
0.163726 0.492264 0.348762
0.169719 0.495397 0.353757
0.176658 0.499029 0.359455
0.183597 0.502661 0.365153
0.190536 0.506292 0.370850
0.197474 0.509924 0.376548
0.210578 0.514296 0.382655
0.226764 0.519038 0.388968
0.242950 0.523779 0.395280
0.259135 0.528521 0.401592
0.275321 0.533263 0.407904
0.295785 0.537510 0.412813
0.320527 0.541264 0.416318
0.345270 0.545018 0.419823
0.370012 0.548772 0.423328
0.394754 0.552525 0.426833
0.420867 0.556361 0.429766
0.449719 0.560362 0.431553
0.478572 0.564363 0.433340
0.507425 0.568363 0.435126
0.536277 0.572364 0.436913
0.563025 0.576164 0.438598
0.579249 0.578960 0.439774
0.595473 0.581757 0.440949
0.611697 0.584553 0.442125
0.627921 0.587349 0.443300
0.644145 0.590145 0.444476
0.161448 0.498428 0.349766
0.162643 0.499131 0.351238
0.163839 0.499834 0.352711
0.165034 0.500537 0.354184
0.166229 0.501240 0.355657
0.167425 0.501943 0.357130
0.173238 0.505025 0.362047
0.179976 0.508584 0.367653
0.186713 0.512143 0.373259
0.193451 0.515701 0.378866
0.200188 0.519260 0.384472
0.213097 0.523705 0.390677
0.229090 0.528593 0.397181
0.245084 0.533481 0.403685
0.261078 0.538369 0.410189
0.277071 0.543257 0.416694
0.297549 0.547843 0.422018
0.322511 0.552127 0.426164
0.347473 0.556412 0.430310
0.372435 0.560696 0.434455
0.397396 0.564980 0.438601
0.422740 0.568889 0.441893
0.448849 0.572049 0.443479
0.474957 0.575208 0.445064
0.501065 0.578367 0.446650
0.527174 0.581526 0.448236
0.551664 0.584731 0.449998
0.568061 0.588168 0.452647
0.584459 0.591604 0.455295
0.600857 0.595041 0.457943
0.617255 0.598478 0.460592
0.633652 0.601914 0.463240
0.165198 0.507054 0.357501
0.166326 0.507801 0.358962
0.167454 0.508548 0.360423
0.168582 0.509295 0.361883
0.169711 0.510043 0.363344
0.170839 0.510790 0.364804
0.176488 0.513816 0.369643
0.183041 0.517298 0.375158
0.189594 0.520781 0.380673
0.196147 0.524263 0.386188
0.202700 0.527745 0.391702
0.215430 0.532252 0.398005
0.231248 0.537272 0.404701
0.247066 0.542291 0.411397
0.262885 0.547310 0.418094
0.278703 0.552329 0.424790
0.299177 0.557211 0.430504
0.324307 0.561956 0.435235
0.349436 0.566701 0.439966
0.374566 0.571445 0.444697
0.399695 0.576190 0.449428
0.424408 0.580192 0.453073
0.448289 0.582710 0.454546
0.472170 0.585227 0.456018
0.496051 0.587744 0.457491
0.519932 0.590261 0.458964
0.542573 0.593006 0.460817
0.559020 0.596889 0.464569
0.575466 0.600773 0.468321
0.591913 0.604656 0.472073
0.608359 0.608539 0.475826
0.624806 0.612423 0.479578
0.167372 0.512017 0.361850
0.168463 0.512709 0.363283
0.169555 0.513401 0.364716
0.170647 0.514094 0.366149
0.171738 0.514786 0.367582
0.172830 0.515478 0.369016
0.178389 0.518419 0.373774
0.184841 0.521810 0.379197
0.191294 0.525201 0.384620
0.197746 0.528592 0.390043
0.204198 0.531982 0.395467
0.216834 0.536495 0.401867
0.232561 0.541570 0.408755
0.248288 0.546644 0.415644
0.264015 0.551718 0.422532
0.279741 0.556792 0.429420
0.300124 0.561756 0.435386
0.325162 0.566611 0.440428
0.350200 0.571465 0.445470
0.375238 0.576320 0.450512
0.400276 0.581174 0.455554
0.425047 0.585369 0.459516
