app/src/main/assets/cube/Kabukicho01.cube
# LUT by SparkleStock. Enhanced with VOXCOLOR algorithms.
LUT_3D_SIZE 32
0.109402 0.105495 0.121123
0.123628 0.106393 0.121880
0.137855 0.107291 0.122636
0.152082 0.108189 0.123392
0.166308 0.109087 0.124148
0.180535 0.109985 0.124904
0.224184 0.112931 0.126133
0.273717 0.116287 0.127457
0.323250 0.119642 0.128780
0.372783 0.122998 0.130104
0.422317 0.126354 0.131427
0.470590 0.129867 0.132498
0.518232 0.133459 0.133444
0.565875 0.137051 0.134389
0.613518 0.140644 0.135334
0.661160 0.144236 0.136279
0.695073 0.146835 0.137201
0.715255 0.148442 0.138099
0.735437 0.150049 0.138997
0.755619 0.151656 0.139895
0.775801 0.153263 0.140793
0.790657 0.154445 0.141581
0.794864 0.154776 0.142148
0.799070 0.155107 0.142715
0.803277 0.155437 0.143283
0.807484 0.155768 0.143850
0.811060 0.156052 0.144330
0.811485 0.156099 0.144377
0.811911 0.156146 0.144425
0.812336 0.156194 0.144472
0.812761 0.156241 0.144519
0.813187 0.156288 0.144567
0.113372 0.114947 0.125755
0.125549 0.115727 0.126557
0.137727 0.116506 0.127359
0.149904 0.117285 0.128161
0.162082 0.118064 0.128963
0.174259 0.118843 0.129765
0.215829 0.121640 0.130651
0.263276 0.124840 0.131554
0.310724 0.128040 0.132456
0.358171 0.131240 0.133359
0.405619 0.134441 0.134261
0.454367 0.137695 0.135040
0.503766 0.140976 0.135757
0.553165 0.144257 0.136473
0.602564 0.147538 0.137190
0.651964 0.150819 0.137906
0.687385 0.153158 0.138636
0.708830 0.154555 0.139378
0.730274 0.155951 0.140121
0.751718 0.157348 0.140863
0.773163 0.158744 0.141606
0.789002 0.159743 0.142263
0.793629 0.159946 0.142747
0.798256 0.160149 0.143232
0.802884 0.160351 0.143717
0.807511 0.160554 0.144202
0.811441 0.160710 0.144609
0.811885 0.160629 0.144629
0.812328 0.160548 0.144649
0.812772 0.160467 0.144669
0.813216 0.160386 0.144689
0.813659 0.160306 0.144708
0.117342 0.124400 0.130387
0.127470 0.125061 0.131235
0.137599 0.125721 0.132083
0.147727 0.126381 0.132930
0.157856 0.127041 0.133778
0.167984 0.127701 0.134626
0.207473 0.130349 0.135169
0.252835 0.133393 0.135650
0.298197 0.136438 0.136132
0.343559 0.139483 0.136614
0.388921 0.142528 0.137096
0.438145 0.145523 0.137582
0.489300 0.148493 0.138069
0.540456 0.151463 0.138557
0.591611 0.154433 0.139045
0.642767 0.157403 0.139533
0.679698 0.159481 0.140071
0.702405 0.160667 0.140658
0.725112 0.161853 0.141245
0.747818 0.163039 0.141832
0.770525 0.164226 0.142419
0.787346 0.165041 0.142944
0.792394 0.165116 0.143347
0.797442 0.165191 0.143749
0.802490 0.165265 0.144152
0.807538 0.165340 0.144554
0.811822 0.165368 0.144888
0.812284 0.165159 0.144881
0.812746 0.164950 0.144873
0.813208 0.164741 0.144865
0.813670 0.164532 0.144858
0.814132 0.164323 0.144850
0.121312 0.133853 0.135019
0.129392 0.134394 0.135913
0.137471 0.134936 0.136806
0.145550 0.135477 0.137699
0.153629 0.136018 0.138593
0.161708 0.136560 0.139486
0.199118 0.139057 0.139686
0.242394 0.141947 0.139747
0.285670 0.144836 0.139808
0.328946 0.147725 0.139869
0.372222 0.150614 0.139930
0.421922 0.153350 0.140123
0.474834 0.156009 0.140382
0.527746 0.158668 0.140642
0.580658 0.161327 0.140901
0.633570 0.163986 0.141160
0.672011 0.165804 0.141505
0.695980 0.166779 0.141937
0.719949 0.167755 0.142368
0.743918 0.168731 0.142800
0.767888 0.169707 0.143231
0.785690 0.170339 0.143626
0.791159 0.170286 0.143946
0.796628 0.170233 0.144266
0.802097 0.170179 0.144586
0.807566 0.170126 0.144906
0.812203 0.170025 0.145167
0.812684 0.169688 0.145132
0.813164 0.169351 0.145097
0.813644 0.169015 0.145062
0.814124 0.168678 0.145027
0.814605 0.168341 0.144992
0.125283 0.143306 0.139651
0.131313 0.143728 0.140590
0.137343 0.144151 0.141529
0.143373 0.144573 0.142469
0.149403 0.144995 0.143408
0.155433 0.145418 0.144347
0.190763 0.147766 0.144204
0.231953 0.150500 0.143844
0.273144 0.153234 0.143484
0.314334 0.155967 0.143124
0.355524 0.158701 0.142764
0.405700 0.161178 0.142665
0.460368 0.163526 0.142695
0.515037 0.165874 0.142726
0.569705 0.168222 0.142756
0.624373 0.170570 0.142787
0.664323 0.172126 0.142940
0.689555 0.172892 0.143216
0.714787 0.173657 0.143492
0.740018 0.174423 0.143768
0.765250 0.175188 0.144044
0.784034 0.175638 0.144307
0.789924 0.175456 0.144545
0.795814 0.175275 0.144783
0.801704 0.175093 0.145021
0.807593 0.174912 0.145258
0.812585 0.174683 0.145446
0.813083 0.174218 0.145384
0.813582 0.173753 0.145321
0.814080 0.173288 0.145259
0.814579 0.172823 0.145196
0.815077 0.172358 0.145134
0.129253 0.152759 0.144283
0.133234 0.153062 0.145268
0.137215 0.153366 0.146253
0.141196 0.153669 0.147238
0.145176 0.153973 0.148223
0.149157 0.154276 0.149208
0.182408 0.156475 0.148721
0.221512 0.159053 0.147941
0.260617 0.161632 0.147160
0.299722 0.164210 0.146379
0.338826 0.166788 0.145599
0.389478 0.169005 0.145206
0.445902 0.171042 0.145008
0.502327 0.173079 0.144810
0.558752 0.175116 0.144612
0.615176 0.177153 0.144414
0.656636 0.178449 0.144375
0.683130 0.179004 0.144495
0.709624 0.179559 0.144616
0.736118 0.180114 0.144736
0.762612 0.180669 0.144856
0.782378 0.180936 0.144989
0.788689 0.180626 0.145144
0.795000 0.180317 0.145300
0.801310 0.180007 0.145455
0.807621 0.179698 0.145611
0.812966 0.179341 0.145725
0.813483 0.178748 0.145635
0.813999 0.178155 0.145545
0.814516 0.177562 0.145455
0.815033 0.176969 0.145365
0.815550 0.176376 0.145276
0.135783 0.171744 0.153641
0.139369 0.171905 0.154649
0.142955 0.172067 0.155657
0.146541 0.172229 0.156665
0.150127 0.172390 0.157673
0.153713 0.172552 0.158680
0.182460 0.174089 0.158235
0.216239 0.175902 0.157498
0.250018 0.177715 0.156762
0.283797 0.179528 0.156025
0.317576 0.181341 0.155289
0.366454 0.183838 0.154612
0.422882 0.186676 0.153964
0.479309 0.189515 0.153316
0.535737 0.192354 0.152668
0.592165 0.195193 0.152020
0.635054 0.196766 0.151472
0.664404 0.197072 0.151026
0.693753 0.197379 0.150579
0.723103 0.197685 0.150132
0.752453 0.197992 0.149685
0.774568 0.197933 0.149333
0.782214 0.197145 0.149170
0.789860 0.196357 0.149007
0.797507 0.195569 0.148844
0.805153 0.194780 0.148681
0.811651 0.193980 0.148511
0.812407 0.193122 0.148310
0.813163 0.192264 0.148109
0.813919 0.191405 0.147907
0.814676 0.190547 0.147706
0.815432 0.189688 0.147505
0.142826 0.192635 0.163945
0.146348 0.192650 0.164971
0.149870 0.192665 0.165997
0.153392 0.192680 0.167023
0.156914 0.192696 0.168049
0.160435 0.192711 0.169076
0.184194 0.193485 0.168747
0.211999 0.194410 0.168148
0.239804 0.195336 0.167549
0.267609 0.196261 0.166950
0.295415 0.197186 0.166350
0.342070 0.200071 0.165389
0.398150 0.203934 0.164247
0.454230 0.207798 0.163105
0.510310 0.211661 0.161963
0.566391 0.215525 0.160821
0.610693 0.217482 0.159702
0.643217 0.217532 0.158606
0.675741 0.217582 0.157510
0.708265 0.217632 0.156414
0.740789 0.217683 0.155317
0.765527 0.217271 0.154410
0.774692 0.215933 0.153881
0.783856 0.214596 0.153352
0.793021 0.213259 0.152823
0.802186 0.211922 0.152294
0.809996 0.210616 0.151798
0.811036 0.209465 0.151469
0.812076 0.208314 0.151140
0.813116 0.207163 0.150810
0.814156 0.206011 0.150481
0.815196 0.204860 0.150152
0.149868 0.213526 0.174249
0.153326 0.213394 0.175293
0.156784 0.213263 0.176337
0.160242 0.213132 0.177382
0.163700 0.213001 0.178426
0.167158 0.212870 0.179471
0.185927 0.212880 0.179260
0.207759 0.212918 0.178798
0.229590 0.212956 0.178336
0.251422 0.212994 0.177874
0.273254 0.213032 0.177412
0.317686 0.216304 0.176167
0.373419 0.221192 0.174531
0.429151 0.226080 0.172895
0.484884 0.230968 0.171259
0.540616 0.235856 0.169623
0.586332 0.238197 0.167933
0.622030 0.237991 0.166187
0.657729 0.237785 0.164441
0.693427 0.237580 0.162695
0.729126 0.237374 0.160950
0.756486 0.236608 0.159487
0.767169 0.234722 0.158592
0.777852 0.232836 0.157697
0.788536 0.230950 0.156802
0.799219 0.229064 0.155907
0.808342 0.227252 0.155085
0.809666 0.225808 0.154628
0.810989 0.224364 0.154171
0.812312 0.222920 0.153713
0.813636 0.221476 0.153256
0.814959 0.220032 0.152798
0.156910 0.234416 0.184552
0.160304 0.234139 0.185615
0.163698 0.233862 0.186678
0.167092 0.233584 0.187740
0.170486 0.233307 0.188803
0.173880 0.233029 0.189866
0.187661 0.232275 0.189772
0.203519 0.231426 0.189448
0.219377 0.230577 0.189123
0.235235 0.229727 0.188798
0.251093 0.228878 0.188473
0.293302 0.232537 0.186945
0.348687 0.238449 0.184815
0.404072 0.244362 0.182685
0.459457 0.250275 0.180555
0.514842 0.256187 0.178425
0.561971 0.258913 0.176163
0.600843 0.258451 0.173767
0.639716 0.257989 0.171372
0.678589 0.257527 0.168977
0.717462 0.257065 0.166582
0.747444 0.255945 0.164565
0.759646 0.253510 0.163304
0.771848 0.251075 0.162043
0.784050 0.248641 0.160782
0.796252 0.246206 0.159521
0.806688 0.243887 0.158373
0.808295 0.242151 0.157787
0.809902 0.240414 0.157202
0.811509 0.238677 0.156616
0.813116 0.236941 0.156031
0.814723 0.235204 0.155445
0.163953 0.255307 0.194856
0.167283 0.254884 0.195937
0.170613 0.254460 0.197018
0.173942 0.254036 0.198099
0.177272 0.253612 0.199180
0.180602 0.253188 0.200261
0.189394 0.251670 0.200285
0.199279 0.249934 0.200097
0.209163 0.248197 0.199910
0.219047 0.246461 0.199722
0.228932 0.244724 0.199535
0.268918 0.248770 0.197723
0.323955 0.255707 0.195099
0.378993 0.262644 0.192475
0.434030 0.269582 0.189851
0.489067 0.276519 0.187227
0.537610 0.279628 0.184393
0.579657 0.278910 0.181348
0.621704 0.278192 0.178303
0.663751 0.277474 0.175259
0.705798 0.276756 0.172214
0.738403 0.275283 0.169642
0.752124 0.272299 0.168015
0.765844 0.269315 0.166388
0.779564 0.266331 0.164761
0.793285 0.263347 0.163134
0.805034 0.260523 0.161660
0.806924 0.258493 0.160946
0.808815 0.256464 0.160233
0.810705 0.254435 0.159519
0.812596 0.252405 0.158806
0.814487 0.250376 0.158092
0.171468 0.278908 0.206357
0.174655 0.278478 0.207420
0.177841 0.278048 0.208482
0.181028 0.277618 0.209545
0.184214 0.277188 0.210608
0.187401 0.276758 0.211671
0.194789 0.275552 0.212014
0.203018 0.274191 0.212214
0.211246 0.272829 0.212414
0.219475 0.271468 0.212613
0.227703 0.270106 0.212813
0.263601 0.273509 0.211049
0.313332 0.279293 0.208303
0.363064 0.285078 0.205557
0.412795 0.290862 0.202811
0.462526 0.296647 0.200065
0.509271 0.299766 0.197114
0.553029 0.300218 0.193956
0.596787 0.300671 0.190798
0.640545 0.301124 0.187641
0.684302 0.301577 0.184483
0.718835 0.300974 0.181679
0.734915 0.298258 0.179583
0.750996 0.295543 0.177487
0.767076 0.292827 0.175390
0.783157 0.290112 0.173294
0.796981 0.287491 0.171404
0.799521 0.285339 0.170551
0.802061 0.283188 0.169697
0.804601 0.281037 0.168843
0.807141 0.278885 0.167989
0.809681 0.276734 0.167135
0.179219 0.303864 0.218457
0.182223 0.303498 0.219483
0.185227 0.303132 0.220509
0.188230 0.302766 0.221535
0.191234 0.302400 0.222561
0.194237 0.302034 0.223587
0.202014 0.301677 0.224352
0.210746 0.301322 0.225064
0.219478 0.300967 0.225776
0.228210 0.300612 0.226488
0.236941 0.300256 0.227200
0.267816 0.302500 0.225649
0.309763 0.306043 0.222967
0.351709 0.309587 0.220285
0.393656 0.313130 0.217604
0.435602 0.316673 0.214922
0.478944 0.319614 0.212080
0.523681 0.321951 0.209078
0.568417 0.324288 0.206076
0.613154 0.326626 0.203073
0.657891 0.328963 0.200071
0.694002 0.329842 0.197197
0.712864 0.327803 0.194580
0.731726 0.325765 0.191962
0.750587 0.323726 0.189344
0.769449 0.321688 0.186726
0.785729 0.319624 0.184378
0.789101 0.317436 0.183378
0.792474 0.315249 0.182377
0.795847 0.313061 0.181377
0.799219 0.310873 0.180377
0.802592 0.308685 0.179377
0.186971 0.328820 0.230557
0.189791 0.328518 0.231546
0.192612 0.328216 0.232536
0.195433 0.327914 0.233525
0.198253 0.327612 0.234515
0.201074 0.327310 0.235504
0.209240 0.327802 0.236689
0.218475 0.328453 0.237914
0.227709 0.329104 0.239138
0.236944 0.329755 0.240362
0.246179 0.330406 0.241586
0.272032 0.331492 0.240249
0.306194 0.332794 0.237631
0.340355 0.334096 0.235014
0.374517 0.335398 0.232396
0.408678 0.336700 0.229778
0.448617 0.339462 0.227046
0.494332 0.343684 0.224199
0.540048 0.347905 0.221353
0.585763 0.352127 0.218506
0.631479 0.356349 0.215660
0.669170 0.358710 0.212715
0.690813 0.357348 0.209576
0.712455 0.355987 0.206437
0.734098 0.354625 0.203298
0.755741 0.353263 0.200158
0.774477 0.351758 0.197351
0.778682 0.349534 0.196205
0.782887 0.347309 0.195058
0.787092 0.345085 0.193912
0.791297 0.342860 0.192765
0.795502 0.340636 0.191618
0.194722 0.353775 0.242656
0.197360 0.353537 0.243609
0.199997 0.353300 0.244562
0.202635 0.353062 0.245515
0.205273 0.352824 0.246468
0.207910 0.352586 0.247421
0.216465 0.353927 0.249027
0.226203 0.355585 0.250763
0.235941 0.357242 0.252500
0.245679 0.358899 0.254237
0.255417 0.360557 0.255973
0.276248 0.360483 0.254850
0.302624 0.359544 0.252296
0.329001 0.358605 0.249742
0.355378 0.357665 0.247188
0.381754 0.356726 0.244634
0.418290 0.359310 0.242012
0.464984 0.365416 0.239321
0.511679 0.371522 0.236630
0.558373 0.377629 0.233939
0.605067 0.383735 0.231248
0.644338 0.387578 0.228233
0.668762 0.386893 0.224573
0.693185 0.386208 0.220912
0.717609 0.385524 0.217251
0.742032 0.384839 0.213591
0.763225 0.383892 0.210325
0.768262 0.381631 0.209032
0.773300 0.379370 0.207739
0.778337 0.377109 0.206446
0.783375 0.374848 0.205153
0.788412 0.372587 0.203860
0.202474 0.378731 0.254756
0.204928 0.378557 0.255672
0.207383 0.378383 0.256589
0.209838 0.378210 0.257505
0.212292 0.378036 0.258421
0.214747 0.377862 0.259338
0.223690 0.380053 0.261364
0.233932 0.382716 0.263613
0.244173 0.385380 0.265862
0.254414 0.388043 0.268111
0.264655 0.390707 0.270360
0.280463 0.389474 0.269450
0.299055 0.386294 0.266960
0.317647 0.383114 0.264470
0.336239 0.379933 0.261980
0.354830 0.376753 0.259491
0.387963 0.379158 0.256978
0.435636 0.387149 0.254442
0.483309 0.395139 0.251907
0.530982 0.403130 0.249371
0.578655 0.411121 0.246836
0.619506 0.416446 0.243751
0.646710 0.416438 0.239569
0.673915 0.416430 0.235387
0.701119 0.416423 0.231205
0.728324 0.416415 0.227023
0.751973 0.416026 0.223298
0.757843 0.413728 0.221859
0.763713 0.411430 0.220419
0.769583 0.409133 0.218980
0.775453 0.406835 0.217541
0.781323 0.404537 0.216101
0.209705 0.400874 0.265721
0.212004 0.400778 0.266619
0.214303 0.400682 0.267517
0.216603 0.400586 0.268415
0.218902 0.400490 0.269313
0.221201 0.400394 0.270212
0.230282 0.403162 0.272540
0.240720 0.406502 0.275155
0.251158 0.409843 0.277770
0.261596 0.413184 0.280385
0.272034 0.416524 0.282999
0.285505 0.415228 0.282440
0.300492 0.411613 0.280293
0.315480 0.407998 0.278146
0.330467 0.404383 0.276000
0.345454 0.400768 0.273853
0.375680 0.402892 0.271516
0.421144 0.410754 0.268990
0.466608 0.418617 0.266464
0.512072 0.426480 0.263937
0.557536 0.434342 0.261411
0.597372 0.439912 0.258403
0.625954 0.440897 0.254431
0.654535 0.441882 0.250459
0.683116 0.442867 0.246487
0.711698 0.443852 0.242516
0.736667 0.444362 0.238984
0.743575 0.442494 0.237650
0.750483 0.440626 0.236315
0.757392 0.438758 0.234981
0.764300 0.436891 0.233647
0.771208 0.435023 0.232313
0.216417 0.420206 0.275552
0.218588 0.420201 0.276450
0.220759 0.420196 0.277348
0.222930 0.420192 0.278246
0.225101 0.420187 0.279145
0.227272 0.420183 0.280043
0.236241 0.423255 0.282554
0.246569 0.426944 0.285389
0.256897 0.430632 0.288223
0.267225 0.434320 0.291057
0.277553 0.438008 0.293892
0.291372 0.437742 0.293820
0.306935 0.435499 0.292295
0.322499 0.433257 0.290771
0.338063 0.431014 0.289246
0.353627 0.428771 0.287721
0.381442 0.430511 0.285627
0.421508 0.436233 0.282964
0.461575 0.441955 0.280300
0.501642 0.447677 0.277636
0.541708 0.453399 0.274973
0.577937 0.457978 0.272187
0.606491 0.460271 0.269158
0.635045 0.462564 0.266128
0.663599 0.464857 0.263099
0.692153 0.467150 0.260069
0.717307 0.468900 0.257382
0.725459 0.467928 0.256404
0.733611 0.466957 0.255427
0.741764 0.465986 0.254450
0.749916 0.465015 0.253472
0.758068 0.464043 0.252495
0.223128 0.439537 0.285383
0.225171 0.439624 0.286281
0.227214 0.439711 0.287179
0.229257 0.439798 0.288078
0.231300 0.439884 0.288976
0.233343 0.439971 0.289874
0.242199 0.443349 0.292568
0.252417 0.447385 0.295622
0.262636 0.451421 0.298676
0.272854 0.455456 0.301730
0.283072 0.459492 0.304784
0.297238 0.460257 0.305200
0.313379 0.459386 0.304297
0.329519 0.458516 0.303395
0.345659 0.457645 0.302492
0.361799 0.456775 0.301590
0.387204 0.458130 0.299738
0.421873 0.461712 0.296937
0.456542 0.465293 0.294136
0.491211 0.468874 0.291335
0.525881 0.472456 0.288535
0.558502 0.476044 0.285972
0.587029 0.479645 0.283884
0.615555 0.483246 0.281797
0.644082 0.486848 0.279710
0.672608 0.490449 0.277623
0.697946 0.493437 0.275780
0.707343 0.493363 0.275159
0.716739 0.493288 0.274539
0.726136 0.493213 0.273918
0.735532 0.493139 0.273298
0.744929 0.493064 0.272677
0.229840 0.458868 0.295214
0.231755 0.459046 0.296112
0.233670 0.459225 0.297011
0.235585 0.459403 0.297909
0.237500 0.459582 0.298807
0.239415 0.459760 0.299705
0.248158 0.463443 0.302582
0.258266 0.467826 0.305856
0.268375 0.472209 0.309129
0.278483 0.476593 0.312403
0.288592 0.480976 0.315676
0.303105 0.482772 0.316580
0.319822 0.483273 0.316300
0.336538 0.483775 0.316019
0.353255 0.484277 0.315738
0.369971 0.484778 0.315458
0.392965 0.485749 0.313849
0.422237 0.487190 0.310911
0.451509 0.488631 0.307973
0.480781 0.490072 0.305035
0.510053 0.491513 0.302097
0.539068 0.494110 0.299756
0.567567 0.499019 0.298611
0.596066 0.503928 0.297466
0.624565 0.508838 0.296321
0.653064 0.513747 0.295176
0.678586 0.517975 0.294178
0.689227 0.518797 0.293914
0.699867 0.519619 0.293650
0.710508 0.520441 0.293387
0.721149 0.521263 0.293123
0.731789 0.522084 0.292859
0.236551 0.478199 0.305045
0.238338 0.478469 0.305944
0.240125 0.478739 0.306842
0.241912 0.479009 0.307740
0.243699 0.479279 0.308638
0.245486 0.479549 0.309536
0.254116 0.483536 0.312596
0.264115 0.488267 0.316089
0.274113 0.492998 0.319582
0.284112 0.497729 0.323075
0.294111 0.502460 0.326568
0.308972 0.505286 0.327960
0.326265 0.507160 0.328302
0.343558 0.509034 0.328643
0.360850 0.510908 0.328985
0.378143 0.512782 0.329326
0.398727 0.513369 0.327959
0.422602 0.512669 0.324884
0.446476 0.511969 0.321809
0.470351 0.511269 0.318734
0.494226 0.510569 0.315658
0.519633 0.512175 0.313541
0.548104 0.518393 0.313338
0.576576 0.524610 0.313135
0.605047 0.530828 0.312932
0.633519 0.537046 0.312730
0.659226 0.542513 0.312576
0.671111 0.544232 0.312669
0.682996 0.545950 0.312762
0.694880 0.547668 0.312855
0.706765 0.549387 0.312948
0.718650 0.551105 0.313041
0.243074 0.495561 0.314215
0.244760 0.495910 0.315128
0.246446 0.496259 0.316041
0.248133 0.496609 0.316955
0.249819 0.496958 0.317868
0.251505 0.497307 0.318781
0.259979 0.501442 0.321976
0.269810 0.506335 0.325628
0.279641 0.511227 0.329280
0.289472 0.516120 0.332931
0.299303 0.521013 0.336583
0.314310 0.524562 0.338355
0.331904 0.527439 0.339187
0.349499 0.530316 0.340020
0.367093 0.533193 0.340852
0.384688 0.536070 0.341685
0.403657 0.536556 0.340565
0.424001 0.534652 0.337493
0.444344 0.532748 0.334420
0.464688 0.530843 0.331348
0.485031 0.528939 0.328276
0.507835 0.529887 0.326309
0.535560 0.536541 0.326551
0.563284 0.543195 0.326794
0.591009 0.549848 0.327036
0.618733 0.556502 0.327278
0.643958 0.562452 0.327578
0.656684 0.564887 0.328165
0.669411 0.567322 0.328752
0.682137 0.569757 0.329339
0.694864 0.572192 0.329926
0.707590 0.574627 0.330513
0.249218 0.508984 0.322061
0.250859 0.509388 0.323020
0.252499 0.509792 0.323979
0.254140 0.510196 0.324938
0.255780 0.510600 0.325897
0.257421 0.511004 0.326856
0.265650 0.514974 0.330089
0.275198 0.519656 0.333777
0.284745 0.524338 0.337465
0.294293 0.529020 0.341154
0.303840 0.533703 0.344842
0.318588 0.537358 0.346779
0.335935 0.540501 0.347840
0.353283 0.543643 0.348901
0.370631 0.546785 0.349962
0.387978 0.549928 0.351023
0.406925 0.550880 0.350160
0.427469 0.549644 0.347371
0.448014 0.548407 0.344582
0.468559 0.547171 0.341794
0.489104 0.545934 0.339005
0.511313 0.546892 0.337044
0.536851 0.552237 0.336737
0.562389 0.557583 0.336431
0.587927 0.562928 0.336124
0.613466 0.568274 0.335818
0.636874 0.573194 0.335789
0.649637 0.575985 0.337144
0.662400 0.578777 0.338499
0.675163 0.581569 0.339855
0.687926 0.584360 0.341210
0.700689 0.587152 0.342566
0.255363 0.522407 0.329907
0.256957 0.522866 0.330911
0.258552 0.523325 0.331916
0.260147 0.523784 0.332921
0.261742 0.524243 0.333926
0.263337 0.524702 0.334930
0.271322 0.528505 0.338202
0.280586 0.532977 0.341927
0.289850 0.537449 0.345651
0.299114 0.541920 0.349376
0.308378 0.546392 0.353101
0.322866 0.550155 0.355202
0.339967 0.553562 0.356492
0.357067 0.556970 0.357782
0.374168 0.560378 0.359072
0.391269 0.563785 0.360362
0.410192 0.565205 0.359754
0.430938 0.564636 0.357249
0.451684 0.564067 0.354744
0.472430 0.563499 0.352239
0.493176 0.562930 0.349734
0.514791 0.563896 0.347779
0.538143 0.567934 0.346924
0.561494 0.571971 0.346068
0.584846 0.576008 0.345213
0.608198 0.580046 0.344358
0.629791 0.583935 0.343999
0.642590 0.587083 0.346123
0.655390 0.590232 0.348247
0.668190 0.593380 0.350370
0.680989 0.596529 0.352494
0.693789 0.599677 0.354618
0.261507 0.535830 0.337753
0.263056 0.536344 0.338803
0.264605 0.536858 0.339854
0.266154 0.537372 0.340904
0.267703 0.537886 0.341955
0.269252 0.538400 0.343005
0.276994 0.542036 0.346315
0.285974 0.546298 0.350076
0.294955 0.550559 0.353837
0.303935 0.554821 0.357599
0.312915 0.559082 0.361360
0.327144 0.562951 0.363626
0.343998 0.566624 0.365145
0.360851 0.570297 0.366663
0.377705 0.573970 0.368182
0.394559 0.577643 0.369700
0.413459 0.579529 0.369349
0.434407 0.579628 0.367127
0.455354 0.579727 0.364906
0.476301 0.579826 0.362685
0.497249 0.579925 0.360463
0.518269 0.580901 0.358514
0.539434 0.583630 0.357110
0.560599 0.586359 0.355706
0.581765 0.589088 0.354302
0.602930 0.591818 0.352897
0.622707 0.594676 0.352209
0.635543 0.598181 0.355101
0.648380 0.601687 0.357994
0.661216 0.605192 0.360886
0.674052 0.608697 0.363778
0.686888 0.612202 0.366671
0.267651 0.549254 0.345598
0.269155 0.549822 0.346695
0.270658 0.550391 0.347791
0.272161 0.550960 0.348887
0.273665 0.551528 0.349983
0.275168 0.552097 0.351080
0.282666 0.555568 0.354427
0.291362 0.559619 0.358225
0.300059 0.563670 0.362023
0.308756 0.567721 0.365821
0.317452 0.571772 0.369619
0.331422 0.575748 0.372050
0.348029 0.579686 0.373797
0.364636 0.583624 0.375544
0.381242 0.587562 0.377292
0.397849 0.591501 0.379039
0.416727 0.593853 0.378944
0.437875 0.594620 0.377006
0.459024 0.595387 0.375068
0.480172 0.596154 0.373130
0.501321 0.596921 0.371192
0.521746 0.597906 0.369249
0.540725 0.599327 0.367296
0.559704 0.600748 0.365343
0.578683 0.602169 0.363390
0.597662 0.603590 0.361437
0.615624 0.605417 0.360419
0.628496 0.609279 0.364080
0.641369 0.613141 0.367741
0.654242 0.617003 0.371402
0.667115 0.620865 0.375062
0.679987 0.624727 0.378723
0.273307 0.561282 0.352759
0.274780 0.561917 0.353898
0.276253 0.562551 0.355037
0.277726 0.563185 0.356176
0.279199 0.563819 0.357315
0.280671 0.564454 0.358454
0.287946 0.567789 0.361838
0.296380 0.571665 0.365671
0.304815 0.575541 0.369504
0.313249 0.579416 0.373337
0.321683 0.583292 0.377170
0.335411 0.587367 0.379768
0.351786 0.591541 0.381748
0.368161 0.595716 0.383729
0.384536 0.599890 0.385709
0.400911 0.604065 0.387690
0.419744 0.606840 0.387856
0.441036 0.608215 0.386208
0.462328 0.609590 0.384560
0.483620 0.610966 0.382912
0.504912 0.612341 0.381263
0.524847 0.613380 0.379373
0.542066 0.613746 0.376997
0.559286 0.614112 0.374622
0.576505 0.614477 0.372247
0.593725 0.614843 0.369871
0.610207 0.615825 0.368584
0.623002 0.619883 0.372735
0.635797 0.623942 0.376887
0.648592 0.628001 0.381039
0.661387 0.632059 0.385190
0.674182 0.636118 0.389342
0.276521 0.566340 0.356493
0.278040 0.567093 0.357659
0.279558 0.567846 0.358826
0.281077 0.568599 0.359992
0.282596 0.569352 0.361158
0.284114 0.570106 0.362325
0.291266 0.573461 0.365736
0.299545 0.577337 0.369597
0.307824 0.581212 0.373457
0.316103 0.585088 0.377318
0.324382 0.588964 0.381178
0.337955 0.593100 0.383956
0.354174 0.597366 0.386193
0.370393 0.601632 0.388429
0.386613 0.605898 0.390666
0.402832 0.610164 0.392903
0.421515 0.613140 0.393357
0.442660 0.614826 0.392029
0.463806 0.616512 0.390701
0.484951 0.618199 0.389373
0.506097 0.619885 0.388045
0.526059 0.621201 0.386438
