app/src/main/assets/cube/Kabukicho03.cube
# LUT by SparkleStock. Enhanced with VOXCOLOR algorithms.
LUT_3D_SIZE 8
DOMAIN_MIN 0.000000 0.000000 0.000000
DOMAIN_MAX 0.903226 0.903226 0.903226
0.050794 0.066422 0.093773
0.126984 0.073040 0.106062
0.309504 0.090102 0.124243
0.525960 0.114617 0.138312
0.716035 0.142810 0.142967
0.817937 0.165875 0.145803
0.862807 0.177597 0.147694
0.880499 0.182748 0.148474
0.069321 0.133349 0.125157
0.113896 0.137624 0.136274
0.265838 0.151204 0.147271
0.473426 0.168230 0.153754
0.683846 0.184165 0.153671
0.801995 0.196252 0.151384
0.856647 0.202485 0.148883
0.879024 0.204277 0.146290
0.104856 0.228800 0.178101
0.136271 0.230215 0.186700
0.226517 0.233258 0.193277
0.389306 0.246397 0.197106
0.609832 0.269889 0.196393
0.761024 0.273488 0.182658
0.836033 0.270586 0.171430
0.868942 0.265211 0.162985
0.146370 0.330639 0.237638
0.171430 0.330566 0.243896
0.220417 0.329832 0.251164
0.329149 0.338388 0.256424
0.507486 0.359087 0.256451
0.684122 0.371077 0.243607
0.785845 0.367703 0.226032
0.836044 0.359318 0.211868
0.185411 0.420726 0.291662
0.203372 0.421439 0.296638
0.256263 0.429617 0.309572
0.324571 0.432616 0.319424
0.406923 0.429450 0.320993
0.577448 0.464017 0.326885
0.701740 0.473920 0.311700
0.772452 0.471868 0.296152
0.217173 0.481035 0.329473
0.230596 0.482920 0.333425
0.277705 0.494135 0.347926
0.346734 0.506123 0.364378
0.427714 0.512983 0.376229
0.513491 0.514032 0.379339
0.611705 0.533840 0.386866
0.682900 0.547442 0.388979
0.247674 0.523857 0.358147
0.259121 0.526424 0.361562
0.299296 0.537424 0.375440
0.361583 0.550707 0.393317
0.437898 0.561083 0.409504
0.511624 0.562766 0.416908
0.581544 0.571539 0.423930
0.636089 0.582252 0.432535
0.271574 0.550790 0.377415
0.282271 0.555291 0.381105
0.316948 0.565368 0.393905
0.372700 0.578004 0.411690
0.444374 0.590277 0.430261
0.517735 0.597443 0.442263
0.575819 0.600640 0.449305
0.620144 0.606590 0.457766
0.102217 0.132971 0.186790
0.134937 0.129342 0.177123
0.255946 0.136677 0.191078
0.444080 0.151617 0.211636
0.662385 0.170534 0.225586
0.790340 0.187013 0.223884
0.845529 0.195075 0.219164
0.867381 0.197946 0.214028
0.089569 0.154524 0.175580
0.127614 0.163737 0.184347
0.236846 0.170253 0.195471
0.417812 0.177997 0.204391
0.645952 0.189259 0.207483
0.788568 0.202239 0.200885
0.852236 0.209081 0.194267
0.876788 0.210622 0.188766
0.107095 0.227617 0.202934
0.140265 0.231817 0.211770
0.218600 0.238820 0.224573
0.369047 0.251278 0.231979
0.587433 0.267908 0.227650
0.756930 0.271610 0.210072
0.838823 0.268729 0.196122
0.872627 0.263091 0.186194
0.141693 0.324138 0.249921
0.166129 0.320769 0.253270
0.222416 0.329331 0.268870
0.331608 0.343749 0.279611
0.499202 0.358691 0.274679
0.685672 0.368056 0.257095
0.792206 0.362282 0.236160
0.843003 0.352504 0.220015
0.181941 0.419146 0.300047
0.198527 0.415445 0.301152
0.255088 0.426262 0.318234
0.326742 0.433810 0.333245
0.409283 0.433036 0.335680
0.581413 0.464623 0.334848
0.709084 0.470520 0.313978
0.781077 0.465880 0.294378
0.216191 0.481944 0.335371
0.227787 0.481567 0.337264
0.276989 0.494283 0.353874
0.348126 0.508186 0.373038
0.428898 0.515200 0.385656
0.513901 0.515196 0.386802
0.614626 0.533490 0.390004
0.687822 0.545515 0.387456
0.247229 0.524570 0.361434
0.256301 0.525896 0.364038
0.296763 0.537464 0.378488
0.360150 0.551845 0.397654
0.437111 0.562851 0.415099
0.511083 0.563991 0.422088
0.582189 0.571934 0.426948
0.637616 0.581675 0.432654
0.272940 0.553229 0.380605
0.279284 0.554212 0.382529
0.312507 0.564201 0.394945
0.368365 0.578029 0.413440
0.440778 0.591161 0.433295
0.515716 0.598134 0.445420
0.574888 0.601046 0.451640
0.619867 0.606429 0.458869
0.161944 0.205278 0.292260
0.181051 0.197728 0.276605
0.249625 0.195344 0.276743
0.381055 0.203603 0.293699
0.566447 0.222524 0.322231
0.713199 0.232623 0.330714
0.783373 0.235592 0.325984
0.814524 0.234981 0.317382
0.141965 0.211834 0.267177
0.171875 0.216418 0.268127
0.237158 0.217156 0.270928
0.363856 0.221207 0.281258
0.553269 0.231618 0.299074
0.722566 0.238554 0.302968
0.805908 0.240771 0.295903
0.840945 0.239208 0.286716
0.131472 0.251014 0.262262
0.161245 0.252666 0.265645
0.224942 0.263364 0.279362
0.345965 0.275953 0.293392
0.529000 0.284454 0.299432
0.721210 0.282310 0.288175
0.819266 0.277269 0.272689
0.860883 0.270623 0.259614
0.141555 0.322855 0.282874
0.165017 0.317893 0.282923
0.227274 0.333635 0.303548
0.332455 0.352166 0.323134
0.482319 0.361640 0.326168
0.680859 0.363921 0.306556
0.797425 0.355535 0.281755
0.852756 0.344635 0.262455
0.175365 0.417640 0.326006
0.190698 0.410534 0.323410
0.249970 0.421345 0.340786
0.329033 0.435864 0.362518
0.421836 0.446903 0.375281
0.594173 0.469539 0.363173
0.727508 0.468274 0.335052
0.802546 0.458949 0.310835
0.211896 0.484585 0.358012
0.222748 0.481913 0.356894
0.273650 0.493749 0.372510
0.350491 0.511453 0.396002
0.439602 0.526598 0.417415
0.522032 0.524865 0.414613
0.628956 0.539374 0.409342
0.706644 0.547637 0.398956
0.243954 0.527725 0.379513
0.252631 0.527601 0.379561
0.293344 0.538252 0.392333
0.360523 0.555367 0.414207
0.444794 0.573026 0.438968
0.518617 0.574634 0.446059
0.591398 0.580200 0.446084
0.648294 0.587305 0.445958
0.270751 0.556213 0.395117
0.276431 0.556210 0.394854
0.308473 0.565215 0.405021
0.365954 0.580880 0.424692
0.443725 0.599208 0.450029
0.520611 0.607265 0.463979
0.580010 0.608891 0.468340
0.625273 0.612593 0.472399
0.216818 0.268849 0.387026
0.235767 0.262421 0.375249
0.276328 0.255181 0.366661
0.356937 0.256995 0.374202
0.483126 0.271827 0.401944
0.623121 0.285756 0.425882
0.700492 0.287371 0.428504
0.738403 0.285261 0.422252
0.201584 0.275173 0.364467
0.226500 0.276271 0.362374
0.265738 0.274380 0.359286
0.342949 0.275357 0.366105
0.470258 0.282319 0.387303
0.633912 0.290998 0.408029
0.728534 0.290734 0.408578
0.773024 0.286871 0.401068
0.175766 0.293619 0.342284
0.201216 0.292869 0.342002
0.254119 0.304613 0.353974
0.341615 0.315623 0.369459
0.469396 0.317870 0.381881
0.650958 0.316385 0.387899
0.761308 0.309760 0.380511
0.813634 0.301837 0.369660
0.160785 0.339491 0.338986
0.182054 0.333678 0.336330
0.245075 0.351321 0.356781
0.338552 0.371362 0.381043
0.459744 0.379784 0.394363
0.644967 0.378029 0.386991
0.772509 0.366101 0.367823
0.837620 0.353077 0.349848
0.170745 0.416146 0.362871
0.184820 0.407256 0.357234
0.243689 0.416402 0.371903
0.329738 0.437546 0.399108
0.436243 0.463089 0.426772
0.600327 0.474621 0.416744
0.742335 0.464111 0.387430
0.824394 0.448669 0.360482
0.206361 0.488409 0.393474
0.216437 0.484018 0.389872
0.266501 0.493146 0.402001
0.348657 0.513589 0.428069
0.450403 0.538889 0.460410
0.536129 0.541833 0.463541
0.653053 0.551307 0.449550
0.737754 0.553147 0.429337
0.239730 0.533045 0.411356
0.248004 0.531718 0.409069
0.287723 0.540402 0.418512
0.358723 0.559563 0.441645
0.453449 0.585260 0.474644
0.534610 0.594433 0.489867
0.610928 0.597757 0.485241
0.670656 0.600677 0.477013
0.267650 0.561083 0.422687
0.273387 0.560997 0.420747
0.303801 0.568496 0.427526
0.363049 0.585532 0.446978
0.448414 0.610200 0.477928
0.533602 0.625428 0.500361
0.594227 0.626822 0.504180
0.640182 0.628295 0.503723
0.257324 0.313774 0.454709
0.277535 0.311554 0.450763
0.318684 0.306267 0.446078
0.376186 0.301308 0.443656
0.448788 0.302435 0.448947
0.551350 0.330580 0.483075
0.620988 0.337645 0.498236
0.657958 0.338299 0.500741
0.249609 0.322733 0.440712
0.274754 0.327472 0.445133
0.313657 0.326837 0.444661
0.367277 0.323176 0.443217
0.439452 0.321690 0.447390
0.552797 0.343410 0.480673
0.638554 0.347738 0.496397
0.684343 0.345485 0.498256
0.231920 0.345174 0.425964
0.254949 0.345703 0.428200
0.304132 0.355442 0.438481
0.365615 0.362583 0.447598
0.436710 0.362146 0.453488
0.560103 0.371312 0.480678
0.667750 0.367024 0.492597
0.727656 0.359395 0.492404
0.204218 0.376811 0.412500
0.222194 0.370815 0.409109
0.279483 0.384752 0.424965
0.354993 0.403701 0.446581
0.440346 0.416430 0.465107
0.574669 0.416954 0.483210
0.705529 0.402871 0.483079
0.781715 0.387897 0.474448
0.175998 0.418269 0.406395
0.188997 0.409789 0.399475
0.243321 0.416761 0.410158
0.332095 0.441858 0.439674
0.448645 0.478565 0.481033
0.588769 0.481253 0.491774
0.736315 0.462962 0.473390
0.827065 0.442141 0.449742
0.202027 0.492764 0.436193
0.210899 0.487679 0.431577
0.256652 0.493166 0.439006
0.340323 0.513292 0.463882
0.453684 0.545685 0.503898
0.552108 0.563142 0.527528
0.680939 0.567561 0.510624
0.774474 0.560693 0.482831
0.235979 0.539616 0.453255
0.242708 0.537647 0.450105
0.279584 0.543920 0.455688
0.352029 0.562850 0.477022
0.456274 0.594032 0.514842
0.556219 0.620206 0.548939
0.639443 0.623495 0.544209
0.704657 0.621640 0.528415
0.265434 0.568183 0.462128
0.270027 0.567877 0.459644
0.298047 0.573849 0.463064
0.357798 0.590962 0.480066
0.449985 0.620204 0.513477
0.552786 0.650494 0.552471
0.618323 0.655384 0.560090
0.667071 0.655452 0.555562
0.278310 0.337028 0.487983
0.298374 0.336711 0.487257
0.337615 0.333430 0.486311
0.393823 0.328751 0.486316
0.463059 0.326421 0.489503
0.534590 0.342271 0.504749
0.587104 0.359972 0.523228
0.614883 0.368951 0.532222
0.275425 0.346572 0.479988
0.300083 0.355028 0.488988
0.338182 0.357169 0.492732
0.391076 0.354411 0.493828
0.458213 0.350374 0.495883
0.534295 0.359912 0.509378
0.595468 0.376218 0.529024
0.629086 0.383569 0.538401
0.265261 0.370325 0.471655
0.287464 0.374938 0.479189
0.333764 0.386209 0.492781
0.393101 0.393499 0.503735
0.458500 0.391889 0.508196
0.535830 0.393884 0.517501
0.611137 0.404933 0.537558
0.656272 0.408241 0.547728
0.245585 0.404364 0.464290
0.263103 0.402462 0.466555
0.314827 0.416630 0.484455
0.385893 0.434729 0.506592
0.464284 0.447167 0.524181
0.542401 0.446316 0.531519
0.634809 0.448058 0.549133
0.695591 0.443271 0.557332
0.218664 0.445877 0.460582
0.232366 0.441378 0.458893
0.279839 0.448176 0.470493
0.362058 0.471681 0.498711
0.469967 0.507843 0.538691
0.553462 0.514468 0.551783
0.664314 0.506348 0.563494
0.743621 0.490882 0.564614
0.204881 0.496222 0.471645
0.214230 0.491831 0.467274
0.254671 0.495463 0.473444
0.331550 0.511891 0.494443
0.441795 0.542309 0.530828
0.553959 0.577641 0.572108
0.685682 0.579916 0.578593
0.786103 0.565628 0.565629
0.233418 0.543562 0.490341
0.238697 0.541645 0.487455
0.271839 0.546692 0.492534
0.339665 0.562776 0.510593
0.442930 0.592323 0.544724
0.566832 0.636052 0.596282
0.664251 0.647216 0.610692
0.742542 0.644943 0.601484
0.264019 0.574611 0.502385
0.266861 0.574489 0.500572
0.292610 0.580310 0.504475
0.348723 0.595593 0.518963
0.439064 0.623318 0.548440
0.563886 0.669402 0.602160
0.646841 0.689523 0.626890
0.707616 0.694850 0.626766
0.287951 0.347993 0.502036
0.306894 0.347505 0.502335
0.343941 0.345454 0.503105
0.398043 0.341676 0.504500
0.465407 0.338205 0.507519
0.531523 0.347493 0.517667
0.578600 0.366010 0.534036
0.602195 0.376662 0.543685
0.287214 0.357513 0.498578
0.311543 0.367611 0.508736
0.347814 0.371015 0.513913
0.398601 0.368939 0.516182
0.463398 0.364267 0.518149
0.532177 0.368111 0.526395
0.584640 0.384498 0.543009
0.612231 0.394049 0.552803
0.281287 0.380930 0.494334
0.303486 0.388089 0.503585
0.346377 0.399605 0.518017
0.402557 0.406811 0.529791
0.466229 0.405501 0.534930
0.535610 0.404423 0.540573
0.596265 0.417372 0.556876
0.631059 0.424805 0.567155
0.267065 0.414994 0.490384
0.284791 0.416088 0.495244
0.331720 0.430064 0.513900
0.398053 0.447405 0.536680
0.473871 0.459989 0.555467
0.543782 0.458260 0.561574
0.613171 0.465144 0.576304
0.657632 0.467306 0.586044
0.244371 0.456531 0.488539
0.258580 0.455245 0.490425
0.301510 0.462764 0.503594
0.377531 0.485371 0.532586
0.479700 0.520091 0.573511
0.556510 0.527243 0.588443
0.635046 0.527295 0.601030
0.691781 0.521118 0.608298
0.222733 0.502119 0.495382
0.232740 0.500299 0.494888
0.270555 0.505080 0.503463
0.341496 0.521062 0.525248
0.445209 0.550814 0.562097
0.565911 0.593812 0.611543
0.662504 0.602144 0.628097
0.738525 0.592954 0.630779
0.235933 0.546166 0.512643
0.242840 0.545910 0.512567
0.274487 0.551207 0.519229
0.336903 0.565666 0.536719
0.432754 0.592511 0.568573
0.560948 0.638673 0.622049
0.661941 0.664951 0.654790
0.748163 0.669295 0.660490
0.260551 0.576897 0.526755
0.264792 0.577616 0.526769
0.289361 0.583348 0.531902
0.341125 0.597107 0.545948
0.424981 0.622082 0.572981
0.549004 0.667119 0.624245
0.657754 0.708346 0.671400
0.742014 0.725208 0.686596
0.292150 0.353531 0.507432
0.309855 0.352299 0.508079
0.345124 0.350769 0.509473
0.397525 0.347731 0.511477
0.463772 0.344158 0.514764
0.529912 0.350410 0.524077
0.575794 0.367186 0.538426
0.598296 0.377505 0.547599
0.291595 0.362191 0.506237
0.315584 0.372621 0.516629
0.350432 0.376479 0.522082
0.399523 0.374869 0.524595
0.462968 0.370290 0.526600
0.531119 0.371994 0.533949
0.581342 0.386081 0.548175
0.607424 0.395716 0.557680
0.286923 0.384791 0.503970
0.309942 0.393252 0.514114
0.350431 0.404191 0.528447
0.404122 0.410989 0.540143
0.467127 0.410371 0.545696
0.536454 0.408435 0.550993
0.592107 0.419869 0.564160
0.622786 0.428409 0.573463
0.275309 0.418384 0.501855
0.294438 0.421334 0.508314
0.338360 0.434497 0.526984
0.401056 0.450635 0.549715
0.475288 0.463012 0.569209
0.546331 0.461141 0.575494
0.606789 0.468592 0.586725
0.643000 0.473953 0.595241
0.256078 0.459841 0.501538
0.271335 0.460440 0.505394
0.311964 0.468472 0.519392
0.383283 0.489671 0.548798
0.480399 0.521480 0.590257
0.559724 0.528507 0.606009
0.624772 0.531817 0.616114
0.668258 0.531737 0.623752
0.234959 0.504867 0.508015
0.245811 0.504942 0.510176
0.282148 0.510774 0.520432
0.348142 0.526127 0.542838
0.444971 0.553957 0.580047
0.569864 0.599049 0.634477
0.648519 0.610276 0.653953
0.706434 0.607704 0.663633
0.238569 0.546966 0.524178
0.246621 0.547662 0.525770
0.277148 0.553153 0.533468
0.334641 0.566312 0.550786
0.422427 0.590366 0.581318
0.548685 0.634884 0.634711
0.654968 0.670188 0.678810
0.742070 0.682363 0.698424
0.258129 0.577601 0.541047
0.263388 0.578595 0.541925
0.287173 0.584214 0.547724
0.335229 0.596836 0.561548
0.412360 0.619260 0.586936
0.529912 0.660351 0.634467
0.654009 0.712687 0.694642
0.753381 0.741060 0.727344
