app/src/main/assets/cube/Kabukicho01.cube
# LUT by SparkleStock. Enhanced with VOXCOLOR algorithms.
LUT_3D_SIZE 5
DOMAIN_MIN 0.000000 0.000000 0.000000
DOMAIN_MAX 0.903226 0.903226 0.903226
0.109402 0.105495 0.121123
0.273717 0.116287 0.127457
0.613518 0.140644 0.135334
0.790657 0.154445 0.141581
0.811911 0.156146 0.144425
0.142826 0.192635 0.163945
0.211999 0.194410 0.168148
0.510310 0.211661 0.161963
0.765527 0.217271 0.154410
0.812076 0.208314 0.151140
0.194722 0.353775 0.242656
0.226203 0.355585 0.250763
0.355378 0.357665 0.247188
0.644338 0.387578 0.228233
0.773300 0.379370 0.207739
0.243074 0.495561 0.314215
0.269810 0.506335 0.325628
0.367093 0.533193 0.340852
0.507835 0.529887 0.326309
0.669411 0.567322 0.328752
0.279735 0.571397 0.360227
0.302710 0.583008 0.373523
0.388689 0.611905 0.395623
0.527271 0.629023 0.393503
0.639032 0.639003 0.389167
0.158896 0.161440 0.251069
0.216087 0.158692 0.231145
0.479746 0.174833 0.242107
0.732005 0.183364 0.245493
0.781851 0.179736 0.234848
0.156438 0.197414 0.226414
0.206663 0.207370 0.234273
0.439981 0.221576 0.234563
0.738957 0.217355 0.215195
0.806612 0.204618 0.199815
0.194758 0.341092 0.275796
0.227253 0.342700 0.283065
0.357550 0.365115 0.300425
0.655152 0.382910 0.260553
0.788998 0.358656 0.222453
0.246062 0.496229 0.342148
0.271036 0.503515 0.347855
0.377501 0.541188 0.378177
0.518310 0.539779 0.362213
0.686273 0.566641 0.341782
0.283094 0.572852 0.381617
0.299749 0.580958 0.385254
0.388308 0.616012 0.414578
0.530897 0.637485 0.417973
0.643285 0.642771 0.406896
0.208539 0.222663 0.415140
0.245761 0.217550 0.393110
0.372335 0.224358 0.381824
0.588833 0.255605 0.418413
0.677777 0.253543 0.418299
0.200682 0.252545 0.384770
0.238892 0.261318 0.386135
0.359146 0.274076 0.385774
0.609192 0.283612 0.402274
0.732509 0.266484 0.390714
0.205861 0.341523 0.373190
0.234191 0.339884 0.372420
0.359793 0.389075 0.420049
0.627268 0.396702 0.412047
0.794435 0.342119 0.352158
0.252348 0.497387 0.431570
0.271962 0.497724 0.427612
0.395800 0.547991 0.474799
0.563847 0.584393 0.497893
0.742181 0.579140 0.423289
0.290759 0.577251 0.459047
0.304648 0.583308 0.453465
0.401971 0.625908 0.485929
0.574992 0.677453 0.529301
0.679596 0.676721 0.504032
0.236520 0.258214 0.498980
0.272284 0.256362 0.492316
0.380657 0.258579 0.478016
0.523858 0.284203 0.489589
0.600234 0.310926 0.521816
0.232596 0.294414 0.494693
0.273839 0.309546 0.511840
0.378662 0.320512 0.511471
0.527536 0.334000 0.510334
0.634640 0.357089 0.541287
0.235762 0.379619 0.493338
0.264389 0.383811 0.503858
0.394510 0.438625 0.550950
0.553589 0.461790 0.565022
0.703136 0.448242 0.578049
0.257413 0.495915 0.515258
0.271610 0.492635 0.510807
0.377103 0.530594 0.546201
0.598576 0.619162 0.627330
0.786388 0.585671 0.598785
0.300677 0.587863 0.553991
0.312845 0.592269 0.552695
0.400588 0.629267 0.576594
0.616745 0.716156 0.657490
0.747721 0.740444 0.667609
0.242207 0.267998 0.515105
0.276006 0.264839 0.511707
0.379290 0.268205 0.501801
0.519196 0.289796 0.508399
0.590853 0.316546 0.534683
0.241398 0.304110 0.519753
0.282199 0.321329 0.541823
0.382029 0.332444 0.545704
0.528996 0.342737 0.541385
0.617899 0.370911 0.562226
0.246963 0.388724 0.529488
0.276005 0.397243 0.547875
0.399020 0.447489 0.597403
0.561034 0.470991 0.610958
0.665133 0.485475 0.621729
0.265054 0.503052 0.553212
0.282682 0.506515 0.561171
0.377676 0.542482 0.601004
0.612386 0.642586 0.690125
0.737100 0.652145 0.706834
0.305885 0.591105 0.593905
0.316774 0.595917 0.597741
0.390889 0.626668 0.622027
0.587435 0.704192 0.692641
0.783543 0.775607 0.762872
