app/src/main/assets/cube/Kabukicho04.cube
# LUT by SparkleStock. Enhanced with VOXCOLOR algorithms.
LUT_3D_SIZE 5
DOMAIN_MIN 0.000000 0.000000 0.000000
DOMAIN_MAX 0.903226 0.903226 0.903226
0.046886 0.070330 0.093773
0.221261 0.062744 0.104864
0.583654 0.053401 0.108819
0.800709 0.050289 0.104147
0.841569 0.050368 0.102013
0.087904 0.174619 0.157793
0.163987 0.171987 0.162932
0.477482 0.163590 0.146621
0.765134 0.141605 0.117945
0.836390 0.125098 0.108229
0.142432 0.357423 0.259443
0.177077 0.357546 0.270306
0.318158 0.352990 0.270112
0.633887 0.367187 0.234316
0.787769 0.346748 0.184726
0.183520 0.502162 0.339092
0.213976 0.512470 0.352601
0.320098 0.535411 0.380483
0.477534 0.529652 0.376789
0.662780 0.559620 0.355703
0.213455 0.576517 0.384237
0.240396 0.586257 0.398174
0.336246 0.610524 0.426763
0.493288 0.622687 0.436160
0.623034 0.625843 0.423857
0.108898 0.142731 0.234078
0.162726 0.134025 0.226653
0.435264 0.130933 0.259501
0.725717 0.114056 0.259045
0.796943 0.101601 0.239107
0.103581 0.184504 0.221616
0.157007 0.191248 0.237660
0.400085 0.187844 0.245422
0.734523 0.151176 0.211440
0.828324 0.126530 0.185655
0.142603 0.342537 0.292729
0.179077 0.341554 0.302986
0.320786 0.360301 0.328116
0.646538 0.362780 0.274388
0.806571 0.325175 0.207962
0.189371 0.500743 0.366837
0.216822 0.507782 0.374964
0.334626 0.542843 0.413764
0.490171 0.537726 0.407514
0.684108 0.561023 0.363498
0.219950 0.575439 0.405125
0.236859 0.583234 0.409334
0.337235 0.614152 0.444251
0.499366 0.631038 0.456470
0.629667 0.632847 0.438994
0.171208 0.225397 0.386790
0.204187 0.220291 0.383503
0.325251 0.223867 0.405049
0.558234 0.246998 0.456349
0.666766 0.234797 0.448829
0.159065 0.252023 0.369471
0.200783 0.262430 0.381236
0.320316 0.273884 0.405473
0.588855 0.268696 0.433802
0.737255 0.236162 0.415202
0.158507 0.334710 0.374962
0.191770 0.335405 0.381297
0.330339 0.387731 0.438466
0.622026 0.386643 0.435977
0.816130 0.317551 0.370946
0.203705 0.487361 0.440659
0.225924 0.490511 0.441279
0.363898 0.543677 0.491717
0.550112 0.578930 0.514551
0.753907 0.575893 0.430788
0.237177 0.569134 0.470196
0.251434 0.576874 0.467626
0.357906 0.622215 0.501817
0.554261 0.669429 0.540258
0.678080 0.666680 0.512177
0.205309 0.270991 0.463784
0.241231 0.271941 0.470743
0.342223 0.273380 0.487222
0.488876 0.294425 0.516629
0.576975 0.322008 0.542695
0.201308 0.302415 0.464464
0.248060 0.321161 0.490041
0.350040 0.334377 0.512526
0.500967 0.343849 0.532369
0.625205 0.363401 0.556193
0.197971 0.374966 0.472980
0.233467 0.382227 0.487685
0.378216 0.439981 0.543750
0.546410 0.463654 0.569943
0.716288 0.446837 0.582756
0.214981 0.475488 0.500543
0.231983 0.472889 0.501333
0.353456 0.516522 0.542486
0.602433 0.607048 0.618065
0.812288 0.584599 0.600821
0.262820 0.563049 0.543029
0.274804 0.568673 0.544127
0.371625 0.609701 0.571905
0.610903 0.704714 0.643702
0.762347 0.732103 0.648035
0.213014 0.280996 0.479554
0.247074 0.282615 0.488310
0.343500 0.285489 0.504692
0.483856 0.302267 0.532361
0.567373 0.327095 0.552466
0.211830 0.312885 0.486825
0.260733 0.333850 0.516006
0.357856 0.346040 0.537707
0.503422 0.354081 0.554676
0.605860 0.378778 0.572109
0.213701 0.384654 0.503148
0.250947 0.396696 0.524294
0.388159 0.448952 0.578003
0.558115 0.472245 0.602633
0.673910 0.482329 0.612433
0.226823 0.479726 0.530501
0.247969 0.485690 0.539916
0.359678 0.525254 0.582002
0.623227 0.627170 0.664865
0.759352 0.640245 0.686530
0.272395 0.560963 0.571166
0.284891 0.565866 0.575321
0.367549 0.598462 0.602736
0.586420 0.682968 0.670384
0.802452 0.767065 0.745053
