app/src/main/assets/cube/Kabukicho02.cube
# LUT by SparkleStock. Enhanced with VOXCOLOR algorithms.
LUT_3D_SIZE 8
DOMAIN_MIN 0.000000 0.000000 0.000000
DOMAIN_MAX 0.903226 0.903226 0.903226
0.113309 0.117216 0.125031
0.160952 0.118540 0.130135
0.297247 0.123613 0.137114
0.476269 0.132750 0.145575
0.653015 0.145016 0.154768
0.752838 0.154468 0.162141
0.794683 0.158565 0.164630
0.810493 0.160054 0.166552
0.131459 0.157864 0.150932
0.155975 0.160065 0.157353
0.260746 0.166846 0.159948
0.426132 0.175106 0.162346
0.619509 0.182413 0.166672
0.738652 0.187035 0.170972
0.792133 0.188253 0.173071
0.813365 0.186699 0.173554
0.163669 0.222616 0.192233
0.178745 0.223726 0.197795
0.233806 0.225691 0.199188
0.355238 0.234783 0.199274
0.541828 0.251375 0.199498
0.695429 0.254070 0.196681
0.772227 0.251338 0.194432
0.805939 0.246222 0.192119
0.202615 0.299579 0.239954
0.213947 0.299640 0.244309
0.237054 0.301048 0.248607
0.308239 0.309111 0.249663
0.444872 0.325246 0.246046
0.615988 0.338127 0.241277
0.722133 0.339481 0.234902
0.775976 0.335506 0.229659
0.241821 0.377352 0.286321
0.249658 0.377706 0.290200
0.275582 0.387559 0.300787
0.310796 0.392763 0.305779
0.362309 0.390742 0.300013
0.509860 0.422046 0.300843
0.639445 0.438440 0.294653
0.716794 0.443377 0.288821
0.273583 0.438418 0.322431
0.279078 0.440089 0.325578
0.303801 0.453333 0.338751
0.342308 0.468026 0.351416
0.391132 0.476873 0.355858
0.454667 0.477294 0.348199
0.554394 0.502323 0.354256
0.632377 0.522373 0.360060
0.299358 0.486250 0.352239
0.304341 0.489726 0.355630
0.326668 0.502875 0.369168
0.363843 0.519292 0.384544
0.412402 0.533136 0.394607
0.465106 0.535972 0.390411
0.531314 0.547133 0.391089
0.590706 0.562505 0.399788
0.316460 0.519044 0.372799
0.322644 0.523709 0.376629
0.343628 0.536081 0.390650
0.379056 0.552755 0.408043
0.427071 0.569938 0.422451
0.481361 0.579629 0.424031
0.533562 0.584405 0.422663
0.581253 0.593127 0.428729
0.140722 0.148411 0.184962
0.161726 0.145929 0.179674
0.250751 0.148544 0.183312
0.404622 0.152608 0.189442
0.600140 0.155780 0.193604
0.726162 0.159085 0.195562
0.780180 0.160937 0.196173
0.801552 0.161676 0.195735
0.139991 0.165786 0.180858
0.162345 0.172907 0.187313
0.238222 0.176484 0.191693
0.383036 0.177243 0.193291
0.584788 0.176477 0.192302
0.725485 0.178351 0.192093
0.787532 0.178930 0.191615
0.811049 0.177627 0.189638
0.162858 0.218463 0.205321
0.179218 0.221901 0.211950
0.227861 0.227816 0.219905
0.341329 0.236304 0.222955
0.524753 0.245601 0.218022
0.692853 0.245337 0.210639
0.775012 0.240895 0.205355
0.809087 0.234804 0.200792
0.199438 0.292535 0.246077
0.208871 0.290221 0.249233
0.238445 0.299706 0.261244
0.311774 0.313396 0.267870
0.441781 0.325798 0.261438
0.621004 0.335576 0.252122
0.730137 0.333269 0.241763
0.783528 0.326384 0.233929
0.240455 0.373693 0.291712
0.246210 0.370879 0.293216
0.275878 0.384594 0.308024
0.314821 0.395102 0.318087
0.367143 0.395792 0.314014
0.518721 0.425878 0.311175
0.650154 0.437567 0.299744
0.727204 0.438379 0.290211
0.273388 0.437247 0.327090
0.277707 0.437337 0.328769
0.304752 0.453380 0.344260
0.345789 0.471319 0.360116
0.395309 0.481290 0.366338
0.458793 0.481286 0.357275
0.561292 0.504765 0.360451
0.640534 0.522475 0.362663
0.299480 0.486226 0.355069
0.303155 0.487818 0.357331
0.326214 0.502621 0.371721
0.364830 0.521595 0.389181
0.414526 0.536960 0.401603
0.467537 0.539503 0.397611
0.534878 0.550033 0.396634
0.595064 0.564346 0.402822
0.318552 0.520373 0.375086
0.320940 0.522168 0.377278
0.341101 0.535118 0.391035
0.377245 0.553718 0.409543
0.426420 0.572493 0.426039
0.481895 0.582137 0.428558
0.534857 0.586693 0.426465
0.583021 0.595280 0.431090
0.172287 0.183221 0.258955
0.185003 0.179836 0.249910
0.235120 0.179666 0.247294
0.340704 0.184513 0.251467
0.500459 0.193172 0.260148
0.646771 0.192299 0.259800
0.719062 0.189298 0.256718
0.751802 0.186716 0.252525
0.166981 0.194534 0.244440
0.184735 0.199686 0.246406
0.230151 0.202048 0.247771
0.331084 0.203886 0.250365
0.494181 0.205693 0.254085
0.659994 0.201171 0.251192
0.743234 0.195960 0.246309
0.778391 0.190976 0.240284
0.173884 0.228112 0.244487
0.188598 0.230556 0.247478
0.227986 0.241497 0.259512
0.319177 0.251876 0.269007
0.473399 0.254715 0.268176
0.660732 0.244554 0.256427
0.757731 0.234321 0.246021
0.798941 0.225242 0.237104
0.197306 0.287603 0.265864
0.206232 0.284416 0.266044
0.240435 0.300826 0.285221
0.312414 0.318894 0.301969
0.432621 0.326718 0.302051
0.622202 0.325669 0.285921
0.738251 0.316396 0.269179
0.793816 0.305581 0.256280
0.236247 0.368634 0.307747
0.240718 0.363120 0.305913
0.271679 0.377638 0.323507
0.317919 0.396187 0.343196
0.383169 0.410125 0.351788
0.538638 0.433113 0.340544
0.673150 0.435587 0.321019
0.750219 0.429390 0.305086
0.271180 0.436336 0.342912
0.274882 0.434910 0.341918
0.302581 0.450861 0.358392
0.349649 0.474414 0.381601
0.410438 0.495435 0.400000
0.474295 0.494344 0.389215
0.582631 0.514102 0.384717
0.664581 0.527049 0.378775
0.298159 0.486564 0.368629
0.301446 0.487276 0.368854
0.324290 0.501588 0.382638
0.367224 0.524773 0.405023
0.426458 0.549560 0.428109
0.481833 0.553490 0.426540
0.551258 0.562188 0.421660
0.612368 0.573642 0.421801
0.318259 0.521240 0.386976
0.319861 0.522372 0.387326
0.338753 0.534678 0.398944
0.377106 0.556037 0.419950
0.433208 0.581683 0.444952
0.492597 0.593724 0.451407
0.546236 0.597715 0.448133
0.594494 0.605014 0.449411
0.201623 0.215266 0.329915
0.213668 0.212662 0.322407
0.243415 0.211052 0.316541
0.307360 0.216259 0.317435
0.413548 0.229455 0.326328
0.551737 0.235767 0.331603
0.633468 0.232713 0.328442
0.674788 0.228545 0.322666
0.197939 0.227726 0.316656
0.212416 0.230825 0.317052
0.239672 0.232996 0.316134
0.300928 0.236704 0.317838
0.409623 0.242346 0.323545
0.568767 0.242695 0.326266
0.665963 0.235818 0.321404
0.712520 0.228275 0.313688
0.195094 0.250147 0.302832
0.207470 0.251171 0.303500
0.240332 0.264580 0.316961
0.306223 0.276535 0.329878
0.415939 0.277785 0.333299
0.591421 0.268321 0.327181
0.702296 0.254884 0.316562
0.755174 0.243023 0.305514
0.204702 0.294260 0.304997
0.212543 0.290271 0.302639
0.247857 0.309048 0.324536
0.312630 0.330340 0.348852
0.413689 0.339752 0.359367
0.590927 0.333214 0.347452
0.717629 0.316519 0.328827
0.781982 0.300512 0.312196
0.232402 0.363441 0.331281
0.235554 0.355959 0.326296
0.264640 0.368564 0.343272
0.317607 0.394662 0.372596
0.399273 0.425488 0.401173
0.552430 0.438254 0.392105
0.693587 0.427301 0.367314
0.774392 0.410966 0.344459
0.268092 0.435729 0.367422
0.271041 0.432788 0.364127
0.296715 0.446070 0.378974
0.349001 0.473882 0.408751
0.424949 0.508626 0.443840
0.497467 0.514961 0.442973
0.615230 0.529334 0.430542
0.701184 0.533914 0.413429
0.296031 0.487819 0.392031
0.299060 0.487863 0.390482
0.320234 0.500296 0.402270
0.367303 0.526822 0.429108
0.439525 0.562914 0.465746
0.507263 0.577832 0.477314
0.581047 0.584963 0.469251
0.643363 0.591506 0.460785
0.316794 0.522855 0.408490
0.318717 0.524065 0.407554
0.335708 0.535147 0.416438
0.376446 0.558970 0.439605
0.442553 0.593220 0.474875
0.514323 0.615447 0.494515
0.570346 0.620388 0.492096
0.618616 0.625704 0.488815
0.224168 0.240009 0.385332
0.235609 0.238741 0.382563
0.265777 0.237740 0.379285
0.312984 0.239744 0.375697
0.377731 0.248128 0.374542
0.473840 0.272810 0.391380
0.547688 0.278382 0.394385
0.588768 0.277374 0.391395
0.222387 0.253530 0.377910
0.236784 0.258404 0.383414
0.263931 0.260771 0.384287
0.307344 0.262742 0.382242
0.372416 0.267699 0.381136
0.481136 0.287310 0.396525
0.572258 0.288452 0.399016
0.622184 0.283409 0.394463
0.222170 0.279514 0.369313
0.233115 0.280685 0.372627
0.264890 0.292569 0.385797
0.312070 0.304155 0.396483
0.376688 0.309485 0.399043
0.496474 0.317195 0.408825
0.609707 0.308600 0.406566
0.673233 0.297197 0.398729
0.224490 0.315274 0.361787
0.230044 0.310252 0.359346
0.262715 0.325997 0.378802
0.315678 0.349168 0.404472
0.389630 0.368052 0.424240
0.521073 0.367973 0.430154
0.655422 0.348542 0.418841
0.732748 0.328578 0.403627
0.232905 0.361494 0.361556
0.234607 0.353437 0.355261
0.259180 0.362503 0.368440
0.315476 0.393048 0.403898
0.409249 0.437995 0.453499
0.546760 0.442349 0.462355
0.693746 0.418785 0.440877
0.781425 0.392236 0.414958
0.265429 0.435410 0.397148
0.267183 0.431102 0.393039
0.288159 0.439970 0.403772
0.341386 0.468024 0.435726
0.429325 0.512740 0.485401
0.521751 0.539248 0.511042
0.651303 0.547815 0.496698
0.742439 0.540727 0.469974
0.293770 0.490029 0.422657
0.296084 0.489091 0.420352
0.314127 0.499006 0.429372
0.362441 0.526114 0.457724
0.445536 0.570196 0.505311
0.538918 0.608412 0.543802
0.621027 0.616469 0.537919
0.686084 0.617010 0.521525
0.315134 0.525909 0.438174
0.317073 0.526884 0.436961
0.331673 0.536700 0.443771
0.373447 0.561626 0.467490
0.448783 0.602738 0.510410
0.543846 0.644750 0.554404
0.606717 0.654894 0.558353
0.656400 0.658948 0.551389
0.237780 0.255323 0.418417
0.248489 0.254494 0.417698
0.276681 0.253932 0.416676
0.322925 0.255582 0.414637
0.385549 0.261844 0.412366
0.456483 0.279792 0.417202
0.512353 0.297172 0.427354
0.542205 0.305177 0.430823
0.236878 0.268112 0.413630
0.250769 0.274559 0.424129
0.277290 0.277855 0.428760
0.320420 0.279699 0.428698
0.381868 0.282931 0.426292
0.459747 0.297395 0.429793
0.526469 0.313158 0.440206
0.563628 0.319145 0.443263
0.238264 0.294504 0.410052
0.249091 0.297578 0.418900
0.279648 0.309399 0.435717
0.326121 0.320154 0.448272
0.386436 0.324897 0.450070
0.467307 0.333302 0.450485
0.549986 0.344055 0.460066
0.599922 0.345665 0.462544
0.241877 0.331753 0.407735
0.248003 0.329436 0.410941
0.278800 0.344382 0.433167
0.331043 0.366258 0.460106
0.400960 0.385994 0.480084
0.483999 0.392502 0.481891
0.584197 0.394267 0.488472
0.649556 0.387269 0.487653
0.248792 0.377936 0.408492
0.251717 0.373774 0.408042
0.274486 0.382167 0.422745
0.330311 0.411319 0.458127
0.420738 0.457864 0.508552
0.509504 0.473395 0.522776
0.626615 0.465984 0.525435
0.707993 0.447704 0.517672
0.266240 0.435166 0.423299
0.267290 0.430787 0.420276
0.284376 0.436621 0.429700
0.330730 0.459646 0.457556
0.412999 0.501925 0.504840
0.524557 0.551734 0.557719
0.659627 0.559116 0.566813
0.757338 0.542775 0.552541
0.292679 0.491395 0.450711
0.293495 0.489253 0.448510
0.308634 0.497142 0.457099
0.351360 0.520707 0.482467
0.430606 0.563013 0.528012
0.552923 0.623340 0.593893
0.652649 0.642369 0.611615
0.728953 0.642120 0.602851
0.313982 0.529849 0.469497
0.315084 0.530035 0.468775
0.328260 0.539053 0.476430
0.365930 0.561803 0.498318
0.438156 0.601895 0.539176
0.560953 0.664436 0.607165
0.644842 0.693295 0.634271
0.705029 0.703309 0.633941
0.243672 0.262602 0.434330
0.253650 0.261724 0.434318
0.280557 0.261805 0.434210
0.325440 0.263741 0.433294
0.386522 0.269040 0.431675
0.453138 0.283548 0.432681
0.504060 0.301899 0.441179
0.528996 0.312261 0.445053
0.243282 0.275269 0.431323
0.257141 0.282422 0.444437
0.282728 0.286273 0.450847
0.324635 0.288166 0.451948
0.384349 0.290477 0.449692
0.456115 0.301577 0.448909
0.515025 0.319064 0.457797
0.546256 0.328479 0.461955
0.245475 0.301124 0.430874
0.256660 0.305393 0.443040
0.285360 0.316637 0.461287
0.330194 0.326563 0.474899
0.389649 0.330970 0.477735
0.464019 0.337798 0.475086
0.533524 0.353297 0.483727
0.573808 0.361107 0.488107
0.250117 0.338072 0.431955
0.257022 0.337540 0.438664
0.285341 0.351379 0.462171
0.335392 0.371854 0.490200
0.404579 0.391436 0.511899
0.481155 0.397711 0.512761
0.560808 0.408374 0.519862
0.611531 0.411214 0.522858
0.257543 0.383945 0.434722
0.261782 0.382368 0.437938
0.282651 0.390544 0.454714
0.335845 0.418466 0.491413
0.424129 0.464201 0.543148
0.508372 0.480465 0.559600
0.597001 0.485483 0.565737
0.659070 0.479884 0.565569
0.270893 0.436808 0.444602
0.273030 0.435202 0.445490
0.289100 0.441544 0.457487
0.332314 0.463135 0.486304
0.411818 0.504213 0.534467
0.535547 0.564331 0.598036
0.639882 0.581411 0.617353
0.717192 0.573405 0.617049
0.292482 0.491007 0.469444
0.294504 0.490806 0.470455
0.308619 0.498602 0.480604
0.346933 0.519632 0.505205
0.419832 0.558200 0.548420
0.546463 0.622105 0.617162
0.653398 0.659323 0.656575
0.738033 0.668022 0.664985
0.312219 0.530556 0.490096
0.314154 0.531347 0.491085
0.326529 0.539886 0.499841
0.360273 0.560368 0.521018
0.425802 0.596721 0.559072
0.546540 0.658395 0.624903
0.659787 0.711358 0.680148
0.742491 0.734354 0.699277
0.245973 0.265509 0.440766
0.255060 0.264484 0.440955
0.280605 0.264911 0.441256
0.324241 0.267150 0.441172
0.384689 0.272242 0.440678
0.451951 0.285397 0.441550
0.501918 0.303186 0.447901
0.525395 0.313846 0.450405
0.245942 0.278017 0.438735
0.259888 0.285029 0.453013
0.284188 0.289304 0.459875
0.324384 0.291538 0.461274
0.382714 0.293575 0.459378
0.453984 0.303217 0.458016
0.511199 0.319890 0.464471
0.541117 0.330081 0.468260
0.248085 0.302932 0.440009
0.260063 0.307946 0.454035
0.287249 0.318579 0.472339
0.330164 0.328012 0.485891
0.388604 0.332667 0.489362
0.462936 0.338311 0.486085
0.528129 0.353823 0.492136
0.564688 0.363681 0.496477
0.252949 0.339148 0.443037
0.260975 0.340017 0.451871
0.287736 0.352867 0.475561
0.335578 0.372061 0.503553
0.403516 0.391215 0.525886
0.481131 0.396260 0.526422
0.552699 0.408736 0.531189
0.595875 0.416018 0.534702
0.261052 0.384962 0.447304
0.266361 0.384665 0.452555
0.286086 0.392964 0.470571
0.336566 0.419457 0.507654
0.421962 0.462468 0.559164
0.508555 0.477498 0.576327
0.584865 0.486438 0.581302
0.635174 0.488428 0.583340
0.273927 0.437270 0.456379
0.277063 0.437228 0.459873
0.292587 0.444297 0.473819
0.332898 0.464817 0.503208
0.408470 0.503642 0.551152
0.537940 0.567478 0.619798
0.626208 0.587575 0.642014
0.688281 0.587818 0.648574
0.292757 0.489929 0.478906
0.295233 0.490496 0.481821
0.308536 0.498258 0.493226
0.343012 0.517277 0.517400
0.409095 0.551861 0.558398
0.532637 0.614132 0.626292
0.647208 0.662559 0.678718
0.734441 0.681179 0.702212
0.311415 0.531294 0.502892
0.313371 0.531456 0.504132
0.325033 0.539477 0.513495
0.355542 0.558157 0.534236
0.414434 0.590681 0.569842
0.526495 0.647347 0.630769
0.657664 0.713841 0.701690
0.756221 0.749890 0.739998
