app/src/main/assets/cube/Kabukicho04.cube
# LUT by SparkleStock. Enhanced with VOXCOLOR algorithms.
LUT_3D_SIZE 32
0.046886 0.070330 0.093773
0.062389 0.069432 0.095333
0.077892 0.068534 0.096892
0.093395 0.067636 0.098452
0.108898 0.066738 0.100012
0.124400 0.065840 0.101572
0.169837 0.064351 0.103210
0.221261 0.062744 0.104864
0.272685 0.061137 0.106519
0.324109 0.059530 0.108173
0.375533 0.057923 0.109827
0.427398 0.056662 0.110095
0.479483 0.055575 0.109670
0.531569 0.054488 0.109244
0.583654 0.053401 0.108819
0.635740 0.052314 0.108393
0.674969 0.051629 0.107803
0.701343 0.051345 0.107046
0.727717 0.051061 0.106290
0.754090 0.050778 0.105534
0.780464 0.050494 0.104778
0.800709 0.050289 0.104147
0.808697 0.050242 0.103769
0.816684 0.050195 0.103391
0.824672 0.050148 0.103013
0.832660 0.050100 0.102635
0.839490 0.050085 0.102296
0.840529 0.050226 0.102154
0.841569 0.050368 0.102013
0.842609 0.050510 0.101871
0.843649 0.050652 0.101729
0.844689 0.050794 0.101587
0.051991 0.081626 0.101099
0.065399 0.080984 0.102622
0.078807 0.080342 0.104145
0.092215 0.079700 0.105668
0.105623 0.079058 0.107191
0.119030 0.078416 0.108715
0.162365 0.077108 0.109844
0.211685 0.075665 0.110894
0.261005 0.074223 0.111945
0.310324 0.072781 0.112995
0.359644 0.071338 0.114046
0.411692 0.069773 0.113777
0.465104 0.068146 0.112848
0.518516 0.066519 0.111920
0.571928 0.064892 0.110991
0.625340 0.063266 0.110063
0.665818 0.062054 0.109088
0.693363 0.061258 0.108066
0.720908 0.060463 0.107045
0.748452 0.059667 0.106023
0.775997 0.058871 0.105002
0.797221 0.058242 0.104189
0.805803 0.057948 0.103792
0.814385 0.057654 0.103396
0.822968 0.057359 0.102999
0.831550 0.057065 0.102603
0.838896 0.056815 0.102252
0.840064 0.056783 0.102129
0.841232 0.056751 0.102005
0.842400 0.056718 0.101882
0.843568 0.056686 0.101758
0.844736 0.056654 0.101635
0.057096 0.092922 0.108425
0.068409 0.092536 0.109911
0.079722 0.092151 0.111398
0.091035 0.091765 0.112885
0.102348 0.091379 0.114371
0.113661 0.090993 0.115858
0.154893 0.089864 0.116478
0.202108 0.088587 0.116924
0.249324 0.087309 0.117371
0.296540 0.086031 0.117818
0.343756 0.084754 0.118265
0.395987 0.082883 0.117459
0.450725 0.080717 0.116027
0.505464 0.078550 0.114596
0.560202 0.076384 0.113164
0.614940 0.074217 0.111732
0.656667 0.072480 0.110373
0.685383 0.071172 0.109086
0.714098 0.069864 0.107800
0.742814 0.068555 0.106513
0.771529 0.067247 0.105226
0.793732 0.066195 0.104230
0.802909 0.065654 0.103815
0.812086 0.065112 0.103400
0.821263 0.064571 0.102986
0.830440 0.064030 0.102571
0.838303 0.063544 0.102208
0.839599 0.063339 0.102103
0.840895 0.063133 0.101997
0.842191 0.062927 0.101892
0.843487 0.062721 0.101787
0.844783 0.062515 0.101682
0.062200 0.104218 0.115751
0.071418 0.104089 0.117201
0.080636 0.103959 0.118651
0.089855 0.103830 0.120101
0.099073 0.103700 0.121551
0.108291 0.103570 0.123001
0.147420 0.102621 0.123111
0.192532 0.101508 0.122954
0.237644 0.100395 0.122797
0.282755 0.099282 0.122640
0.327867 0.098169 0.122483
0.380281 0.095994 0.121141
0.436346 0.093288 0.119206
0.492411 0.090582 0.117272
0.548476 0.087875 0.115337
0.604541 0.085169 0.113402
0.647516 0.082906 0.111658
0.677403 0.081085 0.110106
0.707289 0.079265 0.108554
0.737176 0.077444 0.107002
0.767062 0.075624 0.105450
0.790244 0.074147 0.104271
0.800015 0.073359 0.103838
0.809787 0.072571 0.103405
0.819558 0.071783 0.102972
0.829330 0.070994 0.102539
0.837710 0.070274 0.102164
0.839134 0.069895 0.102077
0.840558 0.069515 0.101990
0.841982 0.069135 0.101903
0.843406 0.068756 0.101816
0.844830 0.068376 0.101729
0.067305 0.115515 0.123077
0.074428 0.115641 0.124490
0.081551 0.115768 0.125904
0.088674 0.115894 0.127317
0.095798 0.116021 0.128730
0.102921 0.116147 0.130144
0.139948 0.115378 0.129745
0.182956 0.114430 0.128984
0.225963 0.113481 0.128224
0.268971 0.112533 0.127463
0.311979 0.111585 0.126702
0.364575 0.109105 0.124823
0.421967 0.105859 0.122385
0.479358 0.102613 0.119947
0.536750 0.099367 0.117509
0.594141 0.096121 0.115071
0.638365 0.093331 0.112944
0.669423 0.090999 0.111126
0.700480 0.088666 0.109309
0.731538 0.086333 0.107492
0.762595 0.084000 0.105674
0.786755 0.082100 0.104312
0.797121 0.081065 0.103861
0.807488 0.080030 0.103410
0.817854 0.078994 0.102958
0.828220 0.077959 0.102507
0.837117 0.077004 0.102119
0.838669 0.076451 0.102051
0.840221 0.075897 0.101982
0.841773 0.075344 0.101914
0.843326 0.074790 0.101845
0.844878 0.074237 0.101776
0.072409 0.126811 0.130403
0.077438 0.127194 0.131780
0.082466 0.127576 0.133156
0.087494 0.127959 0.134533
0.092523 0.128342 0.135910
0.097551 0.128724 0.137287
0.132475 0.128135 0.136379
0.173379 0.127351 0.135015
0.214283 0.126568 0.133650
0.255186 0.125784 0.132285
0.296090 0.125000 0.130921
0.348870 0.122215 0.128505
0.407588 0.118429 0.125564
0.466306 0.114644 0.122623
0.525023 0.110858 0.119682
0.583741 0.107072 0.116741
0.629214 0.103757 0.114229
0.661443 0.100912 0.112146
0.693671 0.098067 0.110064
0.725899 0.095222 0.107981
0.758128 0.092377 0.105898
0.783267 0.090053 0.104353
0.794228 0.088770 0.103884
0.805188 0.087488 0.103414
0.816149 0.086206 0.102945
0.827110 0.084924 0.102475
0.836524 0.083734 0.102075
0.838204 0.083007 0.102025
0.839884 0.082279 0.101975
0.841565 0.081552 0.101924
0.843245 0.080825 0.101874
0.844925 0.080098 0.101824
0.079916 0.149569 0.143519
0.084420 0.149826 0.144882
0.088924 0.150084 0.146245
0.093428 0.150342 0.147608
0.097932 0.150599 0.148971
0.102436 0.150857 0.150334
0.132756 0.149952 0.149512
0.168239 0.148815 0.148252
0.203723 0.147677 0.146993
0.239206 0.146540 0.145734
0.274690 0.145403 0.144474
0.325760 0.143360 0.141885
0.384622 0.140864 0.138632
0.443485 0.138368 0.135378
0.502348 0.135872 0.132125
0.561210 0.133376 0.128871
0.608058 0.130457 0.125662
0.642890 0.127115 0.122499
0.677723 0.123773 0.119335
0.712555 0.120431 0.116171
0.747388 0.117089 0.113008
0.774708 0.114209 0.110535
0.787002 0.112253 0.109445
0.799297 0.110296 0.108355
0.811592 0.108340 0.107265
0.823887 0.106384 0.106175
0.834451 0.104567 0.105232
0.836358 0.103445 0.105024
0.838265 0.102323 0.104817
0.840173 0.101201 0.104609
0.842080 0.100078 0.104402
0.843988 0.098956 0.104195
0.087904 0.174619 0.157793
0.092198 0.174675 0.159147
0.096491 0.174732 0.160501
0.100785 0.174788 0.161854
0.105078 0.174845 0.163208
0.109371 0.174901 0.164562
0.134587 0.173581 0.163944
0.163987 0.171987 0.162932
0.193387 0.170392 0.161920
0.222787 0.168797 0.160907
0.252187 0.167202 0.159895
0.301168 0.166111 0.157205
0.359939 0.165270 0.153677
0.418711 0.164430 0.150149
0.477482 0.163590 0.146621
0.536253 0.162750 0.143093
0.584500 0.160412 0.139125
0.622223 0.156576 0.134717
0.659947 0.152740 0.130309
0.697670 0.148904 0.125902
0.735393 0.145068 0.121494
0.765134 0.141605 0.117945
0.778911 0.138890 0.116114
0.792688 0.136175 0.114283
0.806465 0.133459 0.112452
0.820242 0.130744 0.110620
0.832081 0.128221 0.109028
0.834236 0.126659 0.108628
0.836390 0.125098 0.108229
0.838545 0.123537 0.107830
0.840699 0.121976 0.107430
0.842853 0.120414 0.107031
0.095892 0.199669 0.172067
0.099975 0.199524 0.173411
0.104058 0.199379 0.174756
0.108141 0.199235 0.176101
0.112224 0.199090 0.177446
0.116307 0.198945 0.178790
0.136418 0.197211 0.178377
0.159735 0.195158 0.177611
0.183052 0.193106 0.176846
0.206368 0.191054 0.176081
0.229685 0.189002 0.175315
0.276577 0.188862 0.172525
0.335257 0.189677 0.168723
0.393936 0.190493 0.164920
0.452616 0.191309 0.161118
0.511296 0.192124 0.157315
0.560943 0.190367 0.152588
0.601557 0.186037 0.146936
0.642171 0.181707 0.141284
0.682785 0.177377 0.135632
0.723399 0.173047 0.129980
0.755561 0.169002 0.125355
0.770820 0.165527 0.122783
0.786079 0.162053 0.120211
0.801337 0.158578 0.117638
0.816596 0.155103 0.115066
0.829712 0.151874 0.112824
0.832113 0.149874 0.112233
0.834515 0.147874 0.111641
0.836916 0.145873 0.111050
0.839318 0.143873 0.110458
0.841719 0.141872 0.109866
0.103880 0.224719 0.186341
0.107752 0.224373 0.187676
0.111625 0.224027 0.189012
0.115498 0.223681 0.190347
0.119370 0.223335 0.191683
0.123243 0.222989 0.193019
0.138249 0.220840 0.192809
0.155483 0.218330 0.192291
0.172716 0.215821 0.191772
0.189949 0.213311 0.191254
0.207182 0.210801 0.190736
0.251986 0.211613 0.187845
0.310574 0.214084 0.183768
0.369162 0.216556 0.179691
0.427750 0.219027 0.175614
0.486339 0.221499 0.171537
0.537385 0.220322 0.166051
0.580890 0.215498 0.159155
0.624395 0.210674 0.152258
0.667899 0.205850 0.145362
0.711404 0.201026 0.138466
0.745988 0.196399 0.132765
0.762728 0.192165 0.129452
0.779469 0.187931 0.126138
0.796210 0.183697 0.122825
0.812951 0.179463 0.119512
0.827343 0.175528 0.116621
0.829991 0.173088 0.115837
0.832639 0.170649 0.115053
0.835288 0.168209 0.114270
0.837936 0.165770 0.113486
0.840585 0.163331 0.112702
0.111867 0.249770 0.200614
0.115530 0.249222 0.201941
0.119192 0.248675 0.203267
0.122854 0.248128 0.204594
0.126516 0.247580 0.205920
0.130179 0.247033 0.207247
0.140080 0.244469 0.207242
0.151230 0.241502 0.206970
0.162380 0.238535 0.206699
0.173530 0.235568 0.206427
0.184680 0.232601 0.206156
0.227394 0.234364 0.203165
0.285891 0.238491 0.198813
0.344388 0.242618 0.194462
0.402885 0.246745 0.190111
0.461381 0.250873 0.185759
0.513828 0.250277 0.179513
0.560223 0.244959 0.171373
0.606619 0.239641 0.163233
0.653014 0.234323 0.155093
0.699410 0.229005 0.146953
0.736414 0.223795 0.140174
0.754637 0.218802 0.136120
0.772860 0.213809 0.132066
0.791082 0.208816 0.128012
0.809305 0.203822 0.123958
0.824973 0.199182 0.120417
0.827869 0.196303 0.119441
0.830764 0.193424 0.118466
0.833659 0.190546 0.117490
0.836555 0.187667 0.116514
0.839450 0.184789 0.115538
0.119603 0.276175 0.215203
0.123073 0.275640 0.216490
0.126543 0.275104 0.217777
0.130013 0.274569 0.219064
0.133484 0.274034 0.220351
0.136954 0.273499 0.221638
0.145368 0.271369 0.222142
0.154770 0.268921 0.222489
0.164173 0.266472 0.222837
0.173575 0.264023 0.223185
0.182978 0.261575 0.223532
0.221491 0.263097 0.220914
0.274560 0.266606 0.216812
0.327629 0.270114 0.212711
0.380698 0.273622 0.208610
0.433767 0.277130 0.204508
0.484301 0.276954 0.198449
0.532301 0.273094 0.190430
0.580300 0.269233 0.182412
0.628300 0.265373 0.174394
0.676299 0.261513 0.166376
0.715162 0.257339 0.159312
0.735751 0.252537 0.154157
0.756340 0.247736 0.149002
0.776929 0.242935 0.143847
0.797518 0.238134 0.138693
0.815273 0.233624 0.134170
0.818854 0.230568 0.132807
0.822435 0.227513 0.131444
0.826017 0.224457 0.130080
0.829598 0.221402 0.128717
0.833180 0.218347 0.127354
0.127213 0.303257 0.229950
0.130500 0.302841 0.231182
0.133787 0.302425 0.232414
0.137074 0.302009 0.233646
0.140361 0.301592 0.234878
0.143648 0.301176 0.236110
0.152382 0.299905 0.237275
0.162206 0.298463 0.238428
0.172029 0.297020 0.239581
0.181853 0.295578 0.240733
0.191676 0.294136 0.241886
0.224933 0.294823 0.239878
0.269906 0.296574 0.236289
0.314879 0.298326 0.232699
0.359852 0.300078 0.229110
0.404825 0.301830 0.225521
0.451791 0.301992 0.220120
0.500751 0.300565 0.212907
0.549711 0.299138 0.205694
0.598671 0.297711 0.198481
0.647631 0.296284 0.191267
0.688070 0.293955 0.184314
0.711468 0.289821 0.177878
0.734865 0.285688 0.171442
0.758263 0.281555 0.165007
0.781660 0.277421 0.158571
0.801906 0.273460 0.152900
0.806393 0.270359 0.151052
0.810880 0.267258 0.149204
0.815367 0.264157 0.147356
0.819854 0.261055 0.145509
0.824341 0.257954 0.143661
0.134822 0.330340 0.244697
0.137926 0.330043 0.245874
0.141031 0.329745 0.247051
0.144135 0.329448 0.248228
0.147239 0.329151 0.249405
0.150343 0.328853 0.250582
0.159397 0.328440 0.252409
0.169642 0.328004 0.254367
0.179886 0.327568 0.256325
0.190130 0.327132 0.258282
0.200374 0.326696 0.260240
0.228374 0.326548 0.258841
0.265251 0.326543 0.255765
0.302128 0.326539 0.252688
0.339005 0.326534 0.249611
0.375882 0.326530 0.246534
0.419281 0.327030 0.241792
0.469201 0.328037 0.235384
0.519122 0.329043 0.228975
0.569042 0.330049 0.222567
0.618963 0.331055 0.216159
0.660978 0.330571 0.209315
0.687184 0.327106 0.201599
0.713390 0.323640 0.193882
0.739596 0.320174 0.186166
0.765802 0.316709 0.178450
0.788539 0.313296 0.171631
0.793932 0.310150 0.169298
0.799325 0.307003 0.166965
0.804717 0.303856 0.164632
0.810110 0.300709 0.162300
0.815503 0.297562 0.159967
0.142432 0.357423 0.259443
0.145353 0.357244 0.260565
0.148274 0.357066 0.261687
0.151196 0.356887 0.262810
0.154117 0.356709 0.263932
0.157038 0.356531 0.265054
0.166412 0.356976 0.267543
0.177077 0.357546 0.270306
0.187742 0.358116 0.273068
0.198407 0.358687 0.275831
0.209073 0.359257 0.278594
0.231815 0.358273 0.277805
0.260596 0.356512 0.275241
0.289377 0.354751 0.272676
0.318158 0.352990 0.270112
0.346939 0.351229 0.267547
0.386770 0.352068 0.263463
0.437651 0.355508 0.257860
0.488532 0.358948 0.252257
0.539413 0.362387 0.246654
0.590295 0.365827 0.241051
0.633887 0.367187 0.234316
0.662901 0.364390 0.225319
0.691915 0.361592 0.216322
0.720930 0.358794 0.207325
0.749944 0.355996 0.198328
0.775172 0.353133 0.190361
0.781471 0.349940 0.187544
0.787769 0.346748 0.184726
0.794068 0.343555 0.181908
0.800366 0.340362 0.179091
0.806664 0.337170 0.176273
0.150041 0.384505 0.274190
0.152780 0.384446 0.275257
0.155518 0.384386 0.276324
0.158256 0.384327 0.277391
0.160995 0.384267 0.278459
0.163733 0.384208 0.279526
0.173427 0.385512 0.282677
0.184513 0.387088 0.286245
0.195599 0.388665 0.289812
0.206685 0.390241 0.293380
0.217771 0.391818 0.296948
0.235256 0.389998 0.296769
0.255941 0.386481 0.294717
0.276626 0.382963 0.292664
0.297311 0.379446 0.290612
0.317996 0.375929 0.288560
0.354260 0.377106 0.285135
0.406101 0.382979 0.280337
0.457943 0.388852 0.275539
0.509785 0.394725 0.270741
0.561626 0.400598 0.265942
0.606795 0.403804 0.259318
0.638618 0.401674 0.249040
0.670440 0.399544 0.238762
0.702263 0.397414 0.228485
0.734086 0.395284 0.218207
0.761806 0.392969 0.209092
0.769010 0.389731 0.205789
0.776214 0.386492 0.202487
0.783418 0.383254 0.199184
0.790622 0.380016 0.195882
0.797826 0.376777 0.192579
0.156564 0.407712 0.286880
0.159156 0.407758 0.287906
0.161748 0.407803 0.288932
0.164340 0.407849 0.289958
0.166932 0.407895 0.290985
0.169524 0.407941 0.292011
0.179335 0.409861 0.295563
0.190590 0.412155 0.299620
0.201845 0.414450 0.303677
0.213100 0.416744 0.307734
0.224355 0.419039 0.311791
0.239363 0.417306 0.312266
0.256247 0.413560 0.310951
0.273131 0.409814 0.309635
0.290015 0.406068 0.308319
0.306899 0.402322 0.307003
0.340073 0.403536 0.304282
0.389536 0.409711 0.300157
0.438999 0.415886 0.296031
0.488462 0.422061 0.291905
0.537925 0.428236 0.287779
0.581955 0.432002 0.281653
0.615118 0.430952 0.271527
0.648281 0.429901 0.261400
0.681444 0.428851 0.251273
0.714607 0.427800 0.241146
0.743632 0.426458 0.232109
0.751971 0.423654 0.228523
0.760309 0.420850 0.224937
0.768648 0.418046 0.221351
0.776986 0.415242 0.217765
0.785324 0.412438 0.214179
0.161999 0.427043 0.297515
0.164481 0.427180 0.298513
0.166964 0.427318 0.299512
0.169446 0.427455 0.300511
0.171928 0.427592 0.301509
0.174410 0.427729 0.302508
0.184134 0.430023 0.306200
0.195307 0.432747 0.310431
0.206480 0.435472 0.314662
0.217653 0.438196 0.318893
0.228825 0.440921 0.323124
0.244135 0.440198 0.324297
0.261513 0.437751 0.323942
0.278891 0.435304 0.323587
0.296269 0.432856 0.323232
0.313647 0.430409 0.322876
0.344209 0.431359 0.320906
0.387955 0.435704 0.317320
0.431701 0.440049 0.313734
0.475446 0.444394 0.310148
0.519192 0.448740 0.306562
0.559367 0.451783 0.301323
0.592402 0.452224 0.292779
0.625437 0.452665 0.284235
0.658472 0.453105 0.275690
0.691507 0.453546 0.267146
0.720653 0.453598 0.259415
0.730354 0.451709 0.255746
0.740056 0.449820 0.252078
0.749757 0.447931 0.248410
0.759458 0.446042 0.244741
0.769160 0.444153 0.241073
0.167435 0.446374 0.308149
0.169807 0.446603 0.309120
0.172179 0.446832 0.310092
0.174552 0.447061 0.311063
0.176924 0.447289 0.312034
0.179297 0.447518 0.313005
0.188934 0.450185 0.316838
0.200024 0.453339 0.321242
0.211115 0.456494 0.325647
0.222205 0.459648 0.330052
0.233296 0.462803 0.334457
0.248907 0.463089 0.336329
0.266779 0.461941 0.336934
0.284651 0.460793 0.337539
0.302523 0.459645 0.338144
0.320396 0.458497 0.338750
0.348346 0.459181 0.337529
0.386374 0.461696 0.334483
0.424402 0.464212 0.331437
0.462430 0.466728 0.328390
0.500458 0.469243 0.325344
0.536779 0.471564 0.320993
0.569686 0.473496 0.314031
0.602593 0.475428 0.307069
0.635500 0.477360 0.300108
0.668407 0.479291 0.293146
0.697673 0.480739 0.286720
0.708737 0.479765 0.282969
0.719802 0.478790 0.279218
0.730866 0.477816 0.275468
0.741931 0.476842 0.271717
0.752995 0.475868 0.267966
0.172870 0.465706 0.318784
0.175133 0.466026 0.319727
0.177395 0.466346 0.320671
0.179658 0.466666 0.321615
0.181921 0.466986 0.322559
0.184183 0.467307 0.323503
0.193734 0.470347 0.327475
0.204742 0.473931 0.332054
0.215750 0.477516 0.336632
0.226758 0.481100 0.341211
0.237766 0.484685 0.345790
0.253679 0.485980 0.348360
0.272045 0.486131 0.349925
0.290412 0.486282 0.351491
0.308778 0.486433 0.353057
0.327144 0.486584 0.354623
0.352482 0.487003 0.354153
0.384793 0.487689 0.351646
0.417103 0.488375 0.349140
0.449414 0.489061 0.346633
0.481725 0.489747 0.344126
0.514191 0.491345 0.340662
0.546970 0.494768 0.335283
0.579749 0.498191 0.329904
0.612528 0.501614 0.324525
0.645306 0.505037 0.319146
0.674693 0.507879 0.314025
0.687121 0.507820 0.310192
0.699548 0.507760 0.306359
0.711976 0.507701 0.302526
0.724403 0.507641 0.298693
0.736831 0.507582 0.294860
0.178306 0.485037 0.329418
0.180458 0.485448 0.330335
0.182611 0.485860 0.331251
0.184764 0.486272 0.332167
0.186917 0.486683 0.333084
0.189070 0.487095 0.334000
0.198533 0.490509 0.338113
0.209459 0.494524 0.342865
0.220385 0.498538 0.347618
0.231310 0.502552 0.352370
0.242236 0.506567 0.357122
0.258452 0.508872 0.360391
0.277312 0.510322 0.362917
0.296172 0.511772 0.365444
0.315032 0.513221 0.367970
0.333892 0.514671 0.370496
0.356619 0.514825 0.370776
0.383212 0.513681 0.368809
0.409805 0.512538 0.366842
0.436398 0.511394 0.364876
0.462991 0.510251 0.362909
0.491604 0.511126 0.360332
0.524254 0.516040 0.356536
0.556905 0.520954 0.352739
0.589556 0.525868 0.348943
0.622206 0.530782 0.345146
0.651714 0.535020 0.341330
0.665504 0.535875 0.337415
0.679295 0.536731 0.333500
0.693085 0.537586 0.329584
0.706876 0.538441 0.325669
0.720666 0.539297 0.321754
0.183520 0.502162 0.339092
0.185588 0.502644 0.339990
0.187655 0.503126 0.340888
0.189723 0.503608 0.341786
0.191790 0.504090 0.342684
0.193858 0.504571 0.343582
0.203190 0.508205 0.347763
0.213976 0.512470 0.352601
0.224761 0.516734 0.357439
0.235547 0.520999 0.362276
0.246332 0.525263 0.367114
0.262686 0.528271 0.370864
0.281823 0.530651 0.374071
0.300961 0.533031 0.377277
0.320098 0.535411 0.380483
0.339236 0.537791 0.383690
0.360238 0.537902 0.384558
0.383105 0.535743 0.383088
0.405972 0.533584 0.381618
0.428839 0.531425 0.380149
0.451706 0.529266 0.378679
0.477534 0.529652 0.376789
0.509285 0.535127 0.374060
0.541036 0.540602 0.371331
0.572787 0.546077 0.368602
0.604538 0.551552 0.365873
0.633442 0.556384 0.362991
0.648111 0.558002 0.359347
0.662780 0.559620 0.355703
0.677449 0.561237 0.352059
0.692118 0.562855 0.348415
0.706786 0.564473 0.344771
0.188294 0.514877 0.346843
0.190325 0.515386 0.347741
0.192356 0.515895 0.348639
0.194387 0.516404 0.349537
0.196418 0.516913 0.350435
0.198448 0.517423 0.351333
0.207561 0.520970 0.355438
0.218091 0.525125 0.360184
0.228620 0.529279 0.364931
0.239149 0.533434 0.369677
0.249679 0.537589 0.374423
0.265843 0.540688 0.378222
0.284825 0.543260 0.381548
0.303807 0.545833 0.384873
0.322789 0.548405 0.388198
0.341771 0.550977 0.391523
0.362824 0.551490 0.392657
0.385947 0.549944 0.391599
0.409070 0.548398 0.390541
0.432193 0.546852 0.389483
0.455316 0.545306 0.388425
0.480501 0.545667 0.386822
0.509810 0.549843 0.384129
0.539118 0.554019 0.381436
0.568427 0.558195 0.378744
0.597735 0.562371 0.376051
0.624589 0.566197 0.373363
0.639166 0.568272 0.370698
0.653743 0.570347 0.368033
0.668321 0.572422 0.365368
0.682898 0.574497 0.362703
0.697475 0.576573 0.360038
0.193068 0.527591 0.354595
0.195062 0.528127 0.355493
0.197056 0.528664 0.356391
0.199051 0.529201 0.357289
0.201045 0.529737 0.358187
0.203039 0.530274 0.359085
0.211933 0.533734 0.363113
0.222206 0.537779 0.367768
0.232479 0.541824 0.372423
0.242752 0.545869 0.377078
0.253025 0.549914 0.381733
0.269001 0.553105 0.385580
0.287827 0.555869 0.389024
0.306654 0.558634 0.392469
0.325480 0.561398 0.395913
0.344307 0.564162 0.399357
0.365410 0.565078 0.400756
0.388789 0.564144 0.400110
0.412168 0.563211 0.399463
0.435547 0.562278 0.398817
0.458926 0.561345 0.398170
0.483468 0.561682 0.396854
0.510334 0.564559 0.394198
0.537200 0.567436 0.391542
0.564066 0.570313 0.388886
0.590932 0.573190 0.386230
0.615735 0.576010 0.383736
0.630221 0.578542 0.382049
0.644707 0.581075 0.380363
0.659193 0.583607 0.378677
0.673678 0.586140 0.376991
0.688164 0.588672 0.375304
0.197842 0.540305 0.362346
0.199799 0.540869 0.363244
0.201757 0.541433 0.364142
0.203715 0.541997 0.365040
0.205672 0.542561 0.365938
0.207630 0.543125 0.366836
0.216304 0.546499 0.370788
0.226321 0.550434 0.375352
0.236338 0.554369 0.379915
0.246355 0.558304 0.384478
0.256372 0.562239 0.389042
0.272158 0.565522 0.392938
0.290829 0.568478 0.396501
0.309500 0.571435 0.400065
0.328171 0.574391 0.403628
0.346842 0.577347 0.407191
0.367996 0.578665 0.408855
0.391631 0.578345 0.408620
0.415266 0.578025 0.408385
0.438902 0.577705 0.408151
0.462537 0.577385 0.407916
0.486435 0.577697 0.406886
0.510859 0.579275 0.404267
0.535282 0.580853 0.401647
0.559706 0.582431 0.399028
0.584129 0.584009 0.396409
0.606881 0.585823 0.394108
0.621276 0.588813 0.393400
0.635670 0.591802 0.392693
0.650064 0.594792 0.391986
0.664459 0.597782 0.391278
0.678853 0.600772 0.390571
0.202615 0.553019 0.370097
0.204536 0.553611 0.370995
0.206457 0.554202 0.371893
0.208379 0.554794 0.372791
0.210300 0.555385 0.373689
0.212221 0.555977 0.374587
0.220675 0.559263 0.378464
0.230436 0.563089 0.382935
0.240197 0.566914 0.387407
0.249958 0.570739 0.391879
0.259719 0.574565 0.396351
0.275316 0.577939 0.400296
0.293831 0.581087 0.403978
0.312347 0.584236 0.407660
0.330862 0.587384 0.411342
0.349378 0.590533 0.415025
0.370581 0.592253 0.416954
0.394473 0.592546 0.417131
0.418364 0.592839 0.417308
0.442256 0.593131 0.417485
0.466147 0.593424 0.417661
0.489402 0.593712 0.416918
0.511383 0.593991 0.414336
0.533364 0.594270 0.411753
0.555345 0.594549 0.409170
0.577326 0.594828 0.406587
0.598028 0.595635 0.404480
0.612330 0.599083 0.404752
0.626633 0.602530 0.405023
0.640936 0.605977 0.405294
0.655239 0.609424 0.405566
0.669542 0.612872 0.405837
0.207121 0.564607 0.377148
0.209021 0.565227 0.378070
0.210921 0.565848 0.378992
0.212820 0.566468 0.379915
0.214720 0.567089 0.380837
0.216620 0.567709 0.381760
0.224860 0.570900 0.385562
0.234367 0.574605 0.389941
0.243875 0.578310 0.394320
0.253383 0.582015 0.398699
0.262891 0.585720 0.403078
0.278294 0.589174 0.407069
0.296645 0.592502 0.410867
0.314996 0.595831 0.414665
0.333347 0.599159 0.418463
0.351697 0.602487 0.422261
0.372915 0.604574 0.424431
0.396998 0.605418 0.424974
0.421082 0.606263 0.425517
0.445165 0.607108 0.426060
0.469249 0.607952 0.426603
0.491983 0.608260 0.426116
0.512019 0.607495 0.423570
0.532054 0.606730 0.421023
0.552090 0.605964 0.418477
0.572126 0.605199 0.415931
0.591174 0.605178 0.413974
0.605290 0.608876 0.414965
0.619405 0.612575 0.415956
0.633520 0.616274 0.416947
0.647636 0.619973 0.417938
0.661751 0.623672 0.418929
0.210288 0.570562 0.380692
0.212243 0.571219 0.381761
0.214197 0.571876 0.382830
0.216152 0.572533 0.383899
0.218106 0.573191 0.384968
0.220061 0.573848 0.386036
0.228112 0.576900 0.389780
0.237382 0.580431 0.394058
0.246652 0.583962 0.398336
0.255922 0.587493 0.402614
0.265192 0.591024 0.406892
0.280375 0.594500 0.410918
0.298516 0.597947 0.414816
0.316656 0.601394 0.418715
0.334797 0.604841 0.422613
0.352937 0.608289 0.426512
0.373985 0.610558 0.428801
0.397940 0.611650 0.429481
0.421896 0.612741 0.430161
0.445851 0.613833 0.430841
0.469807 0.614925 0.431521
0.492636 0.615474 0.431138
