app/src/main/assets/cube/Virtual04.cube
# LUT by SparkleStock. Enhanced with VOXCOLOR algorithms.
LUT_3D_SIZE 5
DOMAIN_MIN 0.000000 0.000000 0.000000
DOMAIN_MAX 0.903226 0.903226 0.903226
0.035191 0.015640 0.031281
0.277489 0.010217 0.095607
0.436792 0.005676 0.146438
0.684766 0.003910 0.163592
0.946110 0.000000 0.164223
0.105572 0.226658 0.170782
0.413576 0.109356 0.191756
0.650443 0.076688 0.209882
0.906916 0.049395 0.222284
0.994103 0.133044 0.236370
0.000000 0.452937 0.242929
0.279495 0.459781 0.014652
0.461661 0.510201 0.010847
0.680922 0.532575 0.013020
0.859226 0.561536 0.000000
0.000000 0.651972 0.309652
0.332657 0.641117 0.000000
0.589379 0.667723 0.000000
0.777420 0.703434 0.000000
0.911896 0.734743 0.000000
0.177467 0.817457 0.378898
0.460021 0.800555 0.000000
0.674847 0.824898 0.000000
0.824931 0.852301 0.000000
0.942160 0.879049 0.000000
0.094472 0.036074 0.171665
0.285398 0.000586 0.193656
0.457677 0.000000 0.236333
0.734336 0.000000 0.274848
0.963211 0.000000 0.299602
0.133870 0.210476 0.260083
0.391429 0.093132 0.284015
0.685873 0.005102 0.305742
0.923709 0.017528 0.332023
0.995121 0.105327 0.360691
0.000000 0.460306 0.343329
0.037171 0.498277 0.380111
0.773892 0.328784 0.323431
0.883390 0.414487 0.302420
0.936139 0.502731 0.211075
0.028139 0.658767 0.411180
0.216462 0.695569 0.441780
0.602850 0.676331 0.029331
0.783088 0.710055 0.032523
0.912787 0.734811 0.059942
0.360158 0.813546 0.469766
0.450085 0.829097 0.337577
0.695451 0.835953 0.006391
0.839824 0.862072 0.014525
0.946004 0.886567 0.018932
0.137357 0.033425 0.253776
0.303976 0.000000 0.275922
0.451363 0.000000 0.313416
0.777693 0.000000 0.362391
0.984182 0.000000 0.384680
0.151952 0.204027 0.323726
0.257098 0.188908 0.357767
0.702987 0.003645 0.386352
0.936240 0.002641 0.409214
0.995308 0.057883 0.425999
0.001367 0.419883 0.403547
0.049390 0.463841 0.438485
0.625046 0.313632 0.453186
0.948112 0.323449 0.460563
0.994103 0.409326 0.477846
0.060299 0.635543 0.494528
0.208642 0.663385 0.524018
0.447843 0.695453 0.521913
0.809125 0.709570 0.203376
0.919336 0.738153 0.205577
0.408539 0.810519 0.543711
0.549660 0.830945 0.554729
0.651907 0.846800 0.358433
0.848100 0.866549 0.145891
0.950187 0.887876 0.210654
0.178602 0.034560 0.317472
0.293426 0.008886 0.337906
0.463186 0.000000 0.379545
0.763171 0.000000 0.439441
0.987864 0.000000 0.462145
0.168133 0.189457 0.381303
0.198903 0.224546 0.415090
0.644057 0.000000 0.447628
0.902471 0.000000 0.480427
0.995339 0.000000 0.491762
0.034340 0.397204 0.444015
0.065825 0.431554 0.473737
0.213191 0.444811 0.503254
0.913898 0.278007 0.514953
0.992789 0.364933 0.531567
0.000529 0.591934 0.537824
0.065136 0.613519 0.564966
0.332292 0.637298 0.580788
0.713447 0.634011 0.569998
0.974646 0.659323 0.510688
0.309026 0.791286 0.616119
0.527839 0.814710 0.621586
0.687905 0.841540 0.637509
0.815269 0.870865 0.452628
0.956242 0.894033 0.364485
0.201179 0.043011 0.378520
0.254407 0.038344 0.406541
0.490292 0.000000 0.436792
0.720397 0.000000 0.486740
0.964652 0.000000 0.530842
0.194673 0.176258 0.440934
0.219648 0.216816 0.469054
0.461037 0.100847 0.492716
0.820313 0.000000 0.526017
0.972863 0.000000 0.552219
0.031639 0.389387 0.501119
0.071084 0.415330 0.538894
0.137677 0.439593 0.585072
0.809927 0.233599 0.559742
0.978222 0.299560 0.585859
0.000000 0.572290 0.597138
0.003307 0.594326 0.633891
0.216046 0.597592 0.637820
0.475776 0.595067 0.639556
0.987076 0.586889 0.637074
0.135050 0.766630 0.695451
0.402162 0.794491 0.706749
0.601161 0.809346 0.714999
0.783525 0.842846 0.736297
0.955389 0.894539 0.602471
