app/src/main/assets/cube/Virtual04.cube
# LUT by SparkleStock. Enhanced with VOXCOLOR algorithms.
LUT_3D_SIZE 32
0.035191 0.015640 0.031281
0.079589 0.017658 0.045407
0.123482 0.019424 0.059029
0.159808 0.017406 0.065084
0.195125 0.015136 0.071390
0.223378 0.011100 0.079463
0.251253 0.008199 0.087535
0.277489 0.010217 0.095607
0.302715 0.011226 0.104184
0.324914 0.009208 0.114275
0.346483 0.007820 0.123104
0.366664 0.007820 0.129158
0.388358 0.007063 0.135213
0.412575 0.005045 0.141267
0.436792 0.005676 0.146438
0.461010 0.009712 0.150475
0.488254 0.011730 0.153502
0.518526 0.011730 0.155520
0.553338 0.009460 0.157538
0.591682 0.005424 0.159556
0.636332 0.003910 0.161574
0.684766 0.003910 0.163592
0.729039 0.002523 0.164223
0.771419 0.000505 0.164223
0.810772 0.000000 0.161196
0.849116 0.000000 0.157160
0.885820 0.000000 0.159682
0.922145 0.000000 0.163718
0.946110 0.000000 0.164223
0.968310 0.000000 0.164223
0.981049 0.000000 0.168007
0.993157 0.000000 0.172043
0.081607 0.035821 0.057516
0.118714 0.031590 0.066435
0.155577 0.027366 0.075174
0.188778 0.023265 0.081229
0.221230 0.019302 0.087665
0.248442 0.016308 0.096779
0.275080 0.013862 0.105698
0.299232 0.013797 0.113770
0.322375 0.013244 0.121306
0.342491 0.011226 0.127230
0.363604 0.011140 0.133520
0.386910 0.015307 0.140616
0.410557 0.017154 0.146931
0.434774 0.015136 0.151943
0.460359 0.015766 0.156985
0.487701 0.019803 0.162062
0.518591 0.020258 0.165610
0.553029 0.017134 0.167628
0.590835 0.012324 0.169061
0.631262 0.006205 0.170037
0.674741 0.003259 0.170363
0.720051 0.002217 0.170298
0.763346 0.001221 0.170993
0.805726 0.000244 0.172035
0.843517 0.000000 0.171612
0.879778 0.000000 0.170700
0.911860 0.000000 0.173809
0.942977 0.000000 0.177845
0.961734 0.000000 0.178350
0.978726 0.000000 0.178350
0.987966 0.000000 0.184087
0.996689 0.000000 0.190206
0.126888 0.055498 0.083120
0.157160 0.045147 0.087157
0.187419 0.035077 0.091315
0.217495 0.029218 0.097304
0.247075 0.023831 0.103798
0.273180 0.021747 0.113823
0.298516 0.019701 0.123470
0.320520 0.017813 0.131478
0.341612 0.015974 0.138004
0.359970 0.014281 0.140087
0.380851 0.015579 0.144062
0.407282 0.023456 0.152200
0.432956 0.027598 0.158799
0.457368 0.025515 0.162835
0.484429 0.025938 0.167641
0.514896 0.029584 0.173435
0.549334 0.028249 0.177406
0.587743 0.021935 0.179554
0.628459 0.014814 0.180384
0.670969 0.007067 0.180189
0.713358 0.002982 0.179017
0.755673 0.001094 0.177259
0.797853 0.000370 0.178097
0.839973 0.000175 0.180115
0.875990 0.000175 0.182134
0.909972 0.000240 0.184152
0.937342 0.000252 0.187704
0.963187 0.000252 0.191610
0.976785 0.000651 0.192155
0.988633 0.001107 0.192220
0.994515 0.001135 0.199731
1.000000 0.001135 0.207738
0.155141 0.067606 0.099265
0.185413 0.053089 0.103301
0.215477 0.039308 0.107395
0.242428 0.036574 0.112342
0.269014 0.033791 0.117794
0.293035 0.030666 0.126778
0.316093 0.028164 0.135384
0.334972 0.028359 0.142349
0.354502 0.029385 0.148355
0.375985 0.032900 0.151480
0.399991 0.036802 0.156496
0.429546 0.041554 0.165675
0.458345 0.043353 0.172926
0.485882 0.040228 0.176962
0.516068 0.037331 0.179945
0.549660 0.034727 0.181572
0.586181 0.028184 0.184502
0.625631 0.017703 0.188733
0.667975 0.011690 0.188717
0.712568 0.009151 0.185397
0.755087 0.008321 0.185657
0.796360 0.008516 0.188066
0.835351 0.006294 0.190206
0.873304 0.002974 0.192224
0.904373 0.002974 0.194242
0.933147 0.004081 0.196260
0.954464 0.004288 0.198120
0.974059 0.004288 0.199942
0.983230 0.011067 0.201139
0.990911 0.018814 0.202245
0.995557 0.019298 0.208845
1.000000 0.019298 0.215811
0.175070 0.085769 0.116167
0.208727 0.065784 0.119943
0.241802 0.046990 0.123718
0.266149 0.046079 0.127494
0.290244 0.044809 0.131807
0.312574 0.041033 0.139880
0.333816 0.038393 0.147574
0.350352 0.040671 0.153628
0.368840 0.044268 0.159243
0.393188 0.051820 0.163539
0.419976 0.057398 0.169402
0.452136 0.058635 0.178712
0.483782 0.057894 0.185995
0.514575 0.053858 0.189901
0.547902 0.048113 0.191329
0.584488 0.040171 0.189571
0.623157 0.029592 0.191589
0.663910 0.016377 0.197383
0.707482 0.011291 0.196659
0.753248 0.012528 0.190865
0.795310 0.013846 0.192476
0.835152 0.015213 0.198531
0.871009 0.011746 0.201810
0.905057 0.006083 0.203828
0.931439 0.007255 0.206237
0.955265 0.010705 0.208776
0.970576 0.011669 0.208934
0.983921 0.012060 0.208544
0.989207 0.023672 0.210147
0.993340 0.036887 0.212035
0.996696 0.038446 0.217951
1.000000 0.039227 0.224135
0.136726 0.146312 0.138366
0.197465 0.111744 0.140059
0.255994 0.078824 0.141751
0.281383 0.070621 0.143444
0.306519 0.063232 0.145934
0.329890 0.061540 0.154006
0.352565 0.060982 0.161700
0.372225 0.065344 0.167755
0.393318 0.069462 0.173890
0.418707 0.072847 0.180270
0.445886 0.073608 0.185612
0.477004 0.068595 0.188672
0.509562 0.063949 0.191658
0.544521 0.059912 0.194523
0.581103 0.054623 0.196276
0.619772 0.047722 0.196602
0.661046 0.041310 0.198620
0.704923 0.035386 0.202331
0.746933 0.029974 0.201867
0.787490 0.024962 0.198156
0.824996 0.020681 0.200549
0.860671 0.016841 0.206603
0.893794 0.013895 0.209882
0.925759 0.011356 0.211900
0.949276 0.021902 0.217434
0.969978 0.036810 0.224139
0.979625 0.042461 0.222540
0.986721 0.045977 0.219025
0.991908 0.051600 0.219326
0.996823 0.057524 0.220172
0.998519 0.064486 0.227000
1.000000 0.071516 0.234226
0.105572 0.200423 0.158673
0.181674 0.158889 0.159650
0.255098 0.118799 0.160504
0.288364 0.100376 0.159528
0.320646 0.084109 0.159633
0.346035 0.082937 0.167315
0.370936 0.083120 0.174765
0.393721 0.089175 0.181210
0.417564 0.093667 0.187915
0.444580 0.093471 0.195402
0.472675 0.090306 0.200101
0.503142 0.080606 0.198669
0.536636 0.072737 0.198384
0.575175 0.067920 0.200012
0.614768 0.062561 0.201810
0.655716 0.056507 0.203828
0.698909 0.052991 0.205846
0.744349 0.052015 0.207864
0.784553 0.046571 0.208051
0.820683 0.037652 0.206815
0.853925 0.029995 0.209524
0.885433 0.023094 0.214602
0.915017 0.021743 0.217979
0.943726 0.022915 0.220583
0.964233 0.041078 0.228363
0.982005 0.064905 0.237867
0.986977 0.074609 0.234889
0.988995 0.081054 0.229030
0.994103 0.083568 0.228298
0.999653 0.085521 0.228298
1.000000 0.097178 0.233119
1.000000 0.109482 0.238262
0.105572 0.226658 0.170782
0.146259 0.211164 0.176966
0.188827 0.194055 0.182378
0.259590 0.152716 0.176193
0.325463 0.115618 0.171482
0.357102 0.108196 0.177080
0.387666 0.103301 0.183228
0.413576 0.109356 0.191756
0.440804 0.113587 0.199243
0.471987 0.112350 0.203604
0.503272 0.109120 0.207132
0.534780 0.101503 0.208825
0.569316 0.093374 0.209711
0.608897 0.084390 0.209256
0.650443 0.076688 0.209882
0.694515 0.070633 0.211900
0.736667 0.064514 0.213919
0.776899 0.058330 0.215937
0.814238 0.054123 0.218467
0.849327 0.051453 0.221397
0.879574 0.050046 0.222414
0.906916 0.049395 0.222284
0.929469 0.054293 0.226182
0.949846 0.061715 0.231911
0.966706 0.079878 0.238128
0.982396 0.101621 0.244507
0.986977 0.112627 0.241790
0.988995 0.121155 0.236972
0.994103 0.133044 0.236370
0.999653 0.145413 0.236370
1.000000 0.158698 0.226544
1.000000 0.172043 0.216063
0.103049 0.253398 0.182386
0.115874 0.258215 0.191955
0.133524 0.259480 0.200427
0.223557 0.207466 0.192419
0.308472 0.159462 0.185722
0.357558 0.139542 0.188196
0.402737 0.124589 0.191756
0.430990 0.131164 0.200024
0.460692 0.135656 0.206794
0.494740 0.133898 0.209073
0.528563 0.131286 0.211656
0.561894 0.126794 0.214911
0.598253 0.119642 0.216775
0.639656 0.108054 0.216319
0.682683 0.098773 0.216490
0.727798 0.092458 0.217467
0.768127 0.085427 0.218834
0.803672 0.077681 0.220591
0.837788 0.075719 0.224326
0.870794 0.078258 0.229600
0.897981 0.082221 0.229380
0.921678 0.087039 0.225864
0.939332 0.096869 0.229779
0.954240 0.108977 0.237070
0.967976 0.125773 0.241334
0.981321 0.144131 0.244589
0.986098 0.156195 0.242766
0.988897 0.166807 0.239771
0.993477 0.185336 0.237574
0.998310 0.204996 0.235491
0.992509 0.226792 0.205517
0.985999 0.248731 0.173683
0.092959 0.281651 0.192476
0.100575 0.289593 0.199963
0.111130 0.295416 0.207002
0.165749 0.269441 0.207327
0.226056 0.240317 0.207140
0.326179 0.189148 0.203364
0.412828 0.149197 0.200480
0.441081 0.157855 0.201456
0.470522 0.164170 0.203018
0.503528 0.163454 0.206339
0.537938 0.163511 0.208662
0.575435 0.165269 0.208792
0.615960 0.162803 0.211046
0.661530 0.153298 0.216840
0.704622 0.144734 0.218703
0.744528 0.137377 0.215514
0.780691 0.134513 0.214277
0.813111 0.136140 0.214993
0.842931 0.139452 0.216514
0.870729 0.144074 0.218663
0.894661 0.150772 0.218573
0.916274 0.158714 0.217141
0.935426 0.169520 0.219558
0.953459 0.181629 0.223724
0.965632 0.192956 0.224864
0.975853 0.204023 0.224994
0.982583 0.216413 0.225970
0.988507 0.229107 0.227142
0.990970 0.246074 0.218174
0.992940 0.263651 0.207758
0.962547 0.314612 0.141133
0.929997 0.367799 0.070760
0.074039 0.313058 0.201936
0.077750 0.322497 0.208641
0.083059 0.330903 0.215286
0.112354 0.323807 0.221014
0.155784 0.308598 0.224693
0.298158 0.236598 0.214016
0.416937 0.181576 0.202815
0.433472 0.200130 0.189339
0.453214 0.214533 0.179753
0.482574 0.216486 0.181836
0.514558 0.219822 0.182740
0.552316 0.226202 0.181047
0.592980 0.228261 0.183041
0.638484 0.223118 0.191178
0.679261 0.217548 0.193392
0.713960 0.211429 0.187988
0.746119 0.212080 0.184961
0.775740 0.219501 0.184310
0.803236 0.226153 0.182195
0.829081 0.232208 0.178940
0.852200 0.239971 0.177719
0.873683 0.248759 0.177719
0.895166 0.259159 0.178659
0.916649 0.270291 0.180026
0.930271 0.277371 0.179098
0.941273 0.283100 0.177406
0.951746 0.294065 0.179839
0.962097 0.306239 0.183224
0.967093 0.319893 0.171799
0.971324 0.333760 0.158258
0.933139 0.395474 0.081245
0.892126 0.460379 0.000000
0.035695 0.351402 0.210009
0.038364 0.358758 0.218797
0.042502 0.365406 0.227329
0.068672 0.361435 0.232016
0.112232 0.349221 0.233742
0.277521 0.279303 0.214732
0.407888 0.231052 0.191097
0.386926 0.276687 0.147415
0.376201 0.312964 0.113612
0.396186 0.321167 0.109445
0.419122 0.329125 0.106377
0.448547 0.336547 0.105726
0.480487 0.342772 0.106028
0.516617 0.347003 0.107915
0.549843 0.349440 0.107525
0.579333 0.349571 0.104205
0.607847 0.352305 0.101178
0.635384 0.357643 0.098443
0.664899 0.363384 0.089557
0.695951 0.369438 0.075886
0.723627 0.374598 0.070760
0.749277 0.379220 0.070760
0.774926 0.386169 0.070267
0.800575 0.394176 0.069551
0.822270 0.399694 0.068884
0.842646 0.404381 0.068233
0.860801 0.410073 0.069169
0.878443 0.415997 0.070471
0.896199 0.422491 0.066076
0.913971 0.429066 0.060868
0.904951 0.461030 0.031248
0.894144 0.494687 0.000000
0.009460 0.387475 0.219594
0.011087 0.393920 0.229294
0.013834 0.399934 0.238616
0.033364 0.399478 0.242261
0.071781 0.391674 0.240178
0.242408 0.332433 0.197993
0.375061 0.294346 0.153819
0.343162 0.347923 0.101023
0.323160 0.391133 0.059994
0.338850 0.403242 0.054265
0.357326 0.413845 0.050326
0.381934 0.421136 0.050326
0.408372 0.429184 0.049570
0.437863 0.438493 0.047551
0.465929 0.445154 0.045533
0.492164 0.448409 0.043515
0.519376 0.452250 0.041074
0.547564 0.456676 0.038210
0.578755 0.461799 0.028241
0.612282 0.467463 0.012747
0.643001 0.470848 0.006449
0.672035 0.472866 0.005668
0.700801 0.477390 0.004036
0.729445 0.483054 0.002018
0.755404 0.487497 0.000928
0.780468 0.491533 0.000146
0.804156 0.494247 0.000000
0.827527 0.496656 0.000000
0.852379 0.499065 0.000000
0.877442 0.501473 0.000000
0.888407 0.513403 0.000000
0.898433 0.525967 0.000000
0.003406 0.419765 0.231703
0.003991 0.427251 0.240361
0.004980 0.434502 0.248641
0.012011 0.438212 0.251245
0.036497 0.437179 0.242261
0.183167 0.402936 0.152163
0.302605 0.380668 0.073941
0.304037 0.410289 0.047185
0.310075 0.435531 0.027248
0.329931 0.447640 0.027769
0.351597 0.457592 0.028127
0.377246 0.462800 0.028127
0.403555 0.468765 0.027370
0.430962 0.475991 0.025352
0.457856 0.480568 0.023334
0.484092 0.481740 0.021316
0.513907 0.485060 0.020437
0.547304 0.490528 0.020698
0.579602 0.495521 0.019127
0.611045 0.500143 0.016133
0.642285 0.503138 0.013219
0.673402 0.505156 0.010355
0.703536 0.508964 0.008072
0.733221 0.513586 0.006054
0.757097 0.517769 0.003401
0.779035 0.521805 0.000537
0.804677 0.525365 0.000000
0.831172 0.528815 0.000000
0.853681 0.532266 0.000000
0.875619 0.535716 0.000000
0.891272 0.543805 0.000000
0.906505 0.552203 0.000000
0.000000 0.452937 0.242929
0.000000 0.460554 0.251457
0.000000 0.468130 0.259493
0.000000 0.475096 0.260144
0.016137 0.478782 0.245626
0.145230 0.459512 0.124931
0.254757 0.446370 0.024937
0.279495 0.459781 0.014652
0.303712 0.472524 0.007718
0.326367 0.483266 0.010843
0.350568 0.492054 0.013134
0.378170 0.496546 0.013590
0.405943 0.501453 0.013459
0.434001 0.507052 0.012353
0.461661 0.510201 0.010847
0.488807 0.510201 0.008829
0.520088 0.513228 0.008146
0.555502 0.519282 0.008797
0.588537 0.524714 0.010839
0.619719 0.529662 0.013964
0.650455 0.531924 0.014322
0.680922 0.532575 0.013020
0.711881 0.536180 0.011226
0.743064 0.541127 0.009208
0.765995 0.545050 0.005334
0.786176 0.548630 0.000842
0.811435 0.552951 0.000000
0.837865 0.557443 0.000000
0.859226 0.561536 0.000000
0.879863 0.565572 0.000000
0.897326 0.570646 0.000000
0.914578 0.575789 0.000000
0.000000 0.487245 0.253019
0.000000 0.493820 0.262589
0.000000 0.500550 0.271406
0.000000 0.509599 0.268932
0.014965 0.515368 0.250639
0.134684 0.498182 0.121611
0.238547 0.485561 0.015628
0.273701 0.492722 0.009509
0.305990 0.499996 0.005180
0.329687 0.507613 0.006221
0.355580 0.514579 0.007405
0.386307 0.520112 0.008902
0.417596 0.525280 0.010204
0.449821 0.529837 0.011181
0.480735 0.532400 0.010847
0.509965 0.532400 0.008829
0.541245 0.535427 0.006583
0.574577 0.541481 0.004109
0.607871 0.548085 0.003613
0.641137 0.555116 0.004655
0.670050 0.556206 0.008137
0.696350 0.553732 0.013085
0.727440 0.557793 0.013244
0.760706 0.564824 0.011226
0.784158 0.568486 0.006571
0.804339 0.571025 0.001038
0.826213 0.575997 0.000000
0.848477 0.581530 0.000000
0.870228 0.585753 0.000000
0.891907 0.589790 0.000000
0.907482 0.592910 0.000000
0.922650 0.595970 0.000000
0.000000 0.518526 0.263110
0.000000 0.524059 0.272679
0.000000 0.529812 0.281041
0.000000 0.538861 0.271276
0.014119 0.544891 0.246473
0.127067 0.529788 0.116403
0.227089 0.518371 0.009964
0.271097 0.522928 0.005928
0.310678 0.527599 0.002901
0.336978 0.532612 0.002901
0.365475 0.537624 0.003369
0.398807 0.542637 0.004866
0.432895 0.547479 0.006364
0.468244 0.552036 0.007861
0.501144 0.555055 0.008048
0.530895 0.556096 0.006551
0.561915 0.558863 0.004305
0.594204 0.563355 0.001310
0.626750 0.569861 0.000000
0.659495 0.577933 0.000000
0.687562 0.579414 0.003743
0.712821 0.576941 0.009732
0.742152 0.581359 0.010575
0.773335 0.588911 0.009077
0.797438 0.592312 0.005334
0.819182 0.594330 0.000842
0.838809 0.599205 0.000000
0.857949 0.604738 0.000000
0.879310 0.609417 0.000000
0.900988 0.613974 0.000000
0.916075 0.616151 0.000488
0.930722 0.618169 0.001009
0.000000 0.546779 0.273200
0.000000 0.551271 0.281728
0.000000 0.555917 0.288397
0.000000 0.562883 0.267174
0.013598 0.567351 0.233127
0.122380 0.554331 0.109307
0.220384 0.544802 0.007946
0.271683 0.550400 0.003910
0.317773 0.555331 0.000883
0.348240 0.558261 0.000883
0.380253 0.561190 0.001025
0.415668 0.564120 0.001481
0.451839 0.568050 0.001937
0.489271 0.573649 0.002392
0.522887 0.578165 0.002449
0.551596 0.581290 0.001994
0.582096 0.583536 0.001310
0.614385 0.584903 0.000399
0.645173 0.590042 0.000000
0.674794 0.598114 0.000000
0.702990 0.601548 0.001139
0.730332 0.602199 0.002962
0.756018 0.606878 0.003218
0.780952 0.613388 0.002763
0.805836 0.616529 0.001623
0.830704 0.618548 0.000256
0.849225 0.622576 0.000000
0.866282 0.627068 0.000000
0.886471 0.632528 0.000000
0.907107 0.638126 0.000000
0.923106 0.640368 0.001465
0.938795 0.642386 0.003027
0.000000 0.572762 0.282156
0.000000 0.577384 0.289056
0.000915 0.581766 0.291542
0.015563 0.582547 0.227809
0.040724 0.582230 0.161302
0.139481 0.574223 0.075370
0.229498 0.568742 0.005013
0.281643 0.574210 0.002148
0.328971 0.578963 0.000000
0.361846 0.581567 0.000000
0.395800 0.584171 0.000000
0.432126 0.586775 0.000000
0.469648 0.590013 0.000000
0.509163 0.594310 0.000000
0.543752 0.598749 0.000000
0.572005 0.603371 0.000000
0.601398 0.606561 0.000000
0.631930 0.608319 0.000000
0.661510 0.613628 0.000000
0.690349 0.621701 0.000000
0.718456 0.625989 0.000000
0.746123 0.628007 0.000000
0.769628 0.631995 0.000000
0.791242 0.636877 0.000000
0.814564 0.640490 0.000000
0.838455 0.643680 0.000000
0.857481 0.648510 0.000000
0.875383 0.653718 0.000000
0.893742 0.657616 0.000000
0.912165 0.661326 0.000000
0.927353 0.664000 0.001892
0.942326 0.666604 0.003910
0.000000 0.596979 0.290228
0.000000 0.602643 0.295045
0.002543 0.607415 0.291412
0.043230 0.598822 0.161017
0.089354 0.591214 0.043991
0.173528 0.590498 0.020555
0.250916 0.590746 0.001367
0.298894 0.595173 0.000586
0.343358 0.599404 0.000000
0.377275 0.603050 0.000000
0.411945 0.606695 0.000000
0.448270 0.610341 0.000000
0.486574 0.613059 0.000000
0.528173 0.614231 0.000000
0.563933 0.617368 0.000000
0.592186 0.623031 0.000000
0.620016 0.628304 0.000000
0.647424 0.633187 0.000000
0.676222 0.639864 0.000000
0.706103 0.647936 0.000000
0.733950 0.652225 0.000000
0.760575 0.654243 0.000000
0.783039 0.656798 0.000000
0.803611 0.659597 0.000000
0.823547 0.664252 0.000000
0.843273 0.669525 0.000000
0.864056 0.676438 0.000000
0.885083 0.683729 0.000000
0.901098 0.684242 0.000000
0.916396 0.683786 0.000000
0.929437 0.687175 0.001892
0.942326 0.690821 0.003910
0.000000 0.623719 0.299562
0.000000 0.629773 0.303598
0.003804 0.634570 0.297466
0.064673 0.620509 0.138818
0.127445 0.608457 0.000000
0.203547 0.610475 0.000000
0.273351 0.612994 0.000000
0.315861 0.617681 0.000000
0.356972 0.622205 0.000000
0.393883 0.626242 0.000000
0.430815 0.630481 0.000000
0.467792 0.635168 0.000000
0.505331 0.638098 0.000000
0.543805 0.638098 0.000000
0.578377 0.641032 0.000000
0.607932 0.647737 0.000000
0.636153 0.654117 0.000000
0.663039 0.660171 0.000000
0.691097 0.666628 0.000000
0.720067 0.673398 0.000000
0.746107 0.677199 0.000000
0.770389 0.679217 0.000000
0.792299 0.682130 0.000000
0.813131 0.685450 0.000000
0.832450 0.690333 0.000000
0.851264 0.695736 0.000000
0.871241 0.702250 0.000000
0.891487 0.709020 0.000000
0.906949 0.709810 0.000000
0.921726 0.709745 0.000000
0.934002 0.713524 0.001282
0.946110 0.717561 0.002649
0.000000 0.651972 0.309652
0.000000 0.658027 0.313688
0.004846 0.662628 0.307231
0.082380 0.645442 0.143375
0.159214 0.630656 0.000000
0.231150 0.632674 0.000000
0.296396 0.635388 0.000000
0.332657 0.641117 0.000000
0.370122 0.646423 0.000000
0.411200 0.650459 0.000000
0.451322 0.655024 0.000000
0.489340 0.660753 0.000000
0.525186 0.664333 0.000000
0.557411 0.664333 0.000000
0.589379 0.667723 0.000000
0.621017 0.675469 0.000000
0.650801 0.682370 0.000000
0.678728 0.688424 0.000000
0.706070 0.693710 0.000000
0.732957 0.698397 0.000000
0.756263 0.701416 0.000000
0.777420 0.703434 0.000000
0.799070 0.707779 0.000000
0.820943 0.713183 0.000000
0.841304 0.717805 0.000000
0.861159 0.722166 0.000000
0.878793 0.726793 0.000000
0.895914 0.731480 0.000000
0.911896 0.734743 0.000000
0.927716 0.737803 0.000000
0.940056 0.741778 0.000305
0.952165 0.745814 0.000631
0.000000 0.678838 0.321130
0.000000 0.683460 0.315857
0.005037 0.686614 0.300884
0.085631 0.667735 0.140413
0.165875 0.651468 0.000000
0.243669 0.653486 0.000000
0.313444 0.656529 0.000000
0.348468 0.664016 0.000000
0.385152 0.670461 0.000000
0.426816 0.673781 0.000000
0.467442 0.677955 0.000000
0.505786 0.684010 0.000000
0.541103 0.688599 0.000000
0.571375 0.690748 0.000000
0.602529 0.694548 0.000000
0.634819 0.700472 0.000000
0.665090 0.706103 0.000000
0.693343 0.711441 0.000000
0.718850 0.716450 0.000000
0.742221 0.721202 0.000000
0.764046 0.724246 0.000000
0.784943 0.726264 0.000000
0.805751 0.731057 0.000000
0.826518 0.737111 0.000000
0.846845 0.741652 0.000000
0.867026 0.745688 0.000000
0.883928 0.749724 0.000000
0.900073 0.753760 0.000000
0.916844 0.759050 0.000000
0.933705 0.764518 0.000000
0.945439 0.767301 0.000000
0.956832 0.769905 0.000000
0.000000 0.705074 0.333239
0.000000 0.707613 0.314425
0.004842 0.708748 0.287213
0.082311 0.688827 0.134033
0.161122 0.671649 0.000000
0.249333 0.673667 0.000000
0.327766 0.677101 0.000000
0.363832 0.686671 0.000000
0.401036 0.694418 0.000000
0.441659 0.696696 0.000000
0.481569 0.700155 0.000000
0.519913 0.706209 0.000000
0.555230 0.711970 0.000000
0.585501 0.717243 0.000000
0.616656 0.721434 0.000000
0.648945 0.724233 0.000000
0.679217 0.727781 0.000000
0.707470 0.732078 0.000000
0.730634 0.737217 0.000000
0.749838 0.743011 0.000000
0.770751 0.746445 0.000000
0.792690 0.748463 0.000000
0.812391 0.753256 0.000000
0.831075 0.759310 0.000000
0.850881 0.763851 0.000000
0.871062 0.767887 0.000000
0.887964 0.771923 0.000000
0.904109 0.775959 0.000000
0.921792 0.783072 0.000000
0.939694 0.790623 0.000000
0.950517 0.791583 0.000000
0.960868 0.792104 0.000000
0.022704 0.731309 0.343834
0.028172 0.725515 0.259139
0.038385 0.719310 0.173939
0.119760 0.706941 0.081172
0.200362 0.696371 0.000000
0.275552 0.698389 0.000000
0.343895 0.701481 0.000000
0.382564 0.709228 0.000000
0.421266 0.715933 0.000000
0.460066 0.719514 0.000000
0.497991 0.723867 0.000000
0.533991 0.729921 0.000000
0.568429 0.735683 0.000000
0.600263 0.740956 0.000000
0.630929 0.745147 0.000000
0.660094 0.747946 0.000000
0.688021 0.750973 0.000000
0.714712 0.754228 0.000000
0.737925 0.759058 0.000000
0.758431 0.765112 0.000000
0.779019 0.768644 0.000000
0.799656 0.770662 0.000000
0.819129 0.774918 0.000000
0.838073 0.780191 0.000000
0.857359 0.785122 0.000000
0.876759 0.789940 0.000000
0.894783 0.794122 0.000000
0.912490 0.798158 0.000000
0.927862 0.804359 0.000000
0.942900 0.810869 0.000000
0.954032 0.812741 0.000000
0.964904 0.814303 0.000000
0.052975 0.757544 0.353924
0.065735 0.741334 0.185901
0.083173 0.726015 0.027464
0.170798 0.724062 0.012817
0.254264 0.722606 0.000000
0.308623 0.724624 0.000000
0.360625 0.727130 0.000000
0.402420 0.731752 0.000000
0.442944 0.736635 0.000000
0.479661 0.742299 0.000000
0.515177 0.748084 0.000000
0.548052 0.754139 0.000000
0.581319 0.759509 0.000000
0.615236 0.763741 0.000000
0.645251 0.767802 0.000000
0.670249 0.771642 0.000000
0.695052 0.774670 0.000000
0.719660 0.776883 0.000000
0.743719 0.781257 0.000000
0.767350 0.787311 0.000000
0.787808 0.790843 0.000000
0.806361 0.792861 0.000000
0.825899 0.796401 0.000000
0.845885 0.800632 0.000000
0.864650 0.806084 0.000000
0.883008 0.811943 0.000000
0.902530 0.816321 0.000000
0.922320 0.820358 0.000000
0.934307 0.824736 0.000000
0.945179 0.829162 0.000000
0.957027 0.832857 0.000000
0.968940 0.836502 0.000000
0.091445 0.778860 0.364015
0.106418 0.760698 0.176136
0.125582 0.743723 0.000000
0.207608 0.744569 0.000000
0.285476 0.745668 0.000000
0.334236 0.748532 0.000000
0.381323 0.751616 0.000000
0.421164 0.755652 0.000000
0.460127 0.759981 0.000000
0.496453 0.765189 0.000000
0.531517 0.770397 0.000000
0.563807 0.775605 0.000000
0.595266 0.780057 0.000000
0.625342 0.783247 0.000000
0.653966 0.786807 0.000000
0.680722 0.790843 0.000000
0.705363 0.793870 0.000000
0.727887 0.795888 0.000000
0.750888 0.800653 0.000000
0.774259 0.807553 0.000000
0.794375 0.811402 0.000000
0.812537 0.813420 0.000000
0.831506 0.817408 0.000000
0.850841 0.822290 0.000000
0.869931 0.826782 0.000000
0.888940 0.831144 0.000000
0.907526 0.835929 0.000000
0.926015 0.840811 0.000000
0.937896 0.844213 0.000000
0.948832 0.847403 0.000000
0.959281 0.852179 0.000000
0.969697 0.857062 0.000000
0.131807 0.799041 0.374105
0.147822 0.780879 0.181019
0.167441 0.763969 0.000000
0.241134 0.765857 0.000000
0.311451 0.767997 0.000000
0.358127 0.771903 0.000000
0.402936 0.775833 0.000000
0.439653 0.779869 0.000000
0.476272 0.783938 0.000000
0.512597 0.788105 0.000000
0.547662 0.792271 0.000000
0.579951 0.796437 0.000000
0.609458 0.799847 0.000000
0.634326 0.801995 0.000000
0.661387 0.804970 0.000000
0.691268 0.809006 0.000000
0.716430 0.812033 0.000000
0.736871 0.814051 0.000000
0.758374 0.819401 0.000000
0.780704 0.827344 0.000000
0.800429 0.831583 0.000000
0.818592 0.833601 0.000000
