app/src/main/assets/cube/Virtual07.cube
# LUT by SparkleStock. Enhanced with VOXCOLOR algorithms.
LUT_3D_SIZE 8
DOMAIN_MIN 0.000000 0.000000 0.000000
DOMAIN_MAX 0.903226 0.903226 0.903226
0.058651 0.062561 0.086022
0.103932 0.074544 0.101914
0.174187 0.078201 0.114401
0.285813 0.072778 0.123482
0.413963 0.054615 0.138870
0.550563 0.036452 0.153628
0.692839 0.036704 0.176584
0.843313 0.063570 0.214297
0.096490 0.088796 0.110743
0.165659 0.091177 0.122237
0.269986 0.094126 0.135685
0.406493 0.088109 0.155772
0.542934 0.077640 0.175453
0.677414 0.079418 0.197188
0.823063 0.100624 0.238766
0.943637 0.137231 0.272468
0.070760 0.166872 0.142781
0.207746 0.139106 0.149051
0.387915 0.129223 0.169142
0.525308 0.126481 0.197058
0.659768 0.141011 0.221486
0.792572 0.165448 0.253109
0.892859 0.203324 0.278359
0.971109 0.244719 0.307931
0.014127 0.281903 0.192224
0.053598 0.297995 0.197814
0.311149 0.302686 0.097471
0.407762 0.340575 0.094725
0.496200 0.357582 0.093968
0.595189 0.390999 0.099123
0.691496 0.416697 0.117640
0.796140 0.446199 0.140726
0.004036 0.412954 0.259452
0.023587 0.440324 0.245533
0.319490 0.438937 0.078201
0.424765 0.466205 0.079601
0.524580 0.482546 0.083247
0.626673 0.512723 0.101410
0.729429 0.539097 0.129297
0.832340 0.576623 0.170908
0.040740 0.534923 0.350140
0.125147 0.539545 0.094419
0.344574 0.562562 0.094436
0.458495 0.589403 0.111492
0.575883 0.614532 0.130745
0.689083 0.641882 0.156838
0.790228 0.665123 0.191138
0.883553 0.691643 0.234608
0.094725 0.685649 0.440450
0.122811 0.671397 0.130741
0.355072 0.697380 0.151679
0.487493 0.728367 0.178183
0.623695 0.753508 0.206465
0.742457 0.771451 0.232065
0.845332 0.795672 0.269669
0.923321 0.814071 0.316252
0.150475 0.822376 0.525967
0.141434 0.803204 0.202188
0.371208 0.829337 0.232309
0.522940 0.851296 0.261938
0.656464 0.866298 0.290285
0.774507 0.881470 0.322518
0.865533 0.895174 0.368250
0.934547 0.907388 0.414003
0.074544 0.074544 0.110239
0.116167 0.078201 0.119304
0.186487 0.078201 0.138464
0.295098 0.068770 0.157033
0.431117 0.033990 0.185657
0.570988 0.015803 0.213821
0.710147 0.028139 0.242717
0.856948 0.061703 0.284300
0.083088 0.104420 0.138887
0.177235 0.094865 0.147529
0.294138 0.090784 0.177735
0.422484 0.077461 0.205736
0.560332 0.061556 0.231114
0.698510 0.078162 0.264837
0.843204 0.122771 0.310210
0.951558 0.159351 0.344968
0.078421 0.174911 0.178065
0.131071 0.183929 0.200905
0.417393 0.124385 0.229228
0.552738 0.128196 0.258916
0.689373 0.152240 0.294856
0.804110 0.179456 0.330103
0.912983 0.229091 0.365041
0.977143 0.266276 0.383985
0.020209 0.296681 0.258561
0.072807 0.323600 0.287625
0.395636 0.242459 0.289200
0.583368 0.247391 0.254807
0.689996 0.285317 0.274837
0.785587 0.319584 0.297938
0.862108 0.358334 0.304011
0.934205 0.392953 0.320558
0.036895 0.421913 0.345982
0.093597 0.459459 0.377560
0.163104 0.469060 0.240560
0.439389 0.466855 0.105750
0.534013 0.493678 0.108091
0.633457 0.512560 0.121756
0.734815 0.539506 0.146126
0.836543 0.581363 0.186327
0.101698 0.553464 0.425018
0.161131 0.589046 0.459663
0.292479 0.580624 0.150796
0.464918 0.599856 0.132567
0.584856 0.622410 0.147460
0.692214 0.647088 0.168593
0.798815 0.670861 0.208442
0.888782 0.698030 0.255273
0.171258 0.699874 0.515189
0.210564 0.730563 0.520957
0.318465 0.719553 0.190206
0.498724 0.738806 0.192909
0.630267 0.758171 0.216775
0.750893 0.778462 0.244766
0.850912 0.808048 0.290895
0.926380 0.819091 0.334487
0.250472 0.828682 0.601658
0.256651 0.838420 0.543955
0.368867 0.834960 0.243664
0.535328 0.860066 0.275207
0.668561 0.874297 0.303974
0.782083 0.886874 0.339350
0.871953 0.899244 0.386822
0.939031 0.911891 0.436468
0.078706 0.078706 0.139375
0.132027 0.078201 0.147919
0.204390 0.078201 0.170212
0.322615 0.062280 0.204499
0.452799 0.026740 0.241163
0.587772 0.018000 0.271382
0.727696 0.027737 0.307805
0.874240 0.069193 0.349534
0.089492 0.122791 0.176331
0.184170 0.101863 0.196085
0.317766 0.092104 0.229591
0.453488 0.071968 0.268778
0.585534 0.061100 0.302824
0.726254 0.080630 0.339662
0.859186 0.119300 0.375412
0.953871 0.172275 0.406221
0.090876 0.187870 0.228794
0.118051 0.209858 0.254850
0.411863 0.137418 0.289642
0.577575 0.124306 0.330953
0.703579 0.150510 0.359436
0.815371 0.192171 0.393810
0.917082 0.237715 0.423679
0.977636 0.285522 0.441356
0.078437 0.295456 0.308867
0.126770 0.327622 0.342591
0.251985 0.331177 0.373093
0.654378 0.225080 0.381612
0.760368 0.272709 0.402955
0.846747 0.304362 0.421803
0.923356 0.350557 0.442241
0.974377 0.387577 0.455534
0.069848 0.428720 0.403750
0.135795 0.463569 0.435027
0.213170 0.496300 0.469477
0.512180 0.415579 0.332622
0.600164 0.464947 0.201960
0.687221 0.496396 0.209564
0.782848 0.528452 0.233162
0.868256 0.573152 0.248959
0.129211 0.560743 0.487949
0.188855 0.602901 0.528138
0.244252 0.633434 0.555361
0.410028 0.620594 0.219807
0.586200 0.624453 0.168704
0.699466 0.651248 0.194330
0.797534 0.673868 0.231746
0.886869 0.699393 0.275076
0.189425 0.708341 0.586303
0.237649 0.740995 0.616556
0.299721 0.759141 0.551873
0.497587 0.749834 0.221897
0.641307 0.769344 0.234761
0.762542 0.792316 0.269081
0.855602 0.810943 0.310917
0.927522 0.822774 0.358286
0.276984 0.834989 0.659186
0.336976 0.857083 0.671702
0.337493 0.863725 0.544056
0.538072 0.868094 0.292504
0.679924 0.878238 0.317788
0.790383 0.893314 0.364035
0.873915 0.904464 0.411143
0.936734 0.915355 0.460268
0.086778 0.086778 0.184404
0.148351 0.081200 0.196736
0.227288 0.077192 0.218150
0.342825 0.056507 0.256783
0.472235 0.017980 0.299883
0.614133 0.018676 0.337141
0.755612 0.034352 0.375033
0.898884 0.069535 0.418703
0.094501 0.132360 0.231451
0.138749 0.142333 0.256506
0.337650 0.086462 0.285376
0.470236 0.063649 0.330978
0.603257 0.050884 0.364402
0.739328 0.078194 0.400092
0.871213 0.123720 0.438106
0.961496 0.184897 0.472074
0.089358 0.204333 0.289878
0.126055 0.229101 0.329205
0.335750 0.179463 0.356627
0.592441 0.120567 0.391674
0.716799 0.149861 0.424064
0.824973 0.196426 0.453209
0.920737 0.242252 0.480964
0.981230 0.290155 0.499925
0.116293 0.307195 0.372445
0.159837 0.338817 0.401892
0.228508 0.374809 0.441846
0.554651 0.268027 0.446252
0.763654 0.270818 0.464001
0.855170 0.314117 0.488463
0.927711 0.355177 0.506746
0.981375 0.398425 0.529802
0.160073 0.428077 0.448498
0.215733 0.455897 0.481012
0.267739 0.489838 0.518100
0.362093 0.495188 0.538035
0.747258 0.401265 0.477283
0.809429 0.445205 0.436965
0.889200 0.486332 0.453532
0.949910 0.525654 0.466893
0.182402 0.572485 0.547780
0.230769 0.602016 0.586325
0.283201 0.635884 0.621259
0.332424 0.661637 0.626508
0.538198 0.639685 0.307907
0.713780 0.654197 0.246053
0.805241 0.675344 0.271376
0.895150 0.702436 0.306762
0.218415 0.720547 0.655378
0.262817 0.750774 0.681471
0.320859 0.772594 0.698820
0.409165 0.785415 0.585201
0.632323 0.781101 0.275817
0.768315 0.797953 0.298837
0.858768 0.811691 0.337869
0.929402 0.826678 0.387673
0.306409 0.840575 0.721507
0.364025 0.855429 0.724330
0.427389 0.867497 0.724199
0.473528 0.884984 0.571374
0.686506 0.887282 0.345837
0.796942 0.897093 0.389074
0.880089 0.907935 0.439633
0.937733 0.915510 0.491912
0.096869 0.095860 0.240785
0.153896 0.088349 0.259830
0.264375 0.076688 0.286562
0.362741 0.045476 0.321679
0.494048 0.015640 0.363360
0.638045 0.018867 0.399856
0.777713 0.035317 0.440715
0.917100 0.075455 0.488457
0.100527 0.143985 0.297544
0.135953 0.164589 0.335322
0.342263 0.096179 0.353733
0.484916 0.053373 0.385392
0.618196 0.051254 0.425163
0.760282 0.077681 0.465583
0.882511 0.126039 0.501136
0.961449 0.184342 0.528733
0.102797 0.225763 0.366147
0.142972 0.246802 0.395783
0.238448 0.269162 0.435600
0.586609 0.127280 0.449919
0.728820 0.157479 0.487069
0.829440 0.197068 0.512806
0.925582 0.248283 0.543240
0.978976 0.292167 0.561896
0.144811 0.329386 0.435039
0.189629 0.355520 0.465478
0.247408 0.392526 0.506394
0.397639 0.369222 0.525462
0.757895 0.272288 0.521463
0.852244 0.314032 0.544787
0.929226 0.358310 0.569820
0.982775 0.402397 0.587888
0.205199 0.437028 0.509200
0.247430 0.467707 0.546874
0.291300 0.501330 0.584546
0.345585 0.530380 0.618138
0.600555 0.451411 0.584413
0.854902 0.424410 0.569570
0.926096 0.467787 0.583985
0.969973 0.513560 0.604132
0.262951 0.561695 0.600869
0.299856 0.592494 0.637250
0.340714 0.625067 0.669072
0.384798 0.649645 0.691474
0.451145 0.669598 0.683520
0.784841 0.613497 0.468964
0.845775 0.657347 0.390543
0.918461 0.693904 0.410671
0.279657 0.718594 0.707470
0.322713 0.744734 0.734405
0.362553 0.762556 0.742085
0.426625 0.785293 0.748728
0.535825 0.811182 0.633876
0.765255 0.810531 0.354807
0.864719 0.819416 0.375984
0.933064 0.830771 0.419193
0.341087 0.841198 0.771980
0.394637 0.862766 0.775089
0.460346 0.870362 0.776837
0.540370 0.882617 0.767793
0.621834 0.899352 0.559746
0.799708 0.902706 0.426812
0.882056 0.911248 0.471617
0.935096 0.915888 0.530698
0.112005 0.102923 0.309778
0.148660 0.114556 0.343960
0.293255 0.074039 0.361203
0.394823 0.048064 0.388122
0.516906 0.018256 0.427300
0.659105 0.024722 0.467357
0.807586 0.042758 0.513102
0.931227 0.073913 0.547222
0.117347 0.158799 0.370537
0.150235 0.181981 0.403961
0.240780 0.177803 0.427973
0.507706 0.061404 0.452868
0.636984 0.059421 0.488009
0.773948 0.084792 0.530033
0.888878 0.131519 0.566637
0.967325 0.193384 0.592243
0.124365 0.242839 0.433424
0.168357 0.270466 0.464590
0.226875 0.301509 0.501109
0.527854 0.185705 0.519686
0.725511 0.159854 0.542031
0.829679 0.201207 0.575536
0.919434 0.248873 0.601367
0.976703 0.296928 0.627521
0.176852 0.346230 0.499590
0.222105 0.376892 0.539796
0.267624 0.406176 0.575835
0.332817 0.431671 0.613240
0.695822 0.302879 0.591489
0.850856 0.319869 0.606474
0.928131 0.359365 0.630544
0.981016 0.405292 0.651138
0.238209 0.458739 0.585741
0.277989 0.488828 0.623939
0.317238 0.518309 0.658785
0.365417 0.549666 0.695754
0.485487 0.528170 0.688458
0.840951 0.434936 0.638781
0.930576 0.470921 0.656598
0.971755 0.516620 0.673180
0.295806 0.582698 0.678655
0.333317 0.614086 0.709450
0.374846 0.639632 0.738178
0.420617 0.662469 0.750770
0.481980 0.679372 0.758330
0.711520 0.620612 0.688999
0.915542 0.612773 0.659720
0.949475 0.666904 0.625740
0.350405 0.703938 0.754029
0.389276 0.728856 0.768377
0.431350 0.751933 0.780048
0.486308 0.771324 0.783718
0.556174 0.793976 0.787710
0.665996 0.817377 0.675255
0.870049 0.821936 0.440052
0.937521 0.834776 0.467152
0.396487 0.833036 0.804848
0.438135 0.851305 0.809580
0.495289 0.870944 0.812505
0.574209 0.880508 0.812212
0.661874 0.894881 0.805736
0.749714 0.907931 0.630015
0.885295 0.916771 0.514138
0.938694 0.921910 0.583795
0.132059 0.112509 0.381169
0.153725 0.124841 0.410374
0.308920 0.082465 0.429408
0.423296 0.050074 0.456554
0.537319 0.028770 0.491432
0.673870 0.026614 0.531501
0.823385 0.045741 0.582385
0.941033 0.092475 0.622067
0.147264 0.182764 0.441740
0.186230 0.207014 0.473804
0.243795 0.216014 0.503500
0.511901 0.094803 0.525612
0.658861 0.076273 0.558515
0.783106 0.095991 0.594383
0.892156 0.142161 0.634977
0.969930 0.198998 0.660786
0.164097 0.269669 0.506612
0.210211 0.299114 0.540875
0.261402 0.332044 0.579101
0.382214 0.312212 0.605439
0.727362 0.181603 0.613226
0.827742 0.211406 0.638035
0.910899 0.255295 0.663643
0.975527 0.302894 0.687677
0.211477 0.368511 0.576497
0.255980 0.402249 0.619077
0.295863 0.429612 0.658414
0.347393 0.460120 0.697751
0.572845 0.390662 0.688836
0.838593 0.328412 0.672909
0.921647 0.363233 0.692890
0.979413 0.407742 0.713864
0.272179 0.483184 0.666970
0.308063 0.511837 0.700807
0.354671 0.547238 0.740308
0.402549 0.577038 0.768475
0.459616 0.596148 0.782402
0.754821 0.483481 0.727077
0.929601 0.476946 0.722078
0.974080 0.521931 0.735883
0.330777 0.600950 0.750306
0.372479 0.633592 0.780682
0.414880 0.658210 0.796659
0.463598 0.674749 0.805696
0.521992 0.693107 0.809087
0.623245 0.680664 0.789673
0.910884 0.613316 0.749375
0.960492 0.656416 0.760242
0.404377 0.718993 0.806825
0.438841 0.736376 0.813004
0.486457 0.753452 0.817962
0.541939 0.770825 0.821164
0.606897 0.788137 0.820929
0.675878 0.804400 0.817950
0.804182 0.809479 0.749323
0.945179 0.815552 0.666765
0.472899 0.818181 0.830237
0.509267 0.832779 0.835108
0.562555 0.855753 0.839715
0.625245 0.871542 0.841397
0.696251 0.887302 0.843821
0.763187 0.899021 0.835587
0.867209 0.921531 0.643876
0.939134 0.926670 0.644376
0.153880 0.128654 0.452054
0.186560 0.144799 0.484104
0.250191 0.141849 0.512093
0.453784 0.068742 0.531517
0.573315 0.048028 0.570512
0.701664 0.050261 0.609145
0.837817 0.060270 0.654349
0.945142 0.113473 0.690609
0.185653 0.209215 0.518237
0.217281 0.228741 0.549163
0.262280 0.254623 0.586998
0.439074 0.187804 0.609483
0.687628 0.108974 0.640115
0.799440 0.126139 0.677153
0.891344 0.153023 0.697955
0.965410 0.207171 0.723147
0.208218 0.296559 0.583992
0.248804 0.327984 0.624056
0.295399 0.357361 0.660488
0.356787 0.387358 0.699578
0.677769 0.242482 0.700223
0.834696 0.233798 0.713292
0.909722 0.269156 0.733990
0.972081 0.309725 0.748487
0.239002 0.392773 0.662567
0.284099 0.423993 0.702108
0.332152 0.456773 0.741090
0.380380 0.493179 0.777400
0.489774 0.499581 0.794667
0.818814 0.352487 0.746295
0.923954 0.375741 0.759980
0.978717 0.414556 0.776394
0.306800 0.508435 0.741070
0.351210 0.543127 0.779310
0.398233 0.576307 0.806317
0.452433 0.608107 0.829302
0.511646 0.635770 0.846219
0.661163 0.584031 0.822215
0.923534 0.490721 0.787463
0.976305 0.530384 0.795932
0.379907 0.627308 0.810263
0.427414 0.661086 0.833406
0.479970 0.683790 0.848082
0.530092 0.702225 0.853692
0.585887 0.718846 0.853030
0.646110 0.731125 0.850395
0.834522 0.665816 0.823110
0.965505 0.663969 0.810761
0.473749 0.737689 0.854035
0.513303 0.753154 0.859000
0.557873 0.771023 0.860288
0.604594 0.784644 0.858531
0.665509 0.799767 0.858651
0.725418 0.818748 0.856805
0.791865 0.828768 0.850520
0.937148 0.806925 0.828655
0.547877 0.819983 0.861224
0.587244 0.834875 0.862320
0.634133 0.850468 0.864755
0.684837 0.862909 0.864357
0.740059 0.874688 0.863027
0.800060 0.894652 0.865355
0.850692 0.909684 0.861544
0.924753 0.928932 0.765678
