app/src/main/assets/cube/Virtual04.cube
# LUT by SparkleStock. Enhanced with VOXCOLOR algorithms.
LUT_3D_SIZE 8
DOMAIN_MIN 0.000000 0.000000 0.000000
DOMAIN_MAX 0.903226 0.903226 0.903226
0.035191 0.015640 0.031281
0.195125 0.015136 0.071390
0.302715 0.011226 0.104184
0.388358 0.007063 0.135213
0.488254 0.011730 0.153502
0.636332 0.003910 0.161574
0.810772 0.000000 0.161196
0.946110 0.000000 0.164223
0.175070 0.085769 0.116167
0.290244 0.044809 0.131807
0.368840 0.044268 0.159243
0.483782 0.057894 0.185995
0.623157 0.029592 0.191589
0.795310 0.013846 0.192476
0.931439 0.007255 0.206237
0.989207 0.023672 0.210147
0.103049 0.253398 0.182386
0.308472 0.159462 0.185722
0.460692 0.135656 0.206794
0.598253 0.119642 0.216775
0.768127 0.085427 0.218834
0.897981 0.082221 0.229380
0.967976 0.125773 0.241334
0.993477 0.185336 0.237574
0.009460 0.387475 0.219594
0.071781 0.391674 0.240178
0.323160 0.391133 0.059994
0.408372 0.429184 0.049570
0.519376 0.452250 0.041074
0.643001 0.470848 0.006449
0.755404 0.487497 0.000928
0.852379 0.499065 0.000000
0.000000 0.518526 0.263110
0.014119 0.544891 0.246473
0.310678 0.527599 0.002901
0.432895 0.547479 0.006364
0.561915 0.558863 0.004305
0.687562 0.579414 0.003743
0.797438 0.592312 0.005334
0.879310 0.609417 0.000000
0.000000 0.623719 0.299562
0.127445 0.608457 0.000000
0.356972 0.622205 0.000000
0.505331 0.638098 0.000000
0.636153 0.654117 0.000000
0.746107 0.677199 0.000000
0.832450 0.690333 0.000000
0.906949 0.709810 0.000000
0.022704 0.731309 0.343834
0.200362 0.696371 0.000000
0.421266 0.715933 0.000000
0.568429 0.735683 0.000000
0.688021 0.750973 0.000000
0.779019 0.768644 0.000000
0.857359 0.785122 0.000000
0.927862 0.804359 0.000000
0.177467 0.817457 0.378898
0.333894 0.788446 0.000000
0.497258 0.804591 0.000000
0.623935 0.821403 0.000000
0.725788 0.832417 0.000000
0.807679 0.851195 0.000000
0.879965 0.864125 0.000000
0.942160 0.879049 0.000000
0.087031 0.023965 0.115915
0.207815 0.003910 0.139611
0.310852 0.003186 0.159934
0.397895 0.000000 0.181657
0.503768 0.002714 0.209248
0.664659 0.000000 0.230902
0.831766 0.000000 0.239747
0.959769 0.000000 0.257686
0.115597 0.128890 0.184119
0.289760 0.026502 0.187809
0.392091 0.029995 0.216095
0.494335 0.027971 0.242040
0.643863 0.003910 0.250106
0.811531 0.002801 0.258495
0.944906 0.001346 0.279835
0.989207 0.004164 0.296031
0.111561 0.249992 0.242835
0.184823 0.246061 0.261700
0.483503 0.096285 0.263134
0.632632 0.058008 0.278522
0.791124 0.016890 0.288305
0.909746 0.044207 0.302613
0.981606 0.099599 0.326225
0.995971 0.170863 0.329888
0.015970 0.392288 0.285911
0.038264 0.414964 0.307333
0.426822 0.272988 0.318146
0.665791 0.255629 0.265412
0.786310 0.287487 0.270896
0.874878 0.327421 0.263854
0.925217 0.368716 0.248425
0.962866 0.400249 0.241347
0.000000 0.525402 0.326240
0.000000 0.553024 0.349592
0.112898 0.551302 0.227972
0.454965 0.546588 0.032155
0.581849 0.564177 0.020122
0.696895 0.574593 0.026962
0.799142 0.590834 0.029360
0.880655 0.611532 0.026053
0.000000 0.636584 0.363555
0.025565 0.655237 0.384780
0.303358 0.631993 0.041698
0.514166 0.640124 0.001170
0.641059 0.654220 0.001446
0.748996 0.677243 0.006288
0.839232 0.693909 0.018022
0.908173 0.716104 0.024120
0.081526 0.736102 0.403746
0.205579 0.751186 0.402070
0.399513 0.728138 0.021154
0.579660 0.741425 0.000589
0.692386 0.754248 0.000269
0.783019 0.772563 0.000031
0.863399 0.791489 0.001877
0.927308 0.805950 0.007670
0.331359 0.817204 0.440576
0.344213 0.822415 0.384083
0.508152 0.807829 0.001155
0.636082 0.824761 0.000000
0.733980 0.839565 0.000107
0.814495 0.855203 0.000513
0.886501 0.870826 0.000223
0.944213 0.884520 0.000125
0.092454 0.039101 0.187305
0.222496 0.003658 0.199003
0.303968 0.000000 0.209183
0.403941 0.000000 0.238836
0.525723 0.000000 0.261088
0.690442 0.000000 0.283165
0.853127 0.000000 0.293426
0.964725 0.000000 0.313257
0.141519 0.131840 0.237916
0.281217 0.034009 0.243499
0.385226 0.019200 0.263440
0.510929 0.005391 0.286580
0.671754 0.003910 0.302341
0.835703 0.003900 0.318427
0.956541 0.000000 0.331839
0.989718 0.001967 0.347736
0.129346 0.236679 0.279629
0.161968 0.257312 0.297450
0.457265 0.079126 0.308683
0.652291 0.007365 0.322367
0.802319 0.006869 0.335215
0.914475 0.016775 0.348959
0.980818 0.053329 0.365297
0.994103 0.158399 0.379900
0.027261 0.378325 0.333629
0.032125 0.409638 0.354862
0.200938 0.388809 0.375882
0.756880 0.111025 0.360326
0.863274 0.173340 0.372897
0.933750 0.247133 0.384961
0.975947 0.316362 0.390977
0.990493 0.360672 0.391353
0.000000 0.518766 0.375993
0.000288 0.547101 0.399388
0.069900 0.563442 0.419757
0.562872 0.466911 0.320167
0.663420 0.527419 0.186016
0.758454 0.549045 0.165057
0.842731 0.567108 0.166364
0.903237 0.593992 0.130675
0.018309 0.631881 0.416485
0.054652 0.654847 0.442182
0.226205 0.673084 0.454655
0.454861 0.658069 0.151290
0.651080 0.657558 0.053431
0.755317 0.681642 0.059906
0.837288 0.693641 0.080840
0.906769 0.709887 0.086617
0.174724 0.734015 0.454060
0.292884 0.750015 0.471361
0.381154 0.759841 0.418505
0.579404 0.747162 0.036072
0.700613 0.758795 0.017537
0.791327 0.778671 0.027202
0.867999 0.792534 0.049557
0.930503 0.804308 0.065907
0.368604 0.813546 0.479400
0.461652 0.827673 0.492518
0.469258 0.833867 0.388776
0.638907 0.830957 0.020205
0.744083 0.844893 0.021691
0.822343 0.861020 0.026280
0.888711 0.872876 0.017505
0.946070 0.887735 0.036373
0.126636 0.035191 0.237631
0.237224 0.002950 0.245801
0.313436 0.000000 0.258541
0.390482 0.000000 0.276606
0.534442 0.000000 0.308700
0.721589 0.000000 0.330826
0.883301 0.000000 0.348208
0.981085 0.000000 0.363132
0.157615 0.127694 0.278042
0.204887 0.124392 0.291476
0.374810 0.017762 0.300408
0.509099 0.000620 0.324585
0.687888 0.003910 0.346483
0.853509 0.003600 0.359436
0.965522 0.000000 0.379334
0.994215 0.000500 0.391022
0.136714 0.234295 0.312203
0.162482 0.257253 0.335562
0.356356 0.149134 0.350565
0.651428 0.004225 0.365441
0.815603 0.004120 0.381400
0.921229 0.006658 0.391152
0.981082 0.020873 0.404690
0.996024 0.123051 0.415218
0.058692 0.367339 0.363384
0.059493 0.395817 0.380565
0.125241 0.418852 0.408169
0.582732 0.199031 0.411672
0.869417 0.110765 0.415539
0.940904 0.203612 0.430225
0.983380 0.294760 0.442660
0.995833 0.345923 0.449287
0.000000 0.503756 0.419834
0.001814 0.525557 0.442245
0.058636 0.540558 0.460001
0.264628 0.529833 0.471434
0.837039 0.382129 0.430942
0.883153 0.448309 0.389973
0.937729 0.487711 0.393673
0.970173 0.519707 0.385819
0.021646 0.621717 0.465795
0.100068 0.639626 0.485289
0.218466 0.654723 0.503497
0.350482 0.676629 0.503588
0.615854 0.667556 0.251644
0.769777 0.679713 0.151127
0.842974 0.691175 0.164114
0.910156 0.711829 0.175193
0.212783 0.725885 0.499817
0.319093 0.743557 0.515215
0.417758 0.756945 0.523797
0.520700 0.768660 0.445819
0.696202 0.766961 0.127748
0.796804 0.781236 0.120519
0.868892 0.792515 0.136176
0.932425 0.808953 0.155300
0.406810 0.815980 0.523139
0.483648 0.825049 0.528239
0.557206 0.832231 0.535535
0.590716 0.842836 0.408017
0.752469 0.851326 0.101610
0.830961 0.864565 0.103220
0.896083 0.877070 0.105243
0.948458 0.887670 0.150339
0.157538 0.027370 0.271939
0.229323 0.005664 0.281903
0.327054 0.000000 0.299309
0.392427 0.000000 0.319674
0.518123 0.000000 0.346845
0.733327 0.000000 0.379350
0.904487 0.000000 0.394010
0.989666 0.000000 0.408897
0.168703 0.124174 0.310348
0.200419 0.139420 0.331209
0.369947 0.013274 0.338027
0.494795 0.000000 0.358441
0.675291 0.000187 0.388961
0.873271 0.000127 0.414601
0.967666 0.000000 0.425158
0.994759 0.000000 0.430740
0.147443 0.229433 0.351524
0.162514 0.251197 0.366716
0.232688 0.249693 0.393460
0.602612 0.010366 0.401997
0.802333 0.002901 0.423923
0.917974 0.003027 0.435115
0.981750 0.009735 0.444513
0.994380 0.043429 0.447144
0.061690 0.353224 0.389184
0.075896 0.373239 0.404946
0.126203 0.398929 0.430417
0.340533 0.337327 0.451911
0.836205 0.071911 0.451878
0.935157 0.156819 0.463648
0.983155 0.245811 0.474620
0.994398 0.315946 0.479257
0.001497 0.474111 0.442704
0.013266 0.496387 0.460562
0.070529 0.518056 0.479038
0.181641 0.530444 0.494653
0.600361 0.423165 0.487709
0.922746 0.384777 0.481305
0.970898 0.433158 0.487895
0.992414 0.475490 0.495595
0.005940 0.596548 0.499931
0.034400 0.611555 0.515098
0.168694 0.627618 0.531826
0.292360 0.641459 0.545121
0.448476 0.652498 0.539511
0.838885 0.614017 0.397717
0.883699 0.664764 0.313188
0.932696 0.686983 0.305939
0.173707 0.711759 0.542250
0.269384 0.728184 0.557769
0.398587 0.740876 0.561964
0.511225 0.754496 0.567976
0.636609 0.776972 0.487355
0.797988 0.786355 0.216393
0.874236 0.795818 0.209147
0.937797 0.811431 0.226198
0.405317 0.805376 0.564087
0.495636 0.821865 0.570499
0.570241 0.830725 0.577557
0.639773 0.839353 0.576572
0.705060 0.854575 0.386565
0.834405 0.868022 0.196072
0.903588 0.881279 0.200400
0.950991 0.888768 0.255287
0.174566 0.032542 0.307382
0.212230 0.040805 0.327978
0.334537 0.000000 0.332372
0.405142 0.000000 0.357086
0.518977 0.000000 0.385730
0.718122 0.000000 0.419260
0.912132 0.000000 0.446236
0.988482 0.000000 0.452054
0.181800 0.116419 0.343752
0.202027 0.131555 0.362635
0.272686 0.108717 0.374853
0.499983 0.000000 0.398876
0.652760 0.000000 0.423276
0.846628 0.000000 0.455991
0.958687 0.000000 0.468649
0.995556 0.000000 0.468903
0.157863 0.217955 0.384900
0.167981 0.233984 0.400100
0.194224 0.258268 0.420477
0.504773 0.043106 0.432343
0.752446 0.000000 0.454668
0.886900 0.000551 0.473862
0.970596 0.005745 0.484022
0.994795 0.011083 0.486878
0.082465 0.339553 0.416493
0.097857 0.363091 0.437324
0.131957 0.378889 0.450716
0.199985 0.394482 0.475460
0.699475 0.147143 0.479403
0.903604 0.140354 0.494379
0.971211 0.193663 0.502808
0.993969 0.278307 0.510698
0.006738 0.460253 0.462470
0.005550 0.477220 0.478311
0.048150 0.491831 0.493215
0.125904 0.507880 0.509749
0.362192 0.474326 0.517054
0.886957 0.371639 0.515297
0.966323 0.409234 0.523831
0.994266 0.451136 0.534111
0.000854 0.571753 0.519661
0.021484 0.591382 0.537571
0.079190 0.601965 0.550116
0.224512 0.608908 0.559372
0.370672 0.620213 0.567368
0.735554 0.577540 0.547841
0.951719 0.570370 0.532710
0.972416 0.623680 0.490459
0.031443 0.683253 0.576513
0.178833 0.696243 0.586237
0.324602 0.717823 0.595170
0.454497 0.732876 0.601716
0.579862 0.748768 0.606549
0.724639 0.775690 0.521690
0.885036 0.798777 0.303262
0.945117 0.815791 0.299923
0.336888 0.795127 0.605117
0.456982 0.805682 0.606968
0.561276 0.822343 0.614605
0.649798 0.836493 0.622355
0.722310 0.848709 0.625306
0.797934 0.866470 0.441418
0.910068 0.885400 0.280378
0.956242 0.893818 0.343802
0.189197 0.040614 0.343834
0.214268 0.044158 0.358465
0.331554 0.000000 0.366594
0.421738 0.000000 0.388822
0.528994 0.000000 0.419639
0.687859 0.000000 0.448490
0.885515 0.000000 0.482200
0.984696 0.000000 0.492416
0.194018 0.109763 0.378520
0.212277 0.126760 0.394435
0.252266 0.124981 0.409589
0.493474 0.003524 0.428361
0.645050 0.000000 0.460418
0.805766 0.000000 0.483735
0.931623 0.000000 0.503556
0.993566 0.000000 0.510376
0.167742 0.210261 0.415224
0.180148 0.229163 0.434922
0.198744 0.256718 0.449226
0.320022 0.198389 0.461052
0.716648 0.000000 0.484391
0.838535 0.000000 0.500631
0.939620 0.000359 0.515719
0.989092 0.007092 0.524448
0.093121 0.331640 0.450581
0.107441 0.353461 0.466665
0.138783 0.369524 0.485806
0.177382 0.389788 0.506856
0.501783 0.242846 0.506125
0.843397 0.115286 0.516013
0.942058 0.154933 0.531460
0.992213 0.234230 0.542143
0.003556 0.447904 0.486614
0.000374 0.465152 0.501337
0.023983 0.480075 0.524095
0.075055 0.492883 0.541150
0.196017 0.494786 0.553098
0.727228 0.374471 0.540896
0.946521 0.385383 0.555710
0.992443 0.430181 0.570004
0.000000 0.549538 0.540692
0.003709 0.568352 0.561691
0.033602 0.575205 0.573171
0.133030 0.585881 0.581925
0.299806 0.594123 0.586355
0.507889 0.578632 0.582777
0.936301 0.542970 0.585039
0.987812 0.576447 0.593940
0.024266 0.663125 0.603160
0.071879 0.671865 0.611232
0.235368 0.687713 0.617710
0.399335 0.707357 0.626479
0.520196 0.715706 0.630177
0.634342 0.727438 0.637665
0.828657 0.754736 0.590591
0.967822 0.768302 0.498010
0.227443 0.780879 0.646581
0.373919 0.793245 0.650174
0.502538 0.807055 0.656896
0.611724 0.821057 0.665153
0.708246 0.837841 0.674729
0.784527 0.852305 0.674905
0.896732 0.884460 0.449421
0.960413 0.894328 0.430443
0.201179 0.043011 0.378520
0.229091 0.041322 0.392659
0.274864 0.028123 0.409422
0.437081 0.000000 0.420343
0.554318 0.000000 0.454044
0.688302 0.000000 0.482704
0.845185 0.000000 0.508614
0.964652 0.000000 0.530842
0.210261 0.112005 0.414833
0.224479 0.125082 0.429424
0.248127 0.138263 0.445564
0.408937 0.047749 0.455600
0.670745 0.000000 0.493581
0.777953 0.000000 0.511897
0.887313 0.000000 0.526428
0.972198 0.000000 0.541054
0.185136 0.201533 0.449609
0.195316 0.226079 0.465903
0.213617 0.249975 0.482146
0.258599 0.261074 0.502328
0.644407 0.016878 0.508999
0.809259 0.000000 0.528266
0.891190 0.000479 0.540130
0.973877 0.003282 0.556006
0.097626 0.322176 0.483245
0.112808 0.343756 0.503955
0.139859 0.363660 0.525794
0.169627 0.379742 0.548360
0.310742 0.343217 0.563706
0.797179 0.095241 0.544915
0.902085 0.141466 0.559427
0.974279 0.162078 0.573201
0.000000 0.442867 0.518371
0.000254 0.461762 0.541756
0.015405 0.476002 0.565075
0.062325 0.487496 0.592680
0.164114 0.495070 0.613332
0.506404 0.412070 0.596345
0.914743 0.349272 0.581819
0.979993 0.391870 0.596807
0.000000 0.544948 0.577868
0.000000 0.561704 0.602814
0.004908 0.571016 0.620487
0.102385 0.576728 0.628495
0.255062 0.576340 0.632262
0.409294 0.575068 0.632573
0.792891 0.525974 0.618535
0.986987 0.550563 0.628002
0.000000 0.652278 0.651216
0.042984 0.666652 0.662057
0.175724 0.675759 0.667054
0.321655 0.682114 0.665841
0.464502 0.692649 0.669454
0.583609 0.694092 0.671843
0.716104 0.698690 0.674213
0.963265 0.719315 0.669756
0.135050 0.766630 0.695451
0.287560 0.785086 0.703068
0.436637 0.797926 0.707683
0.549636 0.803786 0.711885
0.653059 0.815169 0.716983
0.760523 0.838809 0.733563
0.849497 0.858045 0.742571
0.955389 0.894539 0.602471
