app/src/main/assets/cube/Virtual07.cube
# LUT by SparkleStock. Enhanced with VOXCOLOR algorithms.
LUT_3D_SIZE 5
DOMAIN_MIN 0.000000 0.000000 0.000000
DOMAIN_MAX 0.903226 0.903226 0.903226
0.058651 0.062561 0.086022
0.156024 0.078201 0.110365
0.350393 0.064705 0.133825
0.586889 0.038470 0.161700
0.843313 0.063570 0.214297
0.075805 0.148204 0.136222
0.327518 0.116627 0.156610
0.565373 0.115068 0.199287
0.801100 0.149205 0.252523
0.967480 0.217019 0.303944
0.006054 0.347365 0.219090
0.278770 0.367652 0.083914
0.455964 0.422035 0.080545
0.626022 0.461815 0.094346
0.805389 0.514550 0.147277
0.024596 0.571248 0.372339
0.312057 0.589529 0.101401
0.524421 0.633573 0.134456
0.729771 0.674171 0.179688
0.895467 0.722826 0.254594
0.150475 0.822376 0.525967
0.327510 0.822681 0.223830
0.593513 0.858030 0.273684
0.797813 0.884400 0.332608
0.934547 0.907388 0.414003
0.078201 0.078201 0.130798
0.179440 0.078201 0.154800
0.379871 0.046416 0.208532
0.620566 0.022199 0.264009
0.867226 0.067647 0.331241
0.089932 0.163800 0.201729
0.328455 0.130125 0.248006
0.602738 0.108670 0.311957
0.823446 0.173422 0.373601
0.973986 0.254032 0.420778
0.050107 0.364808 0.346088
0.174943 0.417160 0.401490
0.674620 0.323036 0.338501
0.802530 0.392998 0.334760
0.900216 0.483294 0.307731
0.139888 0.593439 0.493173
0.237582 0.655712 0.546256
0.536570 0.649371 0.168896
0.741741 0.692264 0.210885
0.897989 0.727821 0.286940
0.269595 0.833654 0.642439
0.314760 0.857282 0.511807
0.615581 0.871196 0.298605
0.812318 0.894739 0.369202
0.936418 0.913937 0.453045
0.090814 0.090814 0.209504
0.221002 0.079373 0.242750
0.417946 0.027065 0.310010
0.659951 0.022089 0.381075
0.904992 0.067122 0.450309
0.093211 0.193522 0.310356
0.231878 0.211194 0.371900
0.638716 0.111965 0.423813
0.843068 0.183066 0.481161
0.976106 0.266219 0.522160
0.155951 0.371310 0.437297
0.245540 0.425965 0.500577
0.605434 0.355111 0.512750
0.871030 0.378196 0.533026
0.981162 0.453707 0.573711
0.226104 0.606093 0.599990
0.305561 0.651512 0.658029
0.392402 0.703568 0.664149
0.766806 0.695655 0.301562
0.908345 0.736964 0.344198
0.321785 0.842304 0.748023
0.427122 0.869163 0.752817
0.542645 0.891151 0.521417
0.819021 0.902665 0.418974
0.937374 0.913880 0.507443
0.116041 0.104941 0.329959
0.246725 0.089728 0.372970
0.460757 0.027891 0.424826
0.696798 0.026740 0.490598
0.935263 0.077949 0.566297
0.127881 0.225783 0.436028
0.210023 0.276293 0.493754
0.652116 0.124537 0.531780
0.846766 0.185051 0.585163
0.975182 0.271900 0.632175
0.216173 0.409784 0.561459
0.291015 0.459197 0.627633
0.391902 0.500340 0.682967
0.871432 0.382537 0.643725
0.977673 0.459901 0.678881
0.320349 0.618698 0.716348
0.386877 0.662650 0.764018
0.477282 0.701702 0.778452
0.689092 0.682900 0.716176
0.948434 0.706794 0.655818
0.413934 0.827893 0.810707
0.493726 0.864349 0.819344
0.627319 0.887591 0.820578
0.773265 0.911379 0.643352
0.938194 0.924554 0.599157
0.153880 0.128654 0.452054
0.222085 0.150800 0.507699
0.512284 0.054277 0.551698
0.734149 0.053386 0.620537
0.945142 0.113473 0.690609
0.203303 0.272423 0.566089
0.277408 0.325651 0.632341
0.517654 0.269721 0.679103
0.850344 0.214092 0.709970
0.971380 0.284123 0.741553
0.275910 0.454304 0.702531
0.350995 0.509228 0.769531
0.441654 0.568014 0.820316
0.835004 0.421611 0.766621
0.977671 0.470080 0.787286
0.402106 0.656863 0.826603
0.488955 0.704874 0.852558
0.575318 0.728776 0.854625
0.678469 0.753633 0.849498
0.962164 0.698365 0.815385
0.547877 0.819983 0.861224
0.623266 0.846391 0.864759
0.711503 0.869751 0.864688
0.812580 0.898081 0.865766
0.924753 0.928932 0.765678
