app/src/main/assets/cube/Virtual07.cube
# LUT by SparkleStock. Enhanced with VOXCOLOR algorithms.
LUT_3D_SIZE 32
0.058651 0.062561 0.086022
0.068742 0.066597 0.092076
0.078958 0.070507 0.097878
0.091067 0.072525 0.099896
0.103932 0.074544 0.101914
0.122095 0.076562 0.103932
0.139880 0.078201 0.106329
0.156024 0.078201 0.110365
0.174187 0.078201 0.114401
0.198404 0.078201 0.118437
0.224514 0.077571 0.121212
0.254785 0.075553 0.121212
0.285813 0.072778 0.123482
0.318103 0.068742 0.129537
0.350393 0.064705 0.133825
0.382682 0.060669 0.135843
0.413963 0.054615 0.138870
0.444234 0.046542 0.142907
0.477911 0.040740 0.145808
0.514237 0.036704 0.147826
0.550563 0.036452 0.153628
0.586889 0.038470 0.161700
0.623214 0.037713 0.166998
0.659540 0.035695 0.171034
0.692839 0.036704 0.176584
0.725128 0.038722 0.182638
0.765617 0.045660 0.193611
0.807997 0.053732 0.205720
0.843313 0.063570 0.214297
0.877621 0.073661 0.222369
0.906253 0.081859 0.230442
0.934506 0.089932 0.238514
0.068742 0.070633 0.094094
0.078832 0.072586 0.098065
0.089179 0.074478 0.101914
0.103371 0.075455 0.103932
0.118189 0.076562 0.106080
0.137394 0.078580 0.109140
0.156610 0.080219 0.112383
0.175880 0.080219 0.116419
0.196647 0.079959 0.120195
0.221906 0.078917 0.123190
0.249707 0.077896 0.126225
0.283104 0.076920 0.129350
0.316085 0.074796 0.132792
0.348374 0.070760 0.136763
0.381575 0.067635 0.140335
0.415948 0.065682 0.143395
0.448270 0.060669 0.146422
0.478542 0.052597 0.149417
0.511047 0.047966 0.153034
0.545290 0.046013 0.157135
0.580834 0.043938 0.163067
0.617160 0.041790 0.170098
0.652770 0.043312 0.176502
0.688054 0.046502 0.182622
0.724217 0.050375 0.190255
0.760673 0.054476 0.198392
0.799404 0.061804 0.209756
0.838659 0.069877 0.221865
0.871762 0.079715 0.230442
0.903987 0.089805 0.238514
0.929559 0.098980 0.247563
0.954687 0.108094 0.256677
0.078832 0.078454 0.101914
0.089118 0.078519 0.103997
0.099770 0.078580 0.106076
0.115915 0.078580 0.108094
0.132572 0.078832 0.110357
0.152818 0.080850 0.114328
0.173467 0.082490 0.118311
0.195861 0.082490 0.122347
0.219265 0.081985 0.125912
0.245696 0.079967 0.128060
0.275218 0.078580 0.131408
0.311544 0.078580 0.137398
0.346356 0.077042 0.141946
0.378646 0.072940 0.144095
0.412701 0.070633 0.147069
0.449027 0.070633 0.151105
0.482326 0.066662 0.154165
0.512597 0.058720 0.156248
0.544041 0.055282 0.160528
0.576395 0.055347 0.166518
0.611273 0.051791 0.172670
0.647664 0.046062 0.178919
0.682667 0.049732 0.186467
0.717040 0.057675 0.194604
0.755758 0.064298 0.204158
0.795925 0.070483 0.214183
0.832918 0.078201 0.225848
0.869179 0.086274 0.237892
0.899857 0.096112 0.246403
0.929738 0.106203 0.254411
0.952051 0.116354 0.264310
0.973859 0.126510 0.274335
0.088923 0.082490 0.105950
0.102333 0.083597 0.109075
0.115915 0.084634 0.112131
0.132059 0.084634 0.114149
0.148847 0.084886 0.116281
0.170135 0.086904 0.119210
0.192216 0.088544 0.122347
0.217735 0.088544 0.126384
0.244263 0.088040 0.130469
0.273819 0.086022 0.134700
0.305490 0.084634 0.139155
0.341816 0.084634 0.144103
0.376628 0.082705 0.148782
0.408917 0.077563 0.153013
0.442973 0.074670 0.157160
0.479299 0.074670 0.161196
0.512597 0.071740 0.164776
0.542869 0.065881 0.167901
0.574898 0.063940 0.172051
0.608294 0.065047 0.176999
0.644213 0.065137 0.184713
0.681646 0.064616 0.194087
0.717691 0.068481 0.203328
0.753105 0.074340 0.212507
0.789740 0.082006 0.221539
0.826782 0.090273 0.230523
0.862343 0.098382 0.241147
0.897562 0.106455 0.252149
0.922642 0.116293 0.259619
0.946273 0.126384 0.266584
0.962337 0.137512 0.275442
0.977896 0.148709 0.284426
0.096490 0.088796 0.110743
0.113937 0.089903 0.114519
0.131343 0.090941 0.118185
0.148139 0.090941 0.120203
0.165659 0.091177 0.122237
0.188249 0.093065 0.124386
0.211949 0.094598 0.126912
0.240463 0.094598 0.131079
0.269986 0.094126 0.135685
0.302536 0.092239 0.141609
0.336103 0.090819 0.146943
0.371908 0.090428 0.150979
0.406493 0.088109 0.155772
0.439043 0.082575 0.161826
0.473244 0.079463 0.167055
0.509570 0.079463 0.171221
0.542934 0.077640 0.175453
0.573336 0.073994 0.179749
0.606081 0.073681 0.183973
0.640649 0.075959 0.188139
0.677414 0.079418 0.197188
0.715498 0.083584 0.209166
0.752283 0.087751 0.219936
0.788479 0.091917 0.230157
0.823063 0.100624 0.238766
0.857111 0.110845 0.246839
0.890629 0.119320 0.256339
0.924025 0.127393 0.266169
0.943637 0.137231 0.272468
0.961279 0.147321 0.278262
0.971841 0.159304 0.286436
0.981932 0.171412 0.294769
0.086400 0.110995 0.120834
0.114263 0.104811 0.122526
0.141759 0.099013 0.124239
0.163763 0.099013 0.126257
0.186231 0.099119 0.128422
0.211945 0.099965 0.131612
0.238575 0.100653 0.135180
0.269172 0.100653 0.140388
0.300778 0.100441 0.145515
0.335411 0.099595 0.150397
0.369109 0.097914 0.155015
0.400747 0.094399 0.159051
0.433509 0.091689 0.163844
0.468142 0.090322 0.169899
0.503516 0.089553 0.175583
0.539842 0.089553 0.180791
0.573726 0.089293 0.186585
0.605170 0.088772 0.192965
0.639542 0.090998 0.198685
0.676194 0.095359 0.203893
0.712438 0.100250 0.212682
0.748438 0.105458 0.223618
0.783857 0.110666 0.234779
0.819011 0.115874 0.246041
0.851772 0.125623 0.254911
0.883736 0.136885 0.262984
0.910940 0.145555 0.270792
0.937045 0.153628 0.278538
0.952100 0.163466 0.282754
0.965575 0.173557 0.286464
0.975877 0.185539 0.296461
0.985968 0.197648 0.306877
0.077823 0.132059 0.130167
0.111610 0.121513 0.130558
0.145145 0.111504 0.131026
0.174895 0.109551 0.132653
0.204703 0.107793 0.134582
0.234909 0.107403 0.138618
0.265543 0.107122 0.143069
0.298028 0.107317 0.149319
0.331473 0.107464 0.155064
0.367799 0.107464 0.159296
0.401724 0.105633 0.163588
0.430368 0.099774 0.168015
0.461819 0.096942 0.173052
0.497950 0.099155 0.179106
0.533995 0.100486 0.185161
0.569930 0.100681 0.191215
0.604335 0.102081 0.198181
0.637211 0.104685 0.206058
0.672943 0.109120 0.213129
0.710896 0.114979 0.219574
0.745960 0.121082 0.228175
0.779292 0.127332 0.238071
0.812623 0.133715 0.248951
0.845954 0.140160 0.260278
0.876844 0.150706 0.269164
0.906920 0.162620 0.277236
0.928957 0.171571 0.283828
0.949138 0.179839 0.290077
0.960319 0.189872 0.293137
0.970214 0.200158 0.295741
0.979377 0.211603 0.304875
0.988491 0.223126 0.314445
0.075805 0.148204 0.136222
0.096051 0.145991 0.138696
0.118063 0.143143 0.140986
0.166562 0.130774 0.140531
0.214077 0.119642 0.140636
0.254700 0.117168 0.144673
0.293992 0.115390 0.149319
0.327518 0.116627 0.156610
0.361744 0.117554 0.163397
0.398070 0.117554 0.168670
0.432646 0.116049 0.174330
0.463374 0.111231 0.180840
0.495736 0.109441 0.187179
0.530825 0.112696 0.193233
0.565373 0.115068 0.199287
0.599225 0.116305 0.205342
0.634151 0.119788 0.211787
0.670152 0.125517 0.218622
0.706079 0.130733 0.226410
0.741949 0.135550 0.234938
0.772977 0.141914 0.243669
0.801100 0.149205 0.252523
0.829223 0.157347 0.260213
0.857347 0.165875 0.267374
0.886153 0.176161 0.275218
0.915188 0.187032 0.283291
0.937029 0.196635 0.290728
0.957210 0.205944 0.298020
0.967480 0.217019 0.303944
0.976333 0.228346 0.309673
0.980548 0.236927 0.306308
0.984454 0.245325 0.302337
0.070760 0.166872 0.142781
0.079548 0.171689 0.147077
0.091421 0.175042 0.151028
0.149555 0.156423 0.149791
0.207746 0.139106 0.149051
0.266336 0.130904 0.151785
0.320227 0.124715 0.155325
0.353753 0.127254 0.162355
0.387915 0.129223 0.169142
0.423980 0.129484 0.175196
0.459028 0.128890 0.181800
0.491839 0.126416 0.189612
0.525308 0.126481 0.197058
0.559876 0.130778 0.203893
0.593334 0.134078 0.210159
0.625363 0.136096 0.215693
0.659768 0.141011 0.221486
0.696550 0.148823 0.227541
0.731500 0.154657 0.235426
0.765027 0.158954 0.244735
0.792572 0.165448 0.253109
0.816529 0.173260 0.260921
0.841202 0.182817 0.266674
0.866200 0.193168 0.271491
0.892859 0.203324 0.278359
0.920070 0.213414 0.285911
0.941570 0.223293 0.293674
0.961751 0.233123 0.301486
0.971109 0.244719 0.307931
0.978921 0.256567 0.314181
0.971353 0.268354 0.294736
0.962760 0.280137 0.273579
0.056633 0.193107 0.150853
0.060213 0.201049 0.156191
0.066097 0.207722 0.161314
0.106524 0.195353 0.163202
0.154299 0.181421 0.164544
0.253512 0.156553 0.162071
0.339822 0.137215 0.160598
0.370224 0.141837 0.163462
0.401781 0.145629 0.167124
0.436805 0.146931 0.173178
0.471788 0.149006 0.179456
0.506681 0.152782 0.186227
0.541844 0.157143 0.194193
0.577453 0.162481 0.204154
0.611041 0.166367 0.211266
0.642028 0.168385 0.214716
0.672788 0.172779 0.219468
0.703320 0.179550 0.225523
0.733779 0.185515 0.231650
0.764180 0.190853 0.237835
0.789903 0.197086 0.244385
0.812818 0.203857 0.251156
0.839314 0.213805 0.258732
0.867437 0.225197 0.266674
0.891752 0.235613 0.272761
0.914797 0.245704 0.278229
0.935515 0.254736 0.284756
0.955696 0.263525 0.291526
0.964143 0.274079 0.291461
0.970914 0.284886 0.290419
0.931056 0.318091 0.244153
0.888090 0.352789 0.194873
0.041876 0.220604 0.161448
0.042527 0.230369 0.167828
0.044679 0.239120 0.173980
0.069352 0.232676 0.176714
0.107566 0.222292 0.178065
0.240565 0.184339 0.169732
0.352398 0.155796 0.162107
0.372514 0.168035 0.157550
0.395446 0.177963 0.155320
0.426824 0.180958 0.160073
0.459443 0.185742 0.164927
0.494793 0.194466 0.170005
0.529776 0.202188 0.176987
0.564148 0.208243 0.187142
0.596015 0.212531 0.193595
0.624659 0.214549 0.195288
0.651936 0.218585 0.198673
0.677846 0.224640 0.203751
0.704891 0.231243 0.208060
0.732818 0.238274 0.211770
0.756962 0.244491 0.216335
0.778836 0.250220 0.221413
0.805812 0.259887 0.229490
0.835107 0.271345 0.238929
0.858787 0.281289 0.244804
0.880595 0.290728 0.249492
0.901611 0.299057 0.255025
0.922443 0.307130 0.260754
0.932907 0.316683 0.257597
0.941891 0.326448 0.253170
0.891919 0.369170 0.199552
0.838016 0.414089 0.142654
0.025731 0.250875 0.177593
0.028465 0.259598 0.185014
0.031854 0.267699 0.191882
0.045070 0.266462 0.190450
0.075601 0.259985 0.187244
0.227350 0.216824 0.171620
0.349534 0.187761 0.155337
0.343610 0.219790 0.136197
0.344668 0.245342 0.121989
0.366672 0.251461 0.122575
0.391869 0.259045 0.123588
0.424094 0.269852 0.125541
0.454780 0.278876 0.128227
0.482904 0.284930 0.132133
0.508976 0.289219 0.134615
0.532412 0.291237 0.135266
0.556564 0.295273 0.136568
0.581432 0.301328 0.138521
0.607436 0.309689 0.140876
0.634322 0.319844 0.143545
0.657425 0.326582 0.145767
0.678257 0.331269 0.147720
0.702759 0.339179 0.153388
0.728929 0.348554 0.160744
0.755734 0.356414 0.167661
0.782750 0.363771 0.174431
0.806434 0.371709 0.179509
0.829350 0.379781 0.184196
0.848277 0.388423 0.185466
0.866636 0.397147 0.186247
0.855333 0.423203 0.168109
0.842052 0.450415 0.148709
0.014127 0.281903 0.192224
0.018553 0.289195 0.200687
0.023082 0.296254 0.208393
0.029136 0.299834 0.204748
0.053598 0.297995 0.197814
0.206908 0.258219 0.167868
0.329068 0.233127 0.139119
0.316244 0.271666 0.115552
0.311149 0.302686 0.097471
0.329247 0.311149 0.095843
0.350905 0.320386 0.094725
0.380396 0.331322 0.094725
0.407762 0.340575 0.094725
0.431589 0.347020 0.094725
0.453820 0.351528 0.094554
0.474001 0.353546 0.094163
0.496200 0.357582 0.093968
0.520417 0.363636 0.093968
0.545770 0.372657 0.095323
0.572005 0.383984 0.097731
0.595189 0.390999 0.099123
0.616542 0.395426 0.099904
0.639595 0.402359 0.104311
0.663422 0.410431 0.110365
0.691496 0.416697 0.117640
0.720987 0.422361 0.125322
0.746827 0.430299 0.130993
0.771826 0.438762 0.136201
0.796140 0.446199 0.140726
0.820358 0.453491 0.145153
0.835786 0.468350 0.150678
0.850629 0.483713 0.156277
0.010090 0.314193 0.204333
0.015559 0.319401 0.213837
0.021064 0.324768 0.222585
0.027118 0.332514 0.219981
0.048194 0.336534 0.210704
0.174423 0.314466 0.154718
0.279267 0.300831 0.107155
0.291440 0.323746 0.096088
0.306397 0.343309 0.087641
0.329703 0.352813 0.087055
0.354290 0.361789 0.086652
0.381698 0.369601 0.086652
0.407371 0.377291 0.086652
0.430156 0.384778 0.086652
0.451802 0.389872 0.086026
0.471983 0.391890 0.084593
0.494182 0.395926 0.083877
0.518399 0.401980 0.083877
0.543752 0.409829 0.085818
0.569987 0.419073 0.089268
0.595124 0.425957 0.092352
0.619601 0.431426 0.095217
0.642915 0.438684 0.100274
0.665700 0.446757 0.106329
0.691952 0.452242 0.112822
0.719359 0.456864 0.119463
0.746502 0.465453 0.127478
0.773583 0.474957 0.135811
0.798158 0.480702 0.141637
0.822376 0.485910 0.147106
0.844640 0.498686 0.156602
0.866774 0.511967 0.166367
0.006054 0.347365 0.219090
0.011653 0.351857 0.230092
0.017223 0.356671 0.240252
0.022366 0.366305 0.237778
0.040968 0.373336 0.226100
0.153787 0.362139 0.149999
0.250712 0.355348 0.087494
0.278770 0.367652 0.083914
0.306373 0.379175 0.081229
0.332608 0.388354 0.081229
0.358843 0.396841 0.081229
0.385079 0.403807 0.081229
0.410313 0.410675 0.081229
0.433879 0.417380 0.081229
0.455964 0.422035 0.080545
0.476145 0.424053 0.078983
0.499028 0.428773 0.078657
0.524612 0.436194 0.079568
0.550050 0.443726 0.082238
0.575374 0.451342 0.086274
0.600698 0.457128 0.090310
0.626022 0.461815 0.094346
0.650137 0.469456 0.100083
0.673704 0.478440 0.106593
0.698930 0.484055 0.112761
0.724709 0.488547 0.118816
0.752129 0.497958 0.128520
0.779926 0.508504 0.139066
0.805389 0.514550 0.147277
0.830517 0.519954 0.155154
0.855829 0.530362 0.166571
0.881153 0.541103 0.178223
0.002018 0.381673 0.237253
0.006575 0.387207 0.250338
0.011039 0.392931 0.262386
0.014098 0.401525 0.258870
0.031399 0.407904 0.244719
0.148383 0.398790 0.156118
0.249475 0.392911 0.083653
0.281700 0.401049 0.081115
0.312427 0.408926 0.079210
0.338662 0.416022 0.079210
0.364898 0.423728 0.079210
0.391133 0.432777 0.079210
0.417539 0.439775 0.079210
0.444230 0.443355 0.079210
0.468073 0.446252 0.078983
0.488254 0.448270 0.078462
0.512699 0.454553 0.079699
0.541408 0.465099 0.082693
0.567041 0.473411 0.086274
0.590282 0.479986 0.090310
0.613523 0.483428 0.094346
0.636763 0.484991 0.098382
0.662376 0.493088 0.104835
0.689067 0.504155 0.112387
0.714293 0.511072 0.118816
0.739031 0.516605 0.124870
0.765409 0.527058 0.135420
0.792165 0.538645 0.147008
0.819320 0.547556 0.158995
0.846532 0.556084 0.171038
0.870021 0.563758 0.181739
0.893261 0.571375 0.192350
0.004036 0.412954 0.259452
0.009635 0.419529 0.271495
0.014684 0.426197 0.281948
0.011494 0.434270 0.268537
0.023587 0.440324 0.245533
0.142654 0.432252 0.155369
0.246513 0.426828 0.081733
0.284467 0.432882 0.079715
0.319490 0.438937 0.078201
0.345726 0.444991 0.078201
0.371798 0.451656 0.078364
0.397513 0.459663 0.078885
0.424765 0.466205 0.079601
0.454581 0.470307 0.080643
0.479954 0.473725 0.081229
0.499614 0.476263 0.081229
0.524580 0.482546 0.083247
0.554851 0.492571 0.087283
0.581168 0.501534 0.091905
0.604409 0.509672 0.096983
0.626673 0.512723 0.101410
0.648351 0.512723 0.105446
0.674908 0.520332 0.112973
0.703682 0.531399 0.122087
0.729429 0.539097 0.129297
0.754167 0.545672 0.135872
0.779275 0.555474 0.146097
0.804469 0.566020 0.157164
0.832340 0.576623 0.170908
0.860593 0.587235 0.185035
0.883171 0.594062 0.195866
0.905370 0.600637 0.206477
0.012109 0.441207 0.285687
0.020832 0.448824 0.293564
0.028160 0.456469 0.298939
0.014554 0.464541 0.266780
0.017532 0.470596 0.228542
0.136600 0.462523 0.147753
0.241826 0.457100 0.081733
0.287071 0.463154 0.079715
0.327563 0.469208 0.078201
0.353798 0.475263 0.078201
0.379545 0.480625 0.078690
0.404218 0.484466 0.080252
0.431991 0.489967 0.082400
0.464932 0.498235 0.085525
0.491607 0.504452 0.087283
0.510225 0.508032 0.087283
0.534670 0.512752 0.089301
0.564942 0.518611 0.093337
0.592430 0.528095 0.099131
0.617754 0.540399 0.106292
0.640149 0.545013 0.111500
0.660785 0.545013 0.115536
0.687733 0.551189 0.124496
0.717548 0.560173 0.135693
0.744337 0.568132 0.144205
0.770117 0.575748 0.151821
0.793728 0.583206 0.160549
0.816838 0.590628 0.169533
0.844449 0.601752 0.183016
0.872702 0.613405 0.197143
0.895280 0.621274 0.208951
0.917479 0.628890 0.220604
0.025857 0.470596 0.308517
0.033604 0.479254 0.313400
0.040500 0.487619 0.313880
0.034641 0.491590 0.248324
0.043080 0.494495 0.183867
0.151602 0.489938 0.127100
0.248308 0.487371 0.080927
0.293813 0.493425 0.080667
0.334500 0.499626 0.080765
0.360735 0.506266 0.081936
0.386706 0.511828 0.083556
0.412095 0.515018 0.086160
0.440170 0.519917 0.089081
0.472720 0.527664 0.092532
0.500513 0.534556 0.095241
0.522191 0.540350 0.096999
0.547288 0.545265 0.100189
0.575801 0.549302 0.104811
0.604022 0.558684 0.111374
0.632015 0.572225 0.119446
0.655492 0.577669 0.124630
0.676259 0.578255 0.128080
0.703157 0.583585 0.137080
0.732843 0.591071 0.148603
0.759501 0.598997 0.158856
0.785151 0.607070 0.168686
0.808949 0.613978 0.177564
0.832320 0.620619 0.186223
0.857399 0.629993 0.198128
0.882723 0.639758 0.210497
0.904019 0.648485 0.222622
0.925047 0.657144 0.234730
0.044020 0.500867 0.328698
0.047600 0.510567 0.331497
0.051958 0.519453 0.327225
0.067973 0.516133 0.216881
0.093207 0.513440 0.117660
0.182980 0.515132 0.096307
0.263476 0.517643 0.079495
0.303773 0.523697 0.082360
0.340554 0.530158 0.085322
0.366790 0.537840 0.088577
0.393411 0.544769 0.091954
0.420884 0.550042 0.095599
0.449088 0.554680 0.098781
0.478513 0.558261 0.101190
0.507284 0.564177 0.104681
0.535211 0.573096 0.109563
0.561870 0.579573 0.114836
0.587259 0.583609 0.120500
0.615870 0.592406 0.127519
0.646988 0.604905 0.135591
0.672288 0.610609 0.140124
0.694096 0.612237 0.142532
0.720604 0.617176 0.150491
0.749248 0.623621 0.160972
0.774865 0.631287 0.173308
0.799473 0.639359 0.186263
0.824768 0.647114 0.196574
0.850222 0.654796 0.206273
0.871005 0.660655 0.215575
0.891121 0.666254 0.224819
0.910139 0.675697 0.236748
0.929083 0.685397 0.248857
0.040740 0.534923 0.350140
0.044060 0.545013 0.352158
0.049378 0.553972 0.345697
0.084663 0.545965 0.212047
0.125147 0.539545 0.094419
0.202030 0.544232 0.088951
0.271565 0.549297 0.085387
0.309258 0.556003 0.090074
0.344574 0.562562 0.094436
0.372763 0.568681 0.097821
0.401175 0.575390 0.101816
0.430079 0.583398 0.107155
0.458495 0.589403 0.111492
0.486098 0.592072 0.114161
0.515437 0.597703 0.118311
0.547011 0.607143 0.124365
0.575883 0.614532 0.130745
0.602053 0.619870 0.137451
0.631299 0.627552 0.144559
0.662938 0.637056 0.151980
0.689083 0.641882 0.156838
0.711934 0.643900 0.160158
0.738051 0.650036 0.168581
0.765653 0.658043 0.179322
0.790228 0.665123 0.191138
0.813795 0.671893 0.203311
0.838472 0.679192 0.214321
0.863405 0.686614 0.225063
0.883553 0.691643 0.234608
0.903018 0.696330 0.243983
0.920042 0.704862 0.255310
0.936903 0.713651 0.266768
0.024596 0.571248 0.372339
0.029999 0.581339 0.374358
0.038376 0.590103 0.367245
0.091368 0.578971 0.223179
0.146174 0.569946 0.096958
0.213683 0.575675 0.095656
0.275406 0.581782 0.095673
0.312057 0.589529 0.101401
0.347374 0.596088 0.106284
0.378687 0.599083 0.108627
0.409573 0.604620 0.112558
0.439519 0.615752 0.119979
0.468195 0.624101 0.126009
0.494756 0.627812 0.129720
0.524421 0.633573 0.134456
0.558078 0.641971 0.140510
0.589554 0.649881 0.147411
0.618849 0.657302 0.155158
0.648876 0.663552 0.162136
0.679473 0.668890 0.168515
0.705879 0.672153 0.174285
0.729771 0.674171 0.179688
0.755498 0.682455 0.189478
0.782058 0.693588 0.201261
0.805592 0.699886 0.210993
0.828117 0.704573 0.220042
0.850906 0.710636 0.231312
0.873756 0.717015 0.243096
0.895467 0.722826 0.254594
0.917015 0.728554 0.266051
0.932216 0.735199 0.276533
0.946993 0.741904 0.286949
0.047299 0.608962 0.394539
0.033303 0.618336 0.382235
0.023794 0.626323 0.362163
0.081603 0.613498 0.225584
0.141153 0.602944 0.106166
0.212893 0.608282 0.106882
0.277993 0.614133 0.108599
0.314319 0.622205 0.114653
0.349457 0.629122 0.119878
0.381030 0.632573 0.122612
0.412644 0.638505 0.127014
0.444348 0.649897 0.135087
0.475075 0.659068 0.142182
0.504175 0.664537 0.147651
0.535240 0.670831 0.153376
0.568832 0.678187 0.159430
0.601479 0.685186 0.166493
0.633183 0.691826 0.174566
0.662873 0.697001 0.181100
0.690996 0.701037 0.186438
0.718468 0.704707 0.192224
0.745550 0.708158 0.198278
0.771557 0.716576 0.208003
0.797076 0.727252 0.219395
0.820105 0.732949 0.229372
0.842304 0.736985 0.238876
0.863340 0.742079 0.249915
0.884107 0.747417 0.261307
0.905500 0.753382 0.273953
0.926983 0.759436 0.286778
0.940898 0.764148 0.297039
0.954309 0.768770 0.307130
0.087661 0.647306 0.416738
0.044500 0.655638 0.383602
0.007584 0.662584 0.344977
0.064351 0.648717 0.224021
0.124292 0.637121 0.118405
0.206448 0.641418 0.120162
0.280011 0.646423 0.122726
0.316337 0.654495 0.128780
0.351214 0.661933 0.134265
0.381746 0.667466 0.138040
0.413295 0.674505 0.143159
0.447082 0.684856 0.151231
0.480674 0.694157 0.159108
0.513940 0.701709 0.166660
0.546893 0.708719 0.173557
0.579443 0.715034 0.179611
0.612611 0.720470 0.186674
0.646398 0.725027 0.194747
0.675242 0.729291 0.200695
0.700240 0.733327 0.204992
0.729144 0.738299 0.210387
0.760392 0.743833 0.216441
0.786986 0.751470 0.225449
0.811463 0.760063 0.235800
0.834232 0.765238 0.247079
0.856431 0.769274 0.258667
0.875774 0.773522 0.269250
0.894458 0.777819 0.279600
0.914679 0.783653 0.293027
0.935121 0.789708 0.306894
0.947994 0.792466 0.317220
0.960363 0.795005 0.327311
0.094725 0.685649 0.440450
0.045834 0.685129 0.352891
0.003629 0.684197 0.266271
0.061699 0.677101 0.193750
0.122811 0.671397 0.130741
0.205228 0.675433 0.134322
0.279442 0.680372 0.138512
0.318111 0.689226 0.145348
0.355072 0.697380 0.151679
0.386906 0.703434 0.156496
0.419268 0.710505 0.162331
0.452795 0.719815 0.170403
0.487493 0.728367 0.178183
0.524144 0.735658 0.185474
0.558888 0.742408 0.192566
0.591177 0.748463 0.199401
0.623695 0.753508 0.206465
0.656440 0.757544 0.213756
0.686146 0.762020 0.220095
0.713488 0.766837 0.225694
0.742457 0.771451 0.232065
0.772403 0.775943 0.238901
0.798411 0.782360 0.247974
0.822628 0.789651 0.258065
0.845332 0.795672 0.269669
0.867531 0.801271 0.281777
0.887085 0.805600 0.293516
0.906029 0.809636 0.305168
0.923321 0.814071 0.316252
0.940378 0.818563 0.327254
0.952795 0.820004 0.338133
0.964904 0.821241 0.349005
0.090688 0.723993 0.464667
0.043881 0.712015 0.311487
0.003760 0.700928 0.167059
0.063912 0.703206 0.153909
0.126457 0.705704 0.143110
0.205749 0.709740 0.148774
0.278010 0.714875 0.154853
0.319804 0.724770 0.162730
0.359629 0.733705 0.170102
0.393546 0.739760 0.175961
0.427015 0.746506 0.182512
0.459500 0.754773 0.190584
0.494719 0.762284 0.197973
0.534495 0.768534 0.204223
0.570996 0.774698 0.211184
0.603286 0.780752 0.219061
0.634762 0.785798 0.226125
0.665424 0.789834 0.232374
0.696562 0.794895 0.239430
0.728070 0.800754 0.247111
0.756649 0.804457 0.254915
0.783470 0.806866 0.262792
0.808501 0.811915 0.272191
0.832718 0.818165 0.282282
0.855422 0.825488 0.293886
0.877621 0.833170 0.305994
0.898022 0.837890 0.319425
0.918008 0.841926 0.333161
0.931784 0.844538 0.340860
0.944674 0.846947 0.347695
0.956832 0.847280 0.359291
0.968940 0.847476 0.371204
0.099770 0.759058 0.485605
0.048276 0.744085 0.318428
0.004154 0.730300 0.161680
0.070621 0.734336 0.161354
0.137984 0.738478 0.161826
0.211612 0.743361 0.167881
0.279539 0.749061 0.174313
0.322766 0.758305 0.182386
0.363762 0.766752 0.189954
0.398070 0.772806 0.196008
0.432541 0.779491 0.202957
0.467369 0.787563 0.211876
0.503638 0.794562 0.219403
0.542307 0.799770 0.224611
0.578556 0.805348 0.231443
0.611692 0.811402 0.240361
0.643395 0.816024 0.247002
0.673667 0.819214 0.251363
0.704598 0.823539 0.258288
0.736041 0.828747 0.267207
0.763700 0.831962 0.276126
0.789089 0.833980 0.285044
0.813673 0.838773 0.295932
0.837890 0.844827 0.307715
0.860593 0.851125 0.319108
0.882793 0.857505 0.330370
0.902664 0.861981 0.343272
0.921999 0.866017 0.356553
0.934270 0.868287 0.364991
0.945533 0.870306 0.372738
0.957588 0.871225 0.384574
0.969697 0.872071 0.396683
0.111878 0.793365 0.505786
0.054135 0.777351 0.336526
0.004610 0.762589 0.177955
0.078368 0.766626 0.179713
0.151329 0.770898 0.182007
0.218708 0.776822 0.188062
0.281753 0.783173 0.194494
0.326021 0.791376 0.202567
0.367799 0.799041 0.210135
0.402106 0.805096 0.216189
0.437553 0.811781 0.223464
0.475507 0.819853 0.233424
0.512947 0.826461 0.241212
0.549533 0.830627 0.245378
0.585066 0.835619 0.252079
0.619243 0.841674 0.262040
0.651468 0.845775 0.268159
0.681739 0.847923 0.270438
0.712084 0.851207 0.277037
0.742486 0.855373 0.286997
0.769104 0.858197 0.296958
0.793451 0.860215 0.306918
