app/src/main/assets/cube/Yokocho02.cube
# LUT by SparkleStock. Enhanced with VOXCOLOR algorithms.
LUT_3D_SIZE 32
0.054701 0.097680 0.078144
0.092843 0.099098 0.081264
0.130986 0.100516 0.084383
0.169128 0.101934 0.087502
0.207271 0.103352 0.090622
0.245413 0.104770 0.093741
0.306637 0.106463 0.099697
0.372476 0.108212 0.106219
0.438316 0.109961 0.112742
0.504155 0.111710 0.119264
0.569995 0.113459 0.125787
0.620930 0.115680 0.131900
0.664414 0.118138 0.137808
0.707897 0.120596 0.143716
0.751381 0.123053 0.149624
0.794864 0.125511 0.155532
0.825231 0.127780 0.159975
0.842483 0.129859 0.162952
0.859735 0.131939 0.165930
0.876986 0.134019 0.168908
0.894238 0.136098 0.171885
0.907393 0.137753 0.174075
0.912356 0.138556 0.174690
0.917319 0.139360 0.175304
0.922281 0.140163 0.175919
0.927244 0.140967 0.176533
0.931482 0.141731 0.177140
0.932097 0.142298 0.177707
0.932711 0.142865 0.178274
0.933325 0.143432 0.178841
0.933940 0.143999 0.179408
0.934554 0.144567 0.179976
0.054795 0.118004 0.089866
0.091145 0.118653 0.091768
0.127494 0.119303 0.093671
0.163844 0.119952 0.095574
0.200193 0.120602 0.097477
0.236543 0.121251 0.099380
0.296553 0.122375 0.104698
0.361294 0.123593 0.110699
0.426036 0.124811 0.116700
0.490778 0.126029 0.122701
0.555520 0.127248 0.128702
0.607205 0.128817 0.134604
0.652363 0.130561 0.140458
0.697520 0.132305 0.146311
0.742678 0.134049 0.152164
0.787835 0.135793 0.158017
0.819447 0.137445 0.162433
0.837513 0.139003 0.165410
0.855578 0.140561 0.168388
0.873644 0.142119 0.171366
0.891710 0.143677 0.174343
0.905493 0.144899 0.176542
0.910712 0.145446 0.177184
0.915931 0.145993 0.177826
0.921150 0.146541 0.178468
0.926369 0.147088 0.179110
0.930822 0.147593 0.179698
0.931446 0.147886 0.180018
0.932069 0.148178 0.180338
0.932693 0.148471 0.180659
0.933316 0.148764 0.180979
0.933940 0.149057 0.181299
0.054890 0.138328 0.101587
0.089446 0.138209 0.102273
0.124003 0.138090 0.102959
0.158559 0.137971 0.103646
0.193116 0.137852 0.104332
0.227672 0.137733 0.105018
0.286468 0.138286 0.109699
0.350113 0.138974 0.115178
0.413757 0.139661 0.120658
0.477401 0.140349 0.126137
0.541045 0.141037 0.131617
0.593480 0.141953 0.137309
0.640312 0.142984 0.143107
0.687143 0.144014 0.148906
0.733975 0.145045 0.154704
0.780807 0.146076 0.160502
0.813662 0.147109 0.164890
0.832542 0.148146 0.167868
0.851422 0.149183 0.170846
0.870302 0.150220 0.173823
0.889182 0.151257 0.176801
0.903594 0.152045 0.179009
0.909069 0.152336 0.179679
0.914544 0.152627 0.180348
0.920019 0.152918 0.181017
0.925494 0.153210 0.181687
0.930162 0.153455 0.182256
0.930795 0.153474 0.182330
0.931427 0.153492 0.182403
0.932060 0.153510 0.182476
0.932693 0.153529 0.182549
0.933325 0.153547 0.182622
0.054984 0.158651 0.113309
0.087748 0.157764 0.112778
0.120511 0.156877 0.112248
0.153275 0.155989 0.111717
0.186038 0.155102 0.111187
0.218802 0.154215 0.110656
0.276384 0.154198 0.114699
0.338931 0.154355 0.119658
0.401477 0.154512 0.124616
0.464023 0.154669 0.129574
0.526569 0.154826 0.134532
0.579755 0.155090 0.140014
0.628261 0.155407 0.145757
0.676767 0.155724 0.151501
0.725272 0.156041 0.157244
0.773778 0.156358 0.162988
0.807878 0.156774 0.167348
0.827572 0.157290 0.170326
0.847266 0.157805 0.173303
0.866960 0.158320 0.176281
0.886654 0.158836 0.179259
0.901694 0.159191 0.181476
0.907425 0.159226 0.182173
0.913156 0.159261 0.182870
0.918887 0.159296 0.183566
0.924619 0.159331 0.184263
0.929502 0.159318 0.184815
0.930143 0.159062 0.184641
0.930785 0.158805 0.184467
0.931427 0.158549 0.184293
0.932069 0.158293 0.184120
0.932711 0.158037 0.183946
0.055079 0.178975 0.125031
0.086049 0.177319 0.123283
0.117020 0.175664 0.121536
0.147990 0.174008 0.119789
0.178961 0.172352 0.118041
0.209931 0.170696 0.116294
0.266300 0.170109 0.119700
0.327749 0.169735 0.124137
0.389197 0.169362 0.128574
0.450646 0.168988 0.133011
0.512094 0.168615 0.137447
0.566030 0.168226 0.142719
0.616210 0.167830 0.148407
0.666390 0.167433 0.154096
0.716569 0.167037 0.159784
0.766749 0.166640 0.165473
0.802093 0.166439 0.169806
0.822601 0.166433 0.172783
0.843110 0.166427 0.175761
0.863618 0.166421 0.178739
0.884126 0.166415 0.181716
0.899794 0.166337 0.183943
0.905781 0.166116 0.184667
0.911769 0.165895 0.185391
0.917756 0.165674 0.186116
0.923743 0.165453 0.186840
0.928841 0.165180 0.187373
0.929492 0.164649 0.186952
0.930143 0.164119 0.186532
0.930795 0.163588 0.186111
0.931446 0.163058 0.185690
0.932097 0.162527 0.185269
0.055174 0.199299 0.136752
0.084351 0.196875 0.133788
0.113528 0.194450 0.130824
0.142706 0.192026 0.127860
0.171883 0.189602 0.124896
0.201061 0.187178 0.121932
0.256216 0.186020 0.124701
0.316567 0.185116 0.128617
0.376918 0.184212 0.132532
0.437268 0.183308 0.136447
0.497619 0.182404 0.140363
0.552305 0.181363 0.145423
0.604159 0.180253 0.151057
0.656013 0.179143 0.156691
0.707867 0.178033 0.162324
0.759720 0.176923 0.167958
0.796309 0.176104 0.172264
0.817631 0.175576 0.175241
0.838953 0.175049 0.178219
0.860276 0.174521 0.181197
0.881598 0.173994 0.184174
0.897894 0.173483 0.186410
0.904138 0.173006 0.187162
0.910381 0.172529 0.187913
0.916625 0.172051 0.188665
0.922868 0.171574 0.189417
0.928181 0.171042 0.189932
0.928841 0.170237 0.189264
0.929502 0.169432 0.188596
0.930162 0.168627 0.187928
0.930822 0.167822 0.187260
0.931482 0.167017 0.186593
0.055465 0.238804 0.158833
0.082072 0.235756 0.155155
0.108679 0.232709 0.151478
0.135286 0.229661 0.147800
0.161893 0.226613 0.144123
0.188499 0.223565 0.140445
0.244046 0.221519 0.141498
0.305380 0.219672 0.143497
0.366714 0.217826 0.145496
0.428048 0.215979 0.147494
0.489382 0.214133 0.149493
0.544567 0.212668 0.153670
0.596677 0.211393 0.158936
0.648787 0.210119 0.164203
0.700897 0.208844 0.169469
0.753007 0.207569 0.174735
0.790134 0.206206 0.178785
0.812278 0.204753 0.181617
0.834422 0.203300 0.184450
0.856567 0.201847 0.187283
0.878711 0.200394 0.190116
0.895671 0.199003 0.192223
0.902262 0.197736 0.192881
0.908853 0.196469 0.193538
0.915444 0.195202 0.194195
0.922035 0.193935 0.194852
0.927658 0.192670 0.195276
0.928442 0.191415 0.194537
0.929226 0.190160 0.193797
0.930009 0.188905 0.193058
0.930793 0.187650 0.192318
0.931577 0.186396 0.191579
0.055796 0.282146 0.182985
0.079677 0.278503 0.178694
0.103557 0.274861 0.174404
0.127438 0.271219 0.170114
0.151319 0.267576 0.165823
0.175200 0.263934 0.161533
0.231458 0.260934 0.160654
0.294192 0.258063 0.160457
0.356926 0.255192 0.160260
0.419660 0.252321 0.160064
0.482393 0.249450 0.159867
0.538026 0.247607 0.163026
0.590109 0.246278 0.167862
0.642191 0.244948 0.172698
0.694274 0.243619 0.177534
0.746356 0.242289 0.182371
0.783881 0.240395 0.186118
0.806849 0.237935 0.188777
0.829816 0.235476 0.191436
0.852784 0.233017 0.194095
0.875751 0.230558 0.196754
0.893382 0.228197 0.198706
0.900339 0.226033 0.199245
0.907296 0.223870 0.199783
0.914253 0.221706 0.200321
0.921210 0.219543 0.200859
0.927163 0.217450 0.201178
0.928093 0.215710 0.200402
0.929023 0.213971 0.199626
0.929953 0.212231 0.198850
0.930883 0.210491 0.198074
0.931813 0.208752 0.197298
0.056127 0.325487 0.207137
0.077281 0.321250 0.202234
0.098436 0.317013 0.197330
0.119591 0.312776 0.192427
0.140745 0.308539 0.187524
0.161900 0.304302 0.182620
0.218871 0.300350 0.179810
0.283004 0.296454 0.177417
0.347137 0.292559 0.175025
0.411271 0.288663 0.172633
0.475404 0.284768 0.170241
0.531485 0.282546 0.172381
0.583540 0.281162 0.176787
0.635596 0.279778 0.181194
0.687651 0.278393 0.185600
0.739706 0.277009 0.190006
0.777629 0.274584 0.193452
0.801419 0.271118 0.195937
0.825210 0.267653 0.198422
0.849001 0.264187 0.200907
0.872792 0.260721 0.203393
0.891094 0.257391 0.205189
0.898417 0.254331 0.205608
0.905739 0.251271 0.206028
0.913062 0.248211 0.206447
0.920385 0.245151 0.206866
0.926667 0.242230 0.207080
0.927744 0.240006 0.206268
0.928820 0.237781 0.205455
0.929896 0.235557 0.204642
0.930973 0.233332 0.203830
0.932049 0.231108 0.203017
0.056458 0.368829 0.231289
0.074886 0.363997 0.225773
0.093315 0.359166 0.220257
0.111743 0.354334 0.214740
0.130172 0.349502 0.209224
0.148601 0.344671 0.203708
0.206283 0.339765 0.198966
0.271816 0.334845 0.194378
0.337349 0.329925 0.189790
0.402882 0.325005 0.185202
0.468415 0.320085 0.180615
0.524945 0.317485 0.181736
0.576972 0.316046 0.185713
0.629000 0.314607 0.189689
0.681027 0.313168 0.193665
0.733055 0.311728 0.197642
0.771376 0.308773 0.200785
0.795990 0.304301 0.203097
0.820604 0.299829 0.205408
0.845218 0.295357 0.207720
0.869833 0.290885 0.210031
0.888805 0.286585 0.211672
0.896494 0.282629 0.211972
0.904183 0.278672 0.212273
0.911872 0.274716 0.212573
0.919561 0.270759 0.212873
0.926172 0.267011 0.212982
0.927395 0.264301 0.212133
0.928617 0.261592 0.211284
0.929840 0.258883 0.210435
0.931063 0.256173 0.209585
0.932286 0.253464 0.208736
0.056788 0.412171 0.255441
0.072491 0.406744 0.249312
0.088193 0.401318 0.243183
0.103896 0.395892 0.237054
0.119598 0.390466 0.230925
0.135301 0.385039 0.224796
0.193695 0.379181 0.218121
0.260628 0.373236 0.211338
0.327561 0.367292 0.204555
0.394493 0.361347 0.197772
0.461426 0.355402 0.190988
0.518404 0.352425 0.191092
0.570404 0.350930 0.194638
0.622404 0.349436 0.198184
0.674404 0.347942 0.201731
0.726405 0.346448 0.205277
0.765123 0.342962 0.208119
0.790561 0.337484 0.210257
0.815998 0.332006 0.212394
0.841436 0.326527 0.214532
0.866873 0.321049 0.216669
0.886517 0.315780 0.218155
0.894571 0.310927 0.218336
0.902626 0.306074 0.218518
0.910681 0.301221 0.218699
0.918736 0.296368 0.218881
0.925676 0.291791 0.218884
0.927045 0.288597 0.217998
0.928415 0.285403 0.217113
0.929784 0.282209 0.216227
0.931153 0.279014 0.215341
0.932522 0.275820 0.214455
0.058506 0.455418 0.279688
0.072244 0.450202 0.273702
0.085983 0.444986 0.267716
0.099722 0.439770 0.261731
0.113461 0.434554 0.255745
0.127199 0.429338 0.249759
0.183272 0.423647 0.242234
0.247811 0.417861 0.234402
0.312350 0.412075 0.226570
0.376889 0.406289 0.218738
0.441428 0.400503 0.210906
0.499789 0.396940 0.209417
0.555061 0.394488 0.211100
0.610333 0.392036 0.212784
0.665605 0.389585 0.214467
0.720877 0.387133 0.216150
0.761406 0.383260 0.217955
0.787191 0.377965 0.219882
0.812976 0.372669 0.221810
0.838761 0.367374 0.223737
0.864546 0.362079 0.225664
0.884531 0.356752 0.226984
0.892915 0.351363 0.227089
0.901299 0.345973 0.227194
0.909683 0.340583 0.227299
0.918067 0.335194 0.227405
0.925312 0.330105 0.227347
0.926858 0.326524 0.226473
0.928404 0.322942 0.225599
0.929950 0.319361 0.224726
0.931496 0.315780 0.223852
0.933042 0.312198 0.222978
0.060916 0.498618 0.303982
0.073072 0.494015 0.298518
0.085228 0.489412 0.293053
0.097385 0.484809 0.287589
0.109541 0.480206 0.282124
0.121697 0.475603 0.276660
0.173930 0.470639 0.268826
0.234179 0.465603 0.260518
0.294427 0.460567 0.252210
0.354676 0.455531 0.243902
0.414924 0.450495 0.235595
0.475136 0.446243 0.232228
0.535330 0.442382 0.231331
0.595524 0.438522 0.230435
0.655718 0.434661 0.229538
0.715911 0.430801 0.228642
0.758956 0.426612 0.229043
0.784850 0.422094 0.230741
0.810745 0.417577 0.232439
0.836640 0.413059 0.234138
0.862535 0.408542 0.235836
0.882697 0.403614 0.236986
0.891392 0.397868 0.237036
0.900087 0.392122 0.237086
0.908782 0.386375 0.237136
0.917477 0.380629 0.237187
0.925013 0.375187 0.237089
0.926751 0.371267 0.236252
0.928489 0.367347 0.235415
0.930227 0.363427 0.234578
0.931965 0.359507 0.233741
0.933704 0.355587 0.232904
0.063327 0.541817 0.328276
0.073900 0.537827 0.323333
0.084474 0.533837 0.318390
0.095047 0.529847 0.313447
0.105621 0.525857 0.308504
0.116194 0.521867 0.303561
0.164588 0.517631 0.295418
0.220547 0.513345 0.286634
0.276505 0.509059 0.277851
0.332463 0.504773 0.269067
0.388421 0.500487 0.260283
0.450484 0.495546 0.255038
0.515599 0.490277 0.251562
0.580715 0.485007 0.248086
0.645830 0.479738 0.244609
0.710945 0.474469 0.241133
0.756505 0.469964 0.240130
0.782510 0.466224 0.241600
0.808515 0.462484 0.243069
0.834519 0.458744 0.244539
0.860524 0.455004 0.246009
0.880863 0.450477 0.246987
0.889869 0.444373 0.246983
0.898875 0.438270 0.246978
0.907881 0.432167 0.246974
0.916887 0.426064 0.246969
0.924714 0.420268 0.246832
0.926644 0.416009 0.246031
0.928575 0.411751 0.245231
0.930505 0.407493 0.244430
0.932435 0.403234 0.243630
0.934365 0.398976 0.242830
0.065737 0.585017 0.352570
0.074728 0.581640 0.348148
0.083719 0.578263 0.343727
0.092710 0.574886 0.339305
0.101701 0.571509 0.334884
0.110692 0.568131 0.330462
0.155247 0.564622 0.322009
0.206915 0.561087 0.312750
0.258582 0.557551 0.303491
0.310250 0.554015 0.294232
0.361918 0.550479 0.284972
0.425832 0.544849 0.277849
0.495869 0.538171 0.271793
0.565906 0.531493 0.265737
0.635943 0.524815 0.259681
0.705980 0.518137 0.253625
0.754055 0.513317 0.251217
0.780170 0.510354 0.252458
0.806284 0.507392 0.253699
0.832399 0.504429 0.254940
0.858513 0.501467 0.256182
0.879028 0.497339 0.256989
0.888346 0.490879 0.256930
0.897663 0.484419 0.256870
0.906980 0.477959 0.256811
0.916297 0.471499 0.256751
0.924415 0.465349 0.256574
0.926538 0.460752 0.255811
0.928660 0.456155 0.255047
0.930782 0.451559 0.254283
0.932905 0.446962 0.253519
0.935027 0.442365 0.252755
0.068148 0.628217 0.376864
0.075556 0.625453 0.372964
0.082964 0.622689 0.369064
0.090373 0.619924 0.365164
0.097781 0.617160 0.361264
0.105189 0.614396 0.357364
0.145905 0.611614 0.348601
0.193283 0.608828 0.338866
0.240660 0.606043 0.329131
0.288037 0.603257 0.319396
0.335415 0.600472 0.309661
0.401180 0.594152 0.300659
0.476138 0.586065 0.292023
0.551097 0.577978 0.283388
0.626055 0.569891 0.274752
0.701014 0.561805 0.266116
0.751605 0.556669 0.262305
0.777829 0.554484 0.263317
0.804054 0.552299 0.264329
0.830278 0.550114 0.265342
0.856502 0.547929 0.266354
0.877194 0.544201 0.266991
0.886822 0.537384 0.266877
0.896451 0.530567 0.266762
0.906079 0.523750 0.266648
0.915707 0.516934 0.266534
0.924116 0.510430 0.266317
0.926431 0.505495 0.265590
0.928745 0.500560 0.264862
0.931060 0.495624 0.264135
0.933374 0.490689 0.263408
0.935689 0.485754 0.262681
0.070227 0.660522 0.395604
0.076515 0.658293 0.392175
0.082803 0.656064 0.388746
0.089090 0.653835 0.385317
0.095378 0.651606 0.381889
0.101666 0.649377 0.378460
0.139069 0.647363 0.369829
0.182696 0.645391 0.360158
0.226323 0.643420 0.350487
0.269950 0.641448 0.340816
0.313576 0.639477 0.331145
0.379137 0.633444 0.321332
0.455664 0.625380 0.311448
0.532192 0.617316 0.301563
0.608719 0.609252 0.291679
0.685246 0.601188 0.281794
0.738065 0.596089 0.276887
0.767176 0.593954 0.276957
0.796286 0.591820 0.277028
0.825397 0.589685 0.277098
0.854507 0.587551 0.277168
0.877140 0.583967 0.277149
0.886819 0.577484 0.276952
0.896497 0.571001 0.276756
0.906176 0.564518 0.276559
0.915854 0.558035 0.276362
0.924333 0.551809 0.276082
0.926812 0.546864 0.275387
0.929291 0.541920 0.274692
0.931770 0.536975 0.273997
0.934249 0.532031 0.273301
0.936729 0.527087 0.272606
0.071976 0.681933 0.408791
0.077605 0.680161 0.405783
0.083234 0.678390 0.402775
0.088863 0.676618 0.399767
0.094492 0.674846 0.396759
0.100121 0.673075 0.393750
0.134739 0.671869 0.385693
0.175155 0.670775 0.376626
0.215571 0.669682 0.367559
0.255987 0.668589 0.358492
0.296402 0.667496 0.349424
0.359703 0.662725 0.339867
0.434447 0.656116 0.330065
0.509191 0.649506 0.320263
0.583934 0.642897 0.310461
0.658678 0.636287 0.300659
0.713436 0.631577 0.294965
0.748209 0.628766 0.293380
0.782982 0.625954 0.291794
0.817755 0.623143 0.290208
0.852528 0.620331 0.288623
0.878866 0.616637 0.287463
0.888334 0.611179 0.287157
0.897802 0.605721 0.286850
0.907270 0.600262 0.286544
0.916739 0.594804 0.286237
0.925065 0.589485 0.285871
0.927681 0.584861 0.285203
0.930297 0.580236 0.284535
0.932914 0.575612 0.283867
0.935530 0.570988 0.283200
0.938146 0.566363 0.282532
0.073725 0.703344 0.421978
0.078695 0.702030 0.419391
0.083666 0.700715 0.416803
0.088636 0.699401 0.414216
0.093606 0.698087 0.411629
0.098577 0.696773 0.409041
0.130409 0.696374 0.401557
0.167614 0.696160 0.393094
0.204819 0.695945 0.384630
0.242024 0.695730 0.376167
0.279229 0.695515 0.367704
0.340270 0.692006 0.358403
0.413230 0.686851 0.348683
0.486189 0.681697 0.338963
0.559149 0.676542 0.329243
0.632109 0.671387 0.319524
0.688807 0.667065 0.313043
0.729242 0.663577 0.309802
0.769678 0.660088 0.306560
0.810113 0.656600 0.303319
0.850549 0.653111 0.300077
0.880592 0.649308 0.297778
0.889850 0.644874 0.297361
0.899107 0.640440 0.296945
0.908365 0.636007 0.296529
0.917623 0.631573 0.296113
0.925797 0.627161 0.295659
0.928550 0.622857 0.295019
0.931304 0.618553 0.294378
0.934057 0.614248 0.293738
0.936811 0.609944 0.293098
0.939564 0.605640 0.292457
0.075474 0.724755 0.435165
0.079785 0.723898 0.432998
0.084097 0.723041 0.430832
0.088409 0.722184 0.428665
0.092721 0.721327 0.426499
0.097032 0.720471 0.424332
0.126079 0.720880 0.417421
0.160073 0.721544 0.409562
0.194067 0.722207 0.401702
0.228061 0.722870 0.393842
0.262055 0.723533 0.385983
0.320837 0.721287 0.376938
0.392013 0.717587 0.367301
0.463188 0.713887 0.357663
0.534364 0.710186 0.348026
0.605540 0.706486 0.338388
0.664177 0.702553 0.331121
0.710275 0.698388 0.326224
0.756374 0.694222 0.321327
0.802472 0.690057 0.316429
0.848570 0.685892 0.311532
0.882318 0.681978 0.308092
0.891365 0.678569 0.307566
0.900413 0.675160 0.307040
0.909460 0.671751 0.306514
0.918507 0.668342 0.305988
0.926529 0.664837 0.305447
0.929419 0.660853 0.304835
0.932310 0.656869 0.304222
0.935201 0.652885 0.303609
0.938092 0.648901 0.302996
0.940982 0.644917 0.302383
0.077222 0.746166 0.448352
0.080876 0.745766 0.446606
0.084529 0.745367 0.444860
0.088182 0.744967 0.443114
0.091835 0.744568 0.441369
0.095488 0.744168 0.439623
0.121749 0.745386 0.433285
0.152532 0.746928 0.426030
0.183315 0.748469 0.418774
0.214098 0.750011 0.411518
0.244881 0.751552 0.404262
0.301403 0.750569 0.395473
0.370795 0.748323 0.385918
0.440187 0.746077 0.376363
0.509579 0.743831 0.366808
0.578971 0.741585 0.357253
0.639548 0.738041 0.349199
0.691309 0.733199 0.342646
0.743069 0.728357 0.336093
0.794830 0.723514 0.329540
0.846591 0.718672 0.322987
0.884044 0.714649 0.318406
0.892881 0.712264 0.317771
0.901718 0.709880 0.317135
0.910555 0.707495 0.316499
0.919392 0.705111 0.315863
0.927260 0.702513 0.315236
0.930288 0.698849 0.314650
0.933316 0.695185 0.314065
0.936344 0.691521 0.313479
0.939372 0.687858 0.312894
0.942400 0.684194 0.312308
0.078593 0.763039 0.459049
0.081746 0.762978 0.457630
0.084899 0.762917 0.456210
0.088052 0.762856 0.454791
0.091205 0.762795 0.453371
0.094358 0.762734 0.451952
0.118264 0.764524 0.446080
0.146321 0.766685 0.439319
0.174378 0.768845 0.432557
0.202435 0.771006 0.425795
0.230492 0.773166 0.419033
0.284733 0.773166 0.410521
0.352067 0.772085 0.401133
0.419401 0.771004 0.391746
0.486734 0.769923 0.382359
0.554068 0.768842 0.372971
0.615741 0.765757 0.364449
0.671752 0.760667 0.356792
0.727764 0.755578 0.349135
0.783775 0.750489 0.341479
0.839787 0.745399 0.333822
0.880395 0.741451 0.328409
0.890195 0.739786 0.327483
0.899996 0.738122 0.326558
0.909796 0.736457 0.325632
0.919597 0.734792 0.324707
0.928283 0.732860 0.323838
0.931396 0.729592 0.323253
0.934510 0.726325 0.322667
0.937623 0.723058 0.322082
0.940736 0.719790 0.321496
0.943850 0.716523 0.320911
0.079208 0.770838 0.464768
0.082178 0.770877 0.463486
0.085148 0.770917 0.462204
0.088118 0.770957 0.460921
0.091088 0.770996 0.459639
0.094058 0.771036 0.458357
0.116470 0.772927 0.452737
0.142770 0.775188 0.446250
0.169071 0.777449 0.439762
0.195371 0.779710 0.433275
0.221672 0.781971 0.426787
0.273589 0.782394 0.418592
0.338316 0.781899 0.409543
0.403042 0.781403 0.400494
0.467769 0.780908 0.391446
0.532496 0.780412 0.382397
0.593578 0.777926 0.374044
0.651017 0.773450 0.366387
0.708455 0.768974 0.358730
0.765894 0.764497 0.351073
0.823333 0.760021 0.343416
0.865996 0.756518 0.337787
0.879108 0.754963 0.336212
0.892220 0.753408 0.334637
0.905332 0.751853 0.333062
0.918444 0.750297 0.331487
0.929887 0.748548 0.330068
0.932982 0.745830 0.329427
0.936077 0.743112 0.328787
0.939172 0.740393 0.328147
0.942267 0.737675 0.327506
0.945362 0.734956 0.326866
0.079822 0.778636 0.470487
0.082609 0.778777 0.469342
0.085396 0.778917 0.468197
0.088183 0.779057 0.467052
0.090970 0.779197 0.465907
0.093757 0.779338 0.464762
0.114675 0.781329 0.459394
0.139219 0.783691 0.453181
0.163763 0.786053 0.446968
0.188307 0.788414 0.440755
0.212851 0.790776 0.434542
0.262446 0.791623 0.426664
0.324565 0.791713 0.417953
0.386684 0.791803 0.409243
0.448804 0.791893 0.400533
0.510923 0.791983 0.391822
0.571416 0.790096 0.383639
0.630281 0.786233 0.375982
0.689147 0.782369 0.368325
0.748013 0.778506 0.360668
0.806879 0.774642 0.353011
0.851597 0.771585 0.347165
0.868021 0.770139 0.344941
0.884444 0.768694 0.342716
0.900868 0.767249 0.340492
0.917292 0.765803 0.338267
0.931491 0.764237 0.336298
0.934568 0.762068 0.335602
0.937644 0.759898 0.334907
0.940721 0.757728 0.334212
0.943798 0.755559 0.333517
0.946875 0.753389 0.332821
0.080436 0.786435 0.476206
0.083041 0.786676 0.475198
0.085645 0.786917 0.474191
0.088249 0.787158 0.473183
0.090853 0.787399 0.472175
0.093457 0.787640 0.471167
0.112881 0.789732 0.466050
0.135668 0.792194 0.460112
0.158456 0.794656 0.454173
0.181244 0.797119 0.448235
0.204031 0.799581 0.442296
0.251302 0.800852 0.434735
0.310814 0.801527 0.426363
0.370326 0.802203 0.417992
0.429838 0.802878 0.409620
0.489351 0.803554 0.401248
0.549253 0.802266 0.393233
0.609546 0.799016 0.385576
0.669839 0.795765 0.377920
0.730132 0.792514 0.370263
0.790424 0.789264 0.362606
0.837198 0.786652 0.356543
0.856933 0.785316 0.353669
0.876668 0.783980 0.350795
0.896404 0.782645 0.347921
0.916139 0.781309 0.345047
0.933095 0.779926 0.342527
0.936153 0.778305 0.341777
0.939212 0.776685 0.341027
0.942270 0.775064 0.340277
0.945329 0.773443 0.339527
0.948387 0.771822 0.338777
0.081051 0.794234 0.481925
0.083472 0.794575 0.481055
0.085893 0.794917 0.480184
0.088314 0.795258 0.479313
0.090736 0.795600 0.478443
0.093157 0.795941 0.477572
0.111086 0.798134 0.472707
0.132117 0.800697 0.467043
0.153149 0.803260 0.461379
0.174180 0.805823 0.455715
0.195211 0.808386 0.450051
0.240158 0.810081 0.442807
0.297063 0.811342 0.434774
0.353968 0.812603 0.426740
0.410873 0.813864 0.418707
0.467778 0.815124 0.410673
0.527091 0.814436 0.402828
0.588810 0.811798 0.395171
0.650530 0.809161 0.387514
0.712250 0.806523 0.379857
0.773970 0.803885 0.372201
0.822799 0.801718 0.365921
0.845846 0.800492 0.362398
0.868893 0.799267 0.358874
0.891939 0.798041 0.355351
0.914986 0.796815 0.351827
0.934699 0.795615 0.348757
0.937739 0.794543 0.347952
0.940779 0.793471 0.347147
0.943819 0.792399 0.346342
0.946859 0.791327 0.345537
0.949900 0.790256 0.344732
0.081579 0.801008 0.486880
0.083838 0.801450 0.486135
0.086098 0.801893 0.485389
0.088357 0.802335 0.484643
0.090617 0.802777 0.483898
0.092876 0.803219 0.483152
0.109425 0.805490 0.478530
0.128830 0.808126 0.473133
0.148236 0.810762 0.467736
0.167642 0.813398 0.462338
0.187048 0.816034 0.456941
0.229813 0.818088 0.450008
0.284257 0.819850 0.442307
0.338701 0.821613 0.434606
0.393146 0.823375 0.426905
0.447590 0.825138 0.419204
0.506237 0.824984 0.411530
0.569086 0.822913 0.403884
0.631936 0.820843 0.396238
0.694786 0.818772 0.388591
0.757635 0.816702 0.380945
0.808254 0.814939 0.374474
0.834411 0.813793 0.370353
0.860569 0.812646 0.366232
0.886726 0.811500 0.362111
0.912883 0.810353 0.357989
0.935215 0.809304 0.354409
0.938423 0.808741 0.353531
0.941631 0.808179 0.352652
0.944839 0.807616 0.351774
0.948047 0.807054 0.350896
0.951254 0.806491 0.350018
0.081673 0.802663 0.488014
0.083878 0.803205 0.487333
0.086082 0.803748 0.486651
0.088287 0.804291 0.485970
0.090492 0.804834 0.485288
0.092696 0.805376 0.484607
0.108427 0.807610 0.480186
0.126864 0.810182 0.475018
0.145300 0.812755 0.469849
0.163736 0.815327 0.464680
0.182172 0.817899 0.459512
0.223461 0.819986 0.452856
0.276177 0.821831 0.445457
0.328892 0.823676 0.438058
0.381607 0.825521 0.430658
0.434322 0.827365 0.423259
0.491926 0.827422 0.415769
0.554419 0.825690 0.408186
0.616912 0.823958 0.400604
0.679405 0.822226 0.393022
0.741898 0.820494 0.385440
0.792980 0.818933 0.378899
