app/src/main/assets/cube/Yokocho05.cube
# LUT by SparkleStock. Enhanced with VOXCOLOR algorithms.
LUT_3D_SIZE 32
0.062515 0.066422 0.105495
0.101650 0.069873 0.103793
0.140785 0.073323 0.102091
0.179920 0.076773 0.100390
0.219055 0.080224 0.098688
0.258191 0.083674 0.096987
0.319422 0.090787 0.094537
0.385072 0.098633 0.091937
0.450723 0.106479 0.089338
0.516373 0.114325 0.086738
0.582024 0.122171 0.084139
0.629619 0.130364 0.083398
0.668187 0.138729 0.083587
0.706755 0.147095 0.083776
0.745323 0.155461 0.083965
0.783891 0.163827 0.084155
0.809910 0.170964 0.085100
0.823380 0.176872 0.086801
0.836851 0.182780 0.088503
0.850321 0.188688 0.090204
0.863791 0.194596 0.091906
0.874001 0.199291 0.093481
0.877687 0.201560 0.094805
0.881374 0.203828 0.096128
0.885060 0.206097 0.097452
0.888747 0.208366 0.098775
0.891937 0.210288 0.099933
0.892646 0.210477 0.100264
0.893355 0.210666 0.100595
0.894064 0.210855 0.100926
0.894773 0.211044 0.101256
0.895482 0.211233 0.101587
0.063650 0.086415 0.115326
0.101028 0.089280 0.112773
0.138407 0.092145 0.110221
0.175786 0.095010 0.107669
0.213164 0.097875 0.105116
0.250543 0.100740 0.102564
0.311001 0.107367 0.099652
0.376075 0.114746 0.096668
0.441149 0.122125 0.093685
0.506224 0.129505 0.090701
0.571298 0.136884 0.087717
0.619671 0.144488 0.086708
0.659693 0.152204 0.086687
0.699716 0.159921 0.086666
0.739738 0.167637 0.086644
0.779760 0.175353 0.086623
0.806818 0.181909 0.087426
0.820910 0.187305 0.089055
0.835003 0.192701 0.090683
0.849095 0.198097 0.092312
0.863188 0.203492 0.093940
0.873854 0.207773 0.095445
0.877669 0.209822 0.096705
0.881484 0.211871 0.097964
0.885298 0.213920 0.099223
0.889113 0.215969 0.100483
0.892393 0.217679 0.101572
0.893002 0.217695 0.101811
0.893610 0.217710 0.102051
0.894218 0.217725 0.102290
0.894827 0.217740 0.102530
0.895435 0.217756 0.102769
0.064784 0.106408 0.125157
0.100406 0.108688 0.121754
0.136028 0.110967 0.118350
0.171651 0.113246 0.114947
0.207273 0.115526 0.111544
0.242895 0.117805 0.108141
0.302580 0.123946 0.104767
0.367078 0.130859 0.101400
0.431576 0.137771 0.098032
0.496074 0.144684 0.094664
0.560572 0.151597 0.091296
0.609722 0.158613 0.090018
0.651199 0.165679 0.089787
0.692676 0.172746 0.089555
0.734153 0.179813 0.089323
0.775630 0.186880 0.089091
0.803726 0.192855 0.089753
0.818440 0.197738 0.091308
0.833155 0.202622 0.092863
0.847869 0.207505 0.094419
0.862584 0.212389 0.095974
0.873708 0.216254 0.097409
0.877651 0.218084 0.098604
0.881593 0.219914 0.099800
0.885536 0.221743 0.100995
0.889479 0.223573 0.102190
0.892849 0.225071 0.103211
0.893357 0.224912 0.103359
0.893865 0.224754 0.103507
0.894372 0.224595 0.103655
0.894880 0.224437 0.103803
0.895388 0.224278 0.103951
0.065918 0.126401 0.134988
0.099784 0.128095 0.130734
0.133650 0.129789 0.126480
0.167516 0.131483 0.122226
0.201382 0.133177 0.117972
0.235247 0.134871 0.113719
0.294160 0.140525 0.109883
0.358081 0.146971 0.106131
0.422003 0.153417 0.102378
0.485924 0.159864 0.098626
0.549846 0.166310 0.094874
0.599774 0.172737 0.093328
0.642705 0.179154 0.092886
0.685637 0.185572 0.092444
0.728568 0.191989 0.092002
0.771500 0.198406 0.091560
0.800634 0.203800 0.092080
0.815970 0.208172 0.093562
0.831307 0.212543 0.095044
0.846644 0.216914 0.096526
0.861980 0.221285 0.098008
0.873561 0.224736 0.099373
0.877632 0.226346 0.100504
0.881703 0.227956 0.101635
0.885774 0.229566 0.102767
0.889845 0.231176 0.103898
0.893305 0.232463 0.104850
0.893712 0.232130 0.104906
0.894119 0.231798 0.104963
0.894526 0.231465 0.105019
0.894933 0.231133 0.105076
0.895341 0.230801 0.105132
0.067053 0.146394 0.144819
0.099162 0.147503 0.139714
0.131271 0.148611 0.134609
0.163381 0.149719 0.129505
0.195490 0.150828 0.124400
0.227600 0.151936 0.119296
0.285739 0.157104 0.114998
0.349084 0.163084 0.110862
0.412429 0.169064 0.106725
0.475774 0.175043 0.102589
0.539120 0.181023 0.098452
0.589825 0.186861 0.096638
0.634211 0.192629 0.095986
0.678597 0.198397 0.095333
0.722983 0.204165 0.094681
0.767369 0.209933 0.094028
0.797542 0.214746 0.094406
0.813500 0.218605 0.095815
0.829459 0.222464 0.097224
0.845418 0.226323 0.098633
0.861376 0.230182 0.100042
0.873415 0.233218 0.101336
0.877614 0.234608 0.102404
0.881813 0.235999 0.103471
0.886012 0.237389 0.104538
0.890211 0.238780 0.105606
0.893761 0.239854 0.106489
0.894067 0.239348 0.106454
0.894374 0.238842 0.106419
0.894680 0.238336 0.106384
0.894987 0.237829 0.106349
0.895293 0.237323 0.106314
0.068187 0.166387 0.154650
0.098540 0.166910 0.148694
0.128893 0.167433 0.142739
0.159246 0.167956 0.136784
0.189599 0.168479 0.130828
0.219952 0.169002 0.124873
0.277318 0.173683 0.120113
0.340087 0.179196 0.115593
0.402856 0.184710 0.111072
0.465625 0.190223 0.106551
0.528394 0.195736 0.102031
0.579877 0.200986 0.099949
0.625718 0.206104 0.099086
0.671558 0.211223 0.098223
0.717399 0.216341 0.097360
0.763239 0.221459 0.096497
0.794450 0.225692 0.096733
0.811030 0.229038 0.098069
0.827611 0.232385 0.099404
0.844192 0.235732 0.100740
0.860773 0.239078 0.102075
0.873269 0.241700 0.103300
0.877596 0.242870 0.104303
0.881923 0.244041 0.105307
0.886250 0.245212 0.106310
0.890577 0.246383 0.107313
0.894217 0.247246 0.108128
0.894423 0.246566 0.108002
0.894628 0.245886 0.107875
0.894834 0.245206 0.107748
0.895040 0.244526 0.107622
0.895246 0.243846 0.107495
0.072984 0.207255 0.176139
0.100704 0.206933 0.169775
0.128424 0.206612 0.163411
0.156144 0.206290 0.157047
0.183864 0.205968 0.150683
0.211584 0.205647 0.144320
0.269187 0.209818 0.137641
0.332767 0.214887 0.130898
0.396347 0.219957 0.124156
0.459927 0.225026 0.117414
0.523507 0.230096 0.110672
0.575590 0.235054 0.107643
0.621925 0.239958 0.106471
0.668259 0.244861 0.105298
0.714594 0.249764 0.104126
0.760928 0.254668 0.102953
0.792678 0.258251 0.102964
0.809842 0.260513 0.104158
0.827007 0.262776 0.105352
0.844172 0.265038 0.106546
0.861336 0.267301 0.107739
0.874285 0.268913 0.108866
0.878801 0.269224 0.109859
0.883317 0.269535 0.110851
0.887833 0.269846 0.111844
0.892349 0.270157 0.112836
0.896153 0.270245 0.113637
0.896395 0.269216 0.113480
0.896638 0.268187 0.113323
0.896880 0.267157 0.113166
0.897123 0.266128 0.113009
0.897365 0.265099 0.112852
0.078514 0.252298 0.199961
0.103426 0.251080 0.193276
0.128337 0.249862 0.186592
0.153249 0.248644 0.179908
0.178160 0.247425 0.173224
0.203072 0.246207 0.166540
0.261114 0.249863 0.157650
0.325783 0.254493 0.148319
0.390451 0.259124 0.138988
0.455120 0.263754 0.129657
0.519788 0.268384 0.120326
0.572436 0.273111 0.116215
0.619072 0.277887 0.114713
0.665708 0.282662 0.113211
0.712345 0.287437 0.111710
0.758981 0.292212 0.110208
0.791170 0.295132 0.109976
0.808911 0.296196 0.111014
0.826652 0.297261 0.112053
0.844393 0.298325 0.113091
0.862134 0.299389 0.114129
0.875534 0.299873 0.115152
0.880251 0.299196 0.116145
0.884968 0.298519 0.117137
0.889686 0.297842 0.118130
0.894403 0.297165 0.119122
0.898385 0.296365 0.119920
0.898691 0.294952 0.119745
0.898998 0.293539 0.119570
0.899304 0.292125 0.119394
0.899611 0.290712 0.119219
0.899917 0.289299 0.119044
0.084044 0.297341 0.223782
0.106147 0.295227 0.216778
0.128250 0.293112 0.209773
0.150353 0.290997 0.202769
0.172456 0.288883 0.195765
0.194559 0.286768 0.188760
0.253041 0.289908 0.177660
0.318798 0.294099 0.165740
0.384555 0.298291 0.153820
0.450313 0.302482 0.141900
0.516070 0.306673 0.129981
0.569281 0.311169 0.124787
0.616219 0.315816 0.122955
0.663158 0.320463 0.121124
0.710096 0.325110 0.119293
0.757034 0.329757 0.117462
0.789662 0.332014 0.116988
0.807979 0.331880 0.117871
0.826297 0.331745 0.118753
0.844614 0.331611 0.119636
0.862931 0.331477 0.120519
0.876782 0.330833 0.121438
0.881701 0.329168 0.122431
0.886619 0.327503 0.123424
0.891538 0.325838 0.124416
0.896457 0.324173 0.125409
0.900617 0.322486 0.126203
0.900988 0.320688 0.126010
0.901358 0.318891 0.125816
0.901729 0.317093 0.125623
0.902099 0.315296 0.125429
0.902470 0.313498 0.125235
0.089574 0.342384 0.247603
0.108869 0.339373 0.240279
0.128163 0.336362 0.232954
0.147458 0.333351 0.225630
0.166753 0.330340 0.218305
0.186047 0.327328 0.210981
0.244968 0.329953 0.197670
0.311814 0.333706 0.183161
0.378660 0.337458 0.168652
0.445505 0.341210 0.154143
0.512351 0.344962 0.139635
0.566127 0.349226 0.133358
0.613367 0.353745 0.131198
0.660607 0.358264 0.129037
0.707847 0.362783 0.126877
0.755087 0.367302 0.124716
0.788154 0.368895 0.124000
0.807048 0.367563 0.124727
0.825941 0.366230 0.125454
0.844835 0.364898 0.126182
0.863729 0.363565 0.126909
0.878031 0.361792 0.127725
0.883151 0.359140 0.128717
0.888271 0.356487 0.129710
0.893390 0.353834 0.130702
0.898510 0.351181 0.131695
0.902849 0.348606 0.132487
0.903284 0.346425 0.132275
0.903718 0.344243 0.132063
0.904153 0.342061 0.131851
0.904587 0.339879 0.131639
0.905022 0.337697 0.131427
0.095104 0.387428 0.271425
0.111590 0.383520 0.263780
0.128077 0.379612 0.256135
0.144563 0.375704 0.248491
0.161049 0.371797 0.240846
0.177535 0.367889 0.233201
0.236895 0.369999 0.217679
0.304829 0.373312 0.200582
0.372764 0.376625 0.183484
0.440698 0.379938 0.166387
0.508633 0.383251 0.149289
0.562972 0.387283 0.141930
0.610514 0.391674 0.139440
0.658056 0.396065 0.136950
0.705598 0.400456 0.134461
0.753140 0.404847 0.131971
0.786646 0.405777 0.131012
0.806116 0.403246 0.131584
0.825586 0.400715 0.132155
0.845056 0.398184 0.132727
0.864526 0.395653 0.133299
0.879280 0.392752 0.134011
0.884601 0.389111 0.135003
0.889922 0.385470 0.135996
0.895243 0.381830 0.136988
0.900564 0.378189 0.137981
0.905081 0.374727 0.138770
0.905580 0.372161 0.138540
0.906078 0.369595 0.138309
0.906577 0.367029 0.138079
0.907076 0.364463 0.137849
0.907574 0.361897 0.137619
0.104919 0.431336 0.296506
0.119390 0.427362 0.289157
0.133861 0.423387 0.281809
0.148331 0.419412 0.274460
0.162802 0.415437 0.267111
0.177272 0.411462 0.259762
0.234042 0.413225 0.243728
0.299272 0.416136 0.225956
0.364502 0.419047 0.208185
0.429731 0.421957 0.190413
0.494961 0.424868 0.172642
0.550125 0.428582 0.163521
0.600256 0.432699 0.158726
0.650387 0.436816 0.153931
0.700517 0.440932 0.149136
0.750648 0.445049 0.144341
0.785703 0.445852 0.142139
0.805683 0.443343 0.142531
0.825662 0.440833 0.142923
0.845641 0.438323 0.143315
0.865620 0.435814 0.143707
0.880801 0.432732 0.144299
0.886384 0.428506 0.145291
0.891967 0.424279 0.146284
0.897551 0.420053 0.147276
0.903134 0.415827 0.148269
0.907894 0.411828 0.149066
0.908536 0.408969 0.148884
0.909178 0.406111 0.148703
0.909819 0.403252 0.148522
0.910461 0.400393 0.148340
0.911103 0.397534 0.148159
0.116877 0.474678 0.322218
0.129729 0.471051 0.315473
0.142580 0.467424 0.308728
0.155432 0.463796 0.301983
0.168283 0.460169 0.295238
0.181134 0.456542 0.288493
0.233800 0.458043 0.272795
0.294428 0.460569 0.255307
0.355056 0.463096 0.237820
0.415684 0.465622 0.220332
0.476313 0.468148 0.202844
0.532431 0.471503 0.191622
0.586294 0.475272 0.183534
0.640158 0.479041 0.175446
0.694021 0.482810 0.167357
0.747884 0.486579 0.159269
0.785043 0.487524 0.155325
0.805498 0.485646 0.155524
0.825953 0.483768 0.155724
0.846408 0.481889 0.155924
0.866863 0.480011 0.156123
0.882458 0.477222 0.156587
0.888334 0.472611 0.157580
0.894210 0.468000 0.158573
0.900086 0.463390 0.159565
0.905962 0.458779 0.160558
0.910997 0.454420 0.161368
0.911821 0.451314 0.161269
0.912646 0.448208 0.161170
0.913471 0.445102 0.161071
0.914296 0.441997 0.160972
0.915121 0.438891 0.160873
0.128835 0.518020 0.347930
0.140068 0.514740 0.341789
0.151300 0.511461 0.335648
0.162532 0.508181 0.329506
0.173764 0.504901 0.323365
0.184996 0.501622 0.317223
0.233557 0.502860 0.301863
0.289584 0.505003 0.284659
0.345611 0.507145 0.267454
0.401638 0.509287 0.250250
0.457665 0.511429 0.233046
0.514737 0.514424 0.219723
0.572333 0.517845 0.208342
0.629929 0.521267 0.196960
0.687524 0.524688 0.185578
0.745120 0.528109 0.174197
0.784383 0.529196 0.168510
0.805314 0.527949 0.168517
0.826244 0.526702 0.168525
0.847175 0.525455 0.168533
0.868105 0.524208 0.168540
0.884115 0.521711 0.168876
0.890284 0.516717 0.169869
0.896453 0.511722 0.170861
0.902622 0.506727 0.171854
0.908791 0.501732 0.172847
0.914099 0.497011 0.173671
0.915107 0.493658 0.173654
0.916115 0.490306 0.173637
0.917123 0.486953 0.173621
0.918130 0.483600 0.173604
0.919138 0.480247 0.173587
0.140793 0.561361 0.373642
0.150406 0.558429 0.368105
0.160019 0.555497 0.362567
0.169632 0.552565 0.357029
0.179245 0.549634 0.351492
0.188858 0.546702 0.345954
0.233315 0.547678 0.330931
0.284740 0.549436 0.314010
0.336166 0.551194 0.297089
0.387591 0.552952 0.280169
0.439016 0.554710 0.263248
0.497044 0.557345 0.247824
0.558372 0.560418 0.233149
0.619700 0.563492 0.218475
0.681028 0.566566 0.203800
0.742356 0.569640 0.189125
0.783723 0.570869 0.181695
0.805129 0.570253 0.181511
0.826535 0.569637 0.181326
0.847942 0.569021 0.181142
0.869348 0.568405 0.180957
0.885773 0.566201 0.181165
0.892234 0.560822 0.182158
0.898696 0.555443 0.183150
0.905157 0.550064 0.184143
0.911619 0.544685 0.185135
0.917202 0.539602 0.185973
0.918393 0.536003 0.186039
0.919583 0.532403 0.186104
0.920774 0.528803 0.186170
0.921965 0.525204 0.186236
0.923156 0.521604 0.186301
0.152751 0.604703 0.399354
0.160745 0.602119 0.394420
0.168739 0.599534 0.389486
0.176733 0.596950 0.384553
0.184726 0.594366 0.379619
0.192720 0.591781 0.374685
0.233072 0.592495 0.359998
0.279896 0.593869 0.343361
0.326720 0.595243 0.326724
0.373544 0.596617 0.310087
0.420368 0.597990 0.293450
0.479350 0.600266 0.275925
0.544410 0.602992 0.257957
0.609471 0.605718 0.239989
0.674531 0.608444 0.222021
0.739592 0.611170 0.204053
0.783063 0.612541 0.194880
0.804945 0.612556 0.194504
0.826827 0.612571 0.194127
0.848709 0.612586 0.193751
0.870591 0.612602 0.193374
0.887430 0.610691 0.193454
0.894184 0.604927 0.194446
0.900939 0.599164 0.195439
0.907693 0.593401 0.196432
0.914447 0.587638 0.197424
0.920305 0.582194 0.198276
0.921678 0.578347 0.198424
0.923052 0.574501 0.198572
0.924426 0.570654 0.198720
0.925799 0.566807 0.198867
0.927173 0.562960 0.199015
0.164804 0.636583 0.419583
0.171668 0.634378 0.415217
0.178532 0.632173 0.410850
0.185396 0.629969 0.406483
0.192260 0.627764 0.402117
0.199124 0.625559 0.397750
0.236136 0.626272 0.383756
0.279177 0.627568 0.367837
0.322218 0.628864 0.351918
0.365259 0.630160 0.335999
0.408301 0.631456 0.320080
0.466427 0.633705 0.301859
0.532096 0.636431 0.282487
0.597764 0.639157 0.263114
0.663433 0.641884 0.243742
0.729102 0.644610 0.224370
0.773975 0.646234 0.213953
0.798052 0.646757 0.212493
0.822130 0.647280 0.211032
0.846207 0.647803 0.209571
0.870285 0.648326 0.208111
0.888651 0.646839 0.207434
0.895592 0.641332 0.208326
0.902534 0.635825 0.209218
0.909476 0.630318 0.210110
0.916418 0.624811 0.211002
0.922461 0.619585 0.211777
0.924013 0.615766 0.211966
0.925565 0.611946 0.212155
0.927118 0.608127 0.212344
0.928670 0.604308 0.212533
0.930222 0.600488 0.212722
0.176951 0.657001 0.434330
0.183174 0.655208 0.430494
0.189398 0.653415 0.426658
0.195622 0.651622 0.422822
0.201845 0.649829 0.418986
0.208069 0.648036 0.415150
0.242504 0.649008 0.402205
0.282581 0.650532 0.387439
0.322659 0.652057 0.372672
0.362736 0.653582 0.357906
0.402813 0.655106 0.343139
0.458274 0.657664 0.325626
0.521427 0.660738 0.306738
0.584581 0.663811 0.287851
0.647734 0.666885 0.268963
0.710887 0.669959 0.250076
0.756460 0.671949 0.238913
0.784452 0.672856 0.235477
0.812445 0.673763 0.232040
0.840438 0.674671 0.228604
0.868431 0.675578 0.225167
0.889434 0.674646 0.223106
0.896458 0.670035 0.223797
0.903482 0.665425 0.224488
0.910507 0.660814 0.225178
0.917531 0.656203 0.225869
0.923672 0.651775 0.226476
0.925398 0.648258 0.226665
0.927124 0.644740 0.226854
0.928850 0.641223 0.227043
0.930575 0.637705 0.227232
0.932301 0.634188 0.227421
0.189098 0.677419 0.449076
0.194681 0.676038 0.445771
0.200264 0.674657 0.442465
0.205848 0.673275 0.439160
0.211431 0.671894 0.435854
0.217014 0.670513 0.432549
0.248873 0.671744 0.420653
0.285986 0.673497 0.407040
0.323099 0.675250 0.393426
0.360213 0.677004 0.379812
0.397326 0.678757 0.366198
0.450122 0.681622 0.349392
0.510759 0.685044 0.330989
0.571397 0.688465 0.312587
0.632034 0.691886 0.294184
0.692672 0.695308 0.275781
0.738944 0.697664 0.263874
0.770853 0.698955 0.258461
0.802761 0.700247 0.253049
0.834669 0.701538 0.247636
0.866577 0.702830 0.242224
0.890218 0.702453 0.238778
0.897324 0.698738 0.239268
0.904431 0.695024 0.239757
0.911537 0.691310 0.240247
0.918644 0.687596 0.240736
0.924882 0.683965 0.241175
0.926782 0.680750 0.241364
0.928682 0.677534 0.241553
0.930582 0.674319 0.241742
0.932481 0.671103 0.241932
0.934381 0.667888 0.242121
0.201245 0.697838 0.463823
0.206188 0.696868 0.461048
0.211131 0.695898 0.458273
0.216074 0.694929 0.455498
0.221016 0.693959 0.452723
0.225959 0.692989 0.449948
0.255241 0.694479 0.439102
0.289391 0.696461 0.426641
0.323540 0.698443 0.414180
0.357689 0.700426 0.401719
0.391839 0.702408 0.389257
0.441970 0.705581 0.373159
0.500091 0.709350 0.355241
0.558213 0.713119 0.337323
0.616335 0.716888 0.319405
0.674456 0.720657 0.301487
0.721429 0.723379 0.288834
0.757253 0.725055 0.281445
0.793076 0.726730 0.274057
0.828899 0.728406 0.266668
0.864723 0.730081 0.259280
0.891002 0.730259 0.254450
0.898190 0.727442 0.254738
0.905379 0.724624 0.255027
0.912568 0.721807 0.255315
0.919757 0.718989 0.255603
0.926093 0.716155 0.255875
0.928167 0.713242 0.256064
0.930240 0.710328 0.256253
0.932314 0.707415 0.256442
0.934387 0.704501 0.256631
0.936461 0.701587 0.256820
0.213392 0.718256 0.478569
0.217694 0.717698 0.476325
0.221997 0.717140 0.474081
0.226299 0.716582 0.471837
0.230602 0.716024 0.469592
0.234905 0.715466 0.467348
0.261610 0.717215 0.457550
0.292795 0.719426 0.446242
0.323981 0.721637 0.434933
0.355166 0.723847 0.423625
0.386351 0.726058 0.412316
0.433817 0.729539 0.396925
0.489423 0.733656 0.379492
0.545029 0.737773 0.362059
0.600635 0.741889 0.344626
0.656241 0.746006 0.327193
0.703914 0.749094 0.313794
0.743653 0.751154 0.304430
0.783391 0.753214 0.295065
0.823130 0.755273 0.285701
0.862869 0.757333 0.276336
0.891785 0.758066 0.270122
0.899056 0.756145 0.270209
0.906327 0.754224 0.270296
0.913599 0.752303 0.270383
0.920870 0.750382 0.270470
0.927304 0.748346 0.270574
0.929551 0.745734 0.270763
0.931798 0.743122 0.270952
0.934046 0.740510 0.271141
0.936293 0.737899 0.271330
0.938540 0.735287 0.271519
0.223963 0.733964 0.490512
0.227790 0.733729 0.488691
0.231617 0.733494 0.486871
0.235444 0.733259 0.485050
0.239271 0.733024 0.483230
0.243098 0.732790 0.481409
0.267617 0.734717 0.472480
0.296274 0.737077 0.462129
0.324932 0.739438 0.451778
0.353590 0.741798 0.441427
0.382247 0.744158 0.431076
0.427279 0.747842 0.416417
0.480497 0.752187 0.399603
0.533715 0.756532 0.382789
0.586934 0.760877 0.365975
0.640152 0.765223 0.349161
0.687978 0.768598 0.335361
0.730413 0.771002 0.324576
0.772847 0.773406 0.313790
0.815282 0.775811 0.303005
0.857716 0.778215 0.292219
0.888699 0.779451 0.284968
0.896778 0.778350 0.284787
0.904857 0.777249 0.284606
0.912936 0.776149 0.284424
0.921016 0.775048 0.284243
0.928140 0.773754 0.284120
0.930488 0.771493 0.284291
0.932836 0.769232 0.284462
0.935184 0.766970 0.284632
0.937531 0.764709 0.284803
0.939879 0.762448 0.284974
0.231384 0.740250 0.496845
0.235064 0.740161 0.495235
0.238745 0.740073 0.493625
0.242425 0.739984 0.492015
0.246106 0.739896 0.490405
0.249786 0.739808 0.488795
0.272901 0.741752 0.480373
0.299903 0.744103 0.470590
0.326905 0.746454 0.460806
0.353907 0.748805 0.451022
0.380908 0.751156 0.441238
0.423967 0.754831 0.427359
0.475054 0.759167 0.411433
0.526141 0.763503 0.395506
0.577228 0.767839 0.379579
0.628315 0.772175 0.363653
0.675203 0.775678 0.350141
0.717894 0.778348 0.339045
0.760584 0.781017 0.327948
0.803275 0.783687 0.316852
0.845966 0.786357 0.305755
0.877872 0.787992 0.298163
0.888211 0.787559 0.297579
0.898550 0.787126 0.296995
0.908888 0.786693 0.296411
0.919227 0.786260 0.295827
0.928226 0.785597 0.295360
0.930529 0.783784 0.295476
0.932831 0.781972 0.295592
0.935133 0.780159 0.295707
0.937435 0.778346 0.295823
0.939738 0.776533 0.295939
0.238804 0.746536 0.503179
0.242338 0.746594 0.501779
0.245873 0.746652 0.500379
0.249407 0.746710 0.498980
0.252941 0.746768 0.497580
0.256475 0.746826 0.496180
0.278186 0.748787 0.488267
0.303532 0.751129 0.479050
0.328878 0.753471 0.469833
0.354224 0.755812 0.460617
0.379570 0.758154 0.451400
0.420655 0.761820 0.438302
0.469611 0.766147 0.423263
0.518566 0.770474 0.408223
0.567522 0.774801 0.393184
0.616477 0.779128 0.378145
0.662428 0.782759 0.364921
0.705375 0.785694 0.353514
0.748322 0.788629 0.342106
0.791268 0.791564 0.330699
0.834215 0.794499 0.319291
0.867046 0.796533 0.311357
0.879644 0.796768 0.310371
0.892242 0.797003 0.309384
0.904840 0.797238 0.308398
0.917439 0.797473 0.307412
0.928313 0.797441 0.306600
0.930570 0.796076 0.306661
0.932826 0.794712 0.306722
0.935083 0.793347 0.306783
0.937339 0.791983 0.306844
0.939596 0.790618 0.306905
0.246225 0.752822 0.509512
0.249613 0.753026 0.508323
0.253000 0.753231 0.507134
0.256388 0.753435 0.505944
0.259776 0.753639 0.504755
0.263164 0.753844 0.503566
0.283470 0.755822 0.496160
0.307160 0.758154 0.487510
0.330851 0.760487 0.478861
0.354541 0.762820 0.470212
0.378231 0.765153 0.461562
0.417344 0.768809 0.449244
0.464168 0.773127 0.435092
0.510992 0.777444 0.420940
0.557816 0.781762 0.406789
0.604640 0.786080 0.392637
0.649653 0.789839 0.379701
0.692856 0.793039 0.367983
0.736059 0.796240 0.356264
0.779262 0.799440 0.344546
0.822464 0.802640 0.332827
0.856219 0.805075 0.324552
0.871077 0.805977 0.323163
0.885935 0.806880 0.321774
0.900792 0.807782 0.320385
0.915650 0.808685 0.318996
0.928400 0.809284 0.317839
0.930611 0.808368 0.317846
0.932822 0.807452 0.317852
0.935033 0.806535 0.317858
0.937243 0.805619 0.317864
0.939454 0.804703 0.317870
0.253645 0.759108 0.515845
0.256887 0.759459 0.514867
0.260128 0.759810 0.513888
0.263370 0.760160 0.512909
0.266611 0.760511 0.511930
0.269852 0.760862 0.510951
0.288755 0.762856 0.504053
0.310789 0.765180 0.495971
0.332824 0.767504 0.487888
0.354858 0.769827 0.479806
0.376892 0.772151 0.471724
0.414032 0.775798 0.460187
0.458725 0.780106 0.446922
0.503417 0.784415 0.433658
0.548110 0.788724 0.420393
0.592802 0.793033 0.407129
0.636878 0.796920 0.394481
0.680337 0.800385 0.382452
0.723796 0.803851 0.370422
0.767255 0.807316 0.358393
0.810714 0.810782 0.346363
0.845392 0.813616 0.337746
0.862510 0.815186 0.335955
0.879627 0.816757 0.334163
0.896744 0.818327 0.332372
0.913862 0.819897 0.330580
0.928487 0.821128 0.329079
0.930652 0.820660 0.329030
0.932817 0.820192 0.328982
0.934982 0.819724 0.328933
0.937147 0.819256 0.328884
0.939312 0.818788 0.328835
0.260026 0.764536 0.521218
0.263152 0.765028 0.520463
0.266277 0.765521 0.519708
0.269403 0.766013 0.518954
0.272528 0.766506 0.518199
0.275654 0.766998 0.517444
0.293260 0.768995 0.511013
0.313762 0.771293 0.503446
0.334264 0.773590 0.495879
0.354766 0.775888 0.488312
0.375268 0.778186 0.480745
0.410572 0.781812 0.469923
0.453276 0.786102 0.457472
0.495981 0.790393 0.445022
0.538685 0.794683 0.432571
0.581389 0.798973 0.420121
0.624559 0.802969 0.407766
0.668193 0.806669 0.395506
0.711827 0.810369 0.383246
0.755462 0.814070 0.370986
0.799096 0.817770 0.358727
0.834593 0.820950 0.349804
0.853814 0.823089 0.347557
0.873035 0.825228 0.345310
0.892257 0.827367 0.343062
0.911478 0.829507 0.340815
0.927873 0.831283 0.338933
0.930132 0.831248 0.338882
0.932392 0.831213 0.338830
0.934651 0.831178 0.338778
0.936911 0.831143 0.338726
0.939171 0.831108 0.338674
0.261208 0.765670 0.521785
0.264370 0.766282 0.521323
0.267532 0.766893 0.520861
0.270694 0.767504 0.520399
0.273856 0.768116 0.519937
0.277018 0.768727 0.519475
0.293868 0.770652 0.513306
0.313456 0.772840 0.505995
0.333043 0.775028 0.498684
0.352630 0.777216 0.491374
0.372218 0.779404 0.484063
0.406369 0.782951 0.473624
0.447801 0.787177 0.461622
0.489234 0.791403 0.449620
0.530667 0.795630 0.437618
0.572099 0.799856 0.425616
0.614519 0.803861 0.413572
0.657924 0.807643 0.401486
0.701330 0.811426 0.389400
0.744736 0.815209 0.377314
0.788141 0.818991 0.365228
0.823928 0.822251 0.356180
