app/src/main/assets/cube/Yokocho04.cube
# LUT by SparkleStock. Enhanced with VOXCOLOR algorithms.
LUT_3D_SIZE 8
DOMAIN_MIN 0.000000 0.000000 0.000000
DOMAIN_MAX 0.903226 0.903226 0.903226
0.015629 0.023443 0.074237
0.181244 0.054638 0.080665
0.440734 0.097483 0.073032
0.680586 0.142290 0.064729
0.824979 0.181118 0.064682
0.872433 0.205884 0.072244
0.889007 0.219465 0.078388
0.894490 0.225586 0.081484
0.028485 0.102848 0.126228
0.161899 0.122040 0.108066
0.402252 0.156305 0.088699
0.644933 0.193391 0.075237
0.813514 0.224004 0.072079
0.872091 0.242476 0.078324
0.893203 0.252813 0.083761
0.899686 0.256140 0.085241
0.044689 0.262468 0.223349
0.133253 0.262194 0.190446
0.373031 0.286802 0.135487
0.629567 0.318672 0.093123
0.806796 0.343455 0.083201
0.874839 0.347858 0.087921
0.900384 0.346051 0.093480
0.908860 0.341224 0.095447
0.068731 0.453543 0.333932
0.117056 0.441644 0.299554
0.328881 0.456054 0.220396
0.589839 0.480834 0.142902
0.805270 0.501652 0.099743
0.880265 0.499274 0.099926
0.909948 0.486812 0.105562
0.921086 0.473992 0.109171
0.101887 0.629343 0.430092
0.125751 0.621360 0.406892
0.264657 0.626959 0.334701
0.505693 0.642208 0.232503
0.795010 0.661204 0.129327
0.885667 0.666656 0.115678
0.920627 0.652572 0.118933
0.934522 0.636616 0.123778
0.135539 0.713663 0.475466
0.149157 0.711389 0.461780
0.243605 0.718859 0.406775
0.431216 0.735987 0.318092
0.691882 0.759484 0.212098
0.877092 0.772254 0.148245
0.927811 0.769270 0.135692
0.942578 0.760968 0.136128
0.158321 0.748986 0.497995
0.168402 0.748882 0.487847
0.235725 0.755638 0.443879
0.382984 0.771280 0.367978
0.607908 0.794856 0.269412
0.824124 0.814579 0.188654
0.913045 0.821413 0.159846
0.945598 0.821217 0.150195
0.167970 0.761401 0.507149
0.178393 0.763871 0.499025
0.228641 0.770224 0.463142
0.346340 0.783859 0.398339
0.539715 0.805708 0.309448
0.762492 0.829377 0.223360
0.885806 0.842576 0.179886
0.940505 0.847884 0.160602
0.027350 0.033274 0.140029
0.167205 0.057882 0.132259
0.413687 0.098703 0.110532
0.657429 0.144461 0.091166
0.820247 0.185393 0.084642
0.873701 0.209574 0.088546
0.891276 0.222569 0.092616
0.897076 0.228660 0.094511
0.033620 0.103750 0.172992
0.131415 0.109331 0.155024
0.349783 0.139200 0.127446
0.596054 0.178059 0.102279
0.794149 0.213666 0.088268
0.868133 0.236426 0.089947
0.893512 0.248310 0.093348
0.900695 0.251537 0.093423
0.047177 0.256308 0.251604
0.110972 0.238125 0.220925
0.324807 0.257731 0.167651
0.577666 0.292557 0.120385
0.781786 0.323858 0.097700
0.867737 0.333809 0.097028
0.898663 0.334079 0.100402
0.907888 0.329311 0.100652
0.070743 0.446029 0.348831
0.107208 0.416685 0.313570
0.298106 0.425698 0.240944
0.550413 0.452664 0.164972
0.779936 0.479294 0.112556
0.871319 0.482426 0.107026
0.906373 0.471508 0.110014
0.918327 0.458585 0.111398
0.104027 0.627026 0.438935
0.119841 0.607447 0.412416
0.250851 0.607018 0.342765
0.485439 0.621064 0.243277
0.772406 0.642762 0.139071
0.875825 0.653441 0.120191
0.915682 0.639945 0.120264
0.930663 0.623248 0.122371
0.136655 0.713981 0.480942
0.145736 0.708042 0.466657
0.233713 0.712200 0.414023
0.416765 0.726991 0.326312
0.677503 0.749635 0.217489
0.868676 0.763780 0.149878
0.922876 0.761402 0.135427
0.938880 0.752477 0.134003
0.157924 0.748766 0.499130
0.164998 0.748304 0.491385
0.225361 0.753648 0.451104
0.367115 0.767756 0.377129
0.591807 0.790382 0.276851
0.814458 0.810176 0.191353
0.908387 0.817353 0.159634
0.943280 0.816671 0.148474
0.170404 0.763895 0.508820
0.174410 0.763414 0.500635
0.217846 0.769077 0.469226
0.330643 0.782752 0.408383
0.522989 0.804331 0.319457
0.751551 0.827523 0.228689
0.880790 0.840733 0.181496
0.938867 0.845902 0.160110
0.045366 0.047792 0.233944
0.165784 0.067784 0.219130
0.399854 0.106713 0.179006
0.642485 0.152499 0.142452
0.815251 0.194226 0.127274
0.873670 0.216785 0.124615
0.891985 0.227898 0.124055
0.898054 0.233228 0.123551
0.047745 0.113176 0.261565
0.122184 0.108960 0.234008
0.321864 0.135164 0.193638
0.565376 0.174985 0.154647
0.779625 0.214176 0.128026
0.864848 0.238260 0.122799
0.893178 0.249541 0.121433
0.901023 0.252294 0.118716
0.056724 0.257147 0.320077
0.104573 0.229844 0.284064
0.289238 0.241851 0.232884
0.529962 0.273487 0.181058
0.753320 0.307090 0.141057
0.857843 0.320712 0.128950
0.895236 0.322165 0.125433
0.906414 0.317034 0.121387
0.077706 0.441825 0.394989
0.106471 0.405268 0.359059
0.266725 0.403427 0.298733
0.500200 0.422908 0.226805
0.742047 0.449604 0.159321
0.855511 0.457962 0.138215
0.899611 0.449140 0.132411
0.914723 0.435620 0.128378
0.111481 0.625076 0.469239
0.122272 0.598947 0.443127
0.234983 0.587332 0.383862
0.452510 0.592815 0.291979
0.735130 0.613236 0.184003
0.857485 0.629208 0.149226
0.906688 0.617287 0.140223
0.925360 0.599594 0.136963
0.143810 0.716531 0.502800
0.149053 0.707561 0.488270
0.222605 0.705314 0.442536
0.392190 0.713874 0.361015
0.649027 0.733019 0.251860
0.851133 0.747481 0.174079
0.913463 0.746710 0.151409
0.933487 0.737888 0.144654
0.162824 0.751005 0.513465
0.167000 0.749344 0.505575
0.215498 0.751593 0.470714
0.345016 0.762321 0.402760
0.564228 0.782553 0.304809
0.796144 0.801976 0.212345
0.899216 0.809962 0.172905
0.938994 0.809389 0.156706
0.174120 0.765711 0.518591
0.175753 0.764600 0.511117
0.208628 0.768346 0.483097
0.309539 0.780132 0.427053
0.494997 0.800751 0.342118
0.731583 0.823988 0.246664
0.871135 0.837687 0.193022
0.935365 0.843008 0.167157
0.064792 0.065264 0.332821
0.167890 0.082060 0.319398
0.388570 0.118814 0.267403
0.627700 0.163488 0.213069
0.808281 0.204960 0.181129
0.872701 0.226934 0.173213
0.892149 0.235876 0.167690
0.898311 0.240079 0.164365
0.065304 0.125001 0.360918
0.123736 0.115767 0.329388
0.307145 0.139590 0.282479
0.544476 0.179731 0.230478
0.766943 0.221256 0.184913
0.861265 0.245963 0.172237
0.892149 0.255724 0.165513
0.900793 0.257693 0.159767
0.071294 0.263195 0.409141
0.107431 0.232583 0.370888
0.265059 0.236919 0.323137
0.491536 0.263387 0.266391
0.727771 0.298059 0.207283
0.847854 0.314289 0.181471
0.891232 0.316048 0.169447
0.904765 0.310680 0.160659
0.090441 0.443486 0.466723
0.112227 0.404859 0.431529
0.242191 0.391513 0.382137
0.454799 0.400944 0.314852
0.704221 0.425794 0.236198
0.837929 0.437368 0.196043
0.891552 0.429711 0.178017
0.910817 0.415603 0.166706
0.124696 0.625302 0.521200
0.131774 0.595955 0.496261
0.225132 0.574308 0.448716
0.420991 0.569967 0.369829
0.692109 0.585635 0.267030
0.833680 0.602847 0.212783
0.894520 0.591186 0.189028
0.918885 0.571602 0.175889
0.157879 0.721843 0.543430
0.160155 0.710646 0.529213
0.219153 0.702223 0.491832
0.371096 0.703048 0.422131
0.615708 0.715233 0.322163
0.827021 0.727477 0.233571
0.900192 0.727965 0.196356
0.926686 0.718920 0.178658
0.174931 0.756423 0.545132
0.176651 0.753409 0.536421
0.214149 0.752476 0.507345
0.328081 0.758631 0.449016
0.533142 0.773863 0.360333
0.771423 0.791555 0.263680
0.885862 0.800042 0.212395
0.932909 0.799609 0.185936
0.183246 0.769347 0.543030
0.183852 0.768316 0.535628
0.207587 0.770115 0.511128
0.293195 0.778799 0.461813
0.462437 0.796273 0.384836
0.704089 0.819222 0.288440
0.856491 0.833380 0.226188
0.929673 0.839135 0.191917
0.081783 0.083580 0.417472
0.167299 0.098161 0.412648
0.371991 0.132209 0.361450
0.606515 0.174614 0.293846
0.797303 0.215055 0.236579
0.870505 0.238382 0.225333
0.892300 0.245996 0.216649
0.898532 0.249194 0.211086
0.081710 0.135064 0.446008
0.127942 0.125514 0.424011
0.296000 0.148319 0.382768
0.525513 0.188176 0.322060
0.753077 0.230861 0.252142
0.856351 0.256809 0.230839
0.890308 0.265374 0.219798
0.900080 0.266562 0.211897
0.087957 0.270813 0.497897
0.113936 0.240499 0.466721
0.249344 0.239017 0.425104
0.463057 0.261332 0.364745
0.707245 0.297835 0.289224
0.838928 0.316788 0.249095
0.887193 0.318580 0.229219
0.902965 0.313576 0.216827
0.107433 0.449029 0.551181
0.121486 0.410490 0.519678
0.227244 0.388569 0.477029
0.421554 0.390358 0.415135
0.672463 0.414230 0.335766
0.821811 0.427377 0.277724
0.883567 0.419773 0.246597
0.906878 0.405612 0.227615
0.142038 0.627247 0.589221
0.145827 0.597362 0.565571
0.223690 0.570651 0.527502
0.397093 0.559044 0.466260
0.648418 0.567487 0.382685
0.807830 0.581062 0.311676
0.880759 0.567638 0.269413
0.911755 0.545422 0.242367
0.178405 0.729333 0.601114
0.178737 0.716945 0.588101
0.227660 0.704652 0.558636
0.361428 0.698320 0.505417
0.584754 0.700931 0.426343
0.799587 0.708108 0.332675
0.884149 0.708435 0.277601
0.918693 0.698062 0.244078
0.195011 0.764927 0.594888
0.194964 0.760921 0.586115
0.225727 0.757787 0.562491
0.323900 0.759143 0.516460
0.506507 0.767134 0.444621
0.743857 0.781067 0.351769
0.869313 0.788836 0.287470
0.925175 0.787958 0.246093
0.200630 0.776326 0.585518
0.199857 0.775062 0.577135
0.218811 0.775695 0.557058
0.289233 0.780983 0.516836
0.433803 0.793015 0.451665
0.672628 0.814283 0.362082
0.837545 0.828139 0.291159
0.921680 0.834363 0.244511
0.093316 0.097759 0.467384
0.164195 0.111023 0.467829
0.346682 0.141991 0.424803
0.572106 0.181445 0.356564
0.776543 0.220422 0.284698
0.863650 0.244335 0.259108
0.891422 0.254119 0.252789
0.899112 0.257824 0.248416
0.092657 0.143682 0.494309
0.130825 0.135307 0.481888
0.279558 0.156964 0.451999
0.497743 0.195332 0.396162
0.732384 0.237531 0.319038
0.847749 0.263951 0.276706
0.887003 0.273913 0.263422
0.898700 0.275867 0.256201
0.098526 0.266611 0.545003
0.119320 0.240367 0.525301
0.232317 0.236259 0.497290
0.430220 0.256115 0.447388
0.679356 0.294845 0.373489
0.827097 0.320177 0.312628
0.881678 0.325066 0.286330
0.899813 0.321680 0.272268
0.117648 0.437618 0.600190
0.128396 0.405170 0.580169
0.209863 0.379547 0.551599
0.382696 0.376632 0.504627
0.631893 0.401177 0.436100
0.805629 0.422951 0.362528
0.875947 0.418960 0.320960
0.902255 0.406429 0.296903
0.153260 0.621380 0.644030
0.156080 0.597430 0.629993
0.213816 0.568286 0.604272
0.361562 0.550000 0.560177
0.597128 0.551898 0.495373
0.786933 0.567711 0.418538
0.870616 0.555206 0.363342
0.905703 0.532941 0.327812
0.200750 0.734004 0.660313
0.200568 0.722339 0.650681
0.239929 0.707618 0.630142
0.356775 0.697184 0.591897
0.560929 0.695191 0.532473
0.776466 0.697920 0.454282
0.868439 0.695598 0.394643
0.909308 0.682291 0.352093
0.221650 0.773795 0.654698
0.220786 0.769454 0.647511
0.246381 0.765041 0.630416
0.333235 0.764268 0.596614
0.499075 0.769028 0.542907
0.724248 0.776549 0.473615
0.853191 0.779988 0.409103
0.915596 0.776658 0.357109
0.227976 0.786139 0.643278
0.226486 0.784866 0.635944
0.242113 0.785108 0.620921
0.303492 0.789069 0.590823
0.431957 0.798225 0.541748
0.650744 0.813412 0.476561
0.818656 0.823854 0.406726
0.911515 0.829216 0.348775
0.098704 0.105006 0.489251
0.161411 0.117441 0.491672
0.326947 0.146594 0.455426
0.542033 0.184021 0.390873
0.751717 0.221428 0.314454
0.852973 0.245073 0.276350
0.888491 0.256886 0.268942
0.899051 0.261295 0.265407
0.098192 0.148416 0.516396
0.132210 0.141706 0.509313
0.266330 0.162007 0.485632
0.472702 0.198325 0.433997
0.707329 0.239400 0.356339
0.835597 0.265816 0.303494
0.882246 0.277489 0.285803
0.897105 0.280521 0.278363
0.103723 0.260798 0.565219
0.122304 0.238175 0.552209
0.218711 0.231718 0.531582
0.401548 0.249206 0.489031
0.648490 0.289244 0.420309
0.811191 0.317713 0.352503
0.874663 0.327284 0.320624
0.896706 0.326786 0.304744
0.122095 0.421974 0.620296
0.131753 0.393925 0.606836
0.195790 0.365824 0.586881
0.348990 0.359253 0.551105
0.589123 0.383307 0.494338
0.783417 0.410536 0.419472
0.866258 0.415119 0.372117
0.897945 0.407857 0.344378
0.157127 0.603230 0.667817
0.159967 0.582967 0.659261
0.203777 0.553063 0.642430
0.327591 0.529236 0.612496
0.540267 0.523229 0.565683
0.756270 0.543491 0.495722
0.857708 0.541542 0.435485
0.900587 0.525841 0.394911
0.207325 0.725172 0.688613
0.207710 0.715477 0.683235
0.238523 0.700283 0.671628
0.334694 0.686556 0.648167
0.511848 0.679436 0.608803
0.738154 0.682007 0.549159
0.850771 0.683081 0.491082
0.903223 0.670215 0.446029
0.237113 0.774749 0.691556
0.237789 0.771352 0.688057
0.259957 0.766833 0.678637
0.334263 0.764559 0.658360
0.479770 0.766612 0.623847
0.699463 0.772435 0.572182
0.837140 0.773923 0.518814
0.907256 0.768856 0.470879
0.250352 0.793207 0.687403
0.250426 0.792082 0.683434
0.265121 0.792375 0.674739
0.319801 0.795880 0.656369
0.434614 0.803751 0.624650
0.637514 0.816437 0.575239
0.804673 0.823918 0.525249
0.902093 0.827443 0.474318
0.101020 0.108409 0.498342
0.159226 0.120509 0.501208
0.314274 0.148890 0.469300
0.521798 0.185196 0.408285
0.732672 0.221437 0.331146
0.843527 0.245276 0.286047
0.885122 0.257742 0.275933
0.898488 0.262310 0.272014
0.100801 0.150472 0.526072
0.132542 0.144752 0.520827
0.257200 0.164020 0.500338
0.454623 0.198542 0.451694
0.686804 0.238231 0.375132
0.824152 0.265428 0.317558
0.877158 0.277977 0.296056
0.895464 0.282023 0.288109
0.105722 0.255449 0.573057
0.123788 0.235987 0.563352
0.210097 0.227874 0.546095
0.382400 0.243265 0.507518
0.625587 0.283549 0.442667
0.797615 0.313544 0.372358
0.868095 0.325652 0.336297
0.893956 0.327617 0.319504
0.123099 0.409143 0.627100
0.133307 0.384958 0.617444
0.187177 0.355428 0.601610
0.327303 0.346083 0.571808
0.559364 0.369006 0.522417
0.765842 0.398416 0.447864
0.857976 0.407858 0.396646
0.894415 0.405142 0.367666
0.157275 0.587521 0.676361
0.161022 0.569426 0.670796
0.196433 0.539477 0.658797
0.303864 0.511768 0.637144
0.499187 0.499051 0.601470
0.731705 0.521457 0.536308
0.846898 0.525864 0.473531
0.896742 0.516550 0.431804
0.207704 0.715130 0.700664
0.209379 0.706889 0.698050
0.234165 0.691344 0.691447
0.313826 0.674797 0.676930
0.468463 0.662946 0.650969
0.703432 0.664328 0.606359
0.835035 0.666789 0.550285
0.898990 0.656654 0.505189
0.242938 0.771805 0.709289
0.245283 0.769354 0.708386
0.265002 0.764613 0.703941
0.327904 0.760573 0.692705
0.453658 0.759581 0.671719
0.666290 0.763825 0.634753
0.817710 0.765177 0.592706
0.899894 0.760895 0.552247
0.263422 0.796060 0.712505
0.264126 0.795048 0.710805
0.278521 0.795288 0.706775
0.327487 0.798180 0.697107
0.429210 0.804732 0.678585
0.616685 0.815981 0.643913
0.786756 0.822704 0.611484
0.891929 0.825987 0.573247
