app/src/main/assets/cube/Yokocho01.cube
# LUT by SparkleStock. Enhanced with VOXCOLOR algorithms.
LUT_3D_SIZE 32
0.074237 0.101587 0.121123
0.107369 0.103147 0.121832
0.140502 0.104707 0.122541
0.173634 0.106266 0.123250
0.206767 0.107826 0.123959
0.239899 0.109386 0.124668
0.295404 0.111615 0.125810
0.355382 0.113978 0.127039
0.415361 0.116342 0.128268
0.475340 0.118705 0.129497
0.535318 0.121068 0.130726
0.582378 0.123368 0.131545
0.622978 0.125637 0.132160
0.663579 0.127906 0.132774
0.704179 0.130174 0.133388
0.744779 0.132443 0.134003
0.773445 0.134570 0.134712
0.790177 0.136555 0.135515
0.806909 0.138540 0.136319
0.823640 0.140525 0.137122
0.840372 0.142511 0.137926
0.853149 0.143976 0.138603
0.858017 0.144401 0.139029
0.862886 0.144826 0.139454
0.867754 0.145252 0.139879
0.872622 0.145677 0.140305
0.876781 0.146111 0.140659
0.877396 0.146583 0.140659
0.878010 0.147056 0.140659
0.878625 0.147528 0.140659
0.879239 0.148001 0.140659
0.879853 0.148474 0.140659
0.074851 0.116759 0.131002
0.106310 0.117798 0.130787
0.137768 0.118836 0.130572
0.169226 0.119874 0.130357
0.200685 0.120912 0.130142
0.232143 0.121951 0.129927
0.286522 0.124032 0.130671
0.345486 0.126322 0.131607
0.404449 0.128612 0.132543
0.463412 0.130902 0.133479
0.522376 0.133192 0.134416
0.570195 0.135175 0.135027
0.612442 0.137005 0.135477
0.654688 0.138835 0.135927
0.696935 0.140664 0.136377
0.739182 0.142494 0.136827
0.769083 0.144195 0.137412
0.786638 0.145769 0.138133
0.804193 0.147342 0.138854
0.821748 0.148916 0.139576
0.839303 0.150489 0.140297
0.852736 0.151640 0.140925
0.857924 0.151947 0.141369
0.863113 0.152253 0.141813
0.868301 0.152560 0.142256
0.873490 0.152866 0.142700
0.877902 0.153153 0.143053
0.878434 0.153342 0.142952
0.878966 0.153531 0.142852
0.879498 0.153720 0.142751
0.880030 0.153909 0.142651
0.880562 0.154098 0.142550
0.075466 0.131931 0.140880
0.105250 0.132448 0.139741
0.135034 0.132965 0.138602
0.164819 0.133482 0.137463
0.194603 0.133999 0.136324
0.224387 0.134515 0.135185
0.277641 0.136449 0.135532
0.335589 0.138666 0.136175
0.393537 0.140883 0.136818
0.451485 0.143100 0.137462
0.509433 0.145316 0.138105
0.558011 0.146982 0.138510
0.601905 0.148373 0.138795
0.645798 0.149763 0.139080
0.689692 0.151154 0.139365
0.733585 0.152544 0.139650
0.764721 0.153820 0.140112
0.783099 0.154982 0.140751
0.801478 0.156144 0.141390
0.819856 0.157306 0.142029
0.838234 0.158468 0.142668
0.852323 0.159305 0.143247
0.857831 0.159492 0.143709
0.863340 0.159680 0.144171
0.868848 0.159867 0.144633
0.874357 0.160055 0.145095
0.879023 0.160195 0.145447
0.879472 0.160101 0.145246
0.879922 0.160006 0.145044
0.880372 0.159912 0.144843
0.880822 0.159817 0.144642
0.881271 0.159723 0.144441
0.076080 0.147103 0.150758
0.104190 0.147099 0.148695
0.132301 0.147094 0.146632
0.160411 0.147089 0.144570
0.188521 0.147085 0.142507
0.216631 0.147080 0.140444
0.268760 0.148866 0.140392
0.325692 0.151010 0.140743
0.382625 0.153153 0.141094
0.439557 0.155297 0.141444
0.496490 0.157441 0.141795
0.545827 0.158789 0.141992
0.591368 0.159741 0.142113
0.636908 0.160692 0.142233
0.682448 0.161644 0.142353
0.727988 0.162595 0.142474
0.760359 0.163446 0.142812
0.779561 0.164196 0.143369
0.798762 0.164946 0.143925
0.817964 0.165696 0.144482
0.837165 0.166446 0.145038
0.851909 0.166969 0.145570
0.857738 0.167038 0.146050
0.863567 0.167106 0.146530
0.869396 0.167175 0.147010
0.875225 0.167244 0.147491
0.880143 0.167238 0.147841
0.880511 0.166860 0.147539
0.880878 0.166482 0.147237
0.881245 0.166103 0.146935
0.881613 0.165725 0.146633
0.881980 0.165347 0.146331
0.076695 0.162275 0.160636
0.103131 0.161749 0.157650
0.129567 0.161223 0.154663
0.156003 0.160697 0.151676
0.182439 0.160171 0.148689
0.208875 0.159645 0.145702
0.259879 0.161283 0.145253
0.315796 0.163353 0.145311
0.371713 0.165424 0.145369
0.427630 0.167494 0.145427
0.483547 0.169565 0.145485
0.533644 0.170596 0.145474
0.580831 0.171109 0.145430
0.628017 0.171621 0.145386
0.675204 0.172133 0.145342
0.722391 0.172646 0.145298
0.755997 0.173071 0.145513
0.776022 0.173409 0.145987
0.796047 0.173748 0.146461
0.816072 0.174086 0.146935
0.836097 0.174425 0.147409
0.851496 0.174634 0.147892
0.857645 0.174583 0.148390
0.863794 0.174533 0.148889
0.869943 0.174483 0.149387
0.876092 0.174432 0.149886
0.881264 0.174280 0.150234
0.881549 0.173618 0.149832
0.881834 0.172957 0.149429
0.882119 0.172295 0.149027
0.882404 0.171633 0.148624
0.882689 0.170972 0.148222
0.077309 0.177447 0.170515
0.102071 0.176399 0.166604
0.126833 0.175352 0.162693
0.151595 0.174305 0.158783
0.176357 0.173257 0.154872
0.201119 0.172210 0.150961
0.250998 0.173700 0.150114
0.305899 0.175697 0.149879
0.360801 0.177694 0.149644
0.415703 0.179691 0.149409
0.470604 0.181689 0.149174
0.521460 0.182403 0.148957
0.570294 0.182477 0.148748
0.619127 0.182550 0.148539
0.667961 0.182623 0.148330
0.716794 0.182696 0.148121
0.751635 0.182696 0.148213
0.772483 0.182623 0.148605
0.793331 0.182550 0.148996
0.814180 0.182477 0.149388
0.835028 0.182403 0.149780
0.851083 0.182298 0.150214
0.857552 0.182129 0.150731
0.864021 0.181960 0.151247
0.870491 0.181790 0.151764
0.876960 0.181621 0.152281
0.882384 0.181323 0.152628
0.882587 0.180377 0.152125
0.882790 0.179432 0.151622
0.882993 0.178487 0.151119
0.883196 0.177541 0.150615
0.883398 0.176596 0.150112
0.079893 0.210501 0.190949
0.102813 0.208871 0.186541
0.125733 0.207241 0.182133
0.148654 0.205611 0.177725
0.171574 0.203981 0.173318
0.194494 0.202351 0.168910
0.244204 0.203099 0.166262
0.299272 0.204321 0.163966
0.354340 0.205544 0.161669
0.409407 0.206767 0.159373
0.464475 0.207990 0.157077
0.515631 0.208631 0.155920
0.564830 0.208982 0.155333
0.614029 0.209332 0.154746
0.663229 0.209683 0.154159
0.712428 0.210034 0.153572
0.747833 0.209818 0.153350
0.769444 0.209036 0.153492
0.791054 0.208254 0.153633
0.812665 0.207472 0.153775
0.834275 0.206689 0.153917
0.850938 0.205889 0.154157
0.857704 0.205052 0.154593
0.864471 0.204215 0.155029
0.871237 0.203378 0.155465
0.878004 0.202541 0.155901
0.883692 0.201625 0.156175
0.883988 0.200312 0.155640
0.884283 0.198999 0.155105
0.884579 0.197686 0.154570
0.884875 0.196374 0.154035
0.885171 0.195061 0.153500
0.082871 0.247131 0.213494
0.103915 0.244906 0.208675
0.124960 0.242682 0.203855
0.146005 0.240457 0.199036
0.167050 0.238233 0.194216
0.188095 0.236008 0.189397
0.237828 0.235894 0.184667
0.293298 0.236202 0.179956
0.348769 0.236510 0.175245
0.404239 0.236818 0.170534
0.459709 0.237126 0.165823
0.511072 0.237743 0.163580
0.560381 0.238515 0.162573
0.609690 0.239286 0.161565
0.658999 0.240057 0.160557
0.708309 0.240829 0.159549
0.744143 0.240439 0.158974
0.766504 0.238889 0.158833
0.788865 0.237338 0.158691
0.811226 0.235788 0.158549
0.833586 0.234237 0.158407
0.850847 0.232665 0.158424
0.857906 0.231051 0.158760
0.864965 0.229436 0.159095
0.872024 0.227821 0.159431
0.879083 0.226207 0.159766
0.885037 0.224578 0.159953
0.885460 0.222881 0.159400
0.885884 0.221184 0.158847
0.886308 0.219487 0.158293
0.886732 0.217791 0.157740
0.887156 0.216094 0.157186
0.085848 0.283761 0.236039
0.105018 0.280942 0.230808
0.124187 0.278122 0.225577
0.143357 0.275303 0.220346
0.162527 0.272484 0.215115
0.181696 0.269665 0.209884
0.231452 0.268690 0.203073
0.287325 0.268083 0.195947
0.343197 0.267476 0.188821
0.399070 0.266869 0.181694
0.454943 0.266262 0.174568
0.506513 0.266855 0.171240
0.555932 0.268047 0.169812
0.605351 0.269240 0.168383
0.654770 0.270432 0.166954
0.704189 0.271624 0.165526
0.740454 0.271061 0.164599
0.763565 0.268742 0.164173
0.786675 0.266423 0.163748
0.809786 0.264104 0.163323
0.832897 0.261785 0.162897
0.850755 0.259441 0.162692
0.858107 0.257049 0.162927
0.865459 0.254657 0.163162
0.872811 0.252265 0.163396
0.880163 0.249873 0.163631
0.886381 0.247532 0.163732
0.886933 0.245451 0.163160
0.887485 0.243370 0.162588
0.888037 0.241289 0.162016
0.888589 0.239207 0.161445
0.889141 0.237126 0.160873
0.088826 0.320391 0.258584
0.106120 0.316977 0.252942
0.123414 0.313563 0.247299
0.140709 0.310150 0.241656
0.158003 0.306736 0.236013
0.175297 0.303322 0.230371
0.225076 0.301485 0.221479
0.281351 0.299964 0.211938
0.337626 0.298442 0.202396
0.393902 0.296920 0.192855
0.450177 0.295399 0.183314
0.501954 0.295967 0.178900
0.551483 0.297580 0.177051
0.601012 0.299193 0.175201
0.650541 0.300806 0.173352
0.700069 0.302419 0.171503
0.736764 0.301682 0.170223
0.760625 0.298595 0.169514
0.784486 0.295507 0.168805
0.808347 0.292420 0.168096
0.832208 0.289332 0.167387
0.850664 0.286217 0.166960
0.858308 0.283048 0.167094
0.865953 0.279878 0.167228
0.873598 0.276708 0.167362
0.881242 0.273538 0.167496
0.887726 0.270486 0.167510
0.888406 0.268021 0.166920
0.889086 0.265555 0.166330
0.889766 0.263090 0.165740
0.890446 0.260624 0.165149
0.891126 0.258159 0.164559
0.091804 0.357021 0.281130
0.107222 0.353012 0.275075
0.122641 0.349004 0.269021
0.138060 0.344996 0.262966
0.153479 0.340987 0.256912
0.168898 0.336979 0.250857
0.218699 0.334281 0.239885
0.275377 0.331844 0.227928
0.332055 0.329408 0.215972
0.388733 0.326971 0.204015
0.445411 0.324535 0.192059
0.497396 0.325079 0.186560
0.547034 0.327113 0.184290
0.596673 0.329147 0.182020
0.646311 0.331181 0.179749
0.695950 0.333214 0.177479
0.733074 0.332303 0.175848
0.757686 0.328448 0.174855
0.782297 0.324592 0.173863
0.806908 0.320736 0.172870
0.831519 0.316880 0.171878
0.850572 0.312994 0.171227
0.858509 0.309046 0.171261
0.866447 0.305099 0.171294
0.874384 0.301152 0.171328
0.882322 0.297204 0.171361
0.889071 0.293440 0.171288
0.889879 0.290590 0.170679
0.890687 0.287741 0.170071
0.891495 0.284891 0.169463
0.892303 0.282041 0.168854
0.893111 0.279192 0.168246
0.095853 0.395919 0.304053
0.109786 0.391957 0.298203
0.123720 0.387994 0.292353
0.137654 0.384032 0.286503
0.151588 0.380069 0.280652
0.165522 0.376106 0.274802
0.213754 0.373329 0.263279
0.268847 0.370789 0.250621
0.323939 0.368249 0.237964
0.379031 0.365709 0.225306
0.434123 0.363169 0.212648
0.486812 0.363349 0.205484
0.538298 0.364889 0.201067
0.589784 0.366429 0.196650
0.641271 0.367969 0.192233
0.692757 0.369509 0.187816
0.731080 0.368494 0.184881
0.756240 0.364925 0.183428
0.781400 0.361355 0.181975
0.806560 0.357786 0.180522
0.831720 0.354217 0.179069
0.851235 0.350360 0.178044
0.859459 0.345928 0.177873
0.867683 0.341496 0.177702
0.875907 0.337063 0.177532
0.884131 0.332631 0.177361
0.891148 0.328410 0.177114
0.892133 0.325243 0.176487
0.893118 0.322076 0.175861
0.894103 0.318910 0.175234
0.895088 0.315743 0.174607
0.896073 0.312576 0.173981
0.100437 0.435953 0.327165
0.113081 0.432356 0.321827
0.125725 0.428759 0.316490
0.138369 0.425163 0.311152
0.151013 0.421566 0.305814
0.163657 0.417969 0.300476
0.209525 0.415505 0.289168
0.262038 0.413266 0.276666
0.314550 0.411028 0.264163
0.367062 0.408790 0.251661
0.419575 0.406552 0.239159
0.473215 0.406198 0.230040
0.527418 0.406787 0.222614
0.581621 0.407375 0.215187
0.635825 0.407964 0.207761
0.690028 0.408552 0.200334
0.729934 0.407469 0.195620
0.755542 0.404714 0.193618
0.781150 0.401959 0.191616
0.806758 0.399204 0.189614
0.832367 0.396449 0.187612
0.852275 0.393022 0.186135
0.860782 0.388251 0.185708
0.869290 0.383480 0.185281
0.877797 0.378710 0.184855
0.886305 0.373939 0.184428
0.893592 0.369388 0.183964
0.894779 0.365938 0.183319
0.895965 0.362488 0.182674
0.897151 0.359037 0.182030
0.898337 0.355587 0.181385
0.899523 0.352137 0.180740
0.105022 0.475986 0.350278
0.116376 0.472755 0.345452
0.127730 0.469524 0.340627
0.139084 0.466293 0.335801
0.150439 0.463063 0.330975
0.161793 0.459832 0.326150
0.205296 0.457680 0.315057
0.255228 0.455743 0.302710
0.305161 0.453807 0.290363
0.355094 0.451871 0.278017
0.405027 0.449935 0.265670
0.459618 0.449047 0.254597
0.516538 0.448684 0.244160
0.573458 0.448321 0.233724
0.630378 0.447959 0.223288
0.687299 0.447596 0.212851
0.728787 0.446444 0.206358
0.754844 0.444503 0.203807
0.780900 0.442562 0.201256
0.806957 0.440621 0.198706
0.833013 0.438680 0.196155
0.853314 0.435683 0.194227
0.862106 0.430574 0.193544
0.870897 0.425465 0.192861
0.879688 0.420356 0.192177
0.888479 0.415247 0.191494
0.896037 0.410367 0.190815
0.897424 0.406633 0.190151
0.898811 0.402899 0.189488
0.900199 0.399165 0.188825
0.901586 0.395431 0.188162
0.902974 0.391697 0.187499
0.109607 0.516019 0.373390
0.119671 0.513154 0.369077
0.129735 0.510289 0.364764
0.139799 0.507424 0.360450
0.149864 0.504559 0.356137
0.159928 0.501695 0.351824
0.201066 0.499855 0.340945
0.248419 0.498221 0.328754
0.295772 0.496586 0.316563
0.343125 0.494952 0.304372
0.390478 0.493317 0.292181
0.446021 0.491896 0.279153
0.505658 0.490582 0.265707
0.565295 0.489268 0.252261
0.624932 0.487954 0.238815
0.684570 0.486639 0.225369
0.727640 0.485419 0.217096
0.754145 0.484292 0.213996
0.780650 0.483165 0.210897
0.807155 0.482039 0.207797
0.833659 0.480912 0.204697
0.854354 0.478345 0.202318
0.863429 0.472897 0.201379
0.872504 0.467450 0.200440
0.881579 0.462002 0.199500
0.890653 0.456554 0.198561
0.898481 0.451345 0.197665
0.900069 0.447328 0.196983
0.901658 0.443310 0.196302
0.903247 0.439293 0.195620
0.904835 0.435275 0.194939
0.906424 0.431258 0.194257
0.114191 0.556052 0.396502
0.122966 0.553553 0.392701
0.131740 0.551054 0.388900
0.140514 0.548555 0.385099
0.149289 0.546056 0.381298
0.158063 0.543557 0.377497
0.196837 0.542030 0.366834
0.241610 0.540698 0.354799
0.286383 0.539365 0.342763
0.331157 0.538033 0.330727
0.375930 0.536700 0.318691
0.432424 0.534745 0.303709
0.494778 0.532480 0.287253
0.557132 0.530214 0.270798
0.619486 0.527948 0.254342
0.681840 0.525683 0.237886
0.726494 0.524394 0.227834
0.753447 0.524081 0.224186
0.780400 0.523769 0.220537
0.807353 0.523456 0.216889
0.834306 0.523144 0.213240
0.855394 0.521006 0.210409
0.864752 0.515220 0.209214
0.874111 0.509434 0.208019
0.883469 0.503648 0.206823
0.892828 0.497862 0.205628
0.900925 0.492323 0.204515
0.902715 0.488022 0.203815
0.904504 0.483721 0.203116
0.906294 0.479420 0.202416
0.908084 0.475119 0.201716
0.909874 0.470818 0.201016
0.119107 0.587128 0.414770
0.126870 0.585009 0.411445
0.134634 0.582890 0.408120
0.142397 0.580770 0.404794
0.150161 0.578651 0.401469
0.157925 0.576532 0.398144
0.194452 0.575449 0.387960
0.236733 0.574574 0.376405
0.279013 0.573699 0.364849
0.321294 0.572824 0.353294
0.363574 0.571949 0.341738
0.419734 0.570116 0.326184
0.482834 0.567805 0.308631
0.545933 0.565493 0.291077
0.609033 0.563182 0.273524
0.672133 0.560871 0.255970
0.718165 0.559780 0.244750
0.747131 0.559912 0.239862
0.776097 0.560043 0.234973
0.805062 0.560174 0.230085
0.834028 0.560305 0.225197
0.856519 0.558554 0.221420
0.866060 0.553037 0.219863
0.875601 0.547521 0.218306
0.885143 0.542005 0.216750
0.894684 0.536489 0.215193
0.902969 0.531176 0.213770
0.904974 0.526879 0.213015
0.906979 0.522583 0.212261
0.908984 0.518286 0.211506
0.910989 0.513990 0.210751
0.912994 0.509693 0.209996
0.124353 0.609248 0.428193
0.131385 0.607522 0.425307
0.138417 0.605796 0.422421
0.145448 0.604070 0.419535
0.152480 0.602344 0.416649
0.159512 0.600619 0.413762
0.193913 0.600112 0.404323
0.233787 0.599850 0.393572
0.273662 0.599588 0.382822
0.313536 0.599326 0.372071
0.353411 0.599063 0.361321
0.407951 0.598008 0.346578
0.469825 0.596557 0.329839
0.531699 0.595105 0.313100
0.593573 0.593654 0.296360
0.655447 0.592202 0.279621
0.702655 0.591579 0.267842
0.735197 0.591783 0.261024
0.767740 0.591987 0.254206
0.800282 0.592192 0.247387
0.832825 0.592396 0.240569
0.857728 0.590986 0.235349
0.867351 0.586348 0.233326
0.876975 0.581710 0.231303
0.886599 0.577072 0.229279
0.896222 0.572434 0.227256
0.904614 0.567902 0.225429
0.906848 0.563898 0.224583
0.909082 0.559894 0.223737
0.911315 0.555890 0.222891
0.913549 0.551887 0.222044
0.915782 0.547883 0.221198
0.129599 0.631368 0.441616
0.135899 0.630035 0.439169
0.142199 0.628703 0.436722
0.148499 0.627370 0.434275
0.154799 0.626038 0.431828
0.161099 0.624705 0.429381
0.193373 0.624775 0.420685
0.230841 0.625126 0.410740
0.268310 0.625477 0.400795
0.305779 0.625827 0.390849
0.343247 0.626178 0.380904
0.396169 0.625900 0.366972
0.456817 0.625309 0.351047
0.517465 0.624717 0.335122
0.578113 0.624126 0.319197
0.638761 0.623534 0.303272
0.687145 0.623377 0.290935
0.723264 0.623655 0.282186
0.759383 0.623932 0.273438
0.795502 0.624210 0.264689
0.831622 0.624487 0.255941
0.858937 0.623419 0.249278
0.868643 0.619659 0.246789
0.878349 0.615899 0.244299
0.888055 0.612139 0.241809
0.897761 0.608380 0.239319
0.906259 0.604628 0.237088
0.908722 0.600917 0.236151
0.911184 0.597206 0.235213
0.913646 0.593495 0.234275
0.916109 0.589784 0.233338
0.918571 0.586073 0.232400
0.134846 0.653488 0.455040
0.140414 0.652549 0.453032
0.145982 0.651609 0.451024
0.151550 0.650670 0.449016
0.157118 0.649731 0.447008
0.162686 0.648792 0.445000
0.192833 0.649438 0.437048
0.227896 0.650402 0.427908
0.262958 0.651365 0.418767
0.298021 0.652329 0.409627
0.333084 0.653293 0.400487
0.384386 0.653793 0.387366
0.443808 0.654061 0.372255
0.503231 0.654329 0.357144
0.562653 0.654598 0.342033
0.622075 0.654866 0.326922
0.671634 0.655176 0.314027
0.711330 0.655526 0.303349
0.751027 0.655877 0.292670
0.790723 0.656228 0.281991
0.830419 0.656578 0.271312
0.860146 0.655851 0.263208
0.869934 0.652970 0.260251
0.879722 0.650088 0.257295
0.889511 0.647207 0.254339
0.899299 0.644325 0.251382
0.907904 0.641354 0.248747
0.910596 0.637936 0.247718
0.913287 0.634517 0.246689
0.915978 0.631099 0.245660
0.918669 0.627681 0.244631
0.921360 0.624262 0.243602
0.140092 0.675608 0.468463
0.144928 0.675062 0.466894
0.149765 0.674516 0.465325
0.154601 0.673970 0.463756
0.159437 0.673424 0.462187
0.164273 0.672878 0.460618
0.192293 0.674101 0.453411
0.224950 0.675678 0.445075
0.257607 0.677254 0.436740
0.290264 0.678831 0.428405
0.322920 0.680407 0.420069
0.372604 0.681685 0.407760
0.430800 0.682813 0.393463
0.488996 0.683941 0.379166
0.547193 0.685070 0.364869
0.605389 0.686198 0.350573
0.656124 0.686974 0.337120
0.699397 0.687398 0.324511
0.742670 0.687822 0.311902
0.785943 0.688245 0.299293
0.829216 0.688669 0.286684
0.861355 0.688284 0.277137
0.871225 0.686281 0.273714
0.881096 0.684277 0.270291
0.890967 0.682274 0.266868
0.900837 0.680270 0.263446
0.909550 0.678080 0.260406
0.912469 0.674954 0.259286
0.915389 0.671829 0.258165
0.918309 0.668703 0.257045
0.921229 0.665578 0.255924
0.924148 0.662452 0.254803
0.145008 0.693284 0.479475
0.149283 0.693050 0.478239
0.153558 0.692815 0.477002
0.157833 0.692580 0.475766
0.162108 0.692345 0.474529
0.166383 0.692111 0.473293
0.192516 0.693746 0.466712
0.223020 0.695755 0.459063
0.253524 0.697765 0.451414
0.284028 0.699774 0.443765
0.314532 0.701784 0.436115
0.362532 0.703657 0.424549
0.419280 0.705462 0.411024
0.476028 0.707268 0.397498
0.532776 0.709073 0.383973
0.589524 0.710878 0.370448
0.640835 0.712054 0.356800
0.686709 0.712599 0.343029
0.732583 0.713145 0.329258
0.778457 0.713691 0.315487
0.824331 0.714237 0.301717
0.858483 0.714208 0.291241
0.869193 0.713031 0.287354
0.879902 0.711854 0.283468
0.890611 0.710677 0.279582
0.901320 0.709500 0.275695
0.910757 0.708064 0.272255
0.913829 0.705328 0.271046
0.916901 0.702593 0.269837
0.919973 0.699858 0.268628
0.923045 0.697123 0.267419
0.926118 0.694387 0.266210
0.149261 0.702076 0.485667
0.153317 0.701987 0.484549
0.157373 0.701899 0.483432
0.161428 0.701810 0.482314
0.165484 0.701722 0.481197
0.169540 0.701634 0.480079
0.194263 0.703354 0.473892
0.223121 0.705437 0.466691
0.251978 0.707520 0.459490
0.280835 0.709602 0.452289
0.309692 0.711685 0.445088
0.355881 0.713790 0.434128
0.410735 0.715906 0.421289
0.465590 0.718023 0.408450
0.520444 0.720139 0.395611
0.575298 0.722255 0.382772
0.625987 0.723696 0.369654
0.672511 0.724461 0.356258
0.719035 0.725227 0.342863
0.765558 0.725992 0.329467
0.812082 0.726757 0.316071
0.847451 0.727116 0.305693
0.860511 0.726662 0.301349
0.873571 0.726208 0.297005
0.886632 0.725753 0.292662
0.899692 0.725299 0.288318
0.911087 0.724562 0.284483
0.914160 0.722412 0.283191
0.917232 0.720262 0.281900
0.920304 0.718113 0.280609
0.923376 0.715963 0.279317
0.926448 0.713813 0.278026
0.153515 0.710867 0.491859
0.157351 0.710925 0.490860
0.161187 0.710983 0.489861
0.165023 0.711041 0.488863
0.168860 0.711099 0.487864
0.172696 0.711157 0.486865
0.196010 0.712963 0.481072
0.223221 0.715119 0.474319
0.250432 0.717275 0.467566
0.277642 0.719430 0.460813
0.304853 0.721586 0.454061
0.349230 0.723923 0.443708
0.402191 0.726350 0.431555
0.455152 0.728778 0.419402
0.508113 0.731205 0.407249
0.561073 0.733632 0.395095
0.611140 0.735338 0.382509
0.658313 0.736323 0.369488
0.705486 0.737308 0.356467
0.752659 0.738293 0.343447
0.799833 0.739278 0.330426
0.836418 0.740024 0.320145
0.851830 0.740292 0.315344
0.867241 0.740561 0.310543
0.882652 0.740829 0.305742
0.898064 0.741097 0.300941
0.911418 0.741060 0.296711
0.914491 0.739496 0.295337
0.917563 0.737932 0.293963
0.920635 0.736367 0.292590
0.923707 0.734803 0.291216
0.926779 0.733239 0.289842
0.157769 0.719658 0.498050
0.161386 0.719862 0.497171
0.165002 0.720067 0.496291
0.168619 0.720271 0.495411
0.172235 0.720475 0.494531
0.175852 0.720680 0.493652
0.197758 0.722571 0.488251
0.223322 0.724800 0.481947
0.248886 0.727029 0.475642
0.274450 0.729258 0.469338
0.300014 0.731487 0.463033
0.342580 0.734056 0.453287
0.393647 0.736794 0.441820
0.444714 0.739533 0.430353
0.495781 0.742271 0.418886
0.546848 0.745009 0.407419
0.596293 0.746981 0.395363
0.644116 0.748185 0.382717
0.691938 0.749390 0.370072
0.739761 0.750594 0.357426
0.787583 0.751799 0.344781
0.825386 0.752932 0.334598
0.843148 0.753923 0.329339
0.860911 0.754914 0.324080
0.878673 0.755905 0.318822
0.896435 0.756896 0.313563
0.911749 0.757559 0.308938
0.914821 0.756580 0.307482
0.917894 0.755601 0.306026
0.920966 0.754622 0.304570
0.924038 0.753643 0.303114
0.927110 0.752665 0.301658
0.162023 0.728449 0.504242
0.165420 0.728800 0.503481
0.168817 0.729151 0.502720
0.172214 0.729501 0.501960
0.175611 0.729852 0.501199
0.179008 0.730203 0.500438
0.199505 0.732180 0.495431
0.223422 0.734482 0.489575
0.247340 0.736784 0.483719
0.271257 0.739086 0.477862
0.295175 0.741389 0.472006
0.335929 0.744189 0.462867
0.385103 0.747238 0.452086
0.434276 0.750288 0.441305
0.483450 0.753337 0.430524
0.532623 0.756386 0.419743
0.581446 0.758623 0.408217
0.629918 0.760047 0.395947
0.678390 0.761471 0.383676
0.726862 0.762895 0.371406
0.775334 0.764319 0.359135
0.814353 0.765840 0.349050
0.834467 0.767553 0.343334
0.854580 0.769267 0.337618
0.874694 0.770981 0.331902
0.894807 0.772695 0.326186
0.912080 0.774057 0.321166
0.915152 0.773664 0.319628
0.918224 0.773270 0.318089
0.921297 0.772877 0.316551
0.924369 0.772484 0.315013
0.927441 0.772090 0.313474
0.165654 0.736004 0.509496
0.168878 0.736507 0.508865
0.172101 0.737010 0.508234
0.175324 0.737513 0.507603
0.178547 0.738016 0.506971
0.181770 0.738519 0.506340
0.200949 0.740561 0.501699
0.223319 0.742911 0.496256
0.245689 0.745260 0.490813
0.268058 0.747610 0.485370
0.290428 0.749959 0.479927
0.329460 0.752945 0.471348
0.376822 0.756249 0.461202
0.424184 0.759553 0.451055
0.471546 0.762857 0.440908
0.518908 0.766161 0.430762
0.567082 0.768635 0.419738
0.616066 0.770278 0.407836
0.665050 0.771922 0.395934
0.714035 0.773565 0.384033
0.763019 0.775209 0.372131
0.803118 0.777073 0.362144
0.825445 0.779378 0.355986
0.847772 0.781684 0.349828
0.870099 0.783989 0.343670
0.892426 0.786294 0.337512
0.911570 0.788243 0.332114
0.914793 0.788411 0.330514
0.918016 0.788579 0.328915
0.921239 0.788746 0.327315
0.924462 0.788914 0.325716
0.927685 0.789082 0.324117
0.166174 0.737374 0.510063
0.169452 0.738061 0.509615
0.172730 0.738747 0.509167
0.176008 0.739433 0.508719
0.179286 0.740119 0.508270
0.182564 0.740805 0.507822
0.200876 0.742809 0.503410
0.222194 0.745076 0.498205
0.243511 0.747343 0.492999
0.264829 0.749610 0.487794
0.286147 0.751877 0.482589
0.323895 0.754817 0.474340
0.369857 0.758094 0.464568
0.415820 0.761370 0.454796
0.461782 0.764647 0.445025
0.507745 0.767923 0.435253
0.555131 0.770493 0.424586
0.603942 0.772356 0.413023
0.652752 0.774219 0.401460
0.701563 0.776083 0.389897
0.750373 0.777946 0.378334
0.790865 0.779935 0.368450
