app/src/main/assets/cube/Yokocho02.cube
# LUT by SparkleStock. Enhanced with VOXCOLOR algorithms.
LUT_3D_SIZE 8
DOMAIN_MIN 0.000000 0.000000 0.000000
DOMAIN_MAX 0.903226 0.903226 0.903226
0.054701 0.097680 0.078144
0.207271 0.103352 0.090622
0.438316 0.109961 0.112742
0.664414 0.118138 0.137808
0.825231 0.127780 0.159975
0.894238 0.136098 0.171885
0.922281 0.140163 0.175919
0.932711 0.142865 0.178274
0.055079 0.178975 0.125031
0.178961 0.172352 0.118041
0.389197 0.169362 0.128574
0.616210 0.167830 0.148407
0.802093 0.166439 0.169806
0.884126 0.166415 0.181716
0.917756 0.165674 0.186116
0.930143 0.164119 0.186532
0.056127 0.325487 0.207137
0.140745 0.308539 0.187524
0.347137 0.292559 0.175025
0.583540 0.281162 0.176787
0.777629 0.274584 0.193452
0.872792 0.260721 0.203393
0.913062 0.248211 0.206447
0.928820 0.237781 0.205455
0.060916 0.498618 0.303982
0.109541 0.480206 0.282124
0.294427 0.460567 0.252210
0.535330 0.442382 0.231331
0.758956 0.426612 0.229043
0.862535 0.408542 0.235836
0.908782 0.386375 0.237136
0.928489 0.367347 0.235415
0.070227 0.660522 0.395604
0.095378 0.651606 0.381889
0.226323 0.643420 0.350487
0.455664 0.625380 0.311448
0.738065 0.596089 0.276887
0.854507 0.587551 0.277168
0.906176 0.564518 0.276559
0.929291 0.541920 0.274692
0.077222 0.746166 0.448352
0.091835 0.744568 0.441369
0.183315 0.748469 0.418774
0.370795 0.748323 0.385918
0.639548 0.738041 0.349199
0.846591 0.718672 0.322987
0.910555 0.707495 0.316499
0.933316 0.695185 0.314065
0.080436 0.786435 0.476206
0.090853 0.787399 0.472175
0.158456 0.794656 0.454173
0.310814 0.801527 0.426363
0.549253 0.802266 0.393233
0.790424 0.789264 0.362606
0.896404 0.782645 0.347921
0.939212 0.776685 0.341027
0.081768 0.804317 0.489149
0.090367 0.806890 0.486679
0.142363 0.814747 0.471962
0.268096 0.823811 0.448607
0.477616 0.829860 0.420007
0.726160 0.824286 0.389935
0.868802 0.819047 0.368929
0.936179 0.816805 0.357516
0.056024 0.100705 0.120304
0.181663 0.105059 0.121951
0.402779 0.110559 0.132928
0.635951 0.118016 0.150322
0.816016 0.127402 0.170001
0.891463 0.135720 0.180448
0.920824 0.139541 0.184481
0.931625 0.142030 0.185940
0.053621 0.174389 0.150065
0.151025 0.163502 0.138931
0.340147 0.159586 0.142438
0.567181 0.158713 0.156337
0.778444 0.158455 0.175318
0.877909 0.160810 0.187125
0.916860 0.161166 0.190901
0.930385 0.159242 0.190076
0.054895 0.315467 0.220438
0.122157 0.288099 0.197265
0.305032 0.271066 0.182979
0.534335 0.262522 0.182831
0.748038 0.258916 0.196768
0.864080 0.248368 0.206600
0.911949 0.236918 0.209050
0.929525 0.226251 0.206864
0.060660 0.488756 0.311063
0.100984 0.456600 0.284049
0.267256 0.434190 0.254598
0.497565 0.418557 0.234525
0.729366 0.406515 0.230493
0.852276 0.392524 0.236990
0.906706 0.370884 0.237835
0.928664 0.351638 0.235044
0.070246 0.657009 0.401075
0.090765 0.637366 0.381622
0.212191 0.623456 0.348568
0.432680 0.604138 0.309842
0.712451 0.577249 0.275891
0.843576 0.573485 0.276058
0.902571 0.550587 0.274955
0.928084 0.527515 0.272079
0.077387 0.746312 0.452212
0.088954 0.740673 0.442779
0.173225 0.741602 0.419650
0.354412 0.739423 0.386201
0.621738 0.728073 0.347797
0.835646 0.709511 0.320565
0.905633 0.698375 0.313525
0.931037 0.685657 0.310503
0.080747 0.787069 0.477603
0.088289 0.786428 0.473180
0.148237 0.792428 0.456208
0.293792 0.798486 0.428897
0.530615 0.798805 0.394561
0.778860 0.785194 0.361724
0.891133 0.778080 0.346148
0.936805 0.771609 0.338751
0.082780 0.805835 0.490606
0.087838 0.805689 0.486918
0.132023 0.813181 0.474288
0.250293 0.823113 0.452734
0.456741 0.830162 0.423441
0.712269 0.823931 0.391324
0.862597 0.818025 0.369419
0.934273 0.815138 0.357707
0.058821 0.105739 0.180543
0.165822 0.108568 0.174676
0.374582 0.112824 0.173716
0.608936 0.119155 0.180129
0.804425 0.127365 0.193134
0.887660 0.134128 0.199836
0.918649 0.136927 0.201502
0.929758 0.139311 0.201365
0.054881 0.169945 0.204169
0.132174 0.155952 0.184501
0.305153 0.152569 0.177031
0.529692 0.152965 0.181004
0.755349 0.152928 0.193452
0.869661 0.155627 0.202312
0.913856 0.156289 0.204074
0.928948 0.154792 0.201984
0.053438 0.304164 0.258669
0.107956 0.272479 0.229849
0.268939 0.254219 0.210753
0.486552 0.245362 0.205103
0.709983 0.241155 0.212550
0.848800 0.231517 0.219154
0.906676 0.221147 0.219022
0.927926 0.210908 0.214790
0.057717 0.476713 0.334865
0.092734 0.438755 0.304689
0.236327 0.410928 0.274915
0.448815 0.391613 0.253529
0.682880 0.378494 0.245208
0.830949 0.366191 0.247758
0.898631 0.345690 0.245381
0.926266 0.326305 0.239845
0.068264 0.651289 0.418511
0.085719 0.624507 0.395777
0.191294 0.600771 0.361676
0.395530 0.574824 0.323250
0.669421 0.547746 0.289524
0.819605 0.546735 0.285237
0.892007 0.524454 0.280763
0.924343 0.500425 0.275230
0.076692 0.746947 0.466276
0.086060 0.738045 0.454921
0.158055 0.732788 0.431018
0.326130 0.725397 0.397330
0.587466 0.711954 0.358341
0.812774 0.691778 0.327514
0.894155 0.681431 0.317409
0.925963 0.668615 0.312056
0.080475 0.788641 0.487440
0.086268 0.786772 0.482164
0.135387 0.789604 0.465267
0.268286 0.793247 0.438475
0.497684 0.793186 0.404356
0.756359 0.778216 0.369035
0.880201 0.770521 0.350392
0.932148 0.763518 0.340631
0.082358 0.807561 0.497451
0.086049 0.806893 0.493585
0.120627 0.812464 0.481114
0.225824 0.821527 0.460284
0.421915 0.829806 0.432001
0.686860 0.823561 0.398756
0.850628 0.816525 0.374488
0.930019 0.812784 0.360668
0.063484 0.111600 0.246020
0.153677 0.112819 0.237787
0.348575 0.116683 0.226443
0.580685 0.122113 0.220162
0.788210 0.128134 0.222832
0.881495 0.133617 0.226009
0.915084 0.134973 0.224577
0.926880 0.136825 0.222748
0.058947 0.164585 0.269561
0.118865 0.149378 0.245222
0.277837 0.147243 0.228650
0.498204 0.149426 0.220817
0.732188 0.150263 0.221354
0.859534 0.152105 0.226169
0.908787 0.152236 0.225290
0.925883 0.151122 0.222001
0.054435 0.290856 0.315094
0.096979 0.259030 0.283145
0.237585 0.239782 0.258865
0.443467 0.230051 0.244310
0.673786 0.225621 0.239765
0.831184 0.215773 0.240942
0.898549 0.206100 0.237355
0.924142 0.196767 0.231331
0.055446 0.462626 0.378732
0.084732 0.423662 0.346956
0.205619 0.390601 0.315517
0.400435 0.366540 0.289864
0.636337 0.351965 0.273874
0.804984 0.339414 0.270181
0.886495 0.319663 0.263070
0.921292 0.300431 0.254394
0.064394 0.644718 0.450905
0.079676 0.613664 0.426027
0.169149 0.580778 0.391497
0.355660 0.547950 0.353921
0.621067 0.519905 0.320956
0.787141 0.517379 0.311161
0.875808 0.494425 0.300921
0.917829 0.468656 0.290645
0.074883 0.748938 0.494144
0.082644 0.737398 0.481260
0.142971 0.725407 0.456732
0.295934 0.711478 0.423456
0.546098 0.694148 0.385278
0.780932 0.670190 0.351521
0.876597 0.660225 0.335756
0.917921 0.646714 0.325309
0.079610 0.792294 0.509930
0.084323 0.789317 0.503360
0.124154 0.788409 0.486217
0.242482 0.788491 0.460098
0.457833 0.786669 0.427112
0.724783 0.770145 0.391360
0.863656 0.761231 0.367644
0.925177 0.753062 0.352917
0.081387 0.810933 0.514866
0.084583 0.810397 0.510558
0.111245 0.813657 0.497654
0.201572 0.820786 0.476971
0.380646 0.829163 0.449688
0.651707 0.823676 0.417754
0.832537 0.815119 0.390070
0.923293 0.810130 0.372235
0.070078 0.117271 0.305621
0.141755 0.116936 0.300424
0.321300 0.121551 0.282282
0.548910 0.126777 0.263618
0.765818 0.130232 0.253271
0.872057 0.135294 0.253997
0.909802 0.135406 0.250281
0.922925 0.136146 0.247312
0.065430 0.158254 0.330954
0.108986 0.143858 0.310234
0.253433 0.142924 0.290463
0.467813 0.147042 0.271610
0.707651 0.150124 0.255748
0.847469 0.150781 0.255647
0.901765 0.149883 0.252250
0.921227 0.148659 0.248102
0.059228 0.275012 0.379253
0.088947 0.245488 0.349747
0.209787 0.225596 0.322685
0.405584 0.215897 0.297839
0.643992 0.213872 0.276773
0.813792 0.204532 0.270307
0.888579 0.195291 0.263223
0.918259 0.187162 0.256350
0.056167 0.445107 0.438402
0.077697 0.407738 0.407336
0.177540 0.371488 0.374011
0.358087 0.344867 0.342220
0.598064 0.331180 0.315916
0.779164 0.318170 0.303884
0.872162 0.298639 0.291480
0.913864 0.280004 0.280196
0.059650 0.635589 0.496791
0.072893 0.603179 0.471283
0.148810 0.565148 0.437751
0.318874 0.528395 0.402115
0.573615 0.499612 0.370473
0.751371 0.491395 0.355020
0.856212 0.466009 0.337345
0.908704 0.437861 0.320761
0.071897 0.751847 0.536189
0.078425 0.738357 0.522461
0.130709 0.720998 0.498167
0.269411 0.700801 0.466300
0.503613 0.678008 0.430216
0.744052 0.649239 0.396184
0.854406 0.638534 0.373422
0.907046 0.623194 0.355600
0.078181 0.798383 0.546866
0.082068 0.794278 0.538899
0.116636 0.790055 0.521887
0.221485 0.786038 0.496835
0.417600 0.780618 0.465540
0.687609 0.762887 0.432854
0.842349 0.751800 0.403456
0.915798 0.741472 0.381560
0.080555 0.816865 0.546154
0.083167 0.816060 0.540593
0.105473 0.817455 0.527714
0.182388 0.822190 0.507232
0.340416 0.828826 0.480240
0.610538 0.824909 0.452654
0.808933 0.814488 0.421637
0.913897 0.807690 0.398230
0.077829 0.121620 0.345701
0.134577 0.120113 0.344310
0.293283 0.124594 0.326033
0.510427 0.130661 0.300613
0.735935 0.135105 0.277440
0.858713 0.136800 0.271872
0.903240 0.138059 0.269181
0.918180 0.138232 0.267035
0.072304 0.154699 0.371035
0.105463 0.141398 0.356386
0.230874 0.140188 0.340433
0.432872 0.144675 0.318383
0.676365 0.149567 0.290800
0.832043 0.150257 0.278966
0.892819 0.149845 0.274459
0.914608 0.148728 0.271073
0.065638 0.255881 0.419851
0.087646 0.229478 0.398684
0.184689 0.208302 0.377117
0.363800 0.197678 0.351129
0.606669 0.198354 0.320591
0.794377 0.195818 0.299923
0.876866 0.188969 0.289622
0.909799 0.182163 0.282583
0.060393 0.414803 0.479550
0.076234 0.382292 0.458096
0.150528 0.344676 0.431322
0.310005 0.316087 0.400674
0.550050 0.304003 0.368390
0.755159 0.298402 0.341145
0.858040 0.281671 0.323153
0.904131 0.264184 0.310117
0.059230 0.607974 0.538835
0.068978 0.581018 0.522034
0.126037 0.542728 0.495911
0.273143 0.503589 0.464373
0.514389 0.472837 0.431180
0.723067 0.463388 0.401832
0.839959 0.437852 0.376923
0.898234 0.408540 0.356856
0.068109 0.749847 0.583356
0.073637 0.736257 0.571875
0.116859 0.715495 0.551421
0.239318 0.691088 0.522973
0.456428 0.665223 0.488737
0.711697 0.635901 0.456108
0.832931 0.623649 0.432249
0.894150 0.605639 0.411138
0.076272 0.804921 0.595009
0.079101 0.799886 0.587363
0.108645 0.793235 0.572411
0.202824 0.786113 0.549735
0.384835 0.777920 0.520821
0.656038 0.760317 0.494447
0.819874 0.746285 0.465999
0.903162 0.732956 0.439504
0.080305 0.825434 0.592699
0.081906 0.823996 0.586991
0.100992 0.824206 0.575391
0.169625 0.826744 0.556770
0.314302 0.830782 0.532077
0.576279 0.829146 0.509893
0.783468 0.816417 0.480531
0.900558 0.806911 0.452069
0.082744 0.123762 0.364040
0.130784 0.121817 0.365113
0.274266 0.125945 0.349507
0.480214 0.132041 0.323113
0.705919 0.136832 0.293579
0.842920 0.137722 0.280498
0.896688 0.139334 0.277204
0.915077 0.138930 0.275562
0.076707 0.152719 0.391203
0.104840 0.141245 0.380907
0.216183 0.139407 0.367788
0.405208 0.143262 0.345098
0.644829 0.148898 0.312483
0.813105 0.150105 0.292796
0.883450 0.149983 0.286009
0.909528 0.148922 0.282644
0.070203 0.241933 0.440121
0.088821 0.218447 0.424726
0.169263 0.196602 0.407063
0.332403 0.185048 0.382245
0.570354 0.186769 0.349257
0.771029 0.187168 0.320021
0.864371 0.183796 0.305957
0.902385 0.179051 0.298025
0.064167 0.388443 0.499789
0.077545 0.359146 0.484777
0.134322 0.321134 0.463591
0.273424 0.290374 0.436845
0.501989 0.276449 0.405204
0.725127 0.274136 0.368877
0.842273 0.265031 0.345396
0.894838 0.251990 0.330060
0.060430 0.575811 0.559925
0.068790 0.551742 0.549273
0.111802 0.513477 0.530437
0.233742 0.469929 0.505711
0.448994 0.431393 0.476354
0.683758 0.422399 0.439276
0.820754 0.406686 0.407347
0.888097 0.382728 0.383366
0.066309 0.730857 0.605787
0.071241 0.718474 0.598907
0.103899 0.697058 0.585141
0.202523 0.669766 0.564604
0.389699 0.639579 0.538135
0.662140 0.610259 0.508729
0.809327 0.600027 0.480826
0.884537 0.579785 0.455828
0.073769 0.801442 0.626325
0.077000 0.797428 0.622407
0.101081 0.790227 0.612984
0.179689 0.781088 0.597158
0.338701 0.770156 0.575332
0.610308 0.752810 0.552040
0.793056 0.737966 0.525787
0.890987 0.723099 0.499961
0.078932 0.830811 0.631540
0.080900 0.829874 0.628506
0.097542 0.829617 0.621078
0.157186 0.830814 0.607983
0.286059 0.833117 0.589225
0.537334 0.831664 0.568621
0.756631 0.820256 0.546633
0.887214 0.810751 0.520995
0.085250 0.124747 0.372500
0.128599 0.122667 0.373945
0.262553 0.126389 0.360366
0.460058 0.132139 0.334591
0.683251 0.136882 0.302516
0.829094 0.138114 0.285245
0.890654 0.139829 0.280760
0.912887 0.139080 0.278827
0.078852 0.151447 0.400115
0.104519 0.141308 0.391697
0.207026 0.139094 0.380180
0.386306 0.142369 0.357706
0.620456 0.148192 0.323256
0.796375 0.150033 0.299875
0.875373 0.150071 0.291201
0.906338 0.149111 0.287551
0.072096 0.232659 0.447925
0.089907 0.211915 0.436352
0.160648 0.189790 0.420377
0.312808 0.177537 0.396336
0.544921 0.179794 0.363456
0.752365 0.181284 0.329979
0.854326 0.179404 0.312833
0.897194 0.176057 0.304304
0.065581 0.370135 0.506937
0.079054 0.343892 0.496582
0.125904 0.305836 0.478114
0.251311 0.273405 0.453695
0.469552 0.257627 0.423985
0.702446 0.255623 0.382817
0.829831 0.249837 0.354760
0.887642 0.240352 0.338165
0.060855 0.552024 0.568034
0.069454 0.529847 0.561117
0.104050 0.491809 0.546771
0.207964 0.444757 0.526596
0.402018 0.399147 0.500433
0.652652 0.387955 0.459512
0.804809 0.376302 0.421701
0.879629 0.357824 0.395475
0.064837 0.713394 0.615433
0.069970 0.701935 0.611721
0.095332 0.680153 0.602224
0.175090 0.650279 0.587358
0.336284 0.615270 0.567599
0.616074 0.581967 0.542840
0.786625 0.569237 0.510005
0.875912 0.549759 0.481640
0.070985 0.795533 0.641903
0.074981 0.792018 0.640748
0.094851 0.784390 0.635358
0.159144 0.773428 0.625074
0.294630 0.759396 0.609837
0.557142 0.739944 0.590798
0.762157 0.723246 0.567100
0.878450 0.708729 0.543845
0.077198 0.832837 0.654790
0.079272 0.832149 0.653522
0.094009 0.831542 0.649782
0.144986 0.831655 0.642093
0.256732 0.832325 0.629662
0.489834 0.830152 0.612752
0.722807 0.820057 0.597500
0.870732 0.812079 0.577813
