app/src/main/assets/cube/Yokocho01.cube
# LUT by SparkleStock. Enhanced with VOXCOLOR algorithms.
LUT_3D_SIZE 5
DOMAIN_MIN 0.000000 0.000000 0.000000
DOMAIN_MAX 0.903226 0.903226 0.903226
0.074237 0.101587 0.121123
0.355382 0.113978 0.127039
0.704179 0.130174 0.133388
0.853149 0.143976 0.138603
0.878010 0.147056 0.140659
0.082871 0.247131 0.213494
0.293298 0.236202 0.179956
0.658999 0.240057 0.160557
0.850847 0.232665 0.158424
0.885884 0.221184 0.158847
0.109607 0.516019 0.373390
0.248419 0.498221 0.328754
0.624932 0.487954 0.238815
0.854354 0.478345 0.202318
0.901658 0.443310 0.196302
0.145008 0.693284 0.479475
0.223020 0.695755 0.459063
0.532776 0.709073 0.383973
0.858483 0.714208 0.291241
0.916901 0.702593 0.269837
0.166694 0.738745 0.510631
0.221068 0.747241 0.500153
0.452018 0.766437 0.449141
0.778613 0.782797 0.374756
0.912204 0.795586 0.338188
0.072913 0.114207 0.218977
0.308067 0.127909 0.207554
0.677020 0.138521 0.186123
0.849349 0.144809 0.170583
0.874766 0.147971 0.166172
0.080539 0.241876 0.272802
0.233564 0.218612 0.232295
0.590973 0.224269 0.202193
0.837535 0.217945 0.181454
0.881825 0.207140 0.172701
0.110034 0.508937 0.399193
0.218754 0.466374 0.349241
0.565580 0.452494 0.268884
0.832404 0.449742 0.217570
0.896018 0.413341 0.201392
0.145628 0.696482 0.493647
0.208809 0.689905 0.470439
0.499280 0.692782 0.397781
0.836719 0.694364 0.299400
0.909437 0.683622 0.267509
0.168331 0.742692 0.516983
0.205235 0.745890 0.506491
0.419027 0.764662 0.463267
0.757512 0.780089 0.384755
0.907606 0.790681 0.341359
0.073670 0.130450 0.344307
0.267936 0.144480 0.328332
0.639191 0.156583 0.277376
0.837172 0.152329 0.237900
0.863570 0.149615 0.220982
0.077446 0.241648 0.389062
0.192384 0.216658 0.344899
0.530366 0.225712 0.302087
0.812563 0.212595 0.253349
0.868034 0.195574 0.225660
0.107009 0.504421 0.476935
0.184940 0.450332 0.426350
0.482764 0.422937 0.363488
0.784310 0.413992 0.297263
0.879551 0.370698 0.252616
0.148832 0.709299 0.546148
0.194247 0.690915 0.520859
0.446171 0.673797 0.465566
0.783871 0.659029 0.370229
0.894627 0.648204 0.306105
0.170401 0.752199 0.551925
0.196080 0.751913 0.539784
0.371059 0.763320 0.505984
0.711410 0.776678 0.439829
0.895945 0.782896 0.377180
0.076498 0.144299 0.421860
0.228248 0.157033 0.413080
0.585747 0.169838 0.351101
0.820432 0.161401 0.286297
0.853316 0.153262 0.267282
0.076561 0.234076 0.468565
0.158063 0.212996 0.445279
0.471823 0.223597 0.399448
0.784004 0.218864 0.327834
0.852409 0.197008 0.290697
0.099698 0.479761 0.551936
0.147526 0.434650 0.522993
0.399937 0.403253 0.477360
0.736657 0.399033 0.407703
0.856293 0.346949 0.340613
0.151326 0.720413 0.621448
0.181400 0.696540 0.600516
0.391092 0.665128 0.559565
0.725524 0.645700 0.500876
0.872179 0.624311 0.425685
0.177327 0.771212 0.623834
0.195874 0.768623 0.611726
0.339195 0.771754 0.584954
0.662936 0.783572 0.554972
0.877168 0.781981 0.488521
0.077719 0.147907 0.439490
0.208776 0.159458 0.434146
0.542452 0.173817 0.376978
0.801626 0.165620 0.302936
0.849841 0.154865 0.275861
0.076646 0.227027 0.488287
0.142610 0.208983 0.474886
0.427775 0.218739 0.433867
0.755809 0.217507 0.355562
0.842935 0.199102 0.313422
0.095312 0.449624 0.570806
0.128360 0.409236 0.555656
0.332393 0.371772 0.526827
0.692517 0.370783 0.458358
0.840426 0.333521 0.386559
0.142003 0.697196 0.644699
0.163631 0.677782 0.636801
0.310152 0.643505 0.617516
0.652431 0.624358 0.589542
0.851105 0.602137 0.517713
0.179744 0.779713 0.673589
0.195891 0.778693 0.668614
0.309428 0.779819 0.658193
0.607158 0.788520 0.644438
0.854576 0.793095 0.618321
