app/src/main/assets/cube/Yokocho03.cube
# LUT by SparkleStock. Enhanced with VOXCOLOR algorithms.
LUT_3D_SIZE 8
DOMAIN_MIN 0.000000 0.000000 0.000000
DOMAIN_MAX 0.903226 0.903226 0.903226
0.050794 0.035165 0.097680
0.214140 0.050668 0.089551
0.449265 0.077687 0.078341
0.666289 0.111103 0.070747
0.804017 0.145228 0.070771
0.853740 0.168104 0.076253
0.870850 0.177589 0.080003
0.877443 0.182039 0.081768
0.057033 0.139525 0.161960
0.196814 0.134244 0.128216
0.416668 0.147011 0.103522
0.635070 0.167400 0.088781
0.791460 0.187217 0.083901
0.851136 0.201165 0.087042
0.872466 0.207942 0.089182
0.879041 0.208788 0.089720
0.074654 0.315530 0.278869
0.172312 0.296618 0.236410
0.390503 0.293621 0.174227
0.619985 0.299402 0.127515
0.782299 0.306468 0.115413
0.850164 0.300705 0.114345
0.876199 0.293559 0.114650
0.884699 0.285678 0.114011
0.103423 0.505361 0.410280
0.159366 0.485156 0.374054
0.354512 0.474515 0.291191
0.587290 0.470135 0.209750
0.776116 0.466964 0.162940
0.850226 0.449491 0.156408
0.881011 0.428980 0.155060
0.892696 0.412131 0.153656
0.140644 0.661239 0.523762
0.168429 0.652323 0.504076
0.305002 0.646634 0.438685
0.520845 0.640792 0.338791
0.762784 0.632406 0.229823
0.849537 0.620733 0.211033
0.885738 0.596431 0.206880
0.900927 0.575074 0.205026
0.173729 0.733081 0.581992
0.189366 0.731483 0.572698
0.283102 0.733216 0.530244
0.455852 0.736851 0.452720
0.683922 0.740029 0.349423
0.840054 0.734796 0.275599
0.887818 0.723033 0.257883
0.904275 0.710043 0.253931
0.195470 0.764591 0.609185
0.205667 0.765311 0.603940
0.272692 0.768860 0.574107
0.410664 0.775050 0.514063
0.612653 0.782518 0.425861
0.796814 0.784458 0.337375
0.874966 0.781899 0.301237
0.905382 0.777093 0.287691
0.205624 0.778101 0.621671
0.214577 0.779900 0.617542
0.264509 0.783682 0.594635
0.376288 0.790092 0.546688
0.553332 0.798701 0.472461
0.746470 0.804946 0.383890
0.852418 0.806790 0.332481
0.900646 0.807146 0.309084
0.051361 0.049722 0.165174
0.195094 0.058639 0.145335
0.421907 0.081664 0.118995
0.644175 0.113433 0.098459
0.798114 0.147631 0.091037
0.853545 0.170068 0.092275
0.871972 0.179601 0.093487
0.878132 0.183564 0.093691
0.056282 0.139153 0.205157
0.165572 0.126265 0.172282
0.366556 0.134740 0.139577
0.588512 0.154852 0.113604
0.771496 0.178142 0.098813
0.846172 0.195844 0.097029
0.871784 0.203651 0.097274
0.879074 0.204411 0.095685
0.073105 0.306864 0.301086
0.148015 0.274911 0.259071
0.344996 0.267686 0.199368
0.572182 0.275984 0.149970
0.757123 0.289690 0.127478
0.842940 0.288904 0.120967
0.874496 0.282942 0.118708
0.884056 0.274974 0.115899
0.102447 0.496438 0.419288
0.146189 0.460756 0.379096
0.324935 0.445297 0.303233
0.551551 0.443423 0.225727
0.751639 0.446726 0.172433
0.841680 0.434750 0.160759
0.878004 0.415122 0.156080
0.890799 0.397914 0.152547
0.141589 0.658995 0.528800
0.160843 0.639177 0.503391
0.289981 0.627525 0.439943
0.500918 0.619970 0.343753
0.742444 0.613550 0.235826
0.839873 0.607882 0.213098
0.880807 0.584066 0.205684
0.897191 0.562036 0.201676
0.174674 0.734057 0.584981
0.184952 0.728016 0.573363
0.272419 0.726634 0.532881
0.441123 0.728122 0.457276
0.669574 0.730106 0.352952
0.831621 0.726233 0.275303
0.882571 0.714936 0.255950
0.900176 0.701751 0.250666
0.195684 0.765738 0.610124
0.202562 0.764507 0.604823
0.262682 0.766631 0.577862
0.395428 0.771775 0.520283
0.597446 0.778514 0.431747
0.787486 0.780378 0.339173
0.869871 0.777858 0.300283
0.902127 0.772866 0.285318
0.207735 0.779839 0.621829
0.211805 0.779546 0.618211
0.255199 0.782651 0.598997
0.362228 0.789048 0.554463
0.538781 0.797719 0.480812
0.737047 0.803771 0.388549
0.847599 0.805460 0.333770
0.898301 0.805457 0.308559
0.054338 0.066824 0.256505
0.179495 0.072057 0.231488
0.399473 0.090539 0.186781
0.625448 0.119771 0.148337
0.790349 0.154458 0.131602
0.851591 0.175419 0.126003
0.871353 0.183791 0.123037
0.877642 0.187089 0.121070
0.057839 0.143814 0.284217
0.143854 0.126383 0.247184
0.332433 0.131315 0.202364
0.555850 0.150955 0.162585
0.753185 0.177250 0.136699
0.840396 0.196223 0.127238
0.870215 0.203812 0.122649
0.878660 0.204462 0.118450
0.071997 0.301900 0.354744
0.130733 0.265020 0.311086
0.306984 0.253293 0.253641
0.526781 0.259772 0.201050
0.726301 0.275301 0.165706
0.831347 0.277270 0.147881
0.870491 0.271865 0.138471
0.882637 0.263410 0.131184
0.100357 0.488531 0.449359
0.136293 0.447499 0.408813
0.292374 0.425134 0.344157
0.505084 0.418523 0.272475
0.713915 0.421616 0.210127
0.825465 0.413576 0.184680
0.871449 0.394719 0.170829
0.887968 0.376388 0.161449
0.141614 0.655899 0.546477
0.156159 0.630430 0.519630
0.270422 0.609427 0.464098
0.468196 0.594630 0.376149
0.707575 0.586897 0.269533
0.822200 0.585828 0.234206
0.872532 0.562382 0.217302
0.893057 0.538936 0.207639
0.176980 0.735944 0.597810
0.183956 0.727099 0.585103
0.258679 0.719922 0.549515
0.416261 0.716154 0.480292
0.642967 0.715644 0.379256
0.814884 0.711241 0.292813
0.873521 0.700483 0.265942
0.895106 0.686767 0.255460
0.197293 0.767917 0.618537
0.201945 0.765505 0.612767
0.251209 0.764655 0.589863
0.373597 0.767139 0.538150
0.572550 0.772722 0.454044
0.770856 0.773610 0.356371
0.861036 0.770798 0.310412
0.897438 0.765231 0.290440
0.209197 0.781728 0.627349
0.211415 0.780749 0.623725
0.245183 0.782227 0.607939
0.342050 0.787501 0.568756
0.513908 0.796246 0.500108
0.719629 0.802011 0.405417
0.838699 0.803121 0.344502
0.894272 0.802483 0.314671
0.059096 0.084974 0.348119
0.164396 0.088267 0.326042
0.375748 0.102183 0.270305
0.603867 0.127812 0.214106
0.779108 0.161883 0.180017
0.847852 0.183137 0.169381
0.869687 0.190369 0.161987
0.876554 0.193013 0.157604
0.061133 0.150181 0.371502
0.127499 0.131434 0.335841
0.305392 0.134048 0.285211
0.528759 0.152900 0.232520
0.735864 0.181028 0.189266
0.833551 0.201173 0.171878
0.867434 0.208137 0.161813
0.877423 0.208771 0.155070
0.072981 0.298290 0.425179
0.117586 0.261801 0.383907
0.273980 0.246375 0.330859
0.485658 0.249863 0.274496
0.697337 0.266031 0.223253
0.818335 0.270591 0.192806
0.864899 0.265452 0.175043
0.880224 0.257005 0.163234
0.100135 0.481324 0.498873
0.128269 0.440542 0.460945
0.260523 0.411868 0.406918
0.458253 0.399196 0.341076
0.675306 0.400946 0.271994
0.806100 0.395681 0.231047
0.862627 0.376977 0.205448
0.884156 0.357538 0.188686
0.142566 0.653186 0.578162
0.153315 0.625144 0.551756
0.250697 0.596185 0.504501
0.432239 0.574250 0.428970
0.666947 0.564080 0.332601
0.798651 0.563734 0.283318
0.861097 0.539064 0.252161
0.888141 0.512639 0.232433
0.181519 0.739122 0.622700
0.185945 0.728592 0.609482
0.247480 0.715932 0.578782
0.391303 0.706165 0.520046
0.611661 0.701356 0.431504
0.791799 0.694286 0.338509
0.861049 0.683423 0.298822
0.889218 0.668237 0.277994
0.201666 0.771822 0.637498
0.204583 0.768637 0.631034
0.243849 0.764889 0.611492
0.353551 0.764024 0.568435
0.543149 0.766997 0.496304
0.748412 0.766330 0.398341
0.848886 0.762534 0.341924
0.891766 0.755695 0.312134
0.212372 0.784813 0.641662
0.213868 0.783766 0.637725
0.239171 0.783695 0.624309
0.323023 0.787197 0.592061
0.482668 0.794872 0.534078
0.695172 0.800682 0.442262
0.825754 0.800767 0.373539
0.888876 0.799099 0.335381
0.064839 0.102296 0.421710
0.148531 0.104528 0.409659
0.346842 0.114584 0.355939
0.574869 0.135786 0.286971
0.762876 0.167091 0.227261
0.842049 0.191436 0.213624
0.867406 0.198696 0.203047
0.875274 0.200992 0.196722
0.065467 0.155720 0.444800
0.113965 0.138519 0.420836
0.278864 0.140391 0.376424
0.500288 0.158098 0.315384
0.717976 0.186186 0.248733
0.825284 0.208728 0.223231
0.863310 0.215451 0.208729
0.875184 0.216274 0.200100
0.076476 0.293330 0.496098
0.106832 0.260140 0.464282
0.243564 0.242654 0.419578
0.448113 0.244113 0.360582
0.673078 0.261798 0.292684
0.805599 0.270791 0.250534
0.858314 0.266308 0.225630
0.876764 0.258869 0.210785
0.102866 0.472507 0.559777
0.121260 0.434360 0.527322
0.231008 0.401896 0.481512
0.415885 0.385706 0.421482
0.641740 0.388376 0.351549
0.786808 0.386530 0.297769
0.852770 0.367854 0.260712
0.879425 0.348050 0.236965
0.145003 0.649455 0.621165
0.151336 0.620887 0.596387
0.232533 0.588389 0.555202
0.397584 0.562824 0.495255
0.625304 0.550546 0.420681
0.772044 0.547480 0.361367
0.847525 0.520045 0.313922
0.882293 0.489411 0.280814
0.188511 0.743167 0.659025
0.190377 0.731715 0.645820
0.241607 0.715780 0.618622
0.371693 0.701027 0.572994
0.580297 0.690463 0.506223
0.764904 0.679555 0.415606
0.846113 0.667618 0.361133
0.882773 0.649691 0.325984
0.209616 0.777666 0.668014
0.210860 0.773824 0.660951
0.243569 0.768272 0.643289
0.340494 0.764178 0.610293
0.514167 0.762963 0.556995
0.722728 0.760702 0.469085
0.834401 0.755111 0.402046
0.885571 0.746136 0.358549
0.219053 0.789814 0.666841
0.219632 0.788713 0.662515
0.240007 0.787811 0.650253
0.310547 0.789371 0.625599
0.450679 0.794455 0.582921
0.666215 0.800868 0.503482
0.809522 0.799569 0.428018
0.882483 0.796424 0.378381
0.069755 0.113829 0.462547
0.136321 0.115768 0.456936
0.314190 0.124909 0.411626
0.535594 0.142806 0.343219
0.738256 0.168749 0.271287
0.832212 0.194266 0.240818
0.864058 0.204648 0.231583
0.873744 0.207920 0.226587
0.069358 0.159056 0.484319
0.106057 0.144168 0.469855
0.251023 0.147331 0.437474
0.463643 0.163725 0.380895
0.693096 0.188236 0.305337
0.814281 0.212743 0.261757
0.858078 0.220832 0.244517
0.872194 0.222267 0.236009
0.078824 0.280590 0.532848
0.100620 0.251677 0.512067
0.212431 0.234657 0.481491
0.403372 0.234789 0.431471
0.640764 0.252288 0.361542
0.791071 0.271262 0.303278
0.851048 0.270468 0.272961
0.872590 0.264599 0.256594
0.103458 0.449655 0.594868
0.116237 0.416824 0.573316
0.198860 0.383932 0.541495
0.365022 0.365759 0.494529
0.598677 0.369320 0.431829
0.767943 0.380515 0.365976
0.843572 0.366557 0.321182
0.874122 0.348379 0.293256
0.145027 0.631433 0.657135
0.149089 0.607687 0.641149
0.208631 0.575207 0.611170
0.352111 0.547219 0.566297
0.574363 0.532941 0.507906
0.749310 0.535352 0.444367
0.836471 0.509534 0.387942
0.875943 0.478392 0.347335
0.196293 0.744319 0.696898
0.196455 0.732929 0.686705
0.235746 0.715303 0.665175
0.349578 0.697392 0.628757
0.545121 0.683312 0.575903
0.740030 0.673687 0.508143
0.832108 0.660497 0.453265
0.876508 0.638781 0.410824
0.221130 0.784332 0.706203
0.220764 0.779758 0.699774
0.246632 0.773032 0.685172
0.332233 0.766830 0.658458
0.493162 0.762873 0.617282
0.701865 0.760819 0.560615
0.820951 0.753198 0.497607
0.879556 0.741291 0.445849
0.230878 0.797120 0.703524
0.230339 0.795656 0.699237
0.246668 0.794346 0.688902
0.307951 0.794673 0.668755
0.434168 0.797794 0.636231
0.642461 0.805067 0.588813
0.793441 0.802535 0.519320
0.875718 0.797547 0.461152
0.072307 0.119059 0.480224
0.129189 0.120828 0.477394
0.290686 0.129953 0.438735
0.503169 0.146781 0.373878
0.712299 0.170246 0.297942
0.820428 0.194372 0.256618
0.859881 0.205925 0.244739
0.872254 0.209598 0.239656
0.071618 0.160360 0.502508
0.102446 0.147812 0.493035
0.232381 0.151398 0.467201
0.434238 0.166693 0.414814
0.665817 0.189200 0.337953
0.800552 0.212542 0.283970
0.851994 0.222391 0.262416
0.869560 0.224848 0.252961
0.080100 0.269482 0.548716
0.097888 0.244177 0.534011
0.191590 0.227135 0.511123
0.368189 0.226377 0.467845
0.606751 0.244085 0.400836
0.772995 0.264798 0.334495
0.842672 0.270009 0.299820
0.868840 0.267576 0.281965
0.102906 0.427124 0.608650
0.113184 0.398075 0.593113
0.176367 0.364799 0.569881
0.323311 0.344987 0.532769
0.551742 0.348147 0.478444
0.743215 0.363093 0.408603
0.832613 0.360284 0.359921
0.869535 0.348519 0.329943
0.142307 0.605926 0.671185
0.145841 0.585206 0.660166
0.189819 0.552596 0.638461
0.309404 0.521191 0.605714
0.511838 0.501857 0.561302
0.716447 0.507254 0.500313
0.822789 0.495278 0.441029
0.871001 0.472042 0.397760
0.194500 0.731033 0.713949
0.194983 0.721121 0.707477
0.224095 0.703530 0.692746
0.316461 0.683573 0.667052
0.487132 0.666167 0.628897
0.701543 0.658830 0.577643
0.816034 0.650976 0.526372
0.871986 0.630006 0.481878
0.226302 0.783227 0.730463
0.226714 0.779636 0.726759
0.247204 0.773094 0.717211
0.318262 0.765775 0.698739
0.458835 0.759669 0.669512
0.671480 0.757757 0.628860
0.805082 0.751775 0.580165
0.874403 0.739291 0.534482
0.241407 0.802150 0.733865
0.241390 0.801396 0.731236
0.255030 0.800330 0.724394
0.307288 0.800112 0.710422
0.418435 0.801879 0.687332
0.618482 0.807961 0.653286
0.777742 0.808132 0.607141
0.869923 0.803518 0.559763
0.073670 0.122620 0.487227
0.125368 0.123449 0.485653
0.276847 0.132003 0.451266
0.482567 0.147858 0.389472
0.693346 0.169717 0.312534
0.810611 0.193209 0.265751
0.855952 0.205886 0.250870
0.870996 0.209704 0.244796
0.072438 0.160846 0.509359
0.100306 0.149546 0.502507
0.221006 0.152990 0.480115
0.414677 0.167108 0.430449
0.644669 0.187946 0.354082
0.788403 0.210706 0.295372
0.846557 0.222164 0.270535
0.867635 0.225739 0.260107
0.079876 0.261491 0.553315
0.096393 0.239298 0.542726
0.179449 0.221716 0.523452
0.346091 0.219890 0.483656
0.582698 0.237816 0.419332
0.758409 0.258198 0.349385
0.835630 0.266785 0.311385
0.865832 0.267264 0.292695
0.101224 0.410976 0.611474
0.111305 0.385310 0.600374
0.163307 0.351323 0.581380
0.297349 0.329827 0.549359
0.519579 0.332420 0.500410
0.724281 0.347643 0.428794
0.823555 0.350528 0.377026
0.865581 0.344120 0.346505
0.139019 0.586558 0.674453
0.142890 0.567585 0.666559
0.177673 0.534821 0.649604
0.280460 0.500274 0.623817
0.466119 0.475615 0.587604
0.690175 0.482000 0.528384
0.810954 0.477135 0.466875
0.866610 0.461283 0.423454
0.190613 0.718057 0.720040
0.192034 0.709231 0.715985
0.214163 0.691573 0.705366
0.289270 0.669480 0.686460
0.437874 0.648225 0.658151
0.665330 0.640647 0.618771
0.799743 0.634774 0.568709
0.867693 0.617202 0.524096
0.226565 0.778797 0.741838
0.228238 0.776257 0.740130
0.244610 0.769860 0.734134
0.302188 0.761311 0.721693
0.421899 0.752745 0.701366
0.632035 0.749561 0.671702
0.784081 0.745396 0.633961
0.868575 0.735314 0.596234
0.246749 0.803443 0.751874
0.247435 0.803436 0.750177
0.259208 0.802593 0.746073
0.303322 0.801914 0.737331
0.399470 0.802520 0.722179
0.587643 0.807145 0.697895
0.757111 0.809973 0.669973
0.862113 0.808012 0.636219
