app/src/main/assets/cube/Yokocho04.cube
# LUT by SparkleStock. Enhanced with VOXCOLOR algorithms.
LUT_3D_SIZE 5
DOMAIN_MIN 0.000000 0.000000 0.000000
DOMAIN_MAX 0.903226 0.903226 0.903226
0.015629 0.023443 0.074237
0.366198 0.085572 0.076387
0.759707 0.162708 0.064162
0.881208 0.210958 0.073993
0.894490 0.225586 0.081484
0.040293 0.214305 0.194423
0.305784 0.237775 0.132864
0.727569 0.293947 0.083037
0.886156 0.315954 0.086473
0.906157 0.314340 0.092232
0.085273 0.547977 0.385639
0.236120 0.542852 0.304580
0.689961 0.577354 0.144140
0.898700 0.586196 0.106521
0.928188 0.558038 0.116635
0.142865 0.729844 0.484525
0.210843 0.733488 0.438185
0.545211 0.766360 0.280753
0.906573 0.794477 0.144555
0.944088 0.785645 0.139387
0.167970 0.761401 0.507149
0.211979 0.768236 0.474971
0.440927 0.794653 0.353693
0.808240 0.834247 0.206099
0.940505 0.847884 0.160602
0.040214 0.043680 0.207570
0.331094 0.092266 0.169662
0.739085 0.172045 0.119815
0.884220 0.219252 0.113541
0.897975 0.231932 0.114643
0.050284 0.211412 0.279172
0.237105 0.200733 0.214244
0.663566 0.262421 0.137547
0.879375 0.298553 0.115168
0.905091 0.297953 0.112789
0.092355 0.540663 0.422916
0.206967 0.503621 0.346686
0.633359 0.532159 0.192484
0.882603 0.555121 0.129151
0.921483 0.526412 0.127144
0.148215 0.732637 0.502366
0.198765 0.727837 0.460297
0.513090 0.750245 0.308994
0.888717 0.777337 0.158786
0.936762 0.769435 0.143322
0.173059 0.765327 0.515314
0.198285 0.766827 0.488181
0.405937 0.791248 0.378890
0.786309 0.829873 0.221552
0.936432 0.843826 0.164619
0.073678 0.074717 0.377628
0.315368 0.114874 0.334101
0.719128 0.191157 0.229450
0.884239 0.237259 0.198514
0.898396 0.244671 0.188396
0.077908 0.224949 0.441634
0.214377 0.201488 0.375605
0.617658 0.256653 0.269113
0.869825 0.298358 0.205640
0.902950 0.296023 0.187740
0.116625 0.542894 0.535867
0.194529 0.489428 0.474027
0.562852 0.491499 0.346330
0.852400 0.515005 0.238366
0.911984 0.483478 0.202929
0.174792 0.744119 0.574278
0.205894 0.730010 0.541179
0.468101 0.729814 0.428858
0.848608 0.744641 0.267243
0.924559 0.739280 0.208814
0.191226 0.772634 0.563183
0.204826 0.772102 0.539867
0.361976 0.786193 0.453913
0.739829 0.821248 0.301479
0.925831 0.836776 0.214523
0.095585 0.100611 0.477057
0.285265 0.134553 0.452029
0.675756 0.203072 0.328896
0.878089 0.249929 0.260942
0.899193 0.259465 0.255715
0.098516 0.227679 0.539077
0.199287 0.206426 0.505348
0.570489 0.256883 0.410816
0.856273 0.307760 0.302777
0.898696 0.309164 0.278169
0.136497 0.531457 0.634068
0.184771 0.482630 0.602062
0.485646 0.466166 0.522444
0.826485 0.495207 0.396487
0.902717 0.466763 0.330045
0.214417 0.755232 0.674165
0.235243 0.737648 0.654157
0.444947 0.723549 0.590433
0.805429 0.722584 0.472972
0.908346 0.710518 0.382986
0.234316 0.788318 0.656355
0.242454 0.787050 0.639990
0.363210 0.794873 0.587086
0.695096 0.816651 0.487840
0.909048 0.828267 0.376969
0.101020 0.108409 0.498342
0.265543 0.140119 0.480856
0.634379 0.204202 0.367427
0.864315 0.250099 0.278270
0.898488 0.262310 0.272014
0.103962 0.222728 0.559329
0.188788 0.204986 0.538296
0.527365 0.249860 0.457691
0.835912 0.304267 0.342986
0.894177 0.313554 0.310080
0.139026 0.501959 0.653513
0.174899 0.458417 0.636132
0.419670 0.428619 0.587207
0.791946 0.463227 0.476971
0.895584 0.458796 0.399074
0.218792 0.739938 0.705172
0.235050 0.725157 0.699357
0.383304 0.701858 0.673669
0.744047 0.695691 0.608225
0.899417 0.688094 0.520903
0.263422 0.796060 0.712505
0.273513 0.795099 0.708022
0.372224 0.801120 0.689000
0.661813 0.818341 0.635469
0.891929 0.825987 0.573247
