app/src/main/assets/cube/Yokocho05.cube
# LUT by SparkleStock. Enhanced with VOXCOLOR algorithms.
LUT_3D_SIZE 8
DOMAIN_MIN 0.000000 0.000000 0.000000
DOMAIN_MAX 0.903226 0.903226 0.903226
0.062515 0.066422 0.105495
0.219055 0.080224 0.098688
0.450723 0.106479 0.089338
0.668187 0.138729 0.083587
0.809910 0.170964 0.085100
0.863791 0.194596 0.091906
0.885060 0.206097 0.097452
0.893355 0.210666 0.100595
0.067053 0.146394 0.144819
0.195490 0.150828 0.124400
0.412429 0.169064 0.106725
0.634211 0.192629 0.095986
0.797542 0.214746 0.094406
0.861376 0.230182 0.100042
0.886012 0.237389 0.104538
0.894374 0.238842 0.106419
0.084044 0.297341 0.223782
0.172456 0.288883 0.195765
0.384555 0.298291 0.153820
0.616219 0.315816 0.122955
0.789662 0.332014 0.116988
0.862931 0.331477 0.120519
0.891538 0.325838 0.124416
0.901358 0.318891 0.125816
0.116877 0.474678 0.322218
0.168283 0.460169 0.295238
0.355056 0.463096 0.237820
0.586294 0.475272 0.183534
0.785043 0.487524 0.155325
0.866863 0.480011 0.156123
0.900086 0.463390 0.159565
0.912646 0.448208 0.161170
0.164804 0.636583 0.419583
0.192260 0.627764 0.402117
0.322218 0.628864 0.351918
0.532096 0.636431 0.282487
0.773975 0.646234 0.213953
0.870285 0.648326 0.208111
0.909476 0.630318 0.210110
0.925565 0.611946 0.212155
0.213392 0.718256 0.478569
0.230602 0.716024 0.469592
0.323981 0.721637 0.434933
0.489423 0.733656 0.379492
0.703914 0.749094 0.313794
0.862869 0.757333 0.276336
0.913599 0.752303 0.270383
0.931798 0.743122 0.270952
0.246225 0.752822 0.509512
0.259776 0.753639 0.504755
0.330851 0.760487 0.478861
0.464168 0.773127 0.435092
0.649653 0.789839 0.379701
0.822464 0.802640 0.332827
0.900792 0.807782 0.320385
0.932822 0.807452 0.317852
0.262389 0.766805 0.522352
0.275184 0.769726 0.521675
0.331822 0.776466 0.501490
0.442326 0.788252 0.465772
0.604479 0.804753 0.419378
0.777186 0.820213 0.371729
0.878886 0.830408 0.351478
0.927333 0.836068 0.345706
0.066675 0.072283 0.153515
0.200089 0.082279 0.139976
0.422523 0.107943 0.120679
0.645744 0.141291 0.106280
0.804592 0.174897 0.103073
0.864328 0.198237 0.106951
0.886329 0.210665 0.110423
0.894014 0.215136 0.111822
0.066675 0.142595 0.176300
0.165527 0.138690 0.157421
0.363402 0.153808 0.134298
0.588175 0.178755 0.115686
0.777781 0.205459 0.107346
0.857215 0.224908 0.109600
0.886095 0.233949 0.112231
0.894886 0.235531 0.112462
0.081928 0.287925 0.242041
0.149145 0.265391 0.215006
0.339012 0.270795 0.173917
0.567067 0.290954 0.139926
0.763033 0.313219 0.125951
0.855065 0.318353 0.125809
0.889664 0.314945 0.127740
0.900540 0.308535 0.127532
0.115273 0.465579 0.331915
0.155267 0.435201 0.302432
0.324026 0.433332 0.248338
0.547452 0.447466 0.194866
0.757362 0.464880 0.160904
0.856557 0.463462 0.158086
0.896092 0.448805 0.159383
0.910077 0.434070 0.159116
0.165066 0.633375 0.425621
0.184311 0.613446 0.403754
0.305918 0.608721 0.353496
0.509399 0.614720 0.285175
0.749770 0.626419 0.216471
0.859064 0.634267 0.207550
0.903823 0.617375 0.207447
0.921546 0.598663 0.207134
0.214239 0.718122 0.482997
0.226638 0.711919 0.471886
0.313942 0.714671 0.437668
0.474801 0.724480 0.382072
0.688448 0.738401 0.313966
0.853022 0.748090 0.274563
0.907997 0.743742 0.267640
0.927779 0.734131 0.266555
0.246316 0.753200 0.511354
0.256000 0.752370 0.505879
0.320820 0.757917 0.482150
0.449738 0.769475 0.439786
0.635483 0.785306 0.382866
0.813347 0.797894 0.333007
0.895810 0.803174 0.318793
0.929771 0.802276 0.315057
0.264310 0.768213 0.526963
0.271114 0.768698 0.520431
0.321552 0.774922 0.503518
0.428324 0.786832 0.472102
0.590875 0.803198 0.425741
0.767893 0.818171 0.374985
0.873911 0.828388 0.352611
0.925021 0.833669 0.345378
0.075253 0.081492 0.223900
0.187615 0.089341 0.205494
0.400465 0.112914 0.173196
0.626454 0.146116 0.146668
0.797762 0.181743 0.137457
0.863042 0.203442 0.136853
0.885636 0.214499 0.136783
0.893338 0.218743 0.136053
0.073515 0.144009 0.243416
0.149672 0.134629 0.216544
0.330903 0.147813 0.183757
0.554191 0.173847 0.155568
0.759628 0.203629 0.139155
0.851943 0.224781 0.136233
0.884796 0.234133 0.135088
0.894702 0.235707 0.132759
0.084101 0.281623 0.292903
0.135859 0.252948 0.260134
0.301022 0.253178 0.218744
0.518565 0.270936 0.181486
0.729977 0.294522 0.157315
0.842753 0.303758 0.149473
0.885495 0.302262 0.145902
0.899054 0.296200 0.141811
0.115048 0.457115 0.365808
0.146756 0.420413 0.333133
0.289976 0.409477 0.284528
0.496979 0.416964 0.232950
0.715349 0.433582 0.190642
0.838179 0.437534 0.178067
0.888541 0.425437 0.172533
0.906518 0.411073 0.167510
0.167238 0.630439 0.449556
0.180135 0.603688 0.424496
0.285268 0.587944 0.377246
0.473791 0.585328 0.311940
0.710370 0.595161 0.241543
0.838327 0.607898 0.222901
0.893799 0.593004 0.216219
0.916106 0.574273 0.211427
0.218344 0.720437 0.500656
0.226109 0.710698 0.487495
0.300486 0.706775 0.455263
0.449651 0.710323 0.401939
0.659941 0.720790 0.333263
0.833966 0.729938 0.286877
0.897758 0.727568 0.274776
0.922098 0.718484 0.269568
0.249112 0.755959 0.523231
0.255561 0.753473 0.516600
0.309170 0.755284 0.494904
0.427890 0.763385 0.455339
0.610848 0.777462 0.399653
0.795684 0.789065 0.345453
0.886434 0.794689 0.326651
0.924951 0.793810 0.319144
0.266655 0.770810 0.535561
0.270634 0.770093 0.528552
0.310879 0.774016 0.512665
0.408063 0.784178 0.483666
0.567450 0.800210 0.440115
0.750599 0.814915 0.387380
0.864895 0.824865 0.361382
0.921064 0.830010 0.350849
0.085730 0.092631 0.301288
0.178320 0.099260 0.283785
0.378846 0.120240 0.241321
0.604410 0.151980 0.200605
0.787118 0.188399 0.179221
0.860009 0.210037 0.175324
0.884014 0.219031 0.171920
0.892038 0.222575 0.169116
0.083650 0.147086 0.323548
0.141697 0.135353 0.292924
0.307410 0.146964 0.252847
0.526394 0.173439 0.213445
0.741920 0.205867 0.183562
0.845643 0.228487 0.175562
0.882333 0.237384 0.170463
0.893733 0.238824 0.165648
0.090465 0.277156 0.364980
0.129321 0.247308 0.328886
0.271275 0.242302 0.286713
0.476675 0.256469 0.243773
0.698469 0.281408 0.206223
0.829297 0.294104 0.189371
0.879995 0.293917 0.179413
0.896944 0.288281 0.171341
0.118596 0.450236 0.424137
0.142377 0.412395 0.389369
0.260111 0.392302 0.344534
0.449044 0.391581 0.293373
0.672242 0.406698 0.242911
0.816684 0.414453 0.218725
0.878840 0.404209 0.204217
0.902237 0.389965 0.193223
0.171679 0.628352 0.493276
0.179104 0.598042 0.465715
0.266125 0.572141 0.421752
0.436145 0.559771 0.361500
0.664700 0.565057 0.293421
0.810802 0.579123 0.264009
0.880007 0.565089 0.246969
0.909360 0.545304 0.234421
0.226433 0.725351 0.535936
0.230123 0.713044 0.521047
0.290132 0.702063 0.490115
0.424102 0.697573 0.441013
0.626184 0.701712 0.377139
0.807485 0.707998 0.323193
0.883158 0.707316 0.301978
0.914998 0.698405 0.289121
0.256365 0.761735 0.550761
0.260114 0.757870 0.542824
0.302469 0.755572 0.521896
0.407918 0.758751 0.485924
0.581703 0.768644 0.435539
0.771302 0.778197 0.379278
0.872873 0.783845 0.352909
0.918534 0.782847 0.338070
0.272070 0.775870 0.556094
0.274702 0.774469 0.549832
0.305348 0.775798 0.533946
0.389814 0.782962 0.506786
0.538972 0.796763 0.467687
0.726577 0.810878 0.416677
0.851565 0.820372 0.385537
0.915306 0.825389 0.369187
0.096034 0.104234 0.372043
0.170145 0.110077 0.362279
0.354162 0.128611 0.316513
0.575715 0.157703 0.262040
0.770648 0.192723 0.221118
0.854901 0.216995 0.215117
0.882050 0.224781 0.209974
0.890633 0.227271 0.205793
0.093917 0.149486 0.397340
0.137083 0.138270 0.374597
0.287045 0.148237 0.334319
0.499618 0.174211 0.283905
0.722843 0.209007 0.234551
0.837999 0.234162 0.221218
0.878777 0.242662 0.213193
0.891878 0.243962 0.206820
0.099918 0.272543 0.443416
0.126858 0.244154 0.412114
0.248811 0.234818 0.370719
0.443127 0.246528 0.320387
0.671939 0.275074 0.267198
0.816458 0.292103 0.240849
0.873731 0.293020 0.225470
0.894090 0.288187 0.214823
0.126160 0.443340 0.498960
0.141368 0.406641 0.465497
0.237704 0.380229 0.422299
0.410673 0.374161 0.370098
0.635041 0.389974 0.313862
0.795570 0.401081 0.278343
0.868199 0.392013 0.254829
0.897347 0.377893 0.238178
0.177400 0.625344 0.553119
0.180146 0.594458 0.524933
0.251046 0.563158 0.483934
0.402090 0.543749 0.430910
0.618266 0.543028 0.371442
0.779980 0.554924 0.333024
0.863815 0.540162 0.303393
0.901605 0.518049 0.280388
0.238027 0.731930 0.588644
0.238539 0.718396 0.572960
0.286226 0.702378 0.542223
0.404160 0.690128 0.498794
0.592580 0.685490 0.445587
0.776362 0.687168 0.387578
0.865080 0.686816 0.355516
0.906539 0.676736 0.332273
0.268816 0.770491 0.595937
0.270333 0.765704 0.587011
0.304389 0.760372 0.565669
0.395916 0.758225 0.533592
0.553689 0.761317 0.492050
0.743262 0.767686 0.439350
0.855947 0.772513 0.404089
0.910595 0.770619 0.378924
0.282511 0.784123 0.593352
0.284055 0.782118 0.586631
0.308464 0.781612 0.570893
0.379674 0.785246 0.545917
0.511208 0.794334 0.511844
0.698657 0.807077 0.468233
0.834444 0.815729 0.431556
0.907663 0.820310 0.407063
0.104352 0.113687 0.417984
0.164851 0.119383 0.414807
0.328517 0.135387 0.373658
0.540178 0.161392 0.314573
0.744680 0.194308 0.257844
0.845033 0.219166 0.240133
0.878891 0.229245 0.236455
0.889212 0.232309 0.233677
0.101943 0.151913 0.442989
0.135690 0.142250 0.429551
0.267005 0.151306 0.398376
0.468005 0.175308 0.347525
0.696309 0.208694 0.284290
0.826545 0.236815 0.255621
0.873390 0.246682 0.245906
0.888705 0.248504 0.240086
0.107237 0.261517 0.490016
0.127264 0.236301 0.469616
0.227007 0.224863 0.440003
0.405809 0.233421 0.393395
0.639152 0.261884 0.331109
0.801183 0.289314 0.288448
0.865928 0.294526 0.268799
0.889440 0.291601 0.257233
0.130404 0.423348 0.547389
0.141647 0.391456 0.525489
0.214284 0.362248 0.494567
0.367452 0.351467 0.449957
0.592040 0.366215 0.392266
0.775114 0.389925 0.340735
0.857698 0.386636 0.310092
0.891277 0.374792 0.290234
0.177528 0.608664 0.604147
0.180090 0.583421 0.586560
0.232107 0.550613 0.555891
0.361042 0.525885 0.513034
0.566588 0.520039 0.460760
0.754176 0.536647 0.409192
0.850114 0.524756 0.370275
0.893848 0.502839 0.341482
0.248254 0.734571 0.644062
0.247109 0.721467 0.631273
0.283270 0.702901 0.605969
0.384893 0.685919 0.569063
0.558872 0.675703 0.522340
0.748358 0.675294 0.470107
0.846667 0.673846 0.436634
0.895766 0.660501 0.408418
0.284873 0.780133 0.651721
0.284771 0.774907 0.643745
0.311619 0.767858 0.625556
0.391383 0.762335 0.597325
0.535579 0.760612 0.560769
0.720978 0.763195 0.523135
0.838759 0.765226 0.487540
0.900503 0.760709 0.455619
0.299740 0.795369 0.646794
0.300311 0.793232 0.640905
0.320096 0.791868 0.627325
0.381326 0.792947 0.604995
0.498328 0.797733 0.575088
0.677099 0.807667 0.546850
0.816764 0.813474 0.510682
0.897803 0.816372 0.479025
0.108102 0.118413 0.438718
0.160965 0.123963 0.438711
0.309652 0.138559 0.403343
0.511410 0.162454 0.345645
0.718819 0.193297 0.282057
0.832345 0.218131 0.253369
0.874355 0.229994 0.247414
0.887807 0.234200 0.244046
0.106376 0.153761 0.465015
0.135546 0.145274 0.456619
0.253056 0.153361 0.431314
0.442307 0.175525 0.382726
0.669015 0.207319 0.315221
0.811310 0.235434 0.275253
0.866514 0.247578 0.261838
0.885658 0.250872 0.255586
0.111506 0.252158 0.511987
0.128532 0.229560 0.497910
0.212139 0.216500 0.475451
0.376128 0.222898 0.433725
0.606388 0.251242 0.371194
0.781478 0.281000 0.318024
0.856502 0.292319 0.293850
0.884939 0.293074 0.281214
0.132626 0.403032 0.569828
0.142255 0.374471 0.554699
0.198074 0.343364 0.532316
0.332554 0.329133 0.496090
0.548306 0.342074 0.443587
0.748473 0.369548 0.383533
0.845181 0.377028 0.347227
0.885505 0.371678 0.324939
0.175908 0.584661 0.628589
0.178702 0.562286 0.617294
0.217633 0.528437 0.595842
0.324447 0.498493 0.564585
0.509033 0.485230 0.523377
0.718576 0.504158 0.467610
0.833886 0.505461 0.421729
0.887065 0.491527 0.388801
0.245268 0.721716 0.670700
0.245244 0.710422 0.663012
0.272683 0.691524 0.646472
0.354875 0.671297 0.620754
0.505123 0.655606 0.586101
0.706025 0.654024 0.543116
0.826812 0.657869 0.505708
0.888747 0.646374 0.473135
0.291092 0.780134 0.686999
0.292148 0.775991 0.682556
0.314761 0.769125 0.671050
0.381863 0.762003 0.651627
0.507231 0.756843 0.624687
0.691447 0.756945 0.594216
0.820540 0.758675 0.562455
0.891583 0.753544 0.532459
0.313406 0.802594 0.689569
0.314542 0.801136 0.686092
0.332309 0.799998 0.677290
0.385667 0.800266 0.661735
0.488636 0.802913 0.639584
0.657190 0.809722 0.615923
0.800489 0.814419 0.590739
0.888224 0.816272 0.563828
0.111040 0.120556 0.447446
0.158573 0.126118 0.449135
0.297329 0.139914 0.418201
0.491727 0.162403 0.362937
0.699311 0.191713 0.296779
0.822016 0.216797 0.261144
0.870313 0.229816 0.252217
0.886602 0.234736 0.247362
0.108845 0.154568 0.474402
0.135211 0.146480 0.468234
0.243984 0.154024 0.446366
0.424661 0.174958 0.400025
0.648053 0.205313 0.331663
0.798332 0.233471 0.285642
0.860447 0.247021 0.268935
0.883243 0.251692 0.261755
0.113302 0.245223 0.520167
0.129170 0.224833 0.509848
0.203113 0.210735 0.490788
0.357085 0.215810 0.452122
0.583373 0.244302 0.391354
0.765924 0.274225 0.332737
0.848518 0.288645 0.304721
0.881082 0.292053 0.291116
0.132990 0.387780 0.577185
0.142415 0.362314 0.566681
0.188323 0.330026 0.548594
0.310446 0.313518 0.517246
0.518501 0.325347 0.469346
0.728398 0.353361 0.404932
0.834836 0.366282 0.363912
0.880379 0.365586 0.340213
0.173852 0.565404 0.636909
0.176981 0.544979 0.629650
0.207927 0.510647 0.613934
0.299356 0.476803 0.589923
0.467346 0.457248 0.555870
0.690799 0.476828 0.498696
0.820242 0.485049 0.447210
0.881158 0.477705 0.412197
0.240504 0.708405 0.681173
0.241683 0.698467 0.677266
0.263024 0.679210 0.666441
0.329877 0.656112 0.648354
0.459922 0.635423 0.622846
0.667658 0.631660 0.588656
0.808139 0.637317 0.546833
0.882862 0.629277 0.511364
0.291478 0.776555 0.704396
0.293846 0.773212 0.702642
0.313126 0.766162 0.695884
0.368647 0.757287 0.683184
0.475506 0.748844 0.664362
0.654791 0.746356 0.640727
0.798479 0.747965 0.613081
0.883237 0.744583 0.586948
0.321180 0.805416 0.714843
0.322108 0.804255 0.713085
0.338398 0.803199 0.708216
0.384962 0.802854 0.698746
0.474636 0.803938 0.684109
0.631366 0.808470 0.665840
0.780013 0.813038 0.650123
0.877720 0.815690 0.630953
