app/src/main/assets/cube/Yokocho02.cube
# LUT by SparkleStock. Enhanced with VOXCOLOR algorithms.
LUT_3D_SIZE 5
DOMAIN_MIN 0.000000 0.000000 0.000000
DOMAIN_MAX 0.903226 0.903226 0.903226
0.054701 0.097680 0.078144
0.372476 0.108212 0.106219
0.751381 0.123053 0.149624
0.907393 0.137753 0.174075
0.932711 0.142865 0.178274
0.055796 0.282146 0.182985
0.294192 0.258063 0.160457
0.694274 0.243619 0.177534
0.893382 0.228197 0.198706
0.929023 0.213971 0.199626
0.065737 0.585017 0.352570
0.206915 0.561087 0.312750
0.635943 0.524815 0.259681
0.879028 0.497339 0.256989
0.928660 0.456155 0.255047
0.078593 0.763039 0.459049
0.146321 0.766685 0.439319
0.486734 0.769923 0.382359
0.880395 0.741451 0.328409
0.934510 0.726325 0.322667
0.081768 0.804317 0.489149
0.124897 0.812239 0.476902
0.370068 0.827666 0.434412
0.777706 0.822926 0.383323
0.936179 0.816805 0.357516
0.057970 0.104274 0.163622
0.317423 0.110802 0.160209
0.719474 0.123132 0.178966
0.903944 0.136061 0.195306
0.930305 0.140184 0.196710
0.053609 0.265967 0.228232
0.230493 0.227707 0.191952
0.624085 0.217986 0.195123
0.882584 0.208944 0.210671
0.928801 0.195829 0.207347
0.064008 0.572105 0.372695
0.176922 0.521334 0.322633
0.573362 0.481548 0.269812
0.859202 0.464034 0.262716
0.926079 0.421761 0.255870
0.078518 0.764948 0.471268
0.131622 0.759486 0.447836
0.448436 0.754093 0.388886
0.856879 0.722652 0.329196
0.928419 0.707641 0.319594
0.082611 0.807108 0.495185
0.110860 0.810285 0.482885
0.327849 0.827007 0.443999
0.749731 0.822039 0.388965
0.931324 0.813443 0.359642
0.066698 0.114530 0.277215
0.277079 0.117771 0.259900
0.679467 0.126671 0.239991
0.895529 0.135346 0.240778
0.924959 0.136288 0.235376
0.058171 0.244935 0.334770
0.187538 0.206619 0.286403
0.561895 0.198746 0.256086
0.861222 0.189407 0.250168
0.922070 0.178220 0.240751
0.058236 0.553657 0.443689
0.142446 0.489802 0.388913
0.491846 0.435918 0.330993
0.813483 0.414663 0.307828
0.915292 0.370227 0.286488
0.075755 0.771590 0.522182
0.114756 0.755121 0.495453
0.386489 0.731441 0.438576
0.803926 0.687924 0.374805
0.913327 0.672986 0.346307
0.080929 0.813711 0.529421
0.099956 0.814474 0.515491
0.268158 0.825927 0.477267
0.690319 0.822420 0.426163
0.918877 0.808791 0.383244
0.079483 0.122486 0.353547
0.238327 0.123446 0.341248
0.622195 0.133947 0.294226
0.878781 0.137432 0.274067
0.917158 0.138615 0.270846
0.068840 0.220393 0.413334
0.156941 0.186118 0.381135
0.498243 0.179099 0.335540
0.835387 0.179130 0.295206
0.909248 0.170730 0.284188
0.059617 0.507401 0.518504
0.111750 0.449809 0.483430
0.402100 0.389460 0.429305
0.773221 0.370001 0.374343
0.898575 0.326941 0.339997
0.069410 0.775493 0.600756
0.098789 0.752360 0.578443
0.320832 0.714355 0.530557
0.747494 0.664813 0.475778
0.891474 0.643276 0.435821
0.080130 0.827257 0.603565
0.093648 0.825612 0.590428
0.228543 0.829911 0.557263
0.627171 0.828548 0.518331
0.897222 0.807178 0.467037
0.085250 0.124747 0.372500
0.219738 0.124862 0.365308
0.577179 0.134762 0.317496
0.857126 0.138471 0.282206
0.912887 0.139080 0.278827
0.073822 0.206745 0.433893
0.145450 0.176914 0.412057
0.450604 0.168131 0.368018
0.804007 0.171595 0.314820
0.899747 0.167579 0.299289
0.062596 0.462545 0.538464
0.100868 0.409950 0.518308
0.329831 0.337856 0.477945
0.726770 0.315626 0.410965
0.883329 0.293769 0.364759
0.066049 0.745813 0.625190
0.086171 0.724224 0.616499
0.236216 0.678041 0.591315
0.664735 0.620252 0.553753
0.875609 0.594446 0.500785
0.077198 0.832837 0.654790
0.089021 0.831686 0.650971
0.192190 0.832193 0.636198
0.548097 0.828817 0.608691
0.870732 0.812079 0.577813
