app/src/main/assets/cube/Yokocho01.cube
# LUT by SparkleStock. Enhanced with VOXCOLOR algorithms.
LUT_3D_SIZE 8
DOMAIN_MIN 0.000000 0.000000 0.000000
DOMAIN_MAX 0.903226 0.903226 0.903226
0.074237 0.101587 0.121123
0.206767 0.107826 0.123959
0.415361 0.116342 0.128268
0.622978 0.125637 0.132160
0.773445 0.134570 0.134712
0.840372 0.142511 0.137926
0.867754 0.145252 0.139879
0.878010 0.147056 0.140659
0.076695 0.162275 0.160636
0.182439 0.160171 0.148689
0.371713 0.165424 0.145369
0.580831 0.171109 0.145430
0.755997 0.173071 0.145513
0.836097 0.174425 0.147409
0.869943 0.174483 0.149387
0.881834 0.172957 0.149429
0.085848 0.283761 0.236039
0.162527 0.272484 0.215115
0.343197 0.267476 0.188821
0.555932 0.268047 0.169812
0.740454 0.271061 0.164599
0.832897 0.261785 0.162897
0.872811 0.252265 0.163396
0.887485 0.243370 0.162588
0.100437 0.435953 0.327165
0.151013 0.421566 0.305814
0.314550 0.411028 0.264163
0.527418 0.406787 0.222614
0.729934 0.407469 0.195620
0.832367 0.396449 0.187612
0.877797 0.378710 0.184855
0.895965 0.362488 0.182674
0.119107 0.587128 0.414770
0.150161 0.578651 0.401469
0.279013 0.573699 0.364849
0.482834 0.567805 0.308631
0.718165 0.559780 0.244750
0.834028 0.560305 0.225197
0.885143 0.542005 0.216750
0.906979 0.522583 0.212261
0.140092 0.675608 0.468463
0.159437 0.673424 0.462187
0.257607 0.677254 0.436740
0.430800 0.682813 0.393463
0.656124 0.686974 0.337120
0.829216 0.688669 0.286684
0.890967 0.682274 0.266868
0.915389 0.671829 0.258165
0.157769 0.719658 0.498050
0.172235 0.720475 0.494531
0.248886 0.727029 0.475642
0.393647 0.736794 0.441820
0.596293 0.746981 0.395363
0.787583 0.751799 0.344781
0.878673 0.755905 0.318822
0.917894 0.755601 0.306026
0.166694 0.738745 0.510631
0.180026 0.742221 0.509569
0.241334 0.749426 0.495186
0.362892 0.759939 0.467934
0.543181 0.772352 0.429434
0.737728 0.780683 0.384536
0.854761 0.789328 0.354087
0.912204 0.795586 0.338188
0.073481 0.108204 0.169711
0.185519 0.116053 0.168595
0.385648 0.122861 0.164183
0.598901 0.129571 0.158609
0.766182 0.136583 0.153679
0.838524 0.142474 0.151331
0.867052 0.145606 0.150772
0.877364 0.147574 0.150679
0.075207 0.162159 0.194880
0.157513 0.157926 0.182154
0.326787 0.161263 0.173205
0.534921 0.165656 0.165822
0.732836 0.167241 0.159073
0.829343 0.169379 0.156654
0.867962 0.170677 0.156516
0.880956 0.169769 0.154869
0.085080 0.278363 0.256250
0.144605 0.258168 0.233546
0.303484 0.252251 0.208331
0.509236 0.254589 0.187678
0.710633 0.258639 0.175763
0.823091 0.251374 0.170190
0.869972 0.242741 0.168502
0.886600 0.234271 0.165786
0.100803 0.429592 0.337740
0.141478 0.402348 0.312125
0.288462 0.390094 0.274636
0.492069 0.388377 0.235887
0.700976 0.391213 0.204921
0.821063 0.383149 0.192872
0.873989 0.365627 0.187654
0.894580 0.349182 0.183668
0.120150 0.584811 0.421887
0.144518 0.565885 0.402821
0.265390 0.555956 0.366774
0.462443 0.549351 0.313376
0.695406 0.543660 0.250994
0.822590 0.548075 0.227245
0.880109 0.529723 0.216134
0.904350 0.509315 0.210026
0.140403 0.675925 0.473531
0.155782 0.669865 0.464550
0.248290 0.670956 0.439524
0.416679 0.674322 0.396650
0.640442 0.676793 0.338874
0.819417 0.679546 0.286961
0.885721 0.673854 0.264841
0.912029 0.662730 0.254589
0.157104 0.719926 0.499118
0.168341 0.719474 0.495953
0.238528 0.724905 0.478873
0.378396 0.733442 0.446074
0.580972 0.742354 0.398522
0.777522 0.747191 0.345593
0.873690 0.751403 0.317484
0.915297 0.750483 0.303683
0.168018 0.740886 0.512222
0.175698 0.741406 0.509419
0.230224 0.748351 0.497818
0.347503 0.759285 0.473462
0.528277 0.771512 0.435012
0.727564 0.779611 0.387408
0.850022 0.787821 0.354922
0.910439 0.793285 0.338243
0.072724 0.116428 0.238119
0.169248 0.123918 0.232844
0.359940 0.132703 0.220458
0.575104 0.139427 0.205825
0.755570 0.142444 0.192491
0.833328 0.144939 0.181574
0.862658 0.146594 0.175669
0.873451 0.148106 0.173028
0.073926 0.166035 0.257134
0.139939 0.158424 0.237322
0.295014 0.163003 0.222792
0.500485 0.168865 0.209763
0.710728 0.169334 0.196075
0.819870 0.168660 0.184407
0.862355 0.168288 0.177928
0.876525 0.166835 0.173110
0.083184 0.275523 0.302527
0.130943 0.251172 0.274220
0.269069 0.244609 0.250368
0.463277 0.246785 0.229776
0.673005 0.249318 0.211559
0.806404 0.240496 0.195994
0.862043 0.231164 0.187241
0.881791 0.222356 0.180314
0.099238 0.423905 0.367962
0.132999 0.391604 0.338977
0.258224 0.374874 0.306999
0.444616 0.369593 0.272652
0.654504 0.370174 0.238416
0.798515 0.362427 0.216092
0.863790 0.345192 0.203429
0.889476 0.328573 0.194624
0.120169 0.583154 0.442327
0.139785 0.557515 0.420586
0.246070 0.538337 0.387792
0.427537 0.524720 0.339506
0.652883 0.517142 0.279717
0.798343 0.523411 0.246629
0.868539 0.505688 0.228086
0.898969 0.485090 0.217320
0.141142 0.678976 0.489226
0.153364 0.669485 0.477981
0.234072 0.664368 0.454830
0.390732 0.661827 0.415011
0.609773 0.660606 0.358692
0.797490 0.661016 0.302167
0.874072 0.656347 0.273107
0.906253 0.645353 0.257810
0.157196 0.722756 0.509671
0.166092 0.720729 0.504988
0.225586 0.722923 0.489803
0.355060 0.728449 0.459982
0.554002 0.735625 0.414339
0.757588 0.738725 0.359006
0.863286 0.742554 0.325427
0.910360 0.741066 0.307109
0.168291 0.743337 0.519326
0.173748 0.742835 0.515965
0.218320 0.747899 0.505599
0.325626 0.757658 0.483802
0.502368 0.770076 0.448181
0.708212 0.777566 0.399540
0.840121 0.784898 0.363242
0.906342 0.789627 0.343050
0.072913 0.125629 0.310749
0.154995 0.132374 0.305132
0.334875 0.142964 0.287082
0.549035 0.150576 0.263304
0.739781 0.151443 0.239450
0.825333 0.149803 0.221044
0.855921 0.148676 0.209367
0.867287 0.148962 0.203552
0.073127 0.170406 0.328752
0.126086 0.160654 0.306133
0.269817 0.166836 0.287710
0.471455 0.175251 0.268547
0.688059 0.176715 0.246150
0.808206 0.171944 0.225284
0.854176 0.168190 0.211387
0.869767 0.165383 0.202804
0.080974 0.273889 0.365097
0.118620 0.248974 0.334516
0.239266 0.241510 0.310796
0.422456 0.243281 0.288453
0.636331 0.245859 0.263843
0.787015 0.233982 0.237578
0.850673 0.222150 0.219773
0.873892 0.212290 0.207873
0.096779 0.419690 0.417165
0.123662 0.386841 0.386774
0.228448 0.365324 0.357645
0.397848 0.355621 0.326346
0.606481 0.354671 0.291578
0.770880 0.344924 0.258864
0.848865 0.326027 0.236005
0.880722 0.308184 0.220620
0.119393 0.582301 0.477809
0.134721 0.552833 0.454346
0.225109 0.525154 0.423878
0.388550 0.504622 0.382429
0.603406 0.495047 0.331181
0.765131 0.499355 0.290692
0.850935 0.480084 0.261607
0.890156 0.457486 0.242598
0.142476 0.684783 0.518426
0.151827 0.672444 0.505629
0.220000 0.660517 0.483569
0.362713 0.650956 0.448716
0.573328 0.644686 0.399827
0.766140 0.639933 0.340697
0.856460 0.635204 0.301597
0.897944 0.623590 0.277422
0.158759 0.728961 0.533038
0.165682 0.725321 0.526499
0.214961 0.723601 0.511959
0.331942 0.724968 0.486117
0.521849 0.729014 0.446929
0.729682 0.729322 0.392774
0.847698 0.731765 0.351787
0.903320 0.729069 0.325217
0.169200 0.748186 0.537126
0.173793 0.747355 0.533180
0.209364 0.749932 0.522750
0.304256 0.757250 0.503390
0.470634 0.768623 0.473103
0.681080 0.775675 0.427674
0.825046 0.781610 0.387137
0.900007 0.785226 0.360716
0.074450 0.135035 0.374438
0.141218 0.141560 0.373614
0.308207 0.151659 0.353360
0.518753 0.159810 0.321133
0.717923 0.162052 0.285138
0.815020 0.156423 0.261682
0.848172 0.152024 0.245764
0.860079 0.150401 0.237216
0.073035 0.173060 0.393777
0.113853 0.163726 0.377920
0.246271 0.170215 0.358839
0.442791 0.180842 0.332845
0.663476 0.186235 0.299798
0.794743 0.178283 0.272140
0.844481 0.170766 0.252260
0.861866 0.166189 0.240322
0.079123 0.271594 0.431691
0.106327 0.248547 0.406279
0.212878 0.239780 0.381984
0.387888 0.241813 0.355306
0.605169 0.247904 0.324184
0.767642 0.234184 0.289816
0.837433 0.218731 0.263546
0.863982 0.207337 0.247246
0.094085 0.415427 0.478624
0.112797 0.384313 0.450266
0.201352 0.359580 0.420741
0.358256 0.347876 0.390213
0.566130 0.348879 0.357948
0.742817 0.336883 0.318648
0.831105 0.314045 0.285186
0.868940 0.293617 0.262877
0.117589 0.580255 0.525745
0.128384 0.549920 0.501520
0.204213 0.518056 0.471572
0.351049 0.494589 0.437871
0.555244 0.485013 0.401440
0.727519 0.484188 0.359570
0.828806 0.460173 0.319010
0.877756 0.432735 0.289219
0.144203 0.692269 0.560763
0.150665 0.677988 0.547559
0.208661 0.660788 0.525209
0.338148 0.645089 0.496213
0.537033 0.633306 0.460381
0.729062 0.622472 0.404927
0.834099 0.615888 0.355973
0.887041 0.601767 0.320593
0.162036 0.738524 0.570112
0.166956 0.733481 0.562541
0.209175 0.728299 0.547199
0.314175 0.725115 0.525398
0.490021 0.724531 0.496537
0.697048 0.722010 0.450218
0.827819 0.721827 0.402758
0.894251 0.716787 0.365546
0.171865 0.756699 0.568617
0.175484 0.755384 0.563500
0.205433 0.755735 0.552312
0.288276 0.759880 0.535313
0.438595 0.768211 0.511874
0.649137 0.775393 0.475798
0.805475 0.779344 0.432806
0.891469 0.781162 0.398424
0.076151 0.142786 0.414140
0.131063 0.148580 0.415805
0.280184 0.158672 0.397935
0.482399 0.166872 0.364635
0.690808 0.168712 0.322181
0.802396 0.161912 0.288041
0.841378 0.156098 0.271317
0.854450 0.152773 0.262513
0.074004 0.174957 0.433918
0.106140 0.166817 0.424402
0.222898 0.173701 0.410997
0.410021 0.184670 0.385289
0.635257 0.190865 0.344934
0.779201 0.184235 0.306932
0.834750 0.175341 0.284603
0.854438 0.169284 0.272027
0.078324 0.263177 0.471960
0.098332 0.243011 0.455779
0.186564 0.233719 0.439146
0.349711 0.235256 0.414710
0.571741 0.243533 0.378741
0.747085 0.236759 0.336695
0.824274 0.221090 0.305852
0.854441 0.208683 0.287314
0.090725 0.399132 0.519137
0.103884 0.373003 0.501228
0.171743 0.347972 0.480142
0.313338 0.335048 0.454181
0.523997 0.337524 0.421685
0.716228 0.333578 0.378381
0.814044 0.310236 0.338307
0.856719 0.288176 0.311759
0.112253 0.564654 0.567191
0.120031 0.541006 0.552084
0.176857 0.510603 0.529905
0.305368 0.485670 0.502665
0.504710 0.474089 0.471096
0.695276 0.475111 0.430280
0.807753 0.448059 0.382911
0.862781 0.416838 0.347458
0.144575 0.695550 0.605576
0.148473 0.681722 0.594803
0.195223 0.661919 0.576026
0.310352 0.642194 0.551120
0.497911 0.626864 0.520845
0.695313 0.617422 0.480722
0.811086 0.608292 0.434893
0.873067 0.589104 0.395490
0.165921 0.748855 0.615851
0.168636 0.743038 0.608748
0.204129 0.735657 0.595095
0.299122 0.729232 0.575825
0.464263 0.725279 0.551987
0.669599 0.722943 0.524794
0.806828 0.719321 0.482981
0.882159 0.710458 0.440830
0.176366 0.768622 0.613369
0.178733 0.766735 0.608007
0.204572 0.766094 0.597696
0.278865 0.767890 0.582389
0.417089 0.772831 0.563040
0.622688 0.780925 0.544415
0.784308 0.782097 0.508467
0.880026 0.781264 0.469589
0.077065 0.146284 0.431785
0.125488 0.151346 0.434231
0.260810 0.161691 0.419717
0.453048 0.170509 0.387925
0.662830 0.172754 0.342519
0.788297 0.165271 0.302695
0.835448 0.158428 0.282849
0.851555 0.154099 0.272254
0.074796 0.175771 0.453344
0.102294 0.168920 0.447423
0.207078 0.175684 0.437485
0.383589 0.186548 0.413063
0.606335 0.193444 0.370536
0.761685 0.187301 0.327000
0.825589 0.178455 0.301370
0.849265 0.171847 0.287596
0.078217 0.255900 0.491301
0.094554 0.238066 0.480632
0.168948 0.227929 0.468426
0.319619 0.228874 0.446736
0.538895 0.238888 0.411037
0.725178 0.234829 0.363998
0.811954 0.221899 0.330429
0.847078 0.210570 0.310855
0.088981 0.382704 0.538325
0.099255 0.359716 0.526675
0.151597 0.334166 0.511428
0.277092 0.319960 0.490727
0.481104 0.322712 0.461947
0.687584 0.322665 0.415575
0.798028 0.304882 0.373291
0.847131 0.285573 0.345280
0.108426 0.542671 0.587298
0.114427 0.522859 0.577932
0.156752 0.493664 0.562900
0.264463 0.466640 0.543575
0.446811 0.450886 0.519342
0.657407 0.454891 0.479948
0.787317 0.434659 0.431013
0.851025 0.406501 0.393412
0.139626 0.681714 0.627219
0.143333 0.670023 0.620696
0.178788 0.651227 0.608590
0.273140 0.630715 0.591756
0.438282 0.613304 0.570513
0.649879 0.605732 0.542219
0.786724 0.599001 0.500021
0.860259 0.577980 0.460006
0.165176 0.748717 0.646248
0.168248 0.744408 0.642138
0.197710 0.737307 0.633290
0.278861 0.729873 0.620296
0.425962 0.724074 0.603964
0.634652 0.721737 0.585771
0.783941 0.718185 0.553897
0.869553 0.708101 0.516508
0.179225 0.776632 0.650884
0.181778 0.775653 0.647511
0.204557 0.774988 0.640514
0.270302 0.775872 0.630001
0.395265 0.779232 0.616683
0.595322 0.786010 0.603575
0.763508 0.789031 0.583177
0.868612 0.788287 0.552163
0.077719 0.147907 0.439490
0.122550 0.152316 0.441661
0.248677 0.162652 0.429701
0.432993 0.171792 0.400080
0.641375 0.174456 0.354316
0.776002 0.167418 0.311632
0.830296 0.159994 0.288702
0.849841 0.154865 0.275861
0.075291 0.175820 0.461908
0.100169 0.169927 0.457889
0.197196 0.176462 0.449596
0.365565 0.186979 0.426105
0.584242 0.194123 0.383397
0.747067 0.188780 0.337851
0.818339 0.179931 0.309373
0.846020 0.173118 0.294241
0.077772 0.250518 0.499109
0.092740 0.234607 0.491854
0.158763 0.223942 0.481569
0.300660 0.224364 0.461362
0.516093 0.235292 0.426884
0.708737 0.232290 0.377511
0.802683 0.220691 0.341341
0.841860 0.210372 0.320961
0.087177 0.370918 0.545472
0.097008 0.350031 0.537738
0.140149 0.324053 0.525451
0.254585 0.308855 0.507878
0.452108 0.311461 0.482275
0.666948 0.312483 0.433893
0.785958 0.297400 0.389062
0.839840 0.280692 0.360373
0.105122 0.526387 0.594943
0.111056 0.508176 0.588986
0.144351 0.479187 0.578159
0.236924 0.450236 0.563892
0.404701 0.430982 0.544821
0.628396 0.435760 0.506174
0.770987 0.418664 0.454851
0.841801 0.394225 0.416418
0.134786 0.668260 0.636036
0.139256 0.657990 0.632529
0.166690 0.639586 0.624654
0.243803 0.617787 0.613298
0.388103 0.597753 0.598947
0.608503 0.590506 0.580112
0.763835 0.583535 0.538343
0.849295 0.562886 0.498174
0.162457 0.744807 0.661023
0.166511 0.741305 0.659286
0.190918 0.734246 0.654167
0.258351 0.725692 0.646177
0.385564 0.717805 0.635961
0.591737 0.714896 0.624658
0.756216 0.711845 0.601396
0.856153 0.702404 0.570931
0.179744 0.779713 0.673589
0.182569 0.779168 0.671315
0.202708 0.778520 0.667502
0.259894 0.778891 0.661857
0.370398 0.781251 0.654445
0.560948 0.787132 0.646437
0.737224 0.792188 0.638459
0.854576 0.793095 0.618321
