app/src/main/assets/cube/Yokocho03.cube
# LUT by SparkleStock. Enhanced with VOXCOLOR algorithms.
LUT_3D_SIZE 32
0.050794 0.035165 0.097680
0.091630 0.039041 0.095648
0.132467 0.042916 0.093615
0.173303 0.046792 0.091583
0.214140 0.050668 0.089551
0.254977 0.054543 0.087518
0.316925 0.061806 0.084580
0.383095 0.069747 0.081460
0.449265 0.077687 0.078341
0.515436 0.085628 0.075222
0.581606 0.093568 0.072102
0.628713 0.102170 0.070936
0.666289 0.111103 0.070747
0.703864 0.120036 0.070558
0.741439 0.128969 0.070369
0.779015 0.137902 0.070180
0.804017 0.145228 0.070771
0.816448 0.150947 0.072141
0.828879 0.156666 0.073512
0.841309 0.162385 0.074883
0.853740 0.168104 0.076253
0.862909 0.172484 0.077451
0.865556 0.174186 0.078302
0.868203 0.175887 0.079152
0.870850 0.177589 0.080003
0.873496 0.179290 0.080854
0.875836 0.180811 0.081579
0.876639 0.181425 0.081673
0.877443 0.182039 0.081768
0.878246 0.182654 0.081862
0.879050 0.183268 0.081957
0.879853 0.183883 0.082051
0.052353 0.061255 0.113750
0.091717 0.063832 0.110117
0.131081 0.066408 0.106484
0.170445 0.068985 0.102850
0.209808 0.071562 0.099217
0.249172 0.074138 0.095584
0.310257 0.080583 0.091936
0.375687 0.087800 0.088286
0.441116 0.095018 0.084636
0.506546 0.102236 0.080986
0.571975 0.109454 0.077336
0.619664 0.117187 0.075774
0.658484 0.125177 0.075256
0.697303 0.133168 0.074737
0.736123 0.141159 0.074219
0.774942 0.149150 0.073700
0.800878 0.155726 0.074053
0.813931 0.160887 0.075278
0.826983 0.166048 0.076502
0.840036 0.171209 0.077726
0.853089 0.176369 0.078951
0.862737 0.180347 0.080020
0.865576 0.181957 0.080779
0.868415 0.183567 0.081538
0.871254 0.185177 0.082298
0.874093 0.186787 0.083057
0.876565 0.188175 0.083695
0.877204 0.188451 0.083725
0.877842 0.188727 0.083756
0.878481 0.189003 0.083786
0.879120 0.189279 0.083817
0.879759 0.189555 0.083847
0.053913 0.087345 0.129820
0.091804 0.088623 0.124586
0.129695 0.089900 0.119352
0.167586 0.091178 0.114117
0.205477 0.092456 0.108883
0.243368 0.093733 0.103649
0.303590 0.099359 0.099293
0.368278 0.105854 0.095112
0.432967 0.112349 0.090932
0.497655 0.118844 0.086751
0.562344 0.125339 0.082570
0.610615 0.132203 0.080612
0.650679 0.139252 0.079764
0.690743 0.146300 0.078916
0.730806 0.153349 0.078069
0.770870 0.160397 0.077221
0.797739 0.166223 0.077336
0.811414 0.170826 0.078414
0.825088 0.175429 0.079492
0.838763 0.180032 0.080570
0.852438 0.184635 0.081648
0.862565 0.188210 0.082589
0.865596 0.189728 0.083257
0.868627 0.191247 0.083925
0.871658 0.192765 0.084592
0.874689 0.194284 0.085260
0.877294 0.195539 0.085811
0.877768 0.195476 0.085778
0.878242 0.195414 0.085744
0.878716 0.195351 0.085710
0.879190 0.195289 0.085677
0.879664 0.195226 0.085643
0.055473 0.113435 0.145890
0.091891 0.113414 0.139055
0.128309 0.113392 0.132220
0.164727 0.113371 0.125385
0.201145 0.113350 0.118550
0.237563 0.113328 0.111715
0.296923 0.118135 0.106649
0.360870 0.123907 0.101938
0.424817 0.129680 0.097227
0.488765 0.135452 0.092516
0.552712 0.141224 0.087805
0.601567 0.147219 0.085450
0.642874 0.153326 0.084272
0.684182 0.159432 0.083095
0.725490 0.165538 0.081918
0.766797 0.171645 0.080741
0.794600 0.176720 0.080619
0.808896 0.180765 0.081550
0.823193 0.184810 0.082482
0.837490 0.188855 0.083413
0.851787 0.192900 0.084345
0.862392 0.196072 0.085158
0.865615 0.197499 0.085734
0.868839 0.198926 0.086311
0.872062 0.200353 0.086887
0.875285 0.201781 0.087463
0.878022 0.202903 0.087927
0.878332 0.202502 0.087830
0.878641 0.202101 0.087732
0.878951 0.201700 0.087635
0.879260 0.201299 0.087537
0.879570 0.200898 0.087439
0.057033 0.139525 0.161960
0.091978 0.138205 0.153524
0.126923 0.136884 0.145088
0.161868 0.135564 0.136652
0.196814 0.134244 0.128216
0.231759 0.132923 0.119780
0.290255 0.136911 0.114006
0.353462 0.141961 0.108764
0.416668 0.147011 0.103522
0.479875 0.152060 0.098281
0.543081 0.157110 0.093039
0.592518 0.162236 0.090287
0.635070 0.167400 0.088781
0.677621 0.172564 0.087275
0.720173 0.177728 0.085768
0.762725 0.182892 0.084262
0.791460 0.187217 0.083901
0.806379 0.190704 0.084686
0.821298 0.194191 0.085472
0.836217 0.197678 0.086257
0.851136 0.201165 0.087042
0.862220 0.203935 0.087727
0.865635 0.205271 0.088212
0.869050 0.206606 0.088697
0.872466 0.207942 0.089182
0.875881 0.209277 0.089666
0.878751 0.210267 0.090044
0.878896 0.209528 0.089882
0.879041 0.208788 0.089720
0.879186 0.208049 0.089559
0.879331 0.207309 0.089397
0.879475 0.206570 0.089235
0.058592 0.165615 0.178030
0.092065 0.162996 0.167993
0.125537 0.160376 0.157956
0.159010 0.157757 0.147919
0.192482 0.155138 0.137882
0.225955 0.152518 0.127846
0.283588 0.155687 0.121362
0.346053 0.160014 0.115590
0.408519 0.164341 0.109818
0.470984 0.168668 0.104045
0.533450 0.172995 0.098273
0.583469 0.177252 0.095125
0.627265 0.181474 0.093289
0.671061 0.185696 0.091454
0.714857 0.189918 0.089618
0.758653 0.194139 0.087782
0.788321 0.197715 0.087184
0.803862 0.200644 0.087823
0.819403 0.203573 0.088461
0.834944 0.206501 0.089100
0.850485 0.209430 0.089739
0.862048 0.211798 0.090296
0.865655 0.213042 0.090690
0.869262 0.214286 0.091083
0.872870 0.215530 0.091476
0.876477 0.216774 0.091870
0.879480 0.217631 0.092160
0.879460 0.216553 0.091934
0.879440 0.215475 0.091708
0.879420 0.214397 0.091483
0.879401 0.213319 0.091257
0.879381 0.212242 0.091032
0.063500 0.212777 0.209579
0.094135 0.209385 0.199184
0.124770 0.205992 0.188789
0.155405 0.202600 0.178393
0.186040 0.199208 0.167998
0.216675 0.195815 0.157603
0.274864 0.197942 0.148115
0.338562 0.201173 0.138809
0.402261 0.204404 0.129502
0.465960 0.207634 0.120196
0.529659 0.210865 0.110889
0.580217 0.214291 0.106227
0.624206 0.217815 0.103886
0.668194 0.221338 0.101546
0.712182 0.224862 0.099206
0.756170 0.228385 0.096865
0.786180 0.230936 0.095873
0.802214 0.232514 0.096228
0.818247 0.234092 0.096583
0.834281 0.235670 0.096938
0.850314 0.237248 0.097294
0.862292 0.238407 0.097634
0.866160 0.238729 0.097943
0.870028 0.239051 0.098253
0.873896 0.239372 0.098562
0.877764 0.239694 0.098872
0.880991 0.239727 0.099081
0.881013 0.238319 0.098792
0.881034 0.236910 0.098502
0.881055 0.235501 0.098212
0.881077 0.234092 0.097923
0.881098 0.232683 0.097633
0.069077 0.264154 0.244224
0.096602 0.260094 0.233719
0.124127 0.256033 0.223214
0.151651 0.251973 0.212709
0.179176 0.247913 0.202204
0.206701 0.243853 0.191699
0.265728 0.244893 0.178747
0.331055 0.246953 0.165306
0.396382 0.249012 0.151864
0.461709 0.251072 0.138423
0.527037 0.253132 0.124981
0.578126 0.255735 0.118581
0.622095 0.258609 0.115701
0.666065 0.261483 0.112821
0.710035 0.264357 0.109941
0.754005 0.267231 0.107061
0.784240 0.268702 0.105643
0.800739 0.268770 0.105687
0.817239 0.268839 0.105731
0.833739 0.268908 0.105775
0.850239 0.268976 0.105820
0.862620 0.268766 0.105925
0.866762 0.267999 0.106152
0.870905 0.267233 0.106379
0.875047 0.266466 0.106606
0.879190 0.265699 0.106833
0.882659 0.264770 0.106964
0.882763 0.263032 0.106610
0.882867 0.261294 0.106256
0.882970 0.259556 0.105903
0.883074 0.257818 0.105549
0.883178 0.256079 0.105195
0.074654 0.315530 0.278869
0.099069 0.310802 0.268254
0.123483 0.306074 0.257639
0.147898 0.301346 0.247025
0.172312 0.296618 0.236410
0.196727 0.291890 0.225795
0.256592 0.291843 0.209379
0.323548 0.292732 0.191803
0.390503 0.293621 0.174227
0.457459 0.294510 0.156650
0.524414 0.295399 0.139074
0.576034 0.297178 0.130935
0.619985 0.299402 0.127515
0.663937 0.301627 0.124096
0.707888 0.303851 0.120676
0.751840 0.306076 0.117256
0.782299 0.306468 0.115413
0.799265 0.305027 0.115146
0.816232 0.303586 0.114879
0.833198 0.302145 0.114612
0.850164 0.300705 0.114345
0.862948 0.299125 0.114216
0.867365 0.297270 0.114361
0.871782 0.295414 0.114506
0.876199 0.293559 0.114650
0.880616 0.291703 0.114795
0.884327 0.289813 0.114846
0.884513 0.287745 0.114429
0.884699 0.285678 0.114011
0.884885 0.283610 0.113593
0.885071 0.281543 0.113175
0.885257 0.279475 0.112757
0.080232 0.366907 0.313514
0.101536 0.361511 0.302789
0.122840 0.356115 0.292065
0.144144 0.350720 0.281340
0.165448 0.345324 0.270616
0.186752 0.339928 0.259891
0.247456 0.338794 0.240011
0.316040 0.338512 0.218300
0.384624 0.338230 0.196589
0.453208 0.337947 0.174878
0.521792 0.337665 0.153166
0.573942 0.338621 0.143290
0.617875 0.340196 0.139330
0.661808 0.341771 0.135371
0.705742 0.343346 0.131411
0.749675 0.344921 0.127451
0.780358 0.344234 0.125183
0.797791 0.341283 0.124605
0.815224 0.338333 0.124027
0.832657 0.335383 0.123449
0.850090 0.332433 0.122871
0.863276 0.329485 0.122507
0.867967 0.326540 0.122569
0.872658 0.323596 0.122632
0.877350 0.320652 0.122694
0.882041 0.317708 0.122757
0.885995 0.314855 0.122729
0.886264 0.312458 0.122247
0.886532 0.310062 0.121765
0.886800 0.307665 0.121283
0.887069 0.305268 0.120802
0.887337 0.302871 0.120320
0.085809 0.418284 0.348159
0.104003 0.412220 0.337324
0.122196 0.406156 0.326490
0.140390 0.400093 0.315656
0.158584 0.394029 0.304822
0.176778 0.387966 0.293987
0.238320 0.385744 0.270643
0.308533 0.384291 0.244797
0.378745 0.382838 0.218951
0.448957 0.381385 0.193105
0.519169 0.379932 0.167259
0.571850 0.380065 0.155644
0.615765 0.380990 0.151145
0.659680 0.381916 0.146645
0.703595 0.382841 0.142146
0.747510 0.383767 0.137647
0.778417 0.382000 0.134953
0.796316 0.377540 0.134064
0.814216 0.373080 0.133175
0.832116 0.368621 0.132286
0.850015 0.364161 0.131397
0.863603 0.359844 0.130798
0.868569 0.355811 0.130778
0.873535 0.351778 0.130758
0.878501 0.347745 0.130739
0.883467 0.343713 0.130719
0.887663 0.339898 0.130611
0.888014 0.337172 0.130065
0.888365 0.334446 0.129520
0.888715 0.331719 0.128974
0.889066 0.328993 0.128428
0.889417 0.326267 0.127882
0.093970 0.463390 0.379936
0.109858 0.457597 0.369791
0.125747 0.451805 0.359646
0.141635 0.446013 0.349501
0.157524 0.440221 0.339356
0.173412 0.434429 0.329211
0.232477 0.431983 0.305402
0.300176 0.430207 0.278861
0.367876 0.428431 0.252319
0.435576 0.426654 0.225778
0.503275 0.424878 0.199237
0.557086 0.424494 0.185014
0.603953 0.424807 0.176950
0.650820 0.425120 0.168886
0.697686 0.425432 0.160822
0.744553 0.425745 0.152758
0.777108 0.423539 0.148101
0.795352 0.418814 0.146853
0.813596 0.414089 0.145604
0.831841 0.409364 0.144355
0.850085 0.404639 0.143107
0.863996 0.399906 0.142254
0.869243 0.395156 0.142195
0.874489 0.390407 0.142135
0.879735 0.385658 0.142076
0.884982 0.380908 0.142017
0.889439 0.376446 0.141871
0.889951 0.373422 0.141298
0.890464 0.370397 0.140725
0.890976 0.367372 0.140152
0.891488 0.364347 0.139578
0.892000 0.361322 0.139005
0.103423 0.505361 0.410280
0.117408 0.500309 0.401224
0.131394 0.495258 0.392167
0.145380 0.490207 0.383111
0.159366 0.485156 0.374054
0.173351 0.480105 0.364998
0.228279 0.477866 0.342224
0.291396 0.476191 0.316707
0.354512 0.474515 0.291191
0.417629 0.472840 0.265674
0.480745 0.471164 0.240157
0.535987 0.470417 0.222891
0.587290 0.470135 0.209750
0.638593 0.469853 0.196609
0.689897 0.469571 0.183468
0.741200 0.469289 0.170326
0.776116 0.466964 0.162940
0.794643 0.462596 0.161307
0.813171 0.458228 0.159674
0.831699 0.453859 0.158041
0.850226 0.449491 0.156408
0.864422 0.444819 0.155293
0.869952 0.439539 0.155216
0.875482 0.434259 0.155138
0.881011 0.428980 0.155060
0.886541 0.423700 0.154982
0.891269 0.418748 0.154820
0.891982 0.415440 0.154238
0.892696 0.412131 0.153656
0.893409 0.408823 0.153073
0.894123 0.405514 0.152491
0.894836 0.402206 0.151908
0.112876 0.547332 0.440624
0.124959 0.543021 0.432656
0.137042 0.538711 0.424688
0.149125 0.534401 0.416720
0.161207 0.530091 0.408752
0.173290 0.525780 0.400784
0.224082 0.523750 0.379046
0.282615 0.522175 0.354554
0.341149 0.520600 0.330062
0.399682 0.519025 0.305570
0.458215 0.517450 0.281078
0.514887 0.516340 0.260768
0.570627 0.515464 0.242550
0.626367 0.514587 0.224332
0.682107 0.513710 0.206113
0.737847 0.512833 0.187895
0.775123 0.510389 0.177778
0.793934 0.506378 0.175760
0.812746 0.502367 0.173743
0.831557 0.498355 0.171726
0.850368 0.494344 0.169709
0.864847 0.489733 0.168332
0.870661 0.483922 0.168236
0.876474 0.478112 0.168140
0.882288 0.472301 0.168044
0.888101 0.466491 0.167948
0.893098 0.461050 0.167769
0.894013 0.457458 0.167178
0.894928 0.453866 0.166586
0.895843 0.450274 0.165995
0.896757 0.446682 0.165403
0.897672 0.443090 0.164812
0.122329 0.589302 0.470968
0.132509 0.585733 0.464088
0.142689 0.582164 0.457209
0.152869 0.578595 0.450330
0.163049 0.575026 0.443451
0.173229 0.571456 0.436571
0.219885 0.569633 0.415868
0.273835 0.568158 0.392401
0.327785 0.566684 0.368933
0.381735 0.565210 0.345466
0.435686 0.563735 0.321998
0.493787 0.562263 0.298645
0.553964 0.560792 0.275350
0.614141 0.559320 0.252055
0.674318 0.557849 0.228759
0.734495 0.556378 0.205464
0.774131 0.553815 0.192616
0.793225 0.550160 0.190214
0.812320 0.546506 0.187813
0.831415 0.542851 0.185412
0.850510 0.539196 0.183010
0.865272 0.534646 0.181371
0.871369 0.528305 0.181257
0.877467 0.521964 0.181142
0.883564 0.515623 0.181028
0.889661 0.509282 0.180914
0.894928 0.503352 0.180718
0.896044 0.499476 0.180118
0.897160 0.495600 0.179517
0.898276 0.491725 0.178916
0.899392 0.487849 0.178315
0.900508 0.483973 0.177715
0.131781 0.631273 0.501312
0.140059 0.628445 0.495521
0.148336 0.625617 0.489730
0.156614 0.622789 0.483940
0.164891 0.619960 0.478149
0.173168 0.617132 0.472358
0.215687 0.615516 0.452691
0.265054 0.614142 0.430248
0.314421 0.612769 0.407804
0.363788 0.611395 0.385361
0.413156 0.610021 0.362918
0.472687 0.608186 0.336522
0.537301 0.606120 0.308150
0.601914 0.604054 0.279778
0.666528 0.601988 0.251405
0.731142 0.599922 0.223033
0.773138 0.597240 0.207454
0.792516 0.593943 0.204668
0.811895 0.590645 0.201882
0.831273 0.587347 0.199097
0.850652 0.584049 0.196311
0.865698 0.579560 0.194410
0.872078 0.572688 0.194277
0.878459 0.565817 0.194145
0.884840 0.558945 0.194012
0.891221 0.552073 0.193879
0.896757 0.545654 0.193667
0.898075 0.541494 0.193057
0.899392 0.537335 0.192448
0.900709 0.533176 0.191838
0.902027 0.529017 0.191228
0.903344 0.524857 0.190618
0.140644 0.661239 0.523762
0.147590 0.659010 0.518841
0.154536 0.656781 0.513919
0.161483 0.654552 0.508997
0.168429 0.652323 0.504076
0.175375 0.650094 0.499154
0.214318 0.648814 0.480790
0.259660 0.647724 0.459738
0.305002 0.646634 0.438685
0.350344 0.645543 0.417632
0.395686 0.644453 0.396580
0.454818 0.642771 0.369254
0.520845 0.640792 0.338791
0.586872 0.638813 0.308328
0.652899 0.636834 0.277866
0.718926 0.634855 0.247403
0.762784 0.632406 0.229823
0.784472 0.629488 0.225125
0.806161 0.626570 0.220428
0.827849 0.623651 0.215730
0.849537 0.620733 0.211033
0.866170 0.616552 0.207799
0.872693 0.609845 0.207492
0.879215 0.603138 0.207186
0.885738 0.596431 0.206880
0.892260 0.589724 0.206573
0.897944 0.583438 0.206218
0.899435 0.579256 0.205622
0.900927 0.575074 0.205026
0.902418 0.570891 0.204430
0.903909 0.566709 0.203834
0.905400 0.562527 0.203238
0.148915 0.679200 0.538320
0.155102 0.677428 0.534048
0.161289 0.675656 0.529776
0.167476 0.673885 0.525503
0.173663 0.672113 0.521231
0.179850 0.670341 0.516959
0.215777 0.669526 0.500167
0.257652 0.668903 0.480871
0.299527 0.668279 0.461575
0.341402 0.667656 0.442279
0.383277 0.667032 0.422983
0.440180 0.666017 0.396840
0.504597 0.664807 0.367273
0.569014 0.663596 0.337707
0.633431 0.662385 0.308141
0.697848 0.661175 0.278575
0.743069 0.659312 0.259723
0.769093 0.656796 0.251586
0.795118 0.654280 0.243449
0.821142 0.651765 0.235311
0.847166 0.649249 0.227174
0.866690 0.645623 0.221538
0.873213 0.639776 0.220902
0.879735 0.633929 0.220266
0.886258 0.628082 0.219630
0.892780 0.622234 0.218995
0.898489 0.616704 0.218371
0.900126 0.612760 0.217812
0.901764 0.608816 0.217252
0.903401 0.604872 0.216693
0.905039 0.600927 0.216133
0.906676 0.596983 0.215574
0.157186 0.697160 0.552877
0.162614 0.695846 0.549255
0.168042 0.694532 0.545632
0.173470 0.693217 0.542009
0.178897 0.691903 0.538387
0.184325 0.690589 0.534764
0.217236 0.690239 0.519544
0.255644 0.690082 0.502004
0.294052 0.689925 0.484465
0.332460 0.689768 0.466925
0.370867 0.689611 0.449385
0.425541 0.689264 0.424425
0.488348 0.688822 0.395756
0.551155 0.688379 0.367086
0.613962 0.687937 0.338416
0.676769 0.687495 0.309746
0.723353 0.686217 0.289623
0.753714 0.684104 0.278046
0.784074 0.681991 0.266469
0.814435 0.679878 0.254893
0.844796 0.677765 0.243316
0.867210 0.674694 0.235276
0.873733 0.669706 0.234311
0.880255 0.664719 0.233346
0.886778 0.659732 0.232381
0.893300 0.654745 0.231416
0.899033 0.649971 0.230525
0.900817 0.646265 0.230002
0.902601 0.642558 0.229479
0.904385 0.638852 0.228956
0.906168 0.635145 0.228433
0.907952 0.631439 0.227910
0.165457 0.715121 0.567435
0.170126 0.714264 0.564462
0.174795 0.713407 0.561489
0.179463 0.712550 0.558515
0.184132 0.711693 0.555542
0.188800 0.710836 0.552569
0.218695 0.710952 0.538921
0.253636 0.711261 0.523138
0.288577 0.711571 0.507354
0.323518 0.711880 0.491571
0.358458 0.712190 0.475788
0.410903 0.712510 0.452011
0.472100 0.712837 0.424238
0.533297 0.713163 0.396465
0.594494 0.713489 0.368691
0.655691 0.713815 0.340918
0.703638 0.713123 0.319523
0.738334 0.711412 0.304507
0.773031 0.709702 0.289490
0.807728 0.707991 0.274474
0.842425 0.706280 0.259458
0.867730 0.703764 0.249015
0.874253 0.699637 0.247721
0.880775 0.695510 0.246426
0.887298 0.691382 0.245132
0.893820 0.687255 0.243837
0.899577 0.683238 0.242678
0.901508 0.679769 0.242191
0.903438 0.676301 0.241705
0.905368 0.672832 0.241219
0.907298 0.669363 0.240732
0.909228 0.665895 0.240246
0.173729 0.733081 0.581992
0.177638 0.732682 0.579669
0.181547 0.732282 0.577345
0.185456 0.731883 0.575021
0.189366 0.731483 0.572698
0.193275 0.731084 0.570374
0.220155 0.731664 0.558298
0.251628 0.732440 0.544271
0.283102 0.733216 0.530244
0.314575 0.733992 0.516217
0.346049 0.734768 0.502190
0.396265 0.735757 0.479597
0.455852 0.736851 0.452720
0.515439 0.737946 0.425843
0.575026 0.739041 0.398967
0.634612 0.740136 0.372090
0.683922 0.740029 0.349423
0.722955 0.738721 0.330967
0.761988 0.737413 0.312511
0.801021 0.736104 0.294055
0.840054 0.734796 0.275599
0.868250 0.732835 0.262754
0.874773 0.729568 0.261130
0.881295 0.726300 0.259506
0.887818 0.723033 0.257883
0.894340 0.719766 0.256259
0.900122 0.716504 0.254831
0.902198 0.713274 0.254381
0.904275 0.710043 0.253931
0.906351 0.706812 0.253481
0.908428 0.703581 0.253032
0.910505 0.700351 0.252582
0.180866 0.747009 0.593446
0.184183 0.746941 0.591613
0.187501 0.746874 0.589781
0.190819 0.746807 0.587948
0.194136 0.746740 0.586115
0.197454 0.746673 0.584283
0.221763 0.747575 0.573503
0.250269 0.748672 0.560934
0.278776 0.749768 0.548364
0.307282 0.750864 0.535795
0.335789 0.751960 0.523226
0.383808 0.753428 0.501799
0.441584 0.755080 0.475944
0.499360 0.756733 0.450088
0.557135 0.758386 0.424233
0.614911 0.760039 0.398378
0.664966 0.760421 0.375007
0.707301 0.759534 0.354121
0.749637 0.758647 0.333234
0.791972 0.757759 0.312348
0.834307 0.756872 0.291462
0.864962 0.755443 0.276771
0.872256 0.752932 0.274470
0.879550 0.750421 0.272169
0.886844 0.747910 0.269868
0.894138 0.745399 0.267568
0.900576 0.742821 0.265573
0.902732 0.739907 0.265108
0.904888 0.736993 0.264643
0.907044 0.734080 0.264178
0.909199 0.731166 0.263713
0.911355 0.728252 0.263248
0.185734 0.752869 0.598692
0.188796 0.752885 0.597034
0.191857 0.752900 0.595375
0.194919 0.752915 0.593716
0.197980 0.752930 0.592057
0.201042 0.752946 0.590398
0.223668 0.753885 0.580364
0.250208 0.755008 0.568654
0.276748 0.756132 0.556945
0.303288 0.757256 0.545236
0.329828 0.758379 0.533526
0.375715 0.759947 0.513234
0.431277 0.761737 0.488650
0.486839 0.763527 0.464067
0.542401 0.765317 0.439483
0.597963 0.767107 0.414899
0.647529 0.767787 0.391958
0.691099 0.767357 0.370660
0.734669 0.766927 0.349362
0.778239 0.766497 0.328064
0.821810 0.766067 0.306766
0.854059 0.765126 0.291343
0.863668 0.763164 0.287670
0.873276 0.761202 0.283998
0.882885 0.759240 0.280325
0.892493 0.757277 0.276652
0.900850 0.755236 0.273494
0.902951 0.752798 0.272910
0.905052 0.750360 0.272326
0.907153 0.747922 0.271742
0.909254 0.745484 0.271158
0.911355 0.743046 0.270574
0.190602 0.758730 0.603939
0.193408 0.758828 0.602454
0.196213 0.758925 0.600969
0.199018 0.759023 0.599484
0.201824 0.759120 0.597999
0.204629 0.759218 0.596514
0.225574 0.760194 0.587225
0.250147 0.761345 0.576375
0.274720 0.762496 0.565526
0.299293 0.763647 0.554676
0.323866 0.764798 0.543827
0.367623 0.766467 0.524669
0.420970 0.768394 0.501357
0.474318 0.770321 0.478045
0.527666 0.772248 0.454733
0.581014 0.774175 0.431421
0.630091 0.775153 0.408910
0.674896 0.775180 0.387200
0.719702 0.775207 0.365490
0.764507 0.775235 0.343781
0.809312 0.775262 0.322071
0.843157 0.774810 0.305916
0.855079 0.773396 0.300871
0.867002 0.771983 0.295826
0.878925 0.770569 0.290781
0.890848 0.769156 0.285736
0.901125 0.767651 0.281414
0.903171 0.765689 0.280711
0.905217 0.763727 0.280008
0.907263 0.761764 0.279306
0.909309 0.759802 0.278603
0.911355 0.757840 0.277900
0.195470 0.764591 0.609185
0.198020 0.764771 0.607874
0.200569 0.764951 0.606563
0.203118 0.765131 0.605251
0.205667 0.765311 0.603940
0.208217 0.765491 0.602629
0.227480 0.766503 0.594086
0.250086 0.767681 0.584096
0.272692 0.768860 0.574107
0.295299 0.770038 0.564117
0.317905 0.771217 0.554127
0.359530 0.772986 0.536104
0.410664 0.775050 0.514063
0.461798 0.777115 0.492023
0.512932 0.779179 0.469982
0.564066 0.781244 0.447942
0.612653 0.782518 0.425861
0.658694 0.783003 0.403739
0.704734 0.783488 0.381618
0.750774 0.783973 0.359497
0.796814 0.784458 0.337375
0.832254 0.784493 0.320489
0.846491 0.783628 0.314071
0.860728 0.782764 0.307654
0.874966 0.781899 0.301237
0.889203 0.781035 0.294820
0.901399 0.780067 0.289335
0.903390 0.778580 0.288513
0.905382 0.777093 0.287691
0.907373 0.775607 0.286869
0.909364 0.774120 0.286048
0.911355 0.772634 0.285226
0.200339 0.770452 0.614431
0.202632 0.770714 0.613294
0.204925 0.770976 0.612157
0.207218 0.771238 0.611019
0.209511 0.771501 0.609882
0.211804 0.771763 0.608744
0.229386 0.772812 0.600947
0.250025 0.774018 0.591817
0.270665 0.775224 0.582687
0.291304 0.776430 0.573558
0.311943 0.777636 0.564428
0.351437 0.779505 0.547539
0.400357 0.781707 0.526770
0.449277 0.783909 0.506001
0.498198 0.786110 0.485232
0.547118 0.788312 0.464463
0.595216 0.789884 0.442812
0.642491 0.790826 0.420279
0.689766 0.791768 0.397746
0.737042 0.792711 0.375213
0.784317 0.793653 0.352680
0.821351 0.794176 0.335062
0.837903 0.793860 0.327272
0.854454 0.793545 0.319483
0.871006 0.793229 0.311693
0.887558 0.792913 0.303904
0.901674 0.792482 0.297255
0.903610 0.791471 0.296315
0.905546 0.790460 0.295374
0.907483 0.789449 0.294433
0.909419 0.788438 0.293493
0.911355 0.787428 0.292552
0.204490 0.775548 0.619024
0.206582 0.775888 0.618028
0.208674 0.776228 0.617033
0.210766 0.776568 0.616037
0.212857 0.776908 0.615042
0.214949 0.777248 0.614046
0.230984 0.778324 0.606917
0.249808 0.779547 0.598562
0.268631 0.780770 0.590207
0.287455 0.781992 0.581852
0.306278 0.783215 0.573497
0.343763 0.785163 0.557658
0.390577 0.787473 0.538076
0.437392 0.789782 0.518495
0.484207 0.792092 0.498914
0.531022 0.794402 0.479333
0.578581 0.796228 0.458132
0.626883 0.797570 0.435312
0.675186 0.798911 0.412493
0.723489 0.800253 0.389673
0.771792 0.801595 0.366854
0.810248 0.802539 0.348610
0.829008 0.802688 0.339518
0.847769 0.802838 0.330427
0.866530 0.802987 0.321335
0.885291 0.803137 0.312244
0.901262 0.803166 0.304488
0.903279 0.802596 0.303413
0.905296 0.802026 0.302338
0.907313 0.801456 0.301264
0.909330 0.800885 0.300189
0.911347 0.800315 0.299114
0.205057 0.776825 0.620347
0.207222 0.777219 0.619333
0.209387 0.777614 0.618320
0.211552 0.778009 0.617306
0.213717 0.778404 0.616292
0.215882 0.778799 0.615278
0.231045 0.779853 0.608436
0.248808 0.781040 0.600428
0.266570 0.782226 0.592421
0.284332 0.783412 0.584413
0.302095 0.784598 0.576406
0.338182 0.786509 0.561195
0.383433 0.788782 0.542382
0.428683 0.791056 0.523569
0.473934 0.793329 0.504756
0.519184 0.795602 0.485943
0.565956 0.797464 0.465297
0.614250 0.798916 0.442815
0.662544 0.800367 0.420334
0.710837 0.801819 0.397853
0.759131 0.803270 0.375372
0.798142 0.804303 0.357037
