app/src/main/assets/cube/Yokocho03.cube
# LUT by SparkleStock. Enhanced with VOXCOLOR algorithms.
LUT_3D_SIZE 5
DOMAIN_MIN 0.000000 0.000000 0.000000
DOMAIN_MAX 0.903226 0.903226 0.903226
0.050794 0.035165 0.097680
0.383095 0.069747 0.081460
0.741439 0.128969 0.070369
0.862909 0.172484 0.077451
0.877443 0.182039 0.081768
0.069077 0.264154 0.244224
0.331055 0.246953 0.165306
0.710035 0.264357 0.109941
0.862620 0.268766 0.105925
0.882867 0.261294 0.106256
0.122329 0.589302 0.470968
0.273835 0.568158 0.392401
0.674318 0.557849 0.228759
0.865272 0.534646 0.181371
0.897160 0.495600 0.179517
0.180866 0.747009 0.593446
0.250269 0.748672 0.560934
0.557135 0.758386 0.424233
0.864962 0.755443 0.276771
0.904888 0.736993 0.264643
0.205624 0.778101 0.621671
0.247807 0.782532 0.602295
0.463661 0.794565 0.510599
0.786036 0.806067 0.365464
0.900646 0.807146 0.309084
0.053346 0.062287 0.231218
0.339737 0.081474 0.178571
0.718483 0.135969 0.125722
0.863170 0.177827 0.115029
0.877886 0.186002 0.112634
0.067327 0.254286 0.313840
0.260256 0.215189 0.234230
0.646712 0.236827 0.157509
0.854250 0.253558 0.129259
0.881662 0.246219 0.120540
0.121787 0.579849 0.493661
0.240550 0.530777 0.414968
0.620937 0.515875 0.263323
0.849260 0.506462 0.196493
0.891667 0.465404 0.181602
0.183496 0.750360 0.603722
0.235561 0.742637 0.571883
0.525380 0.743449 0.444257
0.847549 0.738752 0.285218
0.897053 0.720649 0.264164
0.208898 0.781240 0.625417
0.235124 0.781473 0.610729
0.432303 0.792508 0.531039
0.767003 0.803518 0.379901
0.895452 0.803359 0.312460
0.062027 0.094049 0.387254
0.298777 0.104654 0.333008
0.688550 0.149013 0.225175
0.858624 0.191820 0.190117
0.875932 0.197077 0.177824
0.070894 0.251884 0.446944
0.213866 0.210467 0.376679
0.593272 0.228217 0.273785
0.839380 0.251005 0.207708
0.877816 0.243369 0.184036
0.122898 0.571230 0.567696
0.207799 0.512252 0.502269
0.548305 0.480745 0.379682
0.817159 0.472664 0.282516
0.883734 0.425394 0.233723
0.193151 0.758036 0.647986
0.227577 0.742498 0.619345
0.478733 0.726718 0.527822
0.809468 0.711323 0.369719
0.886360 0.691374 0.309268
0.215345 0.787149 0.653430
0.231243 0.785654 0.640496
0.386162 0.791245 0.585809
0.726266 0.801341 0.450795
0.885706 0.797490 0.354040
0.070747 0.116082 0.470440
0.252313 0.123978 0.437552
0.636922 0.156655 0.314776
0.847555 0.199631 0.240435
0.873365 0.209127 0.232374
0.076020 0.240452 0.525274
0.174877 0.206431 0.488720
0.533935 0.220409 0.394145
0.821489 0.255952 0.289533
0.871357 0.252288 0.259019
0.123321 0.539735 0.634300
0.173779 0.487709 0.597353
0.463593 0.448852 0.517708
0.787134 0.454497 0.407343
0.873754 0.409952 0.333054
0.207768 0.764917 0.711344
0.228078 0.745724 0.690365
0.432299 0.718418 0.630130
0.767467 0.698710 0.529518
0.875511 0.670701 0.444616
0.233705 0.798719 0.712061
0.242982 0.796251 0.701247
0.362823 0.797030 0.665168
0.682753 0.806834 0.595243
0.874124 0.798313 0.483429
0.073670 0.122620 0.487227
0.228706 0.129069 0.463241
0.594636 0.158671 0.348849
0.832735 0.198001 0.257246
0.870996 0.209704 0.244796
0.077124 0.229904 0.540079
0.157343 0.201375 0.516871
0.486370 0.212503 0.434744
0.798963 0.247357 0.319851
0.866123 0.254258 0.282770
0.119135 0.501916 0.644206
0.154400 0.454789 0.621852
0.388234 0.406785 0.568008
0.749953 0.414615 0.463539
0.866092 0.399933 0.383287
0.201948 0.743856 0.729058
0.215855 0.727262 0.719523
0.355813 0.693574 0.686867
0.706031 0.673365 0.627596
0.867943 0.652401 0.546406
0.246749 0.803443 0.751874
0.255124 0.802890 0.747347
0.344823 0.801930 0.730408
0.632816 0.808121 0.691460
0.862113 0.808012 0.636219
