app/src/main/assets/cube/Yokocho04.cube
# LUT by SparkleStock. Enhanced with VOXCOLOR algorithms.
LUT_3D_SIZE 32
0.015629 0.023443 0.074237
0.057033 0.031242 0.075844
0.098436 0.039041 0.077451
0.139840 0.046839 0.079058
0.181244 0.054638 0.080665
0.222648 0.062436 0.082272
0.291662 0.073662 0.079743
0.366198 0.085572 0.076387
0.440734 0.097483 0.073032
0.515270 0.109394 0.069676
0.589807 0.121305 0.066320
0.641026 0.132081 0.065012
0.680586 0.142290 0.064729
0.720147 0.152499 0.064445
0.759707 0.162708 0.064162
0.799267 0.172917 0.063878
0.824979 0.181118 0.064682
0.836843 0.187309 0.066572
0.848706 0.193501 0.068463
0.860570 0.199693 0.070353
0.872433 0.205884 0.072244
0.881208 0.210958 0.073993
0.883808 0.213793 0.075458
0.886407 0.216629 0.076923
0.889007 0.219465 0.078388
0.891607 0.222301 0.079853
0.893828 0.224735 0.081106
0.894159 0.225161 0.081295
0.894490 0.225586 0.081484
0.894821 0.226011 0.081673
0.895151 0.226437 0.081862
0.895482 0.226862 0.082051
0.018843 0.043294 0.087235
0.058234 0.050343 0.087305
0.097625 0.057391 0.087375
0.137016 0.064440 0.087445
0.176408 0.071488 0.087515
0.215799 0.078537 0.087585
0.283761 0.089264 0.084465
0.357437 0.100726 0.080707
0.431114 0.112189 0.076948
0.504790 0.123651 0.073190
0.578466 0.135113 0.069432
0.630484 0.145387 0.067850
0.671673 0.155065 0.067356
0.712862 0.164744 0.066862
0.754050 0.174422 0.066368
0.795239 0.184101 0.065874
0.822113 0.191839 0.066531
0.834672 0.197638 0.068339
0.847230 0.203436 0.070147
0.859789 0.209234 0.071956
0.872348 0.215032 0.073764
0.881654 0.219788 0.075446
0.884454 0.222460 0.076874
0.887255 0.225131 0.078303
0.890056 0.227802 0.079732
0.892857 0.230473 0.081160
0.895237 0.232740 0.082356
0.895513 0.232982 0.082390
0.895789 0.233224 0.082423
0.896065 0.233467 0.082457
0.896341 0.233709 0.082490
0.896617 0.233952 0.082524
0.022057 0.063145 0.100232
0.059435 0.069444 0.098766
0.096814 0.075742 0.097299
0.134193 0.082041 0.095832
0.171571 0.088339 0.094365
0.208950 0.094637 0.092899
0.275860 0.104866 0.089187
0.348677 0.115880 0.085026
0.421493 0.126894 0.080865
0.494309 0.137908 0.076705
0.567126 0.148922 0.072544
0.619943 0.158692 0.070687
0.662760 0.167840 0.069983
0.705577 0.176988 0.069278
0.748394 0.186136 0.068574
0.791211 0.195284 0.067870
0.819247 0.202561 0.068380
0.832500 0.207966 0.070106
0.845754 0.213371 0.071832
0.859008 0.218775 0.073558
0.872262 0.224180 0.075284
0.882099 0.228619 0.076899
0.885101 0.231126 0.078291
0.888103 0.233632 0.079683
0.891105 0.236139 0.081075
0.894107 0.238645 0.082467
0.896646 0.240744 0.083606
0.896867 0.240804 0.083484
0.897088 0.240863 0.083362
0.897309 0.240922 0.083241
0.897530 0.240982 0.083119
0.897751 0.241041 0.082997
0.025271 0.082997 0.113230
0.060637 0.088545 0.110227
0.096003 0.094093 0.107223
0.131369 0.099641 0.104219
0.166735 0.105190 0.101216
0.202101 0.110738 0.098212
0.267959 0.120467 0.093909
0.339916 0.131033 0.089346
0.411872 0.141599 0.084782
0.483829 0.152165 0.080219
0.555785 0.162731 0.075656
0.609401 0.171998 0.073525
0.653847 0.180615 0.072610
0.698292 0.189233 0.071695
0.742737 0.197850 0.070780
0.787183 0.206468 0.069865
0.816380 0.213282 0.070230
0.830329 0.218294 0.071873
0.844279 0.223305 0.073517
0.858228 0.228317 0.075161
0.872177 0.233328 0.076804
0.882544 0.237450 0.078352
0.885747 0.239792 0.079707
0.888951 0.242134 0.081063
0.892154 0.244476 0.082418
0.895357 0.246818 0.083773
0.898054 0.248749 0.084857
0.898221 0.248625 0.084579
0.898387 0.248502 0.084302
0.898553 0.248378 0.084024
0.898719 0.248255 0.083747
0.898885 0.248131 0.083469
0.028485 0.102848 0.126228
0.061838 0.107646 0.121687
0.095192 0.112444 0.117147
0.128545 0.117242 0.112607
0.161899 0.122040 0.108066
0.195252 0.126838 0.103526
0.260059 0.136069 0.098631
0.331155 0.146187 0.093665
0.402252 0.156305 0.088699
0.473348 0.166422 0.083733
0.544445 0.176540 0.078767
0.598860 0.185304 0.076362
0.644933 0.193391 0.075237
0.691007 0.201477 0.074112
0.737081 0.209564 0.072986
0.783155 0.217651 0.071861
0.813514 0.224004 0.072079
0.828158 0.228622 0.073640
0.842803 0.233240 0.075202
0.857447 0.237858 0.076763
0.872091 0.242476 0.078324
0.882989 0.246281 0.079805
0.886394 0.248458 0.081124
0.889798 0.250635 0.082442
0.893203 0.252813 0.083761
0.896607 0.254990 0.085080
0.899463 0.256753 0.086107
0.899574 0.256447 0.085674
0.899686 0.256140 0.085241
0.899797 0.255834 0.084808
0.899908 0.255527 0.084375
0.900020 0.255221 0.083942
0.031699 0.122699 0.139226
0.063040 0.126747 0.133148
0.094381 0.130795 0.127071
0.125722 0.134843 0.120994
0.157063 0.138891 0.114916
0.188404 0.142939 0.108839
0.252158 0.151671 0.103353
0.322394 0.161341 0.097984
0.392631 0.171010 0.092616
0.462868 0.180679 0.087248
0.533104 0.190349 0.081879
0.588318 0.198610 0.079199
0.636020 0.206166 0.077864
0.683722 0.213722 0.076528
0.731424 0.221278 0.075193
0.779127 0.228834 0.073857
0.810647 0.234725 0.073929
0.825987 0.238950 0.075408
0.841327 0.243175 0.076886
0.856666 0.247399 0.078365
0.872006 0.251624 0.079844
0.883434 0.255112 0.081258
0.887040 0.257124 0.082540
0.890646 0.259137 0.083822
0.894252 0.261149 0.085104
0.897858 0.263162 0.086387
0.900872 0.264758 0.087357
0.900928 0.264268 0.086769
0.900985 0.263779 0.086180
0.901041 0.263289 0.085592
0.901098 0.262800 0.085003
0.901154 0.262310 0.084415
0.035897 0.166143 0.165497
0.064296 0.168892 0.158607
0.092694 0.171641 0.151717
0.121093 0.174390 0.144827
0.149491 0.177139 0.137937
0.177889 0.179888 0.131047
0.242361 0.188125 0.122777
0.314048 0.197461 0.114232
0.385734 0.206796 0.105686
0.457421 0.216132 0.097140
0.529108 0.225467 0.088594
0.585031 0.233451 0.084512
0.633074 0.240759 0.082661
0.681116 0.248067 0.080810
0.729158 0.255374 0.078959
0.777200 0.262682 0.077108
0.809177 0.267966 0.076873
0.825090 0.271225 0.078255
0.841003 0.274485 0.079636
0.856916 0.277745 0.081017
0.872829 0.281005 0.082399
0.884712 0.283570 0.083760
0.888534 0.284747 0.085082
0.892356 0.285924 0.086404
0.896179 0.287101 0.087726
0.900001 0.288278 0.089048
0.903207 0.289120 0.090062
0.903331 0.288288 0.089539
0.903454 0.287455 0.089016
0.903577 0.286623 0.088493
0.903701 0.285791 0.087970
0.903824 0.284958 0.087447
0.040293 0.214305 0.194423
0.065563 0.215646 0.186865
0.090833 0.216986 0.179307
0.116102 0.218326 0.171750
0.141372 0.219666 0.164192
0.166642 0.221006 0.156634
0.232186 0.228750 0.145143
0.305784 0.237775 0.132864
0.379383 0.246799 0.120586
0.452981 0.255824 0.108308
0.526580 0.264848 0.096030
0.583196 0.272600 0.090319
0.631320 0.279715 0.087892
0.679445 0.286831 0.085465
0.727569 0.293947 0.083037
0.775694 0.301062 0.080610
0.807987 0.305710 0.080037
0.824448 0.307891 0.081318
0.840910 0.310071 0.082598
0.857372 0.312251 0.083879
0.873834 0.314431 0.085160
0.886156 0.315954 0.086473
0.890198 0.316161 0.087849
0.894239 0.316369 0.089226
0.898281 0.316576 0.090603
0.902323 0.316783 0.091980
0.905727 0.316755 0.093058
0.905942 0.315547 0.092645
0.906157 0.314340 0.092232
0.906372 0.313132 0.091819
0.906587 0.311925 0.091405
0.906802 0.310717 0.090992
0.044689 0.262468 0.223349
0.066830 0.262399 0.215123
0.088971 0.262331 0.206898
0.111112 0.262262 0.198672
0.133253 0.262194 0.190446
0.155394 0.262125 0.182221
0.222010 0.269375 0.167508
0.297521 0.278088 0.151497
0.373031 0.286802 0.135487
0.448541 0.295515 0.119476
0.524052 0.304229 0.103466
0.581360 0.311749 0.096127
0.629567 0.318672 0.093123
0.677774 0.325596 0.090120
0.725980 0.332519 0.087116
0.774187 0.339443 0.084112
0.806796 0.343455 0.083201
0.823807 0.344556 0.084381
0.840817 0.345656 0.085561
0.857828 0.346757 0.086741
0.874839 0.347858 0.087921
0.887600 0.348338 0.089185
0.891861 0.347575 0.090617
0.896122 0.346813 0.092048
0.900384 0.346051 0.093480
0.904645 0.345288 0.094912
0.908248 0.344389 0.096054
0.908554 0.342807 0.095751
0.908860 0.341224 0.095447
0.909167 0.339642 0.095144
0.909473 0.338059 0.094840
0.909780 0.336476 0.094537
0.049084 0.310631 0.252275
0.068097 0.309153 0.243381
0.087109 0.307676 0.234488
0.106122 0.306198 0.225595
0.125134 0.304721 0.216701
0.144147 0.303244 0.207808
0.211834 0.309999 0.189873
0.289257 0.318402 0.170130
0.366679 0.326804 0.150387
0.444102 0.335207 0.130645
0.521524 0.343609 0.110902
0.579524 0.350897 0.101934
0.627813 0.357629 0.098354
0.676103 0.364360 0.094774
0.724392 0.371092 0.091194
0.772681 0.377823 0.087615
0.805605 0.381199 0.086364
0.823165 0.381221 0.087444
0.840724 0.381242 0.088523
0.858284 0.381263 0.089603
0.875843 0.381285 0.090682
0.889043 0.380722 0.091897
0.893524 0.378990 0.093384
0.898005 0.377258 0.094870
0.902486 0.375526 0.096357
0.906967 0.373794 0.097843
0.910768 0.372024 0.099050
0.911166 0.370066 0.098856
0.911564 0.368109 0.098663
0.911962 0.366151 0.098469
0.912360 0.364193 0.098275
0.912757 0.362236 0.098082
0.053480 0.358793 0.281201
0.069364 0.355907 0.271639
0.085248 0.353021 0.262078
0.101132 0.350135 0.252517
0.117016 0.347248 0.242956
0.132900 0.344362 0.233395
0.201659 0.350624 0.212238
0.280993 0.358715 0.188763
0.360327 0.366807 0.165288
0.439662 0.374898 0.141813
0.518996 0.382990 0.118338
0.577689 0.390046 0.107742
0.626060 0.396586 0.103585
0.674432 0.403125 0.099429
0.722803 0.409664 0.095273
0.771174 0.416203 0.091117
0.804414 0.418944 0.089528
0.822523 0.417886 0.090507
0.840631 0.416828 0.091486
0.858740 0.415770 0.092464
0.876848 0.414711 0.093443
0.890487 0.413105 0.094610
0.895188 0.410404 0.096151
0.899888 0.407702 0.097693
0.904589 0.405000 0.099234
0.909289 0.402299 0.100775
0.913288 0.399658 0.102046
0.913777 0.397326 0.101962
0.914267 0.394993 0.101878
0.914756 0.392660 0.101794
0.915246 0.390328 0.101711
0.915735 0.387995 0.101627
0.060459 0.406326 0.308078
0.074196 0.403122 0.298770
0.087934 0.399919 0.289462
0.101671 0.396716 0.280154
0.115408 0.393512 0.270846
0.129145 0.390309 0.261538
0.194683 0.395872 0.239494
0.270581 0.403189 0.214903
0.346478 0.410506 0.190311
0.422376 0.417823 0.165720
0.498274 0.425140 0.141129
0.558632 0.431778 0.127902
0.611221 0.438076 0.120358
0.663810 0.444375 0.112814
0.716398 0.450673 0.105270
0.768987 0.456971 0.097726
0.804519 0.459576 0.094247
0.822993 0.458488 0.094832
0.841467 0.457399 0.095418
0.859942 0.456310 0.096003
0.878416 0.455222 0.096589
0.892374 0.453408 0.097515
0.897300 0.450146 0.099124
0.902227 0.446883 0.100732
0.907153 0.443620 0.102341
0.912079 0.440357 0.103949
0.916288 0.437202 0.105301
0.916912 0.434586 0.105370
0.917535 0.431970 0.105438
0.918159 0.429353 0.105507
0.918782 0.426737 0.105576
0.919406 0.424121 0.105644
0.068731 0.453543 0.333932
0.080812 0.450568 0.325337
0.092893 0.447594 0.316743
0.104975 0.444619 0.308148
0.117056 0.441644 0.299554
0.129138 0.438670 0.290959
0.189307 0.443433 0.269194
0.259094 0.449743 0.244795
0.328881 0.456054 0.220396
0.398668 0.462365 0.195997
0.468455 0.468675 0.171598
0.530966 0.474801 0.155239
0.589839 0.480834 0.142902
0.648712 0.486867 0.130564
0.707586 0.492900 0.118227
0.766459 0.498933 0.105889
0.805270 0.501652 0.099743
0.824019 0.501058 0.099789
0.842768 0.500463 0.099835
0.861517 0.499868 0.099880
0.880265 0.499274 0.099926
0.894483 0.497671 0.100517
0.899638 0.494051 0.102199
0.904793 0.490432 0.103881
0.909948 0.486812 0.105562
0.915102 0.483193 0.107244
0.919528 0.479701 0.108686
0.920307 0.476847 0.108928
0.921086 0.473992 0.109171
0.921865 0.471138 0.109413
0.922644 0.468284 0.109656
0.923424 0.465430 0.109898
0.077002 0.500760 0.359786
0.087427 0.498014 0.351905
0.097853 0.495268 0.344024
0.108279 0.492522 0.336143
0.118704 0.489776 0.328262
0.129130 0.487031 0.320381
0.183931 0.490993 0.298895
0.247607 0.496297 0.274688
0.311283 0.501602 0.250481
0.374959 0.506906 0.226274
0.438635 0.512210 0.202066
0.503299 0.517824 0.182577
0.568457 0.523591 0.165446
0.633615 0.529359 0.148314
0.698773 0.535127 0.131183
0.763931 0.540895 0.114052
0.806022 0.543728 0.105240
0.825045 0.543628 0.104746
0.844068 0.543527 0.104252
0.863092 0.543427 0.103758
0.882115 0.543326 0.103264
0.896591 0.541933 0.103519
0.901975 0.537957 0.105274
0.907359 0.533981 0.107029
0.912742 0.530004 0.108784
0.918126 0.526028 0.110539
0.922768 0.522199 0.112071
0.923703 0.519107 0.112487
0.924637 0.516015 0.112903
0.925572 0.512923 0.113319
0.926506 0.509831 0.113736
0.927441 0.506739 0.114152
0.085273 0.547977 0.385639
0.094043 0.545460 0.378472
0.102813 0.542943 0.371305
0.111583 0.540426 0.364137
0.120353 0.537909 0.356970
0.129122 0.535391 0.349802
0.178555 0.538554 0.328595
0.236120 0.542852 0.304580
0.293685 0.547150 0.280565
0.351251 0.551448 0.256550
0.408816 0.555746 0.232535
0.475633 0.560847 0.209914
0.547075 0.566349 0.187989
0.618518 0.571852 0.166065
0.689961 0.577354 0.144140
0.761403 0.582857 0.122215
0.806774 0.585805 0.110736
0.826071 0.586198 0.109702
0.845369 0.586591 0.108669
0.864667 0.586985 0.107635
0.883964 0.587378 0.106601
0.898700 0.586196 0.106521
0.904312 0.581863 0.108349
0.909925 0.577530 0.110178
0.915537 0.573197 0.112006
0.921149 0.568864 0.113834
0.926008 0.564698 0.115455
0.927098 0.561368 0.116045
0.928188 0.558038 0.116635
0.929278 0.554708 0.117226
0.930368 0.551378 0.117816
0.931459 0.548048 0.118406
0.093544 0.595195 0.411493
0.100659 0.592906 0.405039
0.107773 0.590618 0.398585
0.114887 0.588329 0.392131
0.122001 0.586041 0.385678
0.129115 0.583752 0.379224
0.173179 0.586114 0.358296
0.224633 0.589406 0.334473
0.276088 0.592697 0.310650
0.327542 0.595989 0.286827
0.378996 0.599281 0.263004
0.447966 0.603870 0.237251
0.525693 0.609107 0.210533
0.603421 0.614344 0.183815
0.681148 0.619581 0.157096
0.758876 0.624818 0.130378
0.807525 0.627881 0.116232
0.827097 0.628768 0.114659
0.846669 0.629655 0.113086
0.866242 0.630543 0.111512
0.885814 0.631430 0.109939
0.900809 0.630458 0.109523
0.906650 0.625769 0.111425
0.912491 0.621079 0.113326
0.918332 0.616389 0.115227
0.924173 0.611699 0.117128
0.929248 0.607196 0.118840
0.930493 0.603628 0.119604
0.931739 0.600061 0.120368
0.932985 0.596493 0.121132
0.934230 0.592925 0.121896
0.935476 0.589358 0.122659
0.101887 0.629343 0.430092
0.107853 0.627348 0.424292
0.113819 0.625352 0.418492
0.119785 0.623356 0.412692
0.125751 0.621360 0.406892
0.131717 0.619364 0.401093
0.171519 0.621363 0.380884
0.218088 0.624161 0.357792
0.264657 0.626959 0.334701
0.311227 0.629757 0.311610
0.357796 0.632554 0.288519
0.426269 0.636975 0.261495
0.505693 0.642208 0.232503
0.585117 0.647441 0.203512
0.664542 0.652673 0.174520
0.743966 0.657906 0.145529
0.795010 0.661204 0.129327
0.817674 0.662567 0.125915
0.840338 0.663930 0.122503
0.863002 0.665293 0.119090
0.885667 0.666656 0.115678
0.902761 0.666065 0.113956
0.908716 0.661568 0.115615
0.914672 0.657070 0.117274
0.920627 0.652572 0.118933
0.926582 0.648074 0.120592
0.931774 0.643733 0.122113
0.933148 0.640175 0.122945
0.934522 0.636616 0.123778
0.935895 0.633057 0.124610
0.937269 0.629499 0.125443
0.938643 0.625940 0.126275
0.110300 0.650423 0.441435
0.115625 0.648784 0.436230
0.120951 0.647145 0.431025
0.126277 0.645506 0.425820
0.131602 0.643867 0.420614
0.136928 0.642228 0.415409
0.173574 0.644302 0.396359
0.216484 0.647118 0.374539
0.259394 0.649934 0.352720
0.302304 0.652750 0.330900
0.345215 0.655566 0.309081
0.410540 0.660164 0.282645
0.487074 0.665653 0.253900
0.563607 0.671142 0.225156
0.640141 0.676630 0.196411
0.716674 0.682119 0.167667
0.769228 0.685774 0.150020
0.797802 0.687594 0.143470
0.826375 0.689415 0.136920
0.854949 0.691235 0.130370
0.883523 0.693056 0.123820
0.904557 0.693017 0.119820
0.910512 0.689260 0.120921
0.916468 0.685503 0.122022
0.922423 0.681747 0.123123
0.928378 0.677990 0.124223
0.933587 0.674309 0.125273
0.935061 0.671006 0.126069
0.936536 0.667704 0.126865
0.938010 0.664402 0.127661
0.939484 0.661099 0.128457
0.940959 0.657797 0.129253
0.118713 0.671503 0.452779
0.123398 0.670221 0.448168
0.128083 0.668939 0.443558
0.132769 0.667657 0.438947
0.137454 0.666374 0.434336
0.142139 0.665092 0.429726
0.175629 0.667240 0.411834
0.214880 0.670075 0.391286
0.254131 0.672909 0.370738
0.293382 0.675743 0.350191
0.332633 0.678578 0.329643
0.394812 0.683353 0.303795
0.468455 0.689098 0.275298
0.542097 0.694842 0.246800
0.615740 0.700587 0.218303
0.689383 0.706332 0.189805
0.743446 0.710344 0.170712
0.777929 0.712622 0.161025
0.812413 0.714899 0.151337
0.846896 0.717177 0.141649
0.881379 0.719455 0.131962
0.906353 0.719968 0.125684
0.912308 0.716953 0.126227
0.918264 0.713937 0.126770
0.924219 0.710921 0.127312
0.930174 0.707905 0.127855
0.935400 0.704884 0.128434
0.936975 0.701838 0.129193
0.938550 0.698792 0.129953
0.940125 0.695746 0.130712
0.941700 0.692699 0.131471
0.943275 0.689653 0.132230
0.127126 0.692583 0.464122
0.131171 0.691658 0.460106
0.135216 0.690732 0.456090
0.139261 0.689807 0.452074
0.143306 0.688882 0.448058
0.147351 0.687956 0.444042
0.177685 0.690179 0.427310
0.213276 0.693032 0.408033
0.248868 0.695884 0.388757
0.284460 0.698737 0.369481
0.320051 0.701590 0.350204
0.379083 0.706541 0.324945
0.449835 0.712542 0.296695
0.520587 0.718543 0.268444
0.591339 0.724544 0.240194
0.662091 0.730545 0.211943
0.717664 0.734914 0.191405
0.758057 0.737649 0.178580
0.798450 0.740384 0.165754
0.838843 0.743119 0.152929
0.879235 0.745855 0.140103
0.908149 0.746920 0.131548
0.914105 0.744645 0.131533
0.920060 0.742370 0.131517
0.926015 0.740095 0.131502
0.931971 0.737821 0.131487
0.937213 0.735460 0.131595
0.938888 0.732670 0.132317
0.940564 0.729880 0.133040
0.942239 0.727090 0.133763
0.943915 0.724299 0.134485
0.945591 0.721509 0.135208
0.135539 0.713663 0.475466
0.138944 0.713095 0.472044
0.142348 0.712526 0.468623
0.145753 0.711957 0.465202
0.149157 0.711389 0.461780
0.152562 0.710820 0.458359
0.179740 0.713118 0.442785
0.211672 0.715989 0.424780
0.243605 0.718859 0.406775
0.275537 0.721730 0.388771
0.307470 0.724601 0.370766
0.363355 0.729730 0.346095
0.431216 0.735987 0.318092
0.499077 0.742244 0.290088
0.566939 0.748501 0.262085
0.634800 0.754759 0.234081
0.691882 0.759484 0.212098
0.738184 0.762676 0.196135
0.784487 0.765869 0.180171
0.830789 0.769062 0.164208
0.877092 0.772254 0.148245
0.909945 0.773871 0.137412
0.915901 0.772338 0.136839
0.921856 0.770804 0.136265
0.927811 0.769270 0.135692
0.933767 0.767736 0.135119
0.939025 0.766036 0.134755
0.940802 0.763502 0.135441
0.942578 0.760968 0.136128
0.944354 0.758434 0.136814
0.946130 0.755900 0.137500
0.947907 0.753366 0.138186
0.142865 0.729844 0.484525
0.145797 0.729543 0.481549
0.148729 0.729243 0.478573
0.151661 0.728943 0.475596
0.154593 0.728642 0.472620
0.157525 0.728342 0.469644
0.182027 0.730654 0.455074
0.210843 0.733488 0.438185
0.239659 0.736322 0.421297
0.268475 0.739157 0.404408
0.297291 0.741991 0.387519
0.350227 0.747195 0.363501
0.415221 0.753583 0.335919
0.480216 0.759971 0.308336
0.545211 0.766360 0.280753
0.610206 0.772748 0.253171
0.668015 0.777763 0.230245
0.718639 0.781404 0.211976
0.769262 0.785045 0.193708
0.819885 0.788685 0.175439
0.870509 0.792326 0.157171
0.906573 0.794477 0.144555
0.913520 0.793648 0.143244
0.920466 0.792818 0.141932
0.927412 0.791989 0.140621
0.934359 0.791159 0.139310
0.940450 0.790097 0.138307
0.942269 0.787871 0.138847
0.944088 0.785645 0.139387
0.945907 0.783419 0.139926
0.947726 0.781193 0.140466
0.949545 0.778967 0.141006
0.148017 0.736224 0.489015
0.150812 0.736015 0.486185
0.153606 0.735807 0.483355
0.156401 0.735598 0.480526
0.159196 0.735389 0.477696
0.161990 0.735180 0.474866
0.184777 0.737385 0.460991
0.211563 0.740073 0.444908
0.238348 0.742761 0.428824
0.265133 0.745449 0.412740
0.291918 0.748137 0.396657
0.342298 0.753213 0.373419
0.404476 0.759482 0.346605
0.466653 0.765751 0.319791
0.528830 0.772021 0.292977
0.591008 0.778290 0.266162
0.647980 0.783460 0.243301
0.699747 0.787531 0.224392
0.751513 0.791602 0.205483
0.803280 0.795673 0.186574
0.855047 0.799744 0.167665
0.892865 0.802392 0.154256
0.902784 0.802193 0.151847
0.912704 0.801995 0.149438
0.922623 0.801797 0.147029
0.932543 0.801599 0.144620
0.941100 0.801131 0.142642
0.942846 0.799317 0.142816
0.944591 0.797503 0.142990
0.946337 0.795688 0.143163
0.948083 0.793874 0.143337
0.949829 0.792060 0.143511
0.153169 0.742605 0.493505
0.155826 0.742488 0.490822
0.158484 0.742370 0.488138
0.161141 0.742253 0.485455
0.163799 0.742135 0.482771
0.166456 0.742018 0.480088
0.187528 0.744117 0.466909
0.212282 0.746658 0.451630
0.237037 0.749200 0.436351
0.261791 0.751741 0.421073
0.286545 0.754283 0.405794
0.334370 0.759231 0.383337
0.393730 0.765381 0.357291
0.453090 0.771531 0.331246
0.512449 0.777682 0.305200
0.571809 0.783832 0.279154
0.627944 0.789158 0.256356
0.680854 0.793659 0.236807
0.733765 0.798160 0.217258
0.786675 0.802661 0.197709
0.839586 0.807161 0.178159
0.879157 0.810306 0.163958
0.892049 0.810739 0.160451
0.904942 0.811172 0.156944
0.917834 0.811605 0.153438
0.930727 0.812038 0.149931
0.941749 0.812165 0.146977
0.943422 0.810763 0.146784
0.945095 0.809360 0.146592
0.946767 0.807957 0.146400
0.948440 0.806555 0.146208
0.950112 0.805152 0.146016
0.158321 0.748986 0.497995
0.160841 0.748960 0.495458
0.163361 0.748934 0.492921
0.165881 0.748908 0.490384
0.168402 0.748882 0.487847
0.170922 0.748856 0.485310
0.190278 0.750848 0.472826
0.213002 0.753243 0.458352
0.235725 0.755638 0.443879
0.258449 0.758034 0.429405
0.281173 0.760429 0.414931
0.326442 0.765248 0.393255
0.382984 0.771280 0.367978
0.439526 0.777311 0.342700
0.496068 0.783343 0.317423
0.552610 0.789375 0.292146
0.607908 0.794856 0.269412
0.661962 0.799787 0.249222
0.716016 0.804717 0.229033
0.770070 0.809648 0.208843
0.824124 0.814579 0.188654
0.865448 0.818221 0.173659
0.881314 0.819285 0.169055
0.897180 0.820349 0.164450
0.913045 0.821413 0.159846
0.928911 0.822478 0.155241
0.942399 0.823199 0.151311
0.943998 0.822208 0.150753
0.945598 0.821217 0.150195
0.947197 0.820226 0.149637
0.948796 0.819235 0.149079
0.950396 0.818244 0.148521
0.163472 0.755366 0.502485
0.165855 0.755432 0.500095
0.168238 0.755498 0.497704
0.170622 0.755563 0.495313
0.173005 0.755629 0.492923
0.175388 0.755694 0.490532
0.193029 0.757579 0.478743
0.213721 0.759828 0.465074
0.234414 0.762077 0.451406
0.255107 0.764326 0.437737
0.275800 0.766575 0.424069
0.318514 0.771266 0.403173
0.372238 0.777179 0.378664
0.425963 0.783091 0.354155
0.479687 0.789004 0.329646
0.533412 0.794917 0.305137
0.587873 0.800553 0.282468
0.643070 0.805914 0.261638
0.698268 0.811275 0.240808
0.753465 0.816636 0.219978
0.808662 0.821996 0.199148
0.851740 0.826135 0.183361
0.870579 0.827831 0.177658
0.889418 0.829526 0.171956
0.908256 0.831222 0.166254
0.927095 0.832917 0.160552
0.943048 0.834233 0.155646
0.944575 0.833654 0.154722
0.946101 0.833075 0.153798
0.947627 0.832495 0.152874
0.949153 0.831916 0.151950
0.950679 0.831336 0.151026
0.167781 0.760739 0.506298
0.170076 0.760917 0.504048
0.172371 0.761096 0.501797
0.174665 0.761274 0.499547
0.176960 0.761452 0.497296
0.179254 0.761631 0.495046
0.195321 0.763424 0.483914
0.214141 0.765540 0.471007
0.232961 0.767657 0.458099
0.251782 0.769773 0.445191
0.270602 0.771889 0.432283
0.310917 0.776449 0.412148
0.361980 0.782230 0.388398
0.413042 0.788012 0.364648
0.464105 0.793793 0.340898
0.515167 0.799575 0.317149
0.568756 0.805333 0.294586
0.624872 0.811067 0.273210
0.680987 0.816801 0.251834
0.737102 0.822536 0.230459
0.793217 0.828270 0.209083
0.837849 0.832847 0.192572
0.859515 0.835111 0.185792
0.881180 0.837376 0.179012
0.902846 0.839640 0.172232
0.924511 0.841904 0.165452
0.942834 0.843756 0.159593
0.944446 0.843545 0.158343
0.946057 0.843335 0.157093
0.947669 0.843124 0.155842
0.949281 0.842914 0.154592
0.950892 0.842704 0.153342
0.167876 0.761070 0.506723
0.170326 0.761468 0.504583
0.172776 0.761866 0.502442
0.175226 0.762264 0.500302
0.177676 0.762662 0.498161
0.180127 0.763059 0.496020
0.195319 0.764836 0.485357
0.213060 0.766888 0.472989
0.230801 0.768940 0.460621
0.248542 0.770993 0.448253
0.266283 0.773045 0.435884
0.304982 0.777455 0.416404
0.354160 0.783044 0.393368
0.403338 0.788634 0.370332
0.452516 0.794223 0.347296
0.501694 0.799813 0.324260
0.554235 0.805520 0.302017
0.610140 0.811346 0.280568
0.666045 0.817172 0.259119
0.721950 0.822998 0.237670
0.777855 0.828823 0.216221
0.823045 0.833547 0.199336
