app/src/main/assets/cube/Yokocho05.cube
# LUT by SparkleStock. Enhanced with VOXCOLOR algorithms.
LUT_3D_SIZE 5
DOMAIN_MIN 0.000000 0.000000 0.000000
DOMAIN_MAX 0.903226 0.903226 0.903226
0.062515 0.066422 0.105495
0.385072 0.098633 0.091937
0.745323 0.155461 0.083965
0.874001 0.199291 0.093481
0.893355 0.210666 0.100595
0.078514 0.252298 0.199961
0.325783 0.254493 0.148319
0.712345 0.287437 0.111710
0.875534 0.299873 0.115152
0.898998 0.293539 0.119570
0.140793 0.561361 0.373642
0.284740 0.549436 0.314010
0.681028 0.566566 0.203800
0.885773 0.566201 0.181165
0.919583 0.532403 0.186104
0.223963 0.733964 0.490512
0.296274 0.737077 0.462129
0.586934 0.760877 0.365975
0.888699 0.779451 0.284968
0.932836 0.769232 0.284462
0.262389 0.766805 0.522352
0.313149 0.774388 0.508544
0.522648 0.796577 0.442665
0.813263 0.823551 0.362557
0.927333 0.836068 0.345706
0.072654 0.078845 0.204002
0.341452 0.103597 0.166239
0.722770 0.163119 0.130371
0.875386 0.206480 0.128046
0.893644 0.217930 0.128657
0.078698 0.240168 0.259773
0.257549 0.218175 0.203699
0.646799 0.256136 0.149754
0.867132 0.282550 0.136003
0.897965 0.278623 0.132910
0.140805 0.551121 0.400697
0.249928 0.509308 0.336869
0.620846 0.519731 0.229137
0.866873 0.533689 0.190986
0.912849 0.501211 0.185894
0.227671 0.736417 0.505287
0.282618 0.730236 0.474878
0.554811 0.743754 0.379626
0.868560 0.760354 0.289371
0.924866 0.751634 0.281786
0.266025 0.770039 0.533001
0.298789 0.772468 0.514496
0.492553 0.793135 0.458525
0.794142 0.819071 0.372993
0.922222 0.831055 0.348885
0.091024 0.098586 0.338438
0.307159 0.118201 0.294581
0.692969 0.173776 0.214308
0.872062 0.218137 0.195186
0.891337 0.224899 0.188083
0.092871 0.235592 0.393409
0.221028 0.206995 0.330224
0.591112 0.241593 0.248144
0.852737 0.276223 0.206226
0.894837 0.273257 0.190782
0.148415 0.543417 0.495211
0.220864 0.486795 0.430768
0.542281 0.473322 0.330700
0.829827 0.489511 0.266039
0.902690 0.456421 0.234981
0.243936 0.747800 0.568886
0.277072 0.730611 0.536264
0.506192 0.721010 0.456216
0.824416 0.724719 0.356027
0.912130 0.719576 0.320902
0.276806 0.779783 0.573567
0.296837 0.778089 0.555981
0.450535 0.789274 0.507476
0.753471 0.811615 0.429906
0.911643 0.822768 0.385690
0.105975 0.115578 0.426949
0.272564 0.131838 0.399080
0.642381 0.178780 0.292866
0.861465 0.224190 0.241756
0.888859 0.233253 0.238896
0.106691 0.225148 0.485139
0.196102 0.198936 0.449287
0.534956 0.227520 0.360991
0.834099 0.277072 0.279582
0.888067 0.278805 0.259953
0.152468 0.515006 0.586754
0.196394 0.463171 0.549113
0.460273 0.433648 0.472482
0.794997 0.461370 0.379081
0.890953 0.434448 0.327226
0.264147 0.757959 0.662016
0.282008 0.736334 0.635606
0.463015 0.709988 0.574695
0.775359 0.701100 0.494022
0.894129 0.690423 0.441801
0.303691 0.797778 0.659088
0.316444 0.794523 0.644728
0.434216 0.796421 0.605061
0.712403 0.809868 0.558229
0.895366 0.815771 0.498300
0.111040 0.120556 0.447446
0.253249 0.135617 0.429293
0.601582 0.177360 0.327677
0.845252 0.221861 0.254906
0.886602 0.234736 0.247362
0.111503 0.216728 0.506789
0.184490 0.192882 0.483762
0.491256 0.217287 0.405112
0.808703 0.267417 0.307868
0.881499 0.279553 0.282235
0.151579 0.479065 0.608151
0.182777 0.430984 0.587294
0.393657 0.388798 0.535826
0.753260 0.417625 0.438029
0.880703 0.418827 0.374263
0.255599 0.736670 0.690135
0.269451 0.717964 0.680351
0.393600 0.682416 0.649261
0.707526 0.665771 0.599009
0.883156 0.663543 0.533797
0.321180 0.805416 0.714843
0.332744 0.803452 0.709754
0.425009 0.803149 0.691687
0.669741 0.809607 0.661528
0.877720 0.815690 0.630953
