app/src/main/assets/cube/Yolk08.cube
# LUT by SparkleStock. Enhanced with VOXCOLOR algorithms.
LUT_3D_SIZE 5
DOMAIN_MIN 0.000000 0.000000 0.000000
DOMAIN_MAX 0.903226 0.903226 0.903226
0.168133 0.113392 0.113392
0.230946 0.149466 0.125122
0.338158 0.213414 0.141645
0.481191 0.307130 0.162331
0.566582 0.373222 0.189449
0.208117 0.145555 0.131429
0.291274 0.190873 0.139204
0.418666 0.269038 0.162420
0.553859 0.363384 0.188574
0.650805 0.459695 0.225165
0.258569 0.186422 0.166872
0.364357 0.236386 0.152887
0.517537 0.345189 0.186316
0.619479 0.429745 0.213589
0.713459 0.524116 0.255456
0.316842 0.232081 0.205342
0.461144 0.313436 0.191357
0.579667 0.402342 0.202030
0.674676 0.498723 0.242754
0.765739 0.586193 0.281712
0.405512 0.305616 0.268660
0.549607 0.392321 0.234079
0.659793 0.494793 0.255163
0.749407 0.581876 0.284048
0.802744 0.621912 0.298931
0.204206 0.137735 0.147069
0.263110 0.179530 0.176746
0.350376 0.235019 0.196639
0.493686 0.327066 0.198396
0.607489 0.418975 0.217723
0.257731 0.187936 0.184611
0.343993 0.247440 0.225914
0.459864 0.321036 0.240732
0.577879 0.403799 0.231724
0.657375 0.476784 0.255086
0.323921 0.239702 0.226747
0.415210 0.312830 0.268718
0.536310 0.391174 0.264367
0.621381 0.460935 0.263814
0.703189 0.532216 0.292762
0.401846 0.304338 0.271923
0.495507 0.387341 0.322131
0.582981 0.448478 0.298730
0.672627 0.523036 0.307097
0.754321 0.587905 0.324796
0.487823 0.383565 0.328771
0.552292 0.450154 0.366346
0.634656 0.510371 0.345392
0.733552 0.586780 0.348888
0.803979 0.637340 0.352454
0.253776 0.178602 0.185539
0.321582 0.223236 0.220982
0.405996 0.289870 0.268354
0.509115 0.375289 0.289219
0.612473 0.454894 0.283901
0.324662 0.236533 0.230226
0.409963 0.305099 0.284005
0.508036 0.387829 0.336794
0.579224 0.450399 0.332741
0.664553 0.517826 0.328170
0.397094 0.300026 0.279486
0.487436 0.381147 0.334605
0.568144 0.464229 0.379916
0.619483 0.502039 0.364881
0.704126 0.565281 0.362079
0.486708 0.384904 0.335822
0.550017 0.450652 0.375856
0.604473 0.513452 0.412294
0.676948 0.565663 0.403415
0.758605 0.616967 0.394605
0.546738 0.448209 0.376839
0.593916 0.504424 0.410244
0.650874 0.563177 0.452148
0.733080 0.616693 0.440104
0.822050 0.672015 0.430282
0.324031 0.227541 0.231451
0.393529 0.287319 0.273192
0.482090 0.363417 0.320296
0.546905 0.431621 0.366615
0.613250 0.506449 0.392268
0.403258 0.304094 0.283694
0.485290 0.377870 0.334410
0.553192 0.447915 0.374248
0.605990 0.509965 0.410469
0.668761 0.562172 0.425201
0.477549 0.373206 0.331884
0.546639 0.446378 0.375747
0.602009 0.511646 0.416990
0.649786 0.559366 0.448495
0.717497 0.605145 0.450838
0.529470 0.427910 0.366082
0.590627 0.500059 0.409117
0.650129 0.566357 0.457584
0.703618 0.612730 0.497324
0.776251 0.654875 0.481964
0.580391 0.490964 0.402957
0.641287 0.556368 0.450433
0.699080 0.611566 0.498121
0.766203 0.672087 0.545434
0.877188 0.742584 0.549660
0.392016 0.292498 0.276858
0.471751 0.363099 0.325492
0.536688 0.423003 0.361114
0.589631 0.489389 0.398322
0.653612 0.559770 0.449491
0.473834 0.368840 0.329003
0.539834 0.437831 0.370546
0.591373 0.499285 0.406717
0.649561 0.559804 0.452189
0.700679 0.606643 0.487998
0.539716 0.442554 0.372844
0.592898 0.502324 0.409589
0.643733 0.558020 0.453226
0.704108 0.611844 0.500860
0.767709 0.668856 0.544824
0.574308 0.480466 0.395421
0.640665 0.554644 0.451537
0.698508 0.609538 0.499028
0.762895 0.671244 0.552461
0.851094 0.742348 0.615786
0.623511 0.535346 0.435238
0.695596 0.606528 0.496191
0.764853 0.671523 0.552283
0.852823 0.748410 0.630065
0.928857 0.834808 0.723106
