app/src/main/assets/cube/Yolk08.cube
# LUT by SparkleStock. Enhanced with VOXCOLOR algorithms.
LUT_3D_SIZE 32
0.168133 0.113392 0.113392
0.180242 0.121464 0.117428
0.191972 0.129158 0.121212
0.198026 0.131176 0.121212
0.204333 0.133699 0.121464
0.212405 0.139753 0.123482
0.220856 0.145429 0.125122
0.230946 0.149466 0.125122
0.242046 0.154511 0.126131
0.256173 0.162583 0.130167
0.269669 0.171286 0.132942
0.281777 0.181377 0.132942
0.296913 0.191467 0.134456
0.317094 0.201558 0.138492
0.338158 0.213414 0.141645
0.360357 0.227541 0.143663
0.379529 0.239649 0.146691
0.395674 0.249740 0.150727
0.414089 0.260966 0.152493
0.434270 0.273074 0.152493
0.456973 0.288967 0.156277
0.481191 0.307130 0.162331
0.498471 0.319743 0.165610
0.512597 0.329833 0.167628
0.526724 0.339924 0.172674
0.540851 0.350014 0.178728
0.551698 0.360105 0.183143
0.561789 0.370195 0.187179
0.566582 0.373222 0.189449
0.570618 0.375240 0.191467
0.574654 0.381042 0.195377
0.578690 0.387097 0.199413
0.178223 0.119446 0.117428
0.186166 0.124394 0.118340
0.194055 0.129223 0.119259
0.201151 0.132283 0.120301
0.208629 0.135847 0.121595
0.218785 0.142943 0.124654
0.228928 0.149661 0.127140
0.239019 0.154739 0.127140
0.249858 0.160565 0.127889
0.262943 0.168637 0.130884
0.277350 0.177666 0.133919
0.294667 0.188798 0.137044
0.311886 0.199540 0.140120
0.328942 0.209630 0.143114
0.349160 0.222398 0.146593
0.373442 0.238608 0.150694
0.393135 0.250716 0.153201
0.408238 0.258724 0.154112
0.426783 0.269624 0.155683
0.448006 0.282774 0.157766
0.469147 0.297755 0.161029
0.490240 0.313835 0.165000
0.507975 0.326513 0.169061
0.524185 0.337645 0.173162
0.537270 0.347215 0.177166
0.549314 0.356264 0.181137
0.564002 0.370390 0.186853
0.579300 0.385689 0.192973
0.585656 0.392101 0.196415
0.590734 0.397244 0.199475
0.594835 0.402265 0.203450
0.598871 0.407278 0.207486
0.187936 0.125374 0.121338
0.192037 0.127393 0.119320
0.196386 0.129541 0.117554
0.204459 0.133642 0.119572
0.213036 0.138232 0.121835
0.225144 0.146239 0.125806
0.236887 0.153892 0.129044
0.247042 0.160012 0.129110
0.257702 0.166636 0.129679
0.269876 0.174773 0.131762
0.285203 0.184172 0.135087
0.307467 0.196346 0.141141
0.326704 0.207738 0.145682
0.340896 0.217829 0.147700
0.360272 0.231365 0.151455
0.386312 0.249333 0.157444
0.406493 0.261409 0.159495
0.420815 0.267594 0.157607
0.439531 0.278282 0.159051
0.461665 0.292474 0.163088
0.481357 0.306666 0.165903
0.499585 0.320858 0.167986
0.517679 0.333572 0.172710
0.535712 0.345616 0.178634
0.547837 0.354730 0.181678
0.557992 0.362867 0.183761
0.576082 0.380579 0.190605
0.596003 0.400499 0.198547
0.604132 0.410394 0.203242
0.610577 0.418857 0.207474
0.614886 0.423292 0.211583
0.619052 0.427459 0.215684
0.191972 0.129411 0.123356
0.197115 0.131429 0.121338
0.202441 0.133642 0.119572
0.210513 0.138785 0.121591
0.219090 0.144156 0.123723
0.231199 0.151121 0.126652
0.243136 0.158124 0.129240
0.254333 0.165285 0.130346
0.266035 0.172950 0.131958
0.279250 0.182129 0.135082
0.295619 0.192570 0.139123
0.318925 0.205785 0.145177
0.339204 0.217829 0.149718
0.354437 0.227919 0.151736
0.373031 0.240089 0.155036
0.395946 0.254932 0.159983
0.416127 0.266487 0.162555
0.433574 0.274755 0.162750
0.453072 0.286940 0.165106
0.474164 0.302174 0.169142
0.494117 0.317407 0.172609
0.513387 0.332641 0.175733
0.530374 0.344965 0.179350
0.546323 0.355967 0.183191
0.558708 0.365602 0.186495
0.569906 0.374781 0.189620
0.584805 0.389302 0.194966
0.600560 0.405056 0.200825
0.613637 0.419899 0.207994
0.626331 0.434612 0.215351
0.632984 0.441390 0.220632
0.639233 0.447640 0.225775
0.196008 0.133447 0.125374
0.202192 0.135595 0.123487
0.208495 0.137979 0.121827
0.216567 0.143904 0.123584
0.225161 0.149876 0.125391
0.237399 0.156191 0.127539
0.249663 0.162835 0.129687
0.262032 0.170908 0.131836
0.274938 0.179517 0.134488
0.289455 0.189738 0.138655
0.306800 0.201057 0.143289
0.330366 0.214793 0.148953
0.351198 0.227211 0.153249
0.367473 0.237432 0.155268
0.385457 0.248479 0.158169
0.405638 0.260587 0.162205
0.425949 0.271817 0.165427
0.446391 0.282168 0.167836
0.466466 0.295631 0.170940
0.486256 0.311516 0.174586
0.506291 0.327481 0.178557
0.526472 0.343496 0.182723
0.542490 0.355617 0.185502
0.556617 0.365968 0.187651
0.569230 0.376221 0.191215
0.581339 0.386442 0.195251
0.593553 0.398196 0.199287
0.605792 0.410305 0.203324
0.622987 0.429249 0.212543
0.640889 0.449170 0.222504
0.650308 0.458715 0.229290
0.659162 0.467569 0.235865
0.200044 0.137483 0.127393
0.207270 0.140673 0.126546
0.214549 0.143969 0.125733
0.222622 0.148851 0.125407
0.231345 0.154173 0.125521
0.244625 0.162571 0.128711
0.258126 0.170908 0.131901
0.272578 0.178980 0.135091
0.287827 0.187850 0.138785
0.305470 0.199112 0.143993
0.323335 0.210171 0.148367
0.341694 0.220783 0.150906
0.359661 0.231638 0.153249
0.376978 0.242900 0.155268
0.395548 0.254533 0.158169
0.415729 0.266641 0.162205
0.437081 0.278913 0.166990
0.459606 0.291347 0.172523
0.478835 0.304550 0.175237
0.495500 0.318351 0.175758
0.514363 0.332885 0.179208
0.534544 0.347858 0.184416
0.550563 0.361085 0.188237
0.564690 0.373519 0.191427
0.577303 0.385075 0.195251
0.589411 0.396337 0.199287
0.602472 0.408287 0.203324
0.615752 0.420395 0.207360
0.631254 0.437517 0.215668
0.647074 0.455354 0.224587
0.662222 0.470628 0.235214
0.677325 0.485731 0.245956
0.204080 0.141519 0.129411
0.212348 0.145555 0.129411
0.220616 0.149592 0.129285
0.228883 0.153628 0.127266
0.237859 0.158396 0.125981
0.251791 0.168292 0.129822
0.266210 0.177918 0.133736
0.282746 0.186381 0.137967
0.300241 0.195805 0.142654
0.320617 0.208108 0.148709
0.339041 0.219090 0.152871
0.353167 0.227162 0.152871
0.368808 0.236748 0.153701
0.386971 0.248857 0.155914
0.406102 0.260966 0.158840
0.426478 0.273074 0.162681
0.448677 0.286387 0.168637
0.472699 0.300904 0.176710
0.491265 0.313957 0.179216
0.505587 0.325870 0.177393
0.523327 0.339167 0.180372
0.543117 0.353294 0.186231
0.558745 0.367286 0.190702
0.572481 0.381217 0.194543
0.585143 0.393635 0.198677
0.597447 0.405549 0.202909
0.611232 0.418097 0.207140
0.625359 0.430791 0.211372
0.639998 0.446675 0.219306
0.654711 0.463016 0.227769
0.673817 0.482407 0.240809
0.693217 0.502002 0.254154
0.208117 0.145555 0.131429
0.217426 0.149592 0.131429
0.226735 0.153628 0.131303
0.236044 0.157664 0.129285
0.245801 0.162302 0.127869
0.258691 0.171156 0.130668
0.272655 0.180327 0.133931
0.291274 0.190873 0.139204
0.310592 0.202119 0.144673
0.332010 0.215465 0.150727
0.351149 0.227162 0.154889
0.365276 0.235235 0.154889
0.380916 0.244821 0.156110
0.399079 0.256929 0.159365
0.418666 0.269038 0.162420
0.440084 0.281147 0.165220
0.462283 0.295501 0.170656
0.485263 0.312102 0.178728
0.503959 0.325480 0.181820
0.519323 0.336351 0.181039
0.536151 0.349257 0.183757
0.553859 0.363384 0.188574
0.567403 0.376660 0.192004
0.579056 0.389550 0.194804
0.591979 0.400926 0.199458
0.605324 0.411798 0.204731
0.619304 0.426690 0.210004
0.633431 0.442509 0.215278
0.650805 0.459695 0.225165
0.668642 0.477077 0.235711
0.684038 0.493604 0.244975
0.699272 0.510075 0.254154
0.213162 0.149592 0.134456
0.222992 0.153888 0.134196
0.232855 0.158185 0.133825
0.243205 0.162481 0.131807
0.253776 0.167185 0.130228
0.265885 0.174737 0.131726
0.279507 0.183143 0.134078
0.299688 0.195251 0.140132
0.320308 0.207864 0.146186
0.342247 0.221991 0.152240
0.362070 0.234470 0.156565
0.377238 0.243323 0.157086
0.393822 0.253495 0.159121
0.412767 0.265864 0.163678
0.432679 0.278005 0.167010
0.453836 0.289854 0.168768
0.475515 0.304859 0.173292
0.497714 0.323022 0.180583
0.516361 0.336498 0.183920
0.532245 0.346328 0.184180
0.547967 0.358681 0.186800
0.563591 0.372547 0.190837
0.575948 0.385563 0.194022
0.586819 0.398192 0.196822
0.599937 0.408917 0.201672
0.613803 0.419008 0.207205
0.628093 0.435657 0.213373
0.642480 0.453820 0.219688
0.661709 0.471983 0.230845
0.681629 0.490146 0.242693
0.694470 0.504525 0.249353
0.706839 0.518652 0.255668
0.221234 0.153628 0.140510
0.230023 0.158966 0.139208
0.238974 0.164304 0.137861
0.250366 0.169642 0.135843
0.261848 0.174997 0.134004
0.273957 0.180465 0.133418
0.287579 0.187179 0.134078
0.307760 0.199287 0.140132
0.328120 0.211900 0.146186
0.349017 0.226027 0.152240
0.369426 0.239483 0.157216
0.388761 0.251461 0.159820
0.409121 0.263976 0.163938
0.431190 0.277387 0.170578
0.451037 0.289658 0.174627
0.468028 0.300465 0.175343
0.487623 0.314950 0.177784
0.509822 0.333113 0.181950
0.527884 0.346002 0.184506
0.542726 0.354791 0.185808
0.556755 0.366102 0.188818
0.570296 0.378927 0.192855
0.584150 0.393049 0.198189
0.598147 0.407762 0.204113
0.611265 0.419008 0.208182
0.624089 0.429098 0.211632
0.639030 0.445748 0.218256
0.654458 0.463911 0.225612
0.672906 0.482074 0.235987
0.691785 0.500236 0.246794
0.705537 0.514615 0.254366
0.718948 0.528742 0.261722
0.229307 0.158295 0.145934
0.238030 0.165000 0.144241
0.246904 0.171604 0.142488
0.258036 0.176681 0.139819
0.269412 0.181710 0.137271
0.282497 0.186398 0.135579
0.296974 0.192537 0.135339
0.317480 0.204971 0.141393
0.337824 0.217747 0.147285
0.357680 0.231548 0.152688
0.378471 0.245553 0.157766
0.401321 0.260005 0.162127
0.424562 0.274580 0.167881
0.448454 0.289357 0.175953
0.468073 0.301942 0.180494
0.482200 0.311707 0.180494
0.499874 0.325183 0.181340
0.521097 0.342369 0.183033
0.538511 0.354795 0.185275
0.552963 0.363518 0.187944
0.565747 0.374154 0.191264
0.577531 0.385937 0.194974
0.592312 0.400719 0.201684
0.608457 0.416864 0.209756
0.621819 0.428956 0.213776
0.634253 0.439698 0.216445
0.649173 0.455676 0.223240
0.664667 0.472862 0.230987
0.682211 0.490903 0.240785
0.700049 0.509066 0.250875
0.715323 0.524055 0.259074
0.730426 0.538833 0.267146
0.237379 0.164349 0.149970
0.248186 0.173138 0.149319
0.258817 0.181499 0.148412
0.266825 0.183452 0.143659
0.275857 0.186007 0.139420
0.292067 0.192777 0.138769
0.309278 0.200805 0.139375
0.330826 0.214281 0.145429
0.351691 0.227577 0.150800
0.370504 0.240337 0.154120
0.391231 0.253951 0.158091
0.416164 0.269445 0.163495
0.440316 0.285451 0.169899
0.463166 0.302312 0.177971
0.482200 0.315613 0.182512
0.496326 0.324336 0.182512
0.512439 0.335729 0.182837
0.530536 0.349790 0.183488
0.547170 0.362021 0.186446
0.562663 0.372828 0.191199
0.575187 0.383594 0.194649
0.585928 0.394335 0.197318
0.600385 0.408791 0.203702
0.616529 0.424936 0.211774
0.630672 0.438591 0.217357
0.644148 0.451416 0.222109
0.657571 0.465245 0.228448
0.670982 0.479307 0.235153
0.687354 0.496957 0.244821
0.704150 0.515120 0.254911
0.722289 0.532062 0.263110
0.740517 0.548923 0.271182
0.244695 0.171160 0.154763
0.256413 0.180079 0.153982
0.267899 0.188538 0.152920
0.275906 0.190100 0.147647
0.285134 0.192379 0.142984
0.302906 0.199670 0.142593
0.321362 0.208243 0.143265
0.342780 0.222369 0.148538
0.363677 0.236187 0.153192
0.383012 0.249077 0.155992
0.404381 0.262862 0.159808
0.430226 0.278616 0.165863
0.454703 0.295420 0.172527
0.476902 0.313973 0.180209
0.495399 0.327770 0.184359
0.509135 0.335452 0.183969
0.524466 0.345738 0.184359
0.541392 0.358628 0.185531
0.557439 0.371298 0.189229
0.572803 0.383797 0.194893
0.585359 0.394791 0.198767
0.596231 0.404881 0.201566
0.609922 0.418597 0.207185
0.624895 0.433961 0.214085
0.638940 0.448104 0.220351
0.652676 0.461840 0.226406
0.666042 0.474888 0.233095
0.679323 0.487778 0.239930
0.694426 0.504598 0.248588
0.709789 0.521980 0.257507
0.729669 0.540094 0.265999
0.749850 0.558257 0.274462
0.250749 0.179232 0.160817
0.261425 0.185026 0.157953
0.272260 0.190816 0.155068
0.285476 0.196545 0.151878
0.299130 0.202209 0.148908
0.315861 0.207417 0.147476
0.333080 0.214297 0.146910
0.352415 0.228424 0.150100
0.372531 0.242762 0.153713
0.394990 0.257735 0.158596
0.418182 0.272627 0.163844
0.442985 0.287339 0.169899
0.466812 0.303883 0.176173
0.489011 0.323478 0.182813
0.507052 0.337405 0.185922
0.519746 0.344045 0.184489
0.535598 0.354852 0.185922
0.554607 0.369825 0.190218
0.570394 0.383992 0.194698
0.583674 0.397533 0.199320
0.596751 0.408917 0.204105
0.609706 0.419008 0.208987
0.621900 0.431292 0.213109
0.633748 0.444572 0.216885
0.646231 0.457413 0.222369
0.658926 0.470107 0.228424
0.674635 0.484653 0.236805
0.691041 0.499626 0.245724
0.704712 0.514884 0.251908
0.717992 0.530182 0.257702
0.737742 0.548166 0.266975
0.757923 0.566329 0.276480
0.258569 0.186422 0.166872
0.269571 0.191370 0.162835
0.280923 0.196512 0.158925
0.297523 0.204585 0.156907
0.314067 0.212267 0.154946
0.330212 0.217214 0.153384
0.346649 0.223627 0.152236
0.364357 0.236386 0.152887
0.383236 0.249650 0.154775
0.405630 0.264428 0.160374
0.429021 0.279572 0.166257
0.454605 0.295521 0.172767
0.478579 0.312545 0.178765
0.499866 0.331359 0.183907
0.517537 0.345189 0.186316
0.530557 0.352610 0.185209
0.546474 0.364393 0.187911
0.565288 0.380538 0.194421
0.580842 0.395291 0.199796
0.593862 0.408962 0.204288
0.606720 0.420111 0.208902
0.619479 0.429745 0.213589
0.631344 0.442021 0.217381
0.642801 0.455497 0.220766
0.654747 0.467947 0.226153
0.666856 0.480055 0.232208
0.682773 0.494333 0.240801
0.699569 0.509110 0.249980
0.713459 0.524116 0.255456
0.726935 0.539154 0.260404
0.746697 0.556267 0.269746
0.766878 0.573519 0.279381
0.268660 0.192476 0.172926
0.281745 0.199507 0.168890
0.295115 0.206603 0.164980
0.312757 0.214675 0.162962
0.330212 0.222618 0.161131
0.346356 0.229648 0.160610
0.362599 0.237167 0.159723
0.379264 0.246802 0.157249
0.396321 0.256942 0.156533
0.414549 0.268594 0.161090
0.436052 0.282892 0.166583
0.464761 0.303008 0.174134
0.489906 0.321464 0.180001
0.509110 0.337153 0.183061
0.526521 0.350592 0.185209
0.541624 0.361138 0.186186
0.557020 0.374484 0.190450
0.572709 0.390628 0.198002
0.588069 0.404796 0.204418
0.603172 0.417425 0.209952
0.614857 0.427532 0.213003
0.624492 0.436125 0.214566
0.637528 0.450223 0.219529
0.652111 0.466824 0.226039
0.664838 0.480055 0.232208
0.676946 0.492164 0.238262
0.690324 0.503902 0.245163
0.703995 0.515555 0.252258
0.720230 0.531993 0.259297
0.736830 0.549114 0.266328
0.756787 0.564405 0.274824
0.776968 0.579573 0.283417
0.276732 0.198531 0.178980
0.291900 0.207124 0.175465
0.307288 0.215684 0.172043
0.325972 0.223757 0.170025
0.344208 0.231764 0.168064
0.359311 0.239316 0.166501
0.374903 0.247160 0.164670
0.392610 0.256274 0.161676
0.410187 0.265893 0.160439
0.427373 0.277025 0.164475
0.447672 0.290964 0.169284
0.474819 0.311080 0.175794
0.498792 0.329146 0.180815
0.517476 0.343793 0.183354
0.535049 0.357558 0.185665
0.551194 0.370187 0.187683
0.566590 0.384574 0.192729
0.581237 0.400719 0.200801
0.596141 0.414300 0.207445
0.611244 0.425888 0.212979
0.622279 0.435930 0.215705
0.630872 0.445044 0.216746
0.644299 0.459663 0.222622
0.659923 0.476784 0.230694
0.673691 0.490927 0.237643
0.686842 0.504077 0.244219
0.698299 0.513895 0.249524
0.709366 0.522944 0.254537
0.726186 0.539512 0.262227
0.743828 0.557154 0.270299
0.764339 0.571989 0.278860
0.785041 0.586636 0.287453
0.282786 0.204585 0.185035
0.300038 0.214220 0.182561
0.317444 0.223757 0.180115
0.337169 0.231829 0.178097
0.356056 0.239706 0.175746
0.369076 0.246216 0.171058
0.383561 0.253605 0.167079
0.404393 0.264802 0.166168
0.424834 0.276504 0.166493
0.444104 0.289719 0.170529
0.463882 0.303789 0.174362
0.484779 0.319739 0.177747
0.505237 0.335590 0.181206
0.524962 0.351280 0.184786
0.543121 0.366086 0.187683
0.559266 0.379757 0.189701
0.575183 0.394665 0.194747
0.590872 0.410809 0.202819
0.605060 0.423805 0.208877
0.618080 0.434351 0.213369
0.628984 0.445304 0.217007
0.638619 0.456502 0.220132
0.651655 0.470339 0.226658
0.666237 0.485377 0.234730
0.681308 0.500562 0.242461
0.696541 0.515795 0.250078
0.706697 0.524311 0.253886
0.715681 0.531277 0.256815
0.731329 0.546673 0.264245
0.747930 0.563274 0.272317
0.769352 0.579020 0.281854
0.791095 0.594709 0.291489
0.288841 0.210639 0.189954
0.307589 0.220730 0.187936
0.326501 0.230804 0.185991
0.347854 0.240634 0.185144
0.368124 0.249919 0.183574
0.380819 0.255387 0.176934
0.395295 0.262211 0.171648
0.417494 0.274905 0.172234
0.439043 0.287958 0.173390
0.458638 0.302084 0.176254
0.477602 0.315845 0.178671
0.495179 0.328800 0.180103
0.513952 0.343171 0.182732
0.534719 0.359901 0.187354
0.552951 0.375236 0.191093
0.567924 0.388777 0.193697
0.582897 0.403034 0.198449
0.597870 0.418007 0.205350
0.612221 0.431882 0.211628
0.626087 0.444902 0.217422
0.637960 0.456986 0.222117
0.648636 0.468508 0.226153
0.661282 0.481821 0.232562
0.674822 0.495948 0.240048
0.689437 0.510709 0.247095
0.704410 0.525682 0.253996
0.715205 0.534837 0.258357
0.725035 0.542649 0.262133
0.738340 0.555702 0.268131
0.752141 0.569503 0.274445
0.773266 0.584403 0.283201
0.794879 0.599376 0.292120
0.294895 0.216693 0.193990
0.314685 0.226784 0.191972
0.334703 0.237053 0.190157
0.358139 0.250008 0.191394
0.380363 0.261897 0.191516
0.394099 0.266324 0.183834
0.409422 0.272496 0.177898
0.431621 0.286232 0.179525
0.452909 0.300066 0.180941
0.471462 0.314193 0.181723
0.489385 0.327302 0.182382
0.505921 0.338174 0.182772
0.524433 0.351634 0.185140
0.546242 0.369406 0.190804
0.564148 0.384871 0.195585
0.577038 0.397370 0.199230
0.589928 0.410065 0.203462
0.602818 0.422955 0.208279
0.618015 0.438847 0.215404
0.635006 0.457075 0.224322
0.648701 0.470461 0.230190
0.660419 0.480942 0.234226
0.672674 0.493930 0.239918
0.685173 0.508057 0.246363
0.697966 0.521256 0.251587
0.710855 0.534145 0.256404
0.723798 0.545448 0.262914
0.736753 0.556385 0.269815
0.746803 0.566183 0.273469
0.756438 0.575818 0.276659
0.776326 0.588504 0.283266
0.796897 0.601394 0.290102
0.304733 0.224009 0.199287
0.324263 0.233449 0.196618
0.344086 0.243222 0.194242
0.368303 0.257999 0.196260
0.391503 0.271679 0.197180
0.407583 0.277668 0.190409
0.424688 0.285183 0.185043
0.446236 0.299309 0.185759
0.466612 0.312785 0.186296
0.483473 0.324308 0.186296
0.500721 0.336197 0.186703
0.518818 0.348891 0.188005
0.537234 0.362904 0.190356
0.556178 0.379114 0.194458
0.572701 0.393814 0.199100
0.586112 0.406574 0.204438
0.599197 0.419984 0.209451
0.611956 0.434046 0.214138
0.626657 0.450085 0.220400
0.642867 0.467662 0.227887
0.656513 0.480560 0.234030
0.668622 0.490651 0.239369
0.681178 0.503963 0.245199
0.693937 0.518741 0.251253
0.706697 0.532005 0.256282
0.719457 0.544765 0.260970
0.732269 0.555938 0.267349
0.745094 0.566744 0.274120
0.756039 0.576298 0.277871
0.766715 0.585672 0.281191
0.783861 0.597000 0.286464
0.801438 0.608457 0.291868
0.316842 0.232081 0.205342
0.335330 0.240479 0.201631
0.354177 0.249341 0.198278
0.378394 0.265160 0.200296
0.401984 0.280142 0.201476
0.421189 0.289256 0.196789
0.440637 0.299309 0.192724
0.461144 0.313436 0.191357
0.480218 0.325870 0.190332
0.494996 0.333227 0.190332
0.511788 0.343553 0.191390
0.533010 0.360414 0.194775
0.551425 0.375859 0.197257
0.565162 0.388944 0.198234
0.579667 0.402342 0.202030
0.595160 0.416144 0.209451
0.609808 0.431637 0.216026
0.623609 0.448824 0.221755
0.637008 0.463886 0.226129
0.650093 0.477297 0.229449
0.662567 0.488632 0.235332
0.674676 0.498723 0.242754
0.687948 0.512752 0.249235
0.701749 0.528571 0.255290
0.715551 0.542877 0.261100
0.729352 0.556678 0.266829
0.740667 0.566354 0.271711
0.751409 0.575077 0.276398
0.765739 0.586193 0.281712
0.780581 0.597651 0.287115
0.794082 0.608132 0.291542
0.807492 0.618548 0.295904
0.328950 0.241541 0.214171
0.348545 0.251046 0.210135
0.368250 0.260742 0.206298
0.389603 0.273306 0.205452
0.410988 0.285830 0.204296
0.432602 0.298068 0.200976
0.454081 0.310796 0.198168
0.474978 0.325638 0.197583
0.494182 0.338642 0.197143
0.508309 0.346129 0.197143
0.524511 0.356280 0.197957
0.545278 0.372295 0.200561
0.563335 0.387650 0.202994
0.576875 0.401907 0.205142
0.590929 0.415794 0.208943
0.605642 0.429204 0.214867
0.620061 0.444275 0.220856
0.634188 0.461006 0.226910
0.647179 0.475136 0.231500
0.659288 0.487245 0.234950
0.671397 0.498987 0.240394
0.683505 0.510510 0.247034
0.695524 0.523241 0.252779
0.707503 0.536522 0.258117
0.721629 0.550437 0.264530
0.736472 0.564563 0.271300
0.747454 0.573189 0.275849
0.757544 0.580545 0.279885
0.772306 0.592060 0.285687
0.787734 0.604169 0.291742
0.799379 0.613714 0.294561
0.810772 0.623088 0.297165
0.341059 0.251632 0.224261
0.362737 0.263220 0.220225
0.384135 0.274543 0.216128
0.401321 0.281899 0.211115
0.419321 0.290256 0.206444
0.443018 0.305620 0.204166
0.466384 0.321081 0.202595
0.488323 0.336966 0.204093
0.508309 0.351271 0.205216
0.522436 0.360841 0.205216
0.537986 0.371448 0.205378
0.556670 0.384338 0.205899
0.574206 0.398912 0.208202
0.589830 0.416294 0.213475
0.604144 0.431483 0.217666
0.616774 0.443852 0.220465
0.630152 0.457360 0.224892
0.644278 0.472008 0.230946
0.657270 0.485227 0.236708
0.669378 0.497335 0.242241
0.681487 0.510380 0.247164
0.693596 0.523986 0.251721
0.703466 0.534504 0.256099
0.712320 0.543618 0.260396
0.726447 0.556491 0.267329
0.742331 0.570618 0.275141
0.753508 0.578397 0.279885
0.763599 0.584712 0.283921
0.777449 0.596096 0.289723
0.791836 0.608205 0.295778
0.802439 0.616774 0.296644
0.812790 0.625106 0.297165
0.351654 0.258695 0.229811
0.373853 0.271585 0.226556
0.395723 0.284194 0.223126
0.412649 0.292592 0.217072
0.430486 0.301763 0.211522
0.454703 0.316345 0.209504
0.478249 0.331074 0.208096
0.498886 0.346438 0.209333
0.518285 0.360678 0.210261
0.533975 0.371550 0.210261
0.549704 0.382808 0.210505
0.565524 0.394917 0.211286
0.582051 0.409589 0.214338
0.599758 0.428533 0.221173
0.615358 0.444828 0.226243
0.628247 0.457718 0.229042
0.641365 0.470836 0.233078
0.654711 0.484181 0.238351
0.667800 0.496831 0.243625
0.680690 0.508940 0.248898
0.692603 0.521821 0.253398
0.703930 0.535167 0.257434
0.714094 0.545961 0.262007
0.723729 0.555596 0.266825
0.737074 0.566842 0.273497
0.751657 0.578625 0.280788
0.763224 0.587023 0.285435
0.774096 0.594640 0.289471
0.785082 0.603453 0.293223
0.796083 0.612436 0.296933
0.805499 0.620566 0.298630
0.814808 0.628638 0.300192
0.361744 0.264749 0.233847
0.383943 0.278681 0.231634
0.405878 0.292462 0.229180
0.423846 0.303984 0.223126
0.442595 0.315629 0.217576
0.466812 0.328128 0.215558
0.489967 0.340969 0.213955
0.508520 0.355291 0.214151
0.526879 0.369011 0.214297
0.544651 0.380924 0.214297
0.560836 0.392899 0.214867
0.573531 0.405007 0.216689
0.588886 0.420070 0.220783
0.608677 0.440056 0.228660
0.625904 0.457393 0.234771
0.639835 0.471324 0.238612
0.652953 0.484442 0.242648
0.665257 0.496746 0.246880
0.678476 0.508940 0.251111
0.692408 0.521048 0.255343
0.704061 0.533279 0.259452
0.714346 0.545583 0.263488
0.725617 0.557484 0.268778
0.737335 0.569202 0.274637
0.749639 0.578625 0.280788
0.762138 0.587283 0.287038
0.774161 0.596788 0.291489
0.786074 0.606488 0.295525
0.793545 0.611916 0.296543
0.800380 0.616733 0.297129
0.808558 0.624602 0.300583
0.816826 0.632674 0.304229
0.376754 0.277363 0.244442
0.398107 0.291489 0.240732
0.419366 0.305437 0.236927
0.439222 0.316699 0.231719
0.459411 0.328067 0.226699
0.481935 0.340176 0.222988
0.503801 0.352822 0.220132
0.522810 0.367795 0.220978
0.541184 0.382052 0.221613
0.557655 0.394160 0.221613
0.573291 0.407062 0.222508
0.587092 0.421710 0.225372
0.602334 0.436845 0.229555
0.619976 0.452795 0.235935
0.636080 0.467947 0.241289
0.650207 0.482074 0.245325
0.663324 0.495614 0.249361
0.675433 0.508569 0.253398
0.688677 0.521048 0.257910
0.702803 0.533157 0.262792
0.714407 0.545265 0.266617
0.724498 0.557374 0.269807
0.734812 0.567155 0.274384
0.745228 0.575879 0.279592
0.757548 0.585383 0.284800
0.770503 0.595148 0.290008
0.780708 0.603115 0.293577
0.790277 0.610666 0.296766
0.797512 0.615883 0.297906
0.804412 0.620765 0.298752
0.811618 0.627845 0.301795
0.818844 0.635071 0.304985
0.392899 0.291489 0.256551
0.413210 0.305616 0.250757
0.433623 0.319499 0.245065
0.455562 0.329719 0.240898
0.477313 0.340176 0.236529
0.497755 0.352285 0.230735
0.518123 0.365126 0.226381
0.538174 0.381140 0.228269
0.556808 0.396178 0.229685
0.571195 0.408287 0.229685
0.586050 0.422165 0.230906
0.601935 0.439938 0.234812
0.617307 0.455073 0.238864
0.631824 0.465815 0.243161
0.646170 0.478037 0.247343
0.660297 0.492164 0.251380
0.673415 0.506226 0.255416
0.685523 0.520222 0.259452
0.698767 0.533157 0.264550
0.712894 0.545265 0.270474
0.724498 0.557374 0.274038
0.734588 0.569483 0.276187
