app/src/main/assets/cube/Yolk10.cube
# LUT by SparkleStock. Enhanced with VOXCOLOR algorithms.
LUT_3D_SIZE 32
0.011730 0.007820 0.007820
0.050074 0.030019 0.017911
0.087661 0.051714 0.027623
0.113897 0.065841 0.031659
0.140384 0.080219 0.035695
0.168637 0.096364 0.039731
0.195756 0.111752 0.043389
0.217955 0.123861 0.045407
0.240154 0.136979 0.048434
0.262353 0.153123 0.054489
0.283291 0.168007 0.059282
0.301454 0.180115 0.061300
0.323400 0.192224 0.065588
0.351654 0.204333 0.073661
0.378141 0.217324 0.081733
0.402359 0.231451 0.089805
0.422540 0.243559 0.095860
0.438684 0.253650 0.099896
0.458235 0.261470 0.102797
0.480434 0.267524 0.104815
0.502633 0.278624 0.111878
0.524832 0.292751 0.121969
0.542869 0.302715 0.127897
0.559014 0.310787 0.131933
0.573645 0.318860 0.137483
0.587772 0.326932 0.143537
0.600259 0.335005 0.149592
0.612367 0.343077 0.155646
0.619178 0.345852 0.156403
0.625233 0.347870 0.156403
0.629395 0.353672 0.160187
0.633431 0.359726 0.164223
0.029893 0.028001 0.015893
0.067195 0.043951 0.021817
0.103806 0.059851 0.027623
0.130041 0.075020 0.031659
0.156399 0.090310 0.035956
0.183610 0.106455 0.042075
0.209882 0.121843 0.047425
0.232081 0.133951 0.049443
0.254020 0.146548 0.052210
0.275178 0.160610 0.057223
0.296701 0.174712 0.062276
0.319031 0.188904 0.067419
0.342410 0.201924 0.073270
0.367538 0.212991 0.080301
0.391812 0.225397 0.087787
0.414988 0.239523 0.095860
0.435169 0.251111 0.101393
0.452355 0.260160 0.104388
0.472361 0.268696 0.108005
0.494561 0.276834 0.112106
0.515458 0.287412 0.118649
0.535574 0.299456 0.126656
0.552243 0.308769 0.131933
0.567346 0.316842 0.135969
0.582498 0.324914 0.141519
0.597667 0.332986 0.147574
0.615427 0.344444 0.154474
0.633785 0.356683 0.161570
0.644112 0.362713 0.165191
0.653291 0.367856 0.168316
0.658625 0.372876 0.171319
0.663703 0.377889 0.174313
0.047804 0.047930 0.023965
0.083934 0.057890 0.025918
0.119463 0.068237 0.027993
0.145958 0.084382 0.031899
0.172413 0.100510 0.036318
0.198583 0.116525 0.044325
0.223997 0.131807 0.051221
0.246131 0.143916 0.053305
0.267793 0.156041 0.055892
0.288039 0.168214 0.059994
0.310136 0.181609 0.065356
0.336307 0.197688 0.073494
0.360988 0.211547 0.080850
0.383187 0.221702 0.086904
0.405357 0.233538 0.093813
0.427491 0.247535 0.101820
0.447737 0.258569 0.106866
0.466096 0.266641 0.108949
0.486504 0.275849 0.113266
0.508508 0.285940 0.119320
0.528112 0.296071 0.125374
0.546274 0.306226 0.131429
0.561752 0.314994 0.136140
0.576009 0.323132 0.140242
0.591682 0.331221 0.145710
0.607826 0.339293 0.151634
0.630371 0.353818 0.159251
0.654393 0.369833 0.167258
0.668504 0.379069 0.173671
0.681198 0.387337 0.179855
0.687912 0.391821 0.182256
0.694226 0.396052 0.184404
0.061930 0.064075 0.032037
0.094936 0.071952 0.032949
0.127795 0.080346 0.033917
0.158457 0.096490 0.035740
0.188428 0.112359 0.038206
0.213556 0.126290 0.045171
0.237928 0.139880 0.051417
0.259021 0.151988 0.054542
0.280162 0.164373 0.058171
0.301450 0.177589 0.063314
0.323938 0.191374 0.069718
0.349066 0.206412 0.078897
0.373096 0.220010 0.086904
0.395295 0.231207 0.092959
0.417010 0.242717 0.099412
0.438103 0.254630 0.106377
0.459390 0.264623 0.111423
0.480873 0.272696 0.114548
0.500892 0.281903 0.119320
0.519771 0.291994 0.125374
0.538202 0.302776 0.131429
0.556365 0.313973 0.137483
0.573275 0.323783 0.142911
0.589615 0.332962 0.148054
0.605808 0.341311 0.152220
0.621953 0.349384 0.156061
0.641959 0.362216 0.162441
0.662856 0.376148 0.169406
0.684779 0.387858 0.177511
0.706848 0.399250 0.185779
0.718053 0.406859 0.190263
0.728534 0.414215 0.194494
0.076057 0.079967 0.040110
0.106589 0.086152 0.039980
0.137316 0.092926 0.039849
0.170973 0.108550 0.039719
0.203482 0.123751 0.040362
0.227960 0.135990 0.046416
0.251681 0.148229 0.052117
0.272122 0.160467 0.056283
0.292970 0.173178 0.060954
0.315039 0.187305 0.067138
0.337779 0.201310 0.074462
0.361997 0.215046 0.084292
0.385311 0.228123 0.092706
0.407119 0.240101 0.098761
0.428329 0.251253 0.104758
0.448771 0.261344 0.110682
0.470970 0.270490 0.115727
0.494927 0.278693 0.119894
0.514563 0.287958 0.125049
0.530838 0.298048 0.130973
0.548211 0.309237 0.136979
0.566244 0.321085 0.143033
0.584456 0.331815 0.149087
0.602749 0.342035 0.155141
0.619431 0.350938 0.158364
0.635575 0.359401 0.160642
0.653571 0.370720 0.165883
0.671995 0.382698 0.171807
0.700557 0.396443 0.181263
0.730568 0.410439 0.191223
0.747153 0.421628 0.198254
0.762842 0.432630 0.205089
0.090184 0.094094 0.048182
0.122799 0.101320 0.047010
0.155154 0.108811 0.045839
0.183602 0.120268 0.044667
0.211815 0.131954 0.044398
0.238376 0.145234 0.050452
0.264180 0.158514 0.056348
0.286704 0.171795 0.061556
0.308855 0.185287 0.067269
0.329882 0.199413 0.074495
0.351906 0.212442 0.081884
0.376123 0.223053 0.089630
0.398265 0.233786 0.096743
0.416949 0.244723 0.102797
0.437313 0.255290 0.108339
0.459838 0.265380 0.113221
0.482037 0.275047 0.118266
0.503911 0.284292 0.123474
0.523221 0.294012 0.128499
0.540537 0.304102 0.133382
0.557651 0.313989 0.138997
0.574642 0.323754 0.145051
0.593244 0.334549 0.151105
0.612579 0.345811 0.157160
0.629521 0.357318 0.161944
0.645666 0.368905 0.166306
0.665354 0.379964 0.171091
0.685861 0.390901 0.175973
0.712861 0.403604 0.184388
0.740789 0.416559 0.193306
0.768961 0.434518 0.206131
0.797149 0.452811 0.219216
0.104689 0.107085 0.055498
0.138606 0.115353 0.053480
0.171917 0.123596 0.051462
0.196134 0.131474 0.049443
0.220807 0.140107 0.048410
0.248670 0.154039 0.054269
0.275922 0.168043 0.060238
0.300530 0.182365 0.066683
0.324178 0.196639 0.073535
0.344945 0.210765 0.081607
0.366546 0.223000 0.088988
0.389982 0.231072 0.094847
0.410830 0.239902 0.100706
0.427365 0.249992 0.106565
0.447176 0.260083 0.111712
0.471198 0.270173 0.115943
0.493299 0.280264 0.121086
0.513480 0.290354 0.127140
0.532526 0.300445 0.132169
0.550689 0.310535 0.136401
0.567591 0.319364 0.141527
0.583735 0.327437 0.147191
0.602521 0.338150 0.152989
0.622506 0.350063 0.158848
0.639758 0.363343 0.164854
0.656098 0.377080 0.170908
0.677675 0.388330 0.175798
0.700460 0.399006 0.180421
0.727289 0.411790 0.188403
0.754696 0.424875 0.196866
0.791258 0.447481 0.213874
0.828430 0.470722 0.231451
0.120834 0.115158 0.059534
0.152668 0.124467 0.057516
0.184025 0.133622 0.055498
0.208243 0.140457 0.053480
0.232655 0.148050 0.052316
0.258435 0.160939 0.057133
0.284385 0.174293 0.062647
0.311076 0.189657 0.071175
0.337067 0.204711 0.079589
0.360959 0.218838 0.087661
0.383406 0.231072 0.094716
0.402676 0.239145 0.099534
0.421701 0.247974 0.104351
0.440320 0.258065 0.109169
0.460847 0.268155 0.114185
0.483827 0.278246 0.119458
0.505408 0.288336 0.125122
0.525589 0.298427 0.131176
0.544635 0.308517 0.136791
0.562798 0.318608 0.142064
0.579699 0.327437 0.146280
0.595844 0.335509 0.149860
0.613913 0.345506 0.154291
0.632857 0.356378 0.159108
0.650630 0.367835 0.164854
0.668011 0.379488 0.170908
0.692322 0.392887 0.178337
0.718232 0.406688 0.186084
0.750920 0.424419 0.196281
0.784577 0.442713 0.206827
0.815670 0.460761 0.221035
0.846593 0.478794 0.235487
0.135969 0.124744 0.065588
0.166241 0.134313 0.063310
0.196150 0.143663 0.061031
0.220628 0.149718 0.058753
0.245073 0.156496 0.057198
0.269290 0.168345 0.060714
0.294167 0.180901 0.065364
0.321899 0.196525 0.074934
0.349127 0.211774 0.084195
0.374842 0.225901 0.092527
0.397728 0.238299 0.099599
0.414394 0.246892 0.103896
0.432768 0.256144 0.108290
0.453991 0.266495 0.112847
0.475185 0.276504 0.117831
0.496343 0.286074 0.123364
0.517142 0.296164 0.129419
0.537584 0.306776 0.135994
0.556597 0.316801 0.141837
0.574499 0.326371 0.147110
0.591466 0.335167 0.150674
0.607871 0.343500 0.153213
0.626022 0.353578 0.156960
0.644966 0.364450 0.161257
0.662934 0.374541 0.166676
0.680576 0.384371 0.172470
0.707474 0.399332 0.181967
0.736509 0.415476 0.192318
0.773689 0.436919 0.204434
0.812033 0.459118 0.216803
0.838781 0.473993 0.228684
0.864756 0.488380 0.240532
0.148078 0.138870 0.077697
0.178350 0.146357 0.074377
0.208324 0.153754 0.071057
0.233843 0.159808 0.067737
0.259200 0.166457 0.065010
0.283417 0.177263 0.066443
0.307903 0.188582 0.069010
0.333552 0.202123 0.076497
0.358697 0.215811 0.084455
0.382328 0.229937 0.093829
0.404434 0.242986 0.101943
0.423183 0.253662 0.107281
0.444421 0.264607 0.113107
0.469810 0.276000 0.119747
0.491525 0.285683 0.124992
0.508516 0.293170 0.128442
0.527753 0.303260 0.134497
0.549236 0.315955 0.143155
0.568120 0.325720 0.148151
0.584980 0.333206 0.150300
0.602208 0.341873 0.153994
0.619654 0.351247 0.158616
0.640279 0.363799 0.163731
0.662348 0.377796 0.169069
0.679534 0.387886 0.173968
0.695093 0.396675 0.178720
0.724140 0.411440 0.188867
0.756299 0.427585 0.200260
0.793870 0.449027 0.213418
0.832214 0.471226 0.226829
0.857985 0.487078 0.237798
0.882919 0.502507 0.248605
0.160817 0.152367 0.089805
0.191414 0.158746 0.085769
0.221657 0.165065 0.081672
0.246591 0.170468 0.076659
0.271475 0.176417 0.072233
0.296018 0.186182 0.071907
0.320683 0.196447 0.072900
0.345876 0.208881 0.079605
0.370240 0.221657 0.086994
0.392114 0.235459 0.096433
0.413763 0.248731 0.104917
0.434921 0.260839 0.111297
0.458129 0.272948 0.118189
0.484755 0.285057 0.125936
0.506055 0.294516 0.131176
0.520507 0.300571 0.133195
0.538507 0.310336 0.138923
0.560055 0.323811 0.148363
0.579113 0.333479 0.153042
0.596235 0.340184 0.154018
0.613803 0.349005 0.157762
0.631641 0.359096 0.163165
0.653193 0.372901 0.169016
0.676434 0.388395 0.175070
0.694792 0.399299 0.180343
0.711523 0.408673 0.185356
0.741477 0.423020 0.195341
0.774482 0.438514 0.206473
0.811874 0.459874 0.220510
0.849893 0.482074 0.234962
0.874972 0.498902 0.245936
0.899190 0.515372 0.256677
0.174944 0.164475 0.101914
0.206583 0.171897 0.097878
0.237542 0.179062 0.093585
0.258309 0.182382 0.085448
0.279678 0.186377 0.078157
0.305262 0.195101 0.076790
0.331359 0.204715 0.077327
0.359677 0.218191 0.086115
0.386124 0.231487 0.094546
0.406956 0.244247 0.101902
0.428867 0.256803 0.109278
0.453149 0.268912 0.116700
0.476357 0.281020 0.123853
0.497775 0.293129 0.130558
0.516601 0.302589 0.135213
0.532095 0.308643 0.137231
0.549574 0.317367 0.141918
0.569039 0.328759 0.149274
0.588943 0.338687 0.154800
0.609189 0.347475 0.158901
0.627279 0.357078 0.162514
0.644075 0.367168 0.165834
0.663153 0.379541 0.171034
0.683269 0.392952 0.177088
0.707096 0.406460 0.184705
0.732159 0.420001 0.192842
0.760291 0.433436 0.200874
0.789130 0.446846 0.208881
0.825090 0.467947 0.223439
0.862066 0.490146 0.238933
0.887081 0.507951 0.251925
0.911298 0.525463 0.264749
0.189071 0.175827 0.113266
0.220189 0.182728 0.108448
0.250594 0.189421 0.103350
0.270320 0.193001 0.094041
0.290761 0.197094 0.085643
0.316215 0.204776 0.083625
0.342353 0.213520 0.083658
0.371452 0.226865 0.092576
0.398713 0.239902 0.100877
0.420456 0.252010 0.107321
0.443237 0.264119 0.114153
0.468301 0.276227 0.121835
0.491070 0.288482 0.129053
0.510014 0.300982 0.135498
0.527733 0.310661 0.140006
0.543878 0.316716 0.142024
0.561227 0.324983 0.146060
0.579781 0.335464 0.152114
0.599945 0.345726 0.157949
0.621363 0.355816 0.163613
0.639730 0.366151 0.167242
0.656265 0.376632 0.169651
0.674993 0.387963 0.174297
0.694719 0.399681 0.179961
0.721475 0.414134 0.188652
0.750574 0.429497 0.198352
0.778299 0.443486 0.206359
0.805706 0.457157 0.213976
0.838866 0.476923 0.228029
0.872849 0.497559 0.243002
0.897676 0.516609 0.256815
0.921893 0.535553 0.270552
0.203197 0.185917 0.123356
0.231190 0.189693 0.116456
0.258927 0.193717 0.109535
0.282819 0.201464 0.102309
0.306645 0.209073 0.095734
0.330016 0.215713 0.093716
0.353875 0.223220 0.093162
0.379850 0.234482 0.098956
0.405809 0.245956 0.105173
0.431719 0.258065 0.112660
0.456388 0.270173 0.119882
0.478326 0.282282 0.126522
0.499923 0.294927 0.133479
0.520951 0.308468 0.140966
0.539842 0.318734 0.146060
0.555987 0.324788 0.148078
0.573856 0.333576 0.152114
0.593452 0.345099 0.158169
0.612900 0.355816 0.163417
0.632235 0.365907 0.168039
0.650471 0.376892 0.171929
0.668048 0.388415 0.175379
0.689966 0.399356 0.179635
0.713858 0.410032 0.184257
0.739312 0.422662 0.191907
0.765287 0.435942 0.200565
0.794965 0.452925 0.211762
0.825496 0.470762 0.223545
0.853579 0.487404 0.235385
0.881312 0.503874 0.247234
0.905748 0.524616 0.259875
0.929966 0.545644 0.272570
0.217324 0.196891 0.133447
0.243559 0.199365 0.125374
0.269795 0.202258 0.117457
0.296030 0.211437 0.111858
0.321875 0.220225 0.106650
0.344985 0.226279 0.104176
0.368047 0.233005 0.102667
0.390897 0.242640 0.105336
0.414756 0.252665 0.109128
0.441642 0.263862 0.116289
0.466718 0.275487 0.123246
0.487811 0.288051 0.129756
0.508976 0.300860 0.136511
0.530264 0.314075 0.143672
0.549501 0.324755 0.149181
0.566101 0.332177 0.152566
0.584492 0.341942 0.157058
0.604673 0.354050 0.162656
0.624744 0.365536 0.167889
0.644730 0.376538 0.172836
0.662722 0.387378 0.176930
0.679518 0.398119 0.180510
0.704056 0.409666 0.185344
0.732115 0.421579 0.190747
0.757634 0.433639 0.198152
0.782307 0.445748 0.206225
0.812057 0.463304 0.218105
0.842980 0.482118 0.230865
0.868035 0.498027 0.242087
0.892252 0.513521 0.253088
0.914761 0.534447 0.265128
0.937155 0.555734 0.277236
0.231451 0.208999 0.143537
0.257686 0.212515 0.135465
0.283921 0.216254 0.127612
0.310157 0.223350 0.123055
0.336262 0.230316 0.118628
0.361456 0.236370 0.115113
0.385624 0.242900 0.112171
0.405349 0.251493 0.111716
0.426084 0.260217 0.112643
0.449845 0.269331 0.117721
0.473423 0.279849 0.123572
0.496599 0.293455 0.131124
0.518285 0.306133 0.137748
0.537490 0.317265 0.142825
0.556011 0.328141 0.148530
0.573653 0.338687 0.155040
0.592565 0.350014 0.160573
0.612746 0.362123 0.165130
0.635160 0.374781 0.171079
0.659312 0.387866 0.178110
0.676914 0.397533 0.182333
0.690585 0.405150 0.184872
0.717011 0.418585 0.191528
0.749236 0.434665 0.200056
0.776578 0.447766 0.208243
0.802292 0.459874 0.216315
0.829699 0.474892 0.225657
0.857497 0.490581 0.235292
0.882162 0.508834 0.247946
0.906379 0.527452 0.261031
0.924981 0.546620 0.273200
0.943209 0.565825 0.285309
0.242550 0.217072 0.151610
0.269306 0.222150 0.144579
0.296063 0.227288 0.137735
0.322819 0.233343 0.133699
0.349314 0.239397 0.129533
0.373987 0.245451 0.124455
0.397830 0.251884 0.120146
0.418076 0.259956 0.119170
0.438680 0.268159 0.119446
0.460359 0.276752 0.123482
0.482505 0.286749 0.128129
0.505680 0.299834 0.134118
0.527367 0.312187 0.139961
0.546571 0.323319 0.145560
0.565092 0.334651 0.151785
0.582734 0.346238 0.158816
0.601906 0.358347 0.164609
0.622608 0.370976 0.169166
0.645544 0.383862 0.175408
0.670217 0.396947 0.182959
0.688990 0.406289 0.187053
0.704223 0.413385 0.189071
0.731854 0.428447 0.196997
0.765120 0.447131 0.207608
0.793113 0.461665 0.217096
0.819349 0.474815 0.226210
0.843468 0.487489 0.233632
0.867099 0.500053 0.240662
0.891243 0.518371 0.253446
0.915461 0.537510 0.267052
0.931622 0.556711 0.280231
0.947246 0.575915 0.293381
0.250623 0.221108 0.157664
0.278420 0.228269 0.152716
0.306218 0.235361 0.147826
0.334016 0.241415 0.143790
0.361032 0.247469 0.139363
0.382580 0.253524 0.132202
0.404666 0.259956 0.126591
0.429078 0.268029 0.127698
0.452547 0.276492 0.129537
0.473183 0.286127 0.133573
0.493962 0.296189 0.136917
0.515055 0.307191 0.138740
0.536221 0.319023 0.143151
0.557508 0.332238 0.151874
0.576745 0.344285 0.158946
0.593346 0.354832 0.163893
0.612518 0.366940 0.169166
0.634261 0.380611 0.174765
0.655895 0.392781 0.180876
0.677443 0.403783 0.187386
0.698950 0.413645 0.191089
0.720433 0.422824 0.193107
0.748585 0.439254 0.201749
0.779768 0.458979 0.213402
0.807240 0.475336 0.224713
0.833475 0.490569 0.235910
0.853363 0.501095 0.242030
0.871787 0.510535 0.246977
0.895280 0.526639 0.258589
0.919497 0.543695 0.271154
0.934681 0.564718 0.286220
0.949264 0.586006 0.301454
0.258695 0.227415 0.165989
0.286949 0.234901 0.160781
0.315275 0.242371 0.155683
0.344700 0.249597 0.152232
0.372970 0.256531 0.148204
0.393151 0.261413 0.140132
0.414357 0.267004 0.133951
0.440007 0.275662 0.135969
0.464289 0.284678 0.138346
0.484470 0.294769 0.141796
0.504468 0.304676 0.143985
0.524063 0.314181 0.143399
0.545074 0.325638 0.146817
0.568445 0.340351 0.156907
0.588398 0.353041 0.164093
0.603957 0.363132 0.167543
0.622543 0.374655 0.172002
0.644156 0.387609 0.177471
0.667271 0.400601 0.184257
0.691553 0.413621 0.192069
0.715795 0.425542 0.197359
0.740012 0.436805 0.201135
0.766780 0.452990 0.209834
0.794708 0.471413 0.220770
0.820927 0.487688 0.231707
0.846577 0.503247 0.242644
0.864980 0.514152 0.249402
0.881710 0.523982 0.255196
0.901403 0.537799 0.264977
0.921519 0.552186 0.275328
0.935471 0.571700 0.290012
0.949011 0.591556 0.304985
0.266768 0.235487 0.176079
0.295021 0.241932 0.168788
0.323478 0.248556 0.161802
0.354986 0.257865 0.159393
0.385079 0.266361 0.156277
0.405260 0.269160 0.148204
0.426271 0.273253 0.142024
0.450878 0.282953 0.144042
0.474380 0.292751 0.146158
0.494561 0.302841 0.148566
0.514233 0.312423 0.149714
0.532786 0.320886 0.148086
0.553928 0.332083 0.150853
0.579382 0.347837 0.160943
0.600051 0.361114 0.167673
0.614568 0.371204 0.170082
0.632113 0.381685 0.173500
0.652684 0.392557 0.177926
0.679445 0.407567 0.186015
0.711018 0.425795 0.196952
0.737994 0.440971 0.205366
0.762211 0.454317 0.212267
0.786115 0.469005 0.220510
0.809876 0.484303 0.229364
0.834273 0.499016 0.238217
0.858881 0.513533 0.247071
0.877934 0.526781 0.255977
0.895707 0.539736 0.264896
0.909150 0.551210 0.272334
0.921975 0.562472 0.279560
0.934494 0.577885 0.292096
0.946993 0.593574 0.304985
0.274840 0.242298 0.183647
0.302442 0.247701 0.175575
0.330419 0.253438 0.167962
0.364011 0.264180 0.167246
0.396089 0.273994 0.165692
0.417572 0.277314 0.158270
0.439445 0.281903 0.152497
0.463012 0.291994 0.153864
0.485569 0.301759 0.154905
0.505099 0.310547 0.154971
0.524608 0.319722 0.155198
0.544073 0.329748 0.155784
0.565101 0.341091 0.158470
0.588732 0.354632 0.164654
0.609629 0.367233 0.169870
0.627011 0.378626 0.173841
0.646443 0.390344 0.178496
0.667926 0.402387 0.183834
0.695158 0.417909 0.191882
0.726862 0.436137 0.202038
0.753886 0.451395 0.210891
0.778104 0.464871 0.218964
0.801381 0.480137 0.228379
0.824231 0.496217 0.238404
0.847618 0.511320 0.246965
0.871184 0.526097 0.255037
0.888245 0.539288 0.263692
0.903804 0.552113 0.272480
0.915147 0.563685 0.280585
0.925889 0.575077 0.288592
0.936691 0.588423 0.299224
0.947498 0.601898 0.310031
0.282912 0.248352 0.189701
0.309473 0.252714 0.181629
0.336604 0.257540 0.174147
0.372278 0.269323 0.175514
0.406440 0.280308 0.175912
0.430006 0.285712 0.169533
0.453377 0.291994 0.164410
0.475901 0.302084 0.164736
0.497417 0.311329 0.164215
0.515905 0.318034 0.161155
0.535350 0.326753 0.160537
0.556898 0.339903 0.165289
0.577665 0.351638 0.168235
0.597130 0.361012 0.168170
0.617962 0.372181 0.171237
0.640551 0.385656 0.178333
0.663629 0.399978 0.185592
0.687196 0.415147 0.193013
0.712995 0.430278 0.200215
0.740533 0.445382 0.207246
0.765995 0.458817 0.214928
0.790212 0.471251 0.223000
0.814206 0.488339 0.234563
0.838097 0.507544 0.247714
0.860964 0.524210 0.257055
0.883488 0.540029 0.265128
0.896968 0.551722 0.272089
0.908361 0.562464 0.278795
0.920095 0.575598 0.289374
0.931878 0.589074 0.300506
0.940793 0.601573 0.309380
0.949516 0.614007 0.318103
0.296535 0.257182 0.198531
0.324202 0.261934 0.191174
0.352097 0.266967 0.184180
0.383410 0.276211 0.182618
0.413926 0.285236 0.180673
0.438859 0.292722 0.176051
0.463549 0.300831 0.172430
0.487180 0.311638 0.173146
0.509444 0.321435 0.172853
0.527607 0.328206 0.169533
0.547255 0.337051 0.168694
0.570170 0.350462 0.173317
0.592109 0.362676 0.176523
0.612420 0.372897 0.177369
0.633814 0.384200 0.180437
0.656599 0.396894 0.186361
0.681174 0.411672 0.193359
0.707539 0.428533 0.201432
0.733429 0.443856 0.208772
0.758948 0.457983 0.215542
0.782758 0.471295 0.223126
0.805543 0.484120 0.231199
0.826851 0.500033 0.241956
0.847488 0.517350 0.253935
0.868759 0.534324 0.263521
0.890242 0.551185 0.272309
0.902469 0.561382 0.278294
0.912560 0.570040 0.283633
0.923163 0.583483 0.294895
0.933839 0.597610 0.307003
0.942074 0.609173 0.314657
0.950147 0.620566 0.322013
0.312679 0.267272 0.208621
0.342430 0.273066 0.202306
0.371823 0.278815 0.195963
0.395845 0.283893 0.189193
0.420111 0.289532 0.182951
0.446086 0.299102 0.180412
0.472012 0.309099 0.178679
0.497726 0.320947 0.180437
0.521553 0.331786 0.181185
0.539716 0.339598 0.178907
0.559689 0.348834 0.178134
0.583646 0.361203 0.180673
0.607407 0.373938 0.184139
0.630843 0.387284 0.189152
0.653083 0.399433 0.193196
0.673785 0.410045 0.195996
0.698881 0.424301 0.201432
0.728371 0.442204 0.209504
0.755042 0.457983 0.217430
0.779520 0.472109 0.225242
0.801637 0.486073 0.233217
0.822339 0.499939 0.241289
0.839416 0.513313 0.249899
0.854844 0.526464 0.258752
0.874033 0.543178 0.268338
0.894474 0.561081 0.278168
0.906505 0.569780 0.283502
0.916596 0.576355 0.287799
0.925376 0.589537 0.298931
0.933969 0.603664 0.311040
0.942074 0.614251 0.317716
0.950147 0.624602 0.324031
0.324283 0.274335 0.218712
0.354555 0.281171 0.211876
0.384371 0.287831 0.204963
0.407351 0.291868 0.196891
0.430738 0.296758 0.189575
0.456973 0.307630 0.187557
0.483062 0.318441 0.186003
0.508516 0.328987 0.186459
0.532343 0.339305 0.186686
0.551287 0.348940 0.186231
0.571635 0.359104 0.186304
0.595071 0.370431 0.187541
0.619386 0.383101 0.190877
0.645165 0.398009 0.197713
0.669863 0.411493 0.202782
0.693168 0.423146 0.205582
0.719176 0.438054 0.211018
0.747885 0.456217 0.219090
0.774067 0.472109 0.226723
0.798285 0.486236 0.234014
0.819491 0.500363 0.242282
0.838891 0.514489 0.251135
0.855202 0.527766 0.259452
0.870110 0.540655 0.267524
0.886629 0.555742 0.276524
0.903686 0.571562 0.285834
0.913813 0.581351 0.292128
0.922341 0.589749 0.297727
0.928420 0.599058 0.306287
0.934148 0.608498 0.315271
0.942074 0.617815 0.321509
0.950147 0.627125 0.327563
0.334374 0.280390 0.228802
0.364645 0.288267 0.220925
0.394526 0.295904 0.213036
0.418548 0.299940 0.204963
0.442847 0.304961 0.197648
0.469082 0.316874 0.195630
0.494976 0.328141 0.193685
0.519388 0.336604 0.192057
0.542694 0.345880 0.191243
0.562680 0.357598 0.192871
0.583418 0.368869 0.194051
0.605812 0.379155 0.194246
0.630257 0.391564 0.197322
0.658120 0.407514 0.205199
0.685812 0.422495 0.211311
0.713284 0.436231 0.215151
0.740333 0.452180 0.221108
0.766959 0.470343 0.229180
0.792230 0.486236 0.236228
0.816448 0.500363 0.242477
0.837003 0.514489 0.251005
0.855361 0.528616 0.260900
0.872063 0.542608 0.269542
0.888013 0.556540 0.277615
0.901667 0.569544 0.285834
0.914557 0.582238 0.294101
0.922211 0.593980 0.301893
0.928655 0.605503 0.309575
0.931740 0.609735 0.314750
0.934344 0.612925 0.319568
0.942074 0.620875 0.325545
0.950147 0.629143 0.331599
0.347744 0.293003 0.245451
0.376323 0.299383 0.233994
0.404735 0.305669 0.222801
0.430645 0.310551 0.215575
0.456595 0.316126 0.208682
0.482830 0.326542 0.204125
0.508846 0.336994 0.200362
0.533909 0.347605 0.200036
0.558175 0.358380 0.200085
0.580049 0.369642 0.201257
0.602024 0.381331 0.202591
0.624224 0.393961 0.204284
0.649010 0.407274 0.207417
0.678110 0.421726 0.212950
0.706839 0.436406 0.218569
0.735093 0.451379 0.224298
0.761068 0.466677 0.230775
0.784764 0.482301 0.238002
0.808754 0.498511 0.245521
0.832971 0.515177 0.253267
0.851817 0.529198 0.260892
0.867441 0.541632 0.268444
0.882260 0.554066 0.275772
0.896712 0.566500 0.282998
0.908772 0.578690 0.291493
0.920034 0.590799 0.300412
0.925689 0.600844 0.307268
0.930051 0.610414 0.313648
0.933843 0.614117 0.317977
0.937554 0.616981 0.322013
0.943767 0.624728 0.327941
0.950147 0.632800 0.333996
0.361871 0.307130 0.263614
0.388366 0.311426 0.247990
0.414956 0.315824 0.232956
0.442949 0.321749 0.226772
0.470722 0.327974 0.220400
0.496957 0.336307 0.212718
0.523168 0.345652 0.206806
0.549273 0.359389 0.208564
0.574841 0.372246 0.209915
0.598798 0.382467 0.210045
0.622205 0.394416 0.211315
0.644405 0.410171 0.215090
0.669582 0.424655 0.218354
0.699723 0.437024 0.220762
0.729039 0.450988 0.225535
0.757292 0.467003 0.233347
0.781704 0.481260 0.240345
0.802276 0.493759 0.246530
0.824898 0.510360 0.254765
0.849116 0.530150 0.264595
0.866009 0.544041 0.271048
0.878508 0.554392 0.275475
