app/src/main/assets/cube/Yolk08.cube
# LUT by SparkleStock. Enhanced with VOXCOLOR algorithms.
LUT_3D_SIZE 8
DOMAIN_MIN 0.000000 0.000000 0.000000
DOMAIN_MAX 0.903226 0.903226 0.903226
0.168133 0.113392 0.113392
0.204333 0.133699 0.121464
0.242046 0.154511 0.126131
0.296913 0.191467 0.134456
0.379529 0.239649 0.146691
0.456973 0.288967 0.156277
0.526724 0.339924 0.172674
0.566582 0.373222 0.189449
0.196008 0.133447 0.125374
0.225161 0.149876 0.125391
0.274938 0.179517 0.134488
0.351198 0.227211 0.153249
0.425949 0.271817 0.165427
0.506291 0.327481 0.178557
0.569230 0.376221 0.191215
0.622987 0.429249 0.212543
0.213162 0.149592 0.134456
0.253776 0.167185 0.130228
0.320308 0.207864 0.146186
0.393822 0.253495 0.159121
0.475515 0.304859 0.173292
0.547967 0.358681 0.186800
0.599937 0.408917 0.201672
0.661709 0.471983 0.230845
0.244695 0.171160 0.154763
0.285134 0.192379 0.142984
0.363677 0.236187 0.153192
0.454703 0.295420 0.172527
0.524466 0.345738 0.184359
0.585359 0.394791 0.198767
0.638940 0.448104 0.220351
0.694426 0.504598 0.248588
0.276732 0.198531 0.178980
0.344208 0.231764 0.168064
0.410187 0.265893 0.160439
0.498792 0.329146 0.180815
0.566590 0.384574 0.192729
0.622279 0.435930 0.215705
0.673691 0.490927 0.237643
0.726186 0.539512 0.262227
0.304733 0.224009 0.199287
0.391503 0.271679 0.197180
0.466612 0.312785 0.186296
0.537234 0.362904 0.190356
0.599197 0.419984 0.209451
0.656513 0.480560 0.234030
0.706697 0.532005 0.256282
0.756039 0.576298 0.277871
0.351654 0.258695 0.229811
0.430486 0.301763 0.211522
0.518285 0.360678 0.210261
0.582051 0.409589 0.214338
0.641365 0.470836 0.233078
0.692603 0.521821 0.253398
0.737074 0.566842 0.273497
0.785082 0.603453 0.293223
0.405512 0.305616 0.268660
0.491798 0.352285 0.244821
0.567591 0.407001 0.234454
0.630115 0.468972 0.247091
0.686581 0.520767 0.262780
0.737493 0.570679 0.282029
0.771618 0.598061 0.291310
0.802744 0.621912 0.298931
0.188440 0.125627 0.130041
0.217308 0.142748 0.142276
0.253337 0.167470 0.153852
0.301832 0.200500 0.162331
0.382369 0.245830 0.171282
0.474253 0.304859 0.179322
0.543976 0.357175 0.187207
0.597496 0.408022 0.208759
0.216820 0.150112 0.146691
0.249190 0.170924 0.165360
0.293365 0.203924 0.172798
0.369610 0.246030 0.186561
0.453820 0.298476 0.194279
0.530086 0.349363 0.194463
0.583288 0.395517 0.206951
0.627526 0.437846 0.223051
0.242046 0.171665 0.164064
0.277505 0.198484 0.185211
0.350038 0.242798 0.194294
0.418589 0.281757 0.202215
0.504298 0.340715 0.211389
0.562967 0.379914 0.207769
0.613771 0.426825 0.225394
0.658308 0.470895 0.240276
0.277538 0.205236 0.193709
0.313356 0.228548 0.206146
0.384253 0.268070 0.203269
0.468070 0.318903 0.212181
0.540281 0.371172 0.220185
0.595535 0.418142 0.225478
0.640379 0.459144 0.240032
0.691323 0.506233 0.261274
0.317159 0.231072 0.214236
0.366647 0.270653 0.239165
0.433102 0.307411 0.224433
0.512340 0.360246 0.225782
0.574915 0.407800 0.235918
0.621741 0.451086 0.241648
0.667402 0.491814 0.254726
0.719631 0.539223 0.276576
0.361952 0.269327 0.242046
0.410866 0.310002 0.268771
0.476953 0.347092 0.246755
0.548097 0.393093 0.241342
0.603402 0.442757 0.250740
0.653501 0.490360 0.263590
0.703484 0.537542 0.283890
0.748837 0.575923 0.295143
0.405512 0.307663 0.271280
0.451794 0.348851 0.297073
0.520654 0.389245 0.277795
0.580814 0.430470 0.269212
0.635216 0.481625 0.270746
0.687198 0.527932 0.284356
0.736623 0.574332 0.304859
0.779385 0.607142 0.311897
0.450415 0.348501 0.298162
0.491585 0.385428 0.326600
0.556419 0.426230 0.303070
0.611499 0.473551 0.294387
0.672434 0.521950 0.295623
0.725878 0.567367 0.308298
0.771889 0.605531 0.321292
0.804128 0.630634 0.327897
0.208747 0.141772 0.150096
0.241981 0.163495 0.167624
0.279255 0.191654 0.190271
0.324226 0.220547 0.199328
0.392773 0.264119 0.209626
0.473065 0.312679 0.203376
0.548097 0.367225 0.206660
0.610500 0.423825 0.223680
0.244475 0.170403 0.177027
0.277409 0.194919 0.194209
0.327909 0.228615 0.218907
0.388729 0.272728 0.237664
0.462180 0.321740 0.237427
0.535010 0.368027 0.229450
0.587462 0.409686 0.229115
0.639227 0.456629 0.242602
0.271744 0.199475 0.195434
0.314010 0.229343 0.217300
0.384074 0.280411 0.251405
0.445900 0.324533 0.262337
0.514506 0.366350 0.258552
0.574459 0.407577 0.248447
0.620860 0.450275 0.252723
0.664688 0.489779 0.269031
0.311951 0.231422 0.219594
0.360037 0.265826 0.247577
0.419862 0.317155 0.276264
0.496571 0.366909 0.278577
0.551202 0.401431 0.272852
0.598640 0.438780 0.265491
0.645376 0.478312 0.270537
0.690021 0.519507 0.289708
0.354290 0.263350 0.244813
0.408470 0.311149 0.276704
0.468529 0.363058 0.306463
0.527822 0.399222 0.294533
0.583082 0.438877 0.294146
0.626491 0.475734 0.289365
0.672106 0.513327 0.294346
0.716703 0.551505 0.310727
0.401765 0.304517 0.273615
0.457817 0.354745 0.307005
0.506049 0.399485 0.334742
0.557734 0.433329 0.320510
0.602134 0.469786 0.307709
0.655704 0.511970 0.316000
0.699414 0.547983 0.323470
0.743435 0.582052 0.329150
0.456123 0.353912 0.308997
0.496081 0.392023 0.333670
0.540172 0.434362 0.358830
0.585645 0.470617 0.346274
0.633875 0.505791 0.339225
0.687326 0.548980 0.342910
0.734465 0.584915 0.346458
0.773182 0.610437 0.344934
0.500615 0.397415 0.338081
0.533993 0.432676 0.361760
0.568102 0.469963 0.381518
0.608428 0.498285 0.368735
0.661235 0.536113 0.360852
0.720009 0.580378 0.362407
0.767296 0.614704 0.361947
0.805224 0.640814 0.362459
0.234478 0.160187 0.168007
0.272260 0.189848 0.193660
0.312203 0.215530 0.212181
0.363994 0.253145 0.239902
0.413837 0.293141 0.255233
0.488388 0.345237 0.255794
0.547959 0.387939 0.254321
0.615447 0.445333 0.257975
0.274588 0.195630 0.198327
0.311649 0.220459 0.219906
0.368819 0.264807 0.254969
0.422122 0.307623 0.279691
0.481077 0.354311 0.291380
0.535807 0.390832 0.279824
0.589071 0.434321 0.275481
0.647830 0.480980 0.280708
0.309807 0.225677 0.220506
0.357993 0.262399 0.250102
0.414983 0.309164 0.284998
0.476094 0.358322 0.312054
0.526696 0.397787 0.319591
0.574780 0.434680 0.303417
0.618218 0.471306 0.298171
0.671169 0.512182 0.306808
0.353021 0.261576 0.251022
0.398834 0.301565 0.277757
0.467471 0.361267 0.315648
0.521419 0.410252 0.346597
0.559477 0.436473 0.339763
0.596620 0.467481 0.325426
0.643176 0.499407 0.317672
0.693675 0.542088 0.331419
0.395971 0.299790 0.275894
0.446632 0.348730 0.308458
0.505281 0.397722 0.342709
0.550628 0.446055 0.368382
0.587749 0.476077 0.358680
0.625428 0.498172 0.345600
0.673340 0.534888 0.343907
0.715989 0.568120 0.348383
0.453702 0.354177 0.313326
0.494542 0.389865 0.335787
0.539476 0.438465 0.365569
0.572497 0.474123 0.384195
0.610679 0.503656 0.378593
0.656937 0.535551 0.371638
0.698790 0.564020 0.361026
0.748161 0.598635 0.369027
0.497885 0.394119 0.339968
0.531364 0.429830 0.362950
0.567811 0.472143 0.386321
0.597617 0.505810 0.405515
0.637180 0.533265 0.399205
0.686501 0.565479 0.392355
0.732493 0.597176 0.386731
0.780284 0.628219 0.384110
0.535122 0.436650 0.365223
0.560605 0.466285 0.383577
0.589570 0.498474 0.405287
0.623821 0.535155 0.428180
0.666370 0.563495 0.422697
0.719378 0.598354 0.417164
0.772975 0.633102 0.409632
0.814441 0.659970 0.405255
0.271939 0.191719 0.195630
0.306438 0.215058 0.217707
0.356573 0.250497 0.241163
0.401716 0.285378 0.268395
0.452282 0.335114 0.298821
0.506185 0.383101 0.318449
0.550298 0.415969 0.312944
0.613124 0.474913 0.321334
0.311609 0.224326 0.223065
0.356911 0.257662 0.250989
0.405284 0.297376 0.279767
0.461475 0.346749 0.308011
0.509005 0.387589 0.335299
0.552539 0.431102 0.347245
0.590485 0.464269 0.337855
0.643270 0.504641 0.338256
0.359979 0.265128 0.255290
0.403633 0.302223 0.279515
0.459244 0.350544 0.314410
0.508478 0.392715 0.344105
0.550168 0.438471 0.365503
0.579976 0.466163 0.366381
0.620870 0.500553 0.361622
0.667637 0.534731 0.356605
0.402176 0.304424 0.281342
0.444747 0.344140 0.310393
0.500764 0.394890 0.344927
0.545750 0.440020 0.371233
0.575335 0.471789 0.384201
0.605025 0.499455 0.385880
0.646780 0.529478 0.378045
0.694180 0.564227 0.375421
0.440385 0.340127 0.305819
0.485454 0.381030 0.335492
0.533354 0.429308 0.365974
0.570355 0.471051 0.387915
0.602301 0.508720 0.409605
0.628067 0.525102 0.401889
0.670130 0.555338 0.392982
0.720845 0.589245 0.392614
0.492827 0.389526 0.341974
0.527439 0.426228 0.361677
0.565115 0.466479 0.386668
0.594467 0.504861 0.411278
0.627038 0.538544 0.431218
0.663042 0.562666 0.428101
0.699613 0.582027 0.411118
0.754142 0.619690 0.409675
0.535313 0.436679 0.369186
0.563514 0.468060 0.388722
0.589384 0.499648 0.407568
0.620794 0.533523 0.429505
0.652145 0.566695 0.453958
0.695805 0.590091 0.448901
0.740470 0.619669 0.436229
0.792523 0.651532 0.428511
0.555006 0.460611 0.383545
0.585236 0.494399 0.405464
0.614800 0.527452 0.426251
0.646046 0.559936 0.453240
0.681091 0.592681 0.476575
0.726446 0.621110 0.472428
0.785157 0.658257 0.464141
0.832220 0.686927 0.457661
0.309904 0.217450 0.221360
0.355230 0.256217 0.249443
0.399242 0.289418 0.272785
0.449186 0.333507 0.299452
0.493320 0.372433 0.328792
0.532778 0.411440 0.353855
0.568490 0.455224 0.371709
0.609214 0.497270 0.378141
0.354429 0.259244 0.252299
0.397794 0.297466 0.276952
0.444456 0.334480 0.304755
0.493909 0.379573 0.333039
0.535732 0.422320 0.359095
0.574341 0.467689 0.383165
0.602934 0.501477 0.393820
0.645267 0.532676 0.398131
0.402900 0.302499 0.282571
0.445899 0.344892 0.311338
0.493491 0.385612 0.338598
0.538863 0.429597 0.365346
0.570179 0.466908 0.386513
0.597647 0.501156 0.402863
0.632831 0.531714 0.412599
0.672169 0.561450 0.413904
0.443746 0.343976 0.309148
0.493116 0.386059 0.341287
0.533185 0.427082 0.365830
0.566616 0.468625 0.387601
0.595649 0.501762 0.408360
0.627040 0.533082 0.426345
0.656135 0.557942 0.430120
0.701057 0.588377 0.429843
0.484743 0.380432 0.336538
0.525550 0.422175 0.362158
0.559998 0.462823 0.384927
0.592121 0.499533 0.409412
0.623517 0.534516 0.432809
0.649605 0.560137 0.448841
0.681788 0.579634 0.446992
0.730969 0.614062 0.441706
0.516646 0.416778 0.358660
0.555606 0.459087 0.381994
0.587459 0.496981 0.406916
0.619556 0.530788 0.429591
0.651709 0.565996 0.458374
0.681397 0.591551 0.476536
0.710283 0.606120 0.468211
0.761881 0.638308 0.457486
0.552186 0.455948 0.381278
0.581827 0.489952 0.401360
0.616739 0.528410 0.428960
0.650082 0.564060 0.457951
0.679168 0.591901 0.480833
0.708036 0.617250 0.498849
0.757366 0.648073 0.495541
0.819239 0.686247 0.492697
0.574532 0.481069 0.398009
0.609719 0.521220 0.423602
0.642793 0.557577 0.450744
0.674656 0.586720 0.477475
0.708334 0.621057 0.506195
0.745487 0.654462 0.527760
0.808448 0.690703 0.526885
0.870008 0.731975 0.529156
0.352537 0.254785 0.249361
0.388456 0.287563 0.271532
0.438225 0.332148 0.299859
0.486403 0.369101 0.326973
0.522537 0.406749 0.349522
0.556458 0.442420 0.371424
0.590754 0.492119 0.399702
0.632442 0.534292 0.425136
0.392268 0.293255 0.275344
0.443355 0.337692 0.306710
0.485316 0.376087 0.333537
0.528868 0.418913 0.358598
0.560589 0.454019 0.380069
0.592031 0.494970 0.401419
0.627334 0.531289 0.424850
0.657081 0.558980 0.441403
0.448523 0.348753 0.312862
0.491004 0.382661 0.337849
0.528680 0.424687 0.363443
0.562993 0.462236 0.385838
0.593281 0.498166 0.406105
0.623719 0.530077 0.428653
0.654829 0.562614 0.451966
0.686954 0.587525 0.464821
0.488335 0.383057 0.339415
0.527147 0.425507 0.364500
0.560521 0.463160 0.385337
0.590407 0.500712 0.409369
0.620564 0.531240 0.430438
0.650800 0.563911 0.455723
0.680596 0.587684 0.473251
0.712234 0.612697 0.479939
0.524201 0.421885 0.361984
0.553000 0.455670 0.381865
0.587168 0.495963 0.405661
0.619745 0.532600 0.433278
0.648112 0.562449 0.456708
0.680751 0.590819 0.480076
0.707836 0.614683 0.496225
0.749284 0.644142 0.499821
0.546966 0.448331 0.376058
0.581216 0.488197 0.401676
0.612461 0.524220 0.425996
0.645699 0.560127 0.454860
0.679045 0.591706 0.482403
0.708223 0.618871 0.504582
0.741538 0.646280 0.523198
0.793666 0.678925 0.526409
0.564995 0.470225 0.388997
0.602122 0.513896 0.417643
0.641808 0.556140 0.451533
0.677301 0.589320 0.481005
0.709468 0.620703 0.508150
0.745490 0.654374 0.534883
0.790294 0.690265 0.564056
0.841873 0.721084 0.566125
0.596707 0.508541 0.414394
0.636957 0.552641 0.447393
0.672876 0.586546 0.477525
0.706776 0.619583 0.507121
0.748262 0.657660 0.538039
0.787658 0.691855 0.568890
0.839488 0.732623 0.606667
0.896949 0.775333 0.612501
0.392016 0.292498 0.276858
0.443754 0.342080 0.309034
0.479954 0.369967 0.328926
0.516780 0.403315 0.349583
0.553387 0.442013 0.370749
0.582665 0.481317 0.392268
0.614186 0.518631 0.419313
0.653612 0.559770 0.449491
0.432606 0.332620 0.305124
0.481028 0.374017 0.331921
0.525982 0.420677 0.361104
0.556432 0.453747 0.378158
0.586239 0.489486 0.399356
0.619878 0.526289 0.425213
0.646555 0.554284 0.445432
0.671936 0.578335 0.464566
0.488710 0.382104 0.338133
0.523072 0.420097 0.358088
0.554655 0.455328 0.381206
0.585509 0.494062 0.403368
0.616934 0.527289 0.427855
0.647741 0.559119 0.452547
0.679519 0.587733 0.476638
0.708583 0.615713 0.497215
0.524149 0.421746 0.361313
0.555761 0.459616 0.384027
0.587181 0.495522 0.405586
0.615092 0.526731 0.427067
0.647666 0.560274 0.453885
0.678728 0.588552 0.478380
0.712813 0.623325 0.507501
0.747291 0.651081 0.529018
0.550359 0.456062 0.380461
0.582267 0.490847 0.402454
0.610795 0.521704 0.424511
0.641495 0.556114 0.451718
0.675808 0.588627 0.478208
0.709891 0.623121 0.507638
0.743824 0.651202 0.532262
0.785741 0.685216 0.557657
0.567147 0.473305 0.391385
0.603904 0.515877 0.420721
0.639282 0.553277 0.447192
0.672828 0.586436 0.477561
0.708417 0.619943 0.507638
0.746748 0.655861 0.537990
0.789280 0.691678 0.568090
0.838702 0.729758 0.601571
0.589464 0.502360 0.409149
0.635504 0.550215 0.444861
0.670557 0.584857 0.477267
0.706720 0.617622 0.506033
0.747399 0.656907 0.538642
0.788932 0.691325 0.571985
0.838187 0.734548 0.614882
0.885081 0.778939 0.657251
0.623511 0.535346 0.435238
0.664271 0.578059 0.469875
0.704239 0.615002 0.503375
0.743247 0.653091 0.536090
0.787028 0.690465 0.569476
0.840195 0.737603 0.617134
0.888045 0.785952 0.671100
0.928857 0.834808 0.723106
