app/src/main/assets/cube/Yolk10.cube
# LUT by SparkleStock. Enhanced with VOXCOLOR algorithms.
LUT_3D_SIZE 5
DOMAIN_MIN 0.000000 0.000000 0.000000
DOMAIN_MAX 0.903226 0.903226 0.903226
0.011730 0.007820 0.007820
0.217955 0.123861 0.045407
0.378141 0.217324 0.081733
0.524832 0.292751 0.121969
0.619178 0.345852 0.156403
0.120834 0.115158 0.059534
0.311076 0.189657 0.071175
0.460847 0.268155 0.114185
0.595844 0.335509 0.149860
0.750920 0.424419 0.196281
0.217324 0.196891 0.133447
0.390897 0.242640 0.105336
0.549501 0.324755 0.149181
0.679518 0.398119 0.180510
0.868035 0.498027 0.242087
0.282912 0.248352 0.189701
0.475901 0.302084 0.164736
0.617962 0.372181 0.171237
0.790212 0.471251 0.223000
0.920095 0.575598 0.289374
0.370700 0.315959 0.272948
0.562871 0.368608 0.215896
0.753004 0.468305 0.236602
0.894018 0.571309 0.288145
0.936862 0.619178 0.322013
0.123861 0.095607 0.099518
0.242729 0.177629 0.151728
0.366159 0.245325 0.166872
0.525849 0.309408 0.161835
0.671458 0.387011 0.185612
0.207738 0.189701 0.156024
0.322028 0.262898 0.215172
0.466647 0.314400 0.216696
0.610981 0.370842 0.200300
0.761092 0.442444 0.230364
0.282713 0.258370 0.214386
0.384151 0.319714 0.268619
0.537604 0.372885 0.253275
0.676936 0.424035 0.239946
0.845763 0.507186 0.277546
0.362745 0.311166 0.276614
0.453513 0.383388 0.341520
0.592701 0.419993 0.290784
0.770536 0.502892 0.298881
0.897965 0.582306 0.329681
0.438652 0.380086 0.349457
0.515279 0.439641 0.405081
0.678199 0.489601 0.356203
0.861445 0.580746 0.358673
0.920091 0.637971 0.381928
0.212531 0.176458 0.164727
0.291815 0.237704 0.215758
0.383703 0.294948 0.272464
0.502666 0.358970 0.284251
0.657880 0.420395 0.262984
0.285651 0.254659 0.224261
0.369438 0.313106 0.292077
0.477142 0.382352 0.353354
0.578347 0.423913 0.330607
0.758094 0.492030 0.318303
0.350173 0.309306 0.279592
0.440592 0.378906 0.355071
0.536712 0.454558 0.425646
0.644985 0.481943 0.384374
0.819195 0.550595 0.374618
0.434994 0.381624 0.358904
0.504266 0.442236 0.423324
0.589354 0.519181 0.493653
0.739097 0.563122 0.461066
0.863866 0.621214 0.445236
0.498450 0.443416 0.422206
0.569800 0.511434 0.495042
0.663590 0.586482 0.565284
0.809733 0.634242 0.524864
0.889305 0.690750 0.527934
0.286192 0.242550 0.223631
0.357069 0.297149 0.279112
0.447782 0.359995 0.337560
0.519433 0.421152 0.403823
0.631637 0.495224 0.443543
0.356581 0.313184 0.287958
0.434885 0.374578 0.356360
0.518540 0.439983 0.421472
0.605312 0.506542 0.490135
0.712084 0.561073 0.493532
0.423549 0.371977 0.352427
0.499187 0.438626 0.422155
0.582485 0.519860 0.507304
0.669467 0.576661 0.559195
0.780940 0.623769 0.544781
0.478111 0.420721 0.401171
0.565179 0.503715 0.491474
0.659778 0.590060 0.578739
0.739411 0.658019 0.645320
0.829614 0.684447 0.607096
0.546873 0.490618 0.474693
0.641222 0.577651 0.564698
0.733863 0.660284 0.646930
0.801142 0.728635 0.716233
0.865098 0.767094 0.704046
0.347239 0.302084 0.276858
0.422003 0.357729 0.341152
0.496811 0.416843 0.399751
0.579479 0.484185 0.466718
0.678082 0.572091 0.551779
0.421437 0.366444 0.349143
0.492514 0.430584 0.414756
0.571981 0.504054 0.490663
0.663314 0.579265 0.566054
0.746368 0.644825 0.624486
0.490736 0.435027 0.415476
0.566264 0.506442 0.494292
0.647555 0.582986 0.571165
0.740355 0.660152 0.648422
0.805726 0.723778 0.709732
0.534231 0.477692 0.461766
0.640121 0.577482 0.565178
0.732888 0.658320 0.648143
0.799930 0.732787 0.724331
0.844543 0.787167 0.777733
0.614556 0.553342 0.543377
0.726510 0.654637 0.643955
0.802976 0.733365 0.725725
0.846259 0.797328 0.791929
0.864524 0.830664 0.826754
