app/src/main/assets/cube/Yolk10.cube
# LUT by SparkleStock. Enhanced with VOXCOLOR algorithms.
LUT_3D_SIZE 8
DOMAIN_MIN 0.000000 0.000000 0.000000
DOMAIN_MAX 0.903226 0.903226 0.903226
0.011730 0.007820 0.007820
0.140384 0.080219 0.035695
0.240154 0.136979 0.048434
0.323400 0.192224 0.065588
0.422540 0.243559 0.095860
0.502633 0.278624 0.111878
0.573645 0.318860 0.137483
0.619178 0.345852 0.156403
0.076057 0.079967 0.040110
0.203482 0.123751 0.040362
0.292970 0.173178 0.060954
0.385311 0.228123 0.092706
0.470970 0.270490 0.115727
0.548211 0.309237 0.136979
0.619431 0.350938 0.158364
0.700557 0.396443 0.181263
0.135969 0.124744 0.065588
0.245073 0.156496 0.057198
0.349127 0.211774 0.084195
0.432768 0.256144 0.108290
0.517142 0.296164 0.129419
0.591466 0.335167 0.150674
0.662934 0.374541 0.166676
0.773689 0.436919 0.204434
0.189071 0.175827 0.113266
0.290761 0.197094 0.085643
0.398713 0.239902 0.100877
0.491070 0.288482 0.129053
0.561227 0.324983 0.146060
0.639730 0.366151 0.167242
0.721475 0.414134 0.188652
0.838866 0.476923 0.228029
0.242550 0.217072 0.151610
0.349314 0.239397 0.129533
0.438680 0.268159 0.119446
0.527367 0.312187 0.139961
0.601906 0.358347 0.164609
0.688990 0.406289 0.187053
0.793113 0.461665 0.217096
0.891243 0.518371 0.253446
0.274840 0.242298 0.183647
0.396089 0.273994 0.165692
0.485569 0.301759 0.154905
0.565101 0.341091 0.158470
0.646443 0.390344 0.178496
0.753886 0.451395 0.210891
0.847618 0.511320 0.246965
0.915147 0.563685 0.280585
0.324283 0.274335 0.218712
0.430738 0.296758 0.189575
0.532343 0.339305 0.186686
0.619386 0.383101 0.190877
0.719176 0.438054 0.211018
0.819491 0.500363 0.242282
0.886629 0.555742 0.276524
0.928420 0.599058 0.306287
0.370700 0.315959 0.272948
0.484735 0.339936 0.230808
0.589285 0.381270 0.214903
0.691919 0.438448 0.227468
0.805018 0.497665 0.250371
0.881910 0.559396 0.282286
0.918634 0.595234 0.302609
0.936862 0.619178 0.322013
0.076562 0.060417 0.064327
0.161367 0.112997 0.092470
0.247722 0.160471 0.108632
0.328901 0.205216 0.117078
0.418251 0.248918 0.124679
0.515409 0.295733 0.137573
0.586103 0.330114 0.153376
0.657648 0.374622 0.173683
0.139880 0.124711 0.100274
0.215273 0.171697 0.131384
0.294814 0.209268 0.137215
0.390757 0.252439 0.143741
0.487094 0.293288 0.153327
0.563558 0.327654 0.157408
0.632325 0.362528 0.171767
0.707461 0.403000 0.191554
0.184689 0.175892 0.129191
0.247341 0.210968 0.155253
0.350486 0.247941 0.156899
0.437333 0.280096 0.166702
0.527970 0.322543 0.173223
0.602329 0.353207 0.174349
0.673522 0.394560 0.188534
0.766667 0.436098 0.214962
0.239194 0.218382 0.168308
0.282265 0.247049 0.190183
0.385322 0.274590 0.176927
0.481277 0.312930 0.183794
0.561899 0.352220 0.192318
0.642298 0.384945 0.194519
0.722190 0.425391 0.210840
0.828498 0.476002 0.241156
0.277806 0.253019 0.202571
0.332396 0.282314 0.231276
0.431466 0.307675 0.208671
0.519976 0.341032 0.201849
0.601408 0.381125 0.211857
0.682365 0.419361 0.217682
0.780489 0.465413 0.236712
0.875136 0.517680 0.267398
0.322851 0.282156 0.235902
0.373995 0.320302 0.271284
0.465805 0.332834 0.237230
0.556417 0.367924 0.225563
0.644978 0.412676 0.227902
0.743078 0.461517 0.245055
0.834952 0.516297 0.272472
0.904882 0.564754 0.297291
0.368401 0.318201 0.273969
0.411635 0.346950 0.306311
0.507471 0.371469 0.272896
0.598550 0.402424 0.255580
0.700478 0.451244 0.256081
0.799959 0.504738 0.272359
0.877902 0.564280 0.302580
0.920671 0.602140 0.324054
0.409182 0.346849 0.309652
0.449145 0.382693 0.349291
0.542478 0.403845 0.303394
0.646346 0.444950 0.284680
0.766797 0.499340 0.285777
0.861066 0.555552 0.303615
0.910372 0.600559 0.328210
0.933451 0.626862 0.345264
0.136474 0.104184 0.108094
0.193323 0.156244 0.144042
0.262845 0.197517 0.171730
0.331387 0.235528 0.180534
0.407400 0.267020 0.179224
0.500184 0.301075 0.171665
0.583023 0.342365 0.174920
0.675331 0.392366 0.192903
0.191060 0.170940 0.143855
0.244599 0.204186 0.182573
0.312199 0.247380 0.210773
0.388368 0.278804 0.218990
0.470440 0.312602 0.213715
0.552584 0.342331 0.200377
0.630660 0.376017 0.198014
0.719925 0.418319 0.211900
0.230621 0.209557 0.173992
0.278128 0.248304 0.206392
0.360262 0.291628 0.248886
0.436529 0.319938 0.248109
0.518447 0.348805 0.238970
0.599645 0.379494 0.220845
0.681873 0.415714 0.224539
0.776284 0.456902 0.247799
0.274531 0.247624 0.208466
0.318732 0.280756 0.242294
0.385098 0.325175 0.276809
0.479643 0.355282 0.269803
0.552936 0.379131 0.260929
0.635471 0.407307 0.243521
0.726459 0.444635 0.247477
0.820796 0.491654 0.274306
0.309632 0.277232 0.239515
0.365483 0.320276 0.278485
0.428760 0.361674 0.318306
0.511727 0.382412 0.289327
0.592639 0.410026 0.278897
0.675738 0.441343 0.270199
0.777296 0.487339 0.280079
0.862807 0.531963 0.302223
0.362159 0.315365 0.277851
0.410734 0.352235 0.320564
0.463498 0.394347 0.357728
0.542346 0.411787 0.323188
0.626441 0.439587 0.304636
0.732350 0.490996 0.308962
0.820691 0.530893 0.316470
0.887611 0.572881 0.332637
0.414146 0.355804 0.322941
0.449945 0.388906 0.356661
0.495749 0.428728 0.395111
0.576971 0.447956 0.361412
0.678912 0.483450 0.343052
0.785765 0.530429 0.340809
0.863887 0.577291 0.353157
0.905664 0.611267 0.363359
0.449784 0.391235 0.364039
0.489121 0.426504 0.401503
0.533814 0.461616 0.431710
0.619293 0.483300 0.401596
0.726970 0.520217 0.376317
0.834411 0.572993 0.376997
0.890238 0.613957 0.386057
0.916278 0.643186 0.397988
0.185161 0.149970 0.141393
0.238437 0.194970 0.181320
0.291237 0.231170 0.204866
0.344908 0.266515 0.236895
0.409227 0.299562 0.252641
0.487017 0.329361 0.242449
0.563892 0.363677 0.232838
0.672385 0.411945 0.231435
0.236447 0.207661 0.180950
0.275836 0.235667 0.213239
0.337102 0.276220 0.253012
0.405711 0.314209 0.281457
0.467381 0.344330 0.288417
0.534815 0.368070 0.267877
0.617132 0.403275 0.255128
0.728669 0.449610 0.261345
0.275694 0.244723 0.210696
0.315534 0.277715 0.247657
0.378923 0.321200 0.290757
0.447966 0.355564 0.322580
0.513298 0.384413 0.322994
0.577973 0.403978 0.294436
0.665355 0.438640 0.280677
0.776135 0.483999 0.290347
0.312407 0.275849 0.245789
0.354902 0.311277 0.280240
0.427079 0.360231 0.328024
0.485272 0.401585 0.366333
0.540941 0.416933 0.348441
0.614227 0.434975 0.318297
0.714501 0.476036 0.311996
0.811389 0.518687 0.323400
0.349245 0.309192 0.277855
0.401705 0.348717 0.321306
0.458490 0.395310 0.367928
0.511203 0.436284 0.404300
0.582035 0.454474 0.380879
0.658832 0.473426 0.352915
0.762840 0.512368 0.343562
0.845498 0.555017 0.357834
0.407144 0.352915 0.327319
0.444233 0.387108 0.359895
0.494491 0.430815 0.407836
0.539811 0.467684 0.438525
0.619801 0.490646 0.419368
0.714824 0.520056 0.396826
0.801895 0.552579 0.380225
0.871620 0.598192 0.398230
0.447054 0.390335 0.365699
0.483894 0.423444 0.400386
0.530568 0.465824 0.442754
0.581195 0.509842 0.485071
0.658017 0.527206 0.454910
0.760204 0.557673 0.430897
0.843057 0.601047 0.425986
0.888625 0.634139 0.431617
0.486130 0.429587 0.406163
0.518968 0.459031 0.439502
0.564567 0.503721 0.484884
0.620539 0.550434 0.528428
0.702132 0.568126 0.498399
0.805431 0.604787 0.478164
0.870566 0.640263 0.469302
0.898205 0.671070 0.477618
0.237757 0.197648 0.183899
0.273961 0.230698 0.211083
0.324788 0.264493 0.242172
0.374345 0.293817 0.275035
0.425140 0.333357 0.310157
0.487823 0.372055 0.332523
0.543715 0.394400 0.315694
0.649450 0.442497 0.311874
0.275092 0.239902 0.216189
0.316699 0.274295 0.252128
0.368621 0.305270 0.285672
0.426776 0.343448 0.323395
0.480197 0.384110 0.355201
0.532485 0.412087 0.361367
0.597825 0.435757 0.342826
0.704291 0.478354 0.335305
0.314311 0.277232 0.250366
0.358185 0.309670 0.285948
0.412649 0.349192 0.330815
0.469728 0.391497 0.368905
0.521074 0.425650 0.399552
0.569247 0.446696 0.393801
0.649261 0.479425 0.382356
0.750343 0.512506 0.362770
0.355255 0.312049 0.284678
0.398636 0.343045 0.321493
0.453453 0.393531 0.371791
0.499715 0.431627 0.412429
0.551687 0.460828 0.435030
0.605666 0.481522 0.425978
0.692479 0.513912 0.407657
0.791875 0.549928 0.401195
0.389949 0.340522 0.316406
0.434085 0.379052 0.356405
0.487017 0.425271 0.404724
0.536468 0.464144 0.447475
0.589554 0.507711 0.486897
0.643005 0.519373 0.464316
0.731344 0.544340 0.436763
0.825060 0.587382 0.433810
0.438412 0.387255 0.365056
0.476823 0.417703 0.397687
0.524941 0.461198 0.445763
0.575155 0.511285 0.495723
0.624131 0.549058 0.528866
0.694265 0.569376 0.509074
0.774527 0.585916 0.474330
0.851503 0.629871 0.477582
0.485491 0.429513 0.408840
0.520084 0.462296 0.446129
0.565183 0.504578 0.488038
0.614065 0.550132 0.532489
0.665274 0.588154 0.567189
0.742628 0.609503 0.545953
0.818725 0.635965 0.521954
0.869809 0.667881 0.519525
0.507987 0.453247 0.434152
0.555457 0.495779 0.480789
0.602651 0.541261 0.524593
0.652002 0.585067 0.570216
0.709682 0.629283 0.607431
0.782685 0.650605 0.586342
0.850763 0.681819 0.571613
0.882634 0.711975 0.578314
0.276101 0.230442 0.213540
0.315121 0.268993 0.248397
0.363726 0.298012 0.278624
0.416131 0.333263 0.311939
0.461356 0.367839 0.349929
0.503614 0.405007 0.385010
0.549570 0.440182 0.409658
0.626299 0.482008 0.417112
0.313815 0.275760 0.249992
0.357174 0.305993 0.282790
0.399816 0.337354 0.318436
0.455034 0.376110 0.354147
0.501313 0.411505 0.394798
0.554629 0.453225 0.433278
0.609177 0.491830 0.453476
0.682813 0.522794 0.447782
0.355979 0.310157 0.285598
0.399232 0.343211 0.321662
0.445316 0.382932 0.362414
0.493994 0.422980 0.406175
0.540821 0.458254 0.440053
0.594173 0.495038 0.476776
0.648735 0.529198 0.487910
0.724961 0.557382 0.472280
0.394294 0.344582 0.322896
0.440059 0.383804 0.365329
0.483122 0.418540 0.402453
0.529807 0.462196 0.446899
0.582022 0.503400 0.486301
0.631920 0.537902 0.520027
0.687805 0.562178 0.516785
0.772003 0.598765 0.505940
0.431263 0.378162 0.358937
0.471817 0.413457 0.396990
0.520548 0.456108 0.440256
0.569967 0.504686 0.491892
0.617236 0.547737 0.533623
0.667942 0.578008 0.558779
0.722675 0.595726 0.544232
0.805326 0.630787 0.532621
0.464960 0.411607 0.392057
0.511512 0.451157 0.435543
0.560731 0.499769 0.486244
0.610407 0.546815 0.533803
0.662949 0.590714 0.578636
0.707312 0.626603 0.608083
0.760844 0.634946 0.584154
0.828247 0.661044 0.564619
0.502869 0.448128 0.429351
0.549706 0.489844 0.476456
0.602102 0.542747 0.531674
0.657034 0.589901 0.577051
0.704321 0.631682 0.617933
0.744655 0.663112 0.645679
0.804319 0.682717 0.628450
0.853425 0.715215 0.627138
0.533853 0.479616 0.462780
0.594364 0.532527 0.521753
0.645348 0.580358 0.567961
0.697578 0.626778 0.613766
0.748508 0.671964 0.657471
0.784850 0.707740 0.690731
0.840376 0.733355 0.678332
0.870634 0.760521 0.682740
0.309526 0.269795 0.246965
0.346173 0.296758 0.275637
0.391808 0.331290 0.314685
0.446126 0.367880 0.346861
0.489088 0.396142 0.379769
0.528441 0.433513 0.415586
0.585078 0.484002 0.468362
0.650300 0.539484 0.511841
0.349160 0.302296 0.279352
0.394584 0.336979 0.319997
0.437070 0.373976 0.357335
0.487786 0.413457 0.394308
0.531887 0.447292 0.429410
0.586884 0.489765 0.475069
0.637723 0.536134 0.519409
0.684015 0.569321 0.537131
0.398070 0.344648 0.327380
0.436711 0.380114 0.362272
0.477944 0.415318 0.400064
0.525713 0.457344 0.440335
0.575829 0.499156 0.484624
0.627739 0.541176 0.527444
0.677998 0.580012 0.561469
0.728088 0.609462 0.571628
0.435527 0.380786 0.362749
0.477092 0.417961 0.400826
0.519146 0.457146 0.441357
0.567066 0.502327 0.490279
0.617565 0.544816 0.532707
0.666606 0.585662 0.572042
0.718272 0.619820 0.599607
0.762968 0.643705 0.602525
0.471592 0.415842 0.398461
0.509245 0.450114 0.434864
0.559790 0.497812 0.485203
0.609689 0.547524 0.535076
0.657054 0.589343 0.577163
0.708805 0.627002 0.613197
0.749466 0.657566 0.639143
0.794318 0.680629 0.637413
0.496025 0.439486 0.421197
0.548243 0.487918 0.475465
0.601805 0.539850 0.527511
0.650744 0.586291 0.575058
0.703080 0.632951 0.621147
0.743748 0.668773 0.657781
0.781328 0.698981 0.683333
0.824631 0.722508 0.680079
0.518119 0.466315 0.450134
0.582937 0.524128 0.511144
0.643150 0.579688 0.568928
0.699941 0.631020 0.619403
0.745852 0.671649 0.662522
0.783978 0.711283 0.701869
0.815391 0.748044 0.736171
0.845800 0.761218 0.726817
0.574833 0.516813 0.503622
0.635299 0.573133 0.563330
0.691237 0.623705 0.612960
0.744856 0.670941 0.661164
0.786969 0.715283 0.704453
0.817365 0.754149 0.746329
0.839989 0.783645 0.773119
0.860488 0.795298 0.768363
0.347239 0.302084 0.276858
0.394929 0.340152 0.320524
0.431670 0.364418 0.347011
0.472687 0.397639 0.381657
0.520767 0.433184 0.416807
0.566264 0.473183 0.455521
0.618832 0.524507 0.508866
0.678082 0.572091 0.551779
0.385571 0.334980 0.311394
0.428667 0.370007 0.352477
0.475852 0.414715 0.397160
0.516883 0.446409 0.431938
0.562678 0.486004 0.472268
0.620647 0.531586 0.518460
0.666281 0.569065 0.550997
0.706164 0.601681 0.581465
0.433969 0.377690 0.362326
0.472388 0.413833 0.394414
0.512465 0.449141 0.434012
0.560910 0.494922 0.481183
0.611142 0.540431 0.528352
0.660565 0.580760 0.568257
0.713821 0.622158 0.607581
0.756295 0.658131 0.638638
0.470506 0.413999 0.397602
0.510978 0.452598 0.436276
0.557607 0.497353 0.484072
0.604933 0.542097 0.530977
0.656988 0.584260 0.572163
0.705276 0.627059 0.613193
0.756721 0.671293 0.657541
0.790704 0.702954 0.686841
0.502128 0.448698 0.429603
0.549876 0.491189 0.476613
0.594724 0.535328 0.525188
0.645765 0.579847 0.569013
0.699133 0.628179 0.614655
0.749689 0.671966 0.660235
0.784975 0.708083 0.696700
0.815817 0.744209 0.730467
0.523945 0.468512 0.451676
0.588362 0.527058 0.516471
0.640197 0.576660 0.564865
0.695198 0.625224 0.611468
0.745509 0.672128 0.661433
0.783441 0.714412 0.704671
0.818134 0.752031 0.744674
0.841330 0.779829 0.768877
0.562399 0.506722 0.492449
0.632167 0.569629 0.561002
0.689783 0.622472 0.610108
0.743404 0.670888 0.658646
0.785509 0.714735 0.704521
0.818292 0.755425 0.747605
0.838741 0.787124 0.780586
0.853298 0.806041 0.799112
0.614556 0.553342 0.543377
0.677749 0.612036 0.602388
0.738251 0.666209 0.655322
0.781704 0.711755 0.702206
0.817905 0.754152 0.746923
0.842223 0.791166 0.784768
0.856391 0.814217 0.810307
0.864524 0.830664 0.826754
